isdrw/probabilistic-benchmark-forecasts/results/gauss_quantiles_prediction/fitted_mean/gauss_prediction_arima_auto_2026-02-15_11-28.csv
"country","target","tau","target_year","target_quarter","forecast_year","forecast_quarter","horizon","lower_bound","upper_bound","truth_value","prediction","covered","IS"
"CAN","cpi",0.1,1959,3,1959,NA,0,1.17051162395006,1.21039699498226,1.19382698397654,1.24991216431293,TRUE,0.0398853710322067
"CAN","cpi",0.1,1959,3,1959,NA,0.5,0.5294082718852,0.987151084854299,1.19382698397654,0.437839731590327,FALSE,0.917022588796303
"CAN","cpi",0.1,1959,3,1958,NA,1,-0.431014309920978,0.367118401435298,1.19382698397654,1.75862762885946,FALSE,2.63526289478126
"CAN","cpi",0.1,1959,3,1958,NA,1.5,1.39884998742031,3.02881605004925,1.19382698397654,1.77407172713766,FALSE,2.08557273694843
"CAN","cpi",0.1,1960,3,1960,NA,0,0.968546896276972,1.00368464527365,1.34209404870695,1.02361304259477,FALSE,0.78715864551513
"CAN","cpi",0.1,1960,3,1960,NA,0.5,0.729805267468838,1.18546029863344,1.34209404870695,0.53898348018166,FALSE,0.803730031327958
"CAN","cpi",0.1,1960,3,1959,NA,1,1.40987306016962,2.06657429634203,1.34209404870695,3.95759373689442,FALSE,0.80732126164501
"CAN","cpi",0.1,1960,3,1959,NA,1.5,-1.93817068116895,-0.409449013148319,1.34209404870695,-0.873476815404885,FALSE,5.42103958325457
"CAN","cpi",0.1,1961,3,1961,NA,0,0.98663029030583,1.0298288635147,1.00921348094007,1.00921348094007,TRUE,0.0431985732088654
"CAN","cpi",0.1,1961,3,1961,NA,0.5,1.653771984387,1.98578777267713,1.00921348094007,1.00921348094007,FALSE,1.7643680181722
"CAN","cpi",0.1,1961,3,1960,NA,1,-2.05607499480476,-1.50788264875295,1.00921348094007,0.0537704626035329,FALSE,6.14173930092519
"CAN","cpi",0.1,1961,3,1960,NA,1.5,-1.05693325832848,0.385803336335919,1.00921348094007,-0.862181798940035,FALSE,2.82809247156251
"CAN","cpi",0.1,1962,3,1962,NA,0,1.05976699398364,1.09832333623966,1.04957947883042,1.10232402731478,FALSE,0.0611952648187364
"CAN","cpi",0.1,1962,3,1962,NA,0.5,0.390186671895702,0.672575210112452,1.04957947883042,0,FALSE,1.12017580203444
"CAN","cpi",0.1,1962,3,1961,NA,1,-1.81073843883189,-1.23075936904054,1.04957947883042,0,FALSE,5.64739873172681
"CAN","cpi",0.1,1962,3,1961,NA,1.5,0.986083029490113,2.17664866080221,1.04957947883042,0,TRUE,1.1905656313121
"CAN","cpi",0.1,1963,3,1963,NA,0,1.87074184202665,1.90935009250602,1.60677118395228,1.91491729531202,FALSE,0.625209712866853
"CAN","cpi",0.1,1963,3,1963,NA,0.5,1.23416711267035,1.51735317500447,1.60677118395228,0.836828714617504,FALSE,0.481892748884818
"CAN","cpi",0.1,1963,3,1962,NA,1,0.63360692584483,1.15406421786103,1.60677118395228,2.56411490415144,FALSE,1.52647277221898
"CAN","cpi",0.1,1963,3,1962,NA,1.5,0.154323272692766,1.0055590864382,1.60677118395228,0,FALSE,2.18726269711006
"CAN","cpi",0.1,1964,3,1964,NA,0,1.91001685640586,1.95308694015467,1.88764670034376,1.98877256446048,FALSE,0.0927815416645886
"CAN","cpi",0.1,1964,3,1964,NA,0.5,2.16988519602208,2.29674886010996,1.88764670034376,1.38369006227607,FALSE,0.754060321150806
"CAN","cpi",0.1,1964,3,1963,NA,1,3.93789507882579,4.35279841416692,1.88764670034376,5.39044290347256,FALSE,4.97101084307898
"CAN","cpi",0.1,1964,3,1963,NA,1.5,0.816746990480487,1.54418045532068,1.88764670034376,0,FALSE,1.49069178711371
"CAN","cpi",0.1,1965,3,1965,NA,0,2.26307657690258,2.30626428627018,2.29538304394236,2.34557047418999,TRUE,0.0431877093675999
"CAN","cpi",0.1,1965,3,1965,NA,0.5,2.36231844632642,2.49157322067148,2.29538304394236,1.61079447956654,FALSE,0.278000112976315
"CAN","cpi",0.1,1965,3,1964,NA,1,0.68242815118332,1.06657756336982,2.29538304394236,2.42518862179847,FALSE,3.11482825790324
"CAN","cpi",0.1,1965,3,1964,NA,1.5,2.60995982503692,2.99410923722343,2.29538304394236,0.818102552316399,FALSE,1.08320892572998
"CAN","cpi",0.1,1966,3,1966,NA,0,3.75558584534204,3.79649170229706,3.72486065470629,3.82010987863709,FALSE,0.109184058367806
"CAN","cpi",0.1,1966,3,1966,NA,0.5,4.71408409480052,4.84273883997568,3.72486065470629,3.99123398895563,FALSE,2.32692905649566
"CAN","cpi",0.1,1966,3,1965,NA,1,1.70116063247618,2.08627908184722,3.72486065470629,3.20722068745854,FALSE,4.0264108335023
"CAN","cpi",0.1,1966,3,1965,NA,1.5,3.35668742304093,3.74180587241196,3.72486065470629,1.60663824631958,TRUE,0.385118449371038
"CAN","cpi",0.1,1967,3,1967,NA,0,3.68955178911324,3.72974779450509,3.49360316391996,3.76768849328632,FALSE,0.475637394710258
"CAN","cpi",0.1,1967,3,1967,NA,0.5,3.01035013104688,3.15873387646238,3.49360316391996,2.4074547441976,FALSE,0.892537717543461
"CAN","cpi",0.1,1967,3,1966,NA,1,2.02487793655703,2.40367539848459,3.49360316391996,3.18103323070284,FALSE,2.80085916289506
"CAN","cpi",0.1,1967,3,1966,NA,1.5,6.40894090987815,6.7877383718057,3.49360316391996,4.65128160487248,FALSE,6.85732578627908
"CAN","cpi",0.1,1968,3,1968,NA,0,4.09045452246198,4.13176970736283,3.95128347779386,4.17287945672396,FALSE,0.350584173052236
"CAN","cpi",0.1,1968,3,1968,NA,0.5,4.60712086240002,4.7161749947413,3.95128347779386,4.07097205779852,FALSE,1.56647054257719
"CAN","cpi",0.1,1968,3,1967,NA,1,4.66532881127853,5.0678811349965,3.95128347779386,5.84521682123848,FALSE,1.9893197314617
"CAN","cpi",0.1,1968,3,1967,NA,1.5,3.60355752090541,4.00610984462338,3.95128347779386,2.25565858240226,TRUE,0.40255232371797
"CAN","cpi",0.1,1969,3,1969,NA,0,4.38121858770484,4.42349137819451,4.42679496126681,4.46896837073893,FALSE,0.0496140862058982
"CAN","cpi",0.1,1969,3,1969,NA,0.5,3.39706969729058,3.51166610081487,4.42679496126681,2.96612019395715,FALSE,2.14821609341751
"CAN","cpi",0.1,1969,3,1968,NA,1,5.75657247302903,6.07173197066441,4.42679496126681,6.72487630040807,FALSE,3.27022063488475
"CAN","cpi",0.1,1969,3,1968,NA,1.5,5.39570270860467,5.71086220624005,4.42679496126681,4.31664452944541,FALSE,2.46828782505284
"CAN","cpi",0.1,1970,3,1970,NA,0,3.42668800221406,3.46673284207649,3.28128405769805,3.52697515579364,FALSE,0.363164716564687
"CAN","cpi",0.1,1970,3,1970,NA,0.5,5.20062868169157,5.3300523409919,3.28128405769805,4.65371085276917,FALSE,4.39463393484149
"CAN","cpi",0.1,1970,3,1969,NA,1,3.5361714345033,3.85932640921294,3.28128405769805,4.52747875087707,FALSE,0.889571367610196
"CAN","cpi",0.1,1970,3,1969,NA,1.5,3.0358263082247,3.35898128293433,3.28128405769805,2.07973847283129,TRUE,0.323154974709638
"CAN","cpi",0.1,1971,3,1971,NA,0,2.720973341777,2.76266990353112,2.64123406634756,2.8393232579169,FALSE,0.218894951597319
"CAN","cpi",0.1,1971,3,1971,NA,0.5,2.38905169952115,2.58106655946915,2.64123406634756,2.06692165705507,FALSE,0.325720430788913
"CAN","cpi",0.1,1971,3,1970,NA,1,1.59652365919223,1.90224674747683,2.64123406634756,2.64105994583495,FALSE,1.94791713021956
"CAN","cpi",0.1,1971,3,1970,NA,1.5,5.76656110652222,6.07228419480682,2.64123406634756,4.63977638900468,FALSE,7.25089428867273
"CAN","cpi",0.1,1972,3,1972,NA,0,4.87313646910691,4.89890047000788,4.83230569625923,5.03048103188219,FALSE,0.116499051673589
"CAN","cpi",0.1,1972,3,1972,NA,0.5,5.36935533767763,5.55943802900691,4.83230569625923,5.06705904355972,FALSE,1.38352633892572
"CAN","cpi",0.1,1972,3,1971,NA,1,5.09468608095506,5.43137354430639,4.83230569625923,5.9169160270675,FALSE,0.919754984897615
"CAN","cpi",0.1,1972,3,1971,NA,1.5,3.82096628559971,4.15765374895105,4.83230569625923,3.09276495441271,FALSE,1.83591401292507
"CAN","cpi",0.1,1973,3,1973,NA,0,6.81854995295966,6.84178816704945,7.12388603531779,6.99264756193144,FALSE,0.650122365797212
"CAN","cpi",0.1,1973,3,1973,NA,0.5,5.75388331958219,5.94750746143809,7.12388603531779,5.47469896411854,FALSE,2.80779875047746
"CAN","cpi",0.1,1973,3,1972,NA,1,5.68938129194743,6.01317316338216,7.12388603531779,6.69062283747837,FALSE,2.79204269795835
"CAN","cpi",0.1,1973,3,1972,NA,1.5,5.45440478682528,5.77819665826002,7.12388603531779,4.73174243586486,FALSE,3.31421270934089
"CAN","cpi",0.1,1974,3,1974,NA,0,9.78316300127989,9.81396186466895,10.2717243737774,9.94431520564033,FALSE,1.04804888363011
"CAN","cpi",0.1,1974,3,1974,NA,0.5,8.66348432195798,8.8732589281023,10.2717243737774,8.3378654175141,FALSE,3.31747559653348
"CAN","cpi",0.1,1974,3,1973,NA,1,6.11768269664118,6.42581703079931,10.2717243737774,7.16712422635118,FALSE,8.8545950963317
"CAN","cpi",0.1,1974,3,1973,NA,1.5,4.88856838330126,5.22814574100134,10.2717243737774,4.05174749178054,FALSE,11.5475298749803
"CAN","cpi",0.1,1975,3,1975,NA,0,9.98357495714308,10.0268397268439,10.0232981493341,10.0931823619779,TRUE,0.0432647697007944
"CAN","cpi",0.1,1975,3,1975,NA,0.5,9.4010782682709,9.6369048481493,10.0232981493341,8.98267476097328,FALSE,1.09447836028911
"CAN","cpi",0.1,1975,3,1974,NA,1,7.0466320665146,7.46875090149348,10.0232981493341,7.7837982223054,FALSE,6.09889049684697
"CAN","cpi",0.1,1975,3,1974,NA,1.5,6.93124056830344,7.43937535098019,10.0232981493341,5.75931605308519,FALSE,6.25018544568549
"CAN","cpi",0.1,1976,3,1976,NA,0,6.96601011826399,7.00927924106941,7.22784311401172,7.07277954951717,FALSE,0.528966618232769
"CAN","cpi",0.1,1976,3,1976,NA,0.5,9.05670763294971,9.29528294307103,7.22784311401172,8.59089060438327,FALSE,4.30271868553909
"CAN","cpi",0.1,1976,3,1975,NA,1,10.2138463903066,10.6062895119658,7.22784311401172,10.4141477685142,FALSE,7.02800595787009
"CAN","cpi",0.1,1976,3,1975,NA,1.5,7.79854541467109,8.34652110221306,7.22784311401172,6.43051086134862,FALSE,1.81620302234058
"CAN","cpi",0.1,1977,3,1977,NA,0,7.46322003446772,7.50985162180717,7.58101410153764,7.55301151664772,FALSE,0.204770431184952
"CAN","cpi",0.1,1977,3,1977,NA,0.5,8.24235234973797,8.51887655345445,7.58101410153764,7.98165850021887,FALSE,1.74616475527277
"CAN","cpi",0.1,1977,3,1976,NA,1,3.21181148067823,3.66699476259312,7.58101410153764,3.72134649143602,FALSE,9.15300403512494
"CAN","cpi",0.1,1977,3,1976,NA,1.5,9.30725874223955,9.85859998892094,7.58101410153764,8.00272044475614,FALSE,4.38744044824118
"CAN","cpi",0.1,1978,3,1978,NA,0,8.59248575451059,8.63952909543131,8.50208927062595,8.67127840358843,FALSE,0.247924416219926
"CAN","cpi",0.1,1978,3,1978,NA,0.5,8.62630577694261,8.90484784138487,8.50208927062595,8.3788273181893,FALSE,0.554578745145957
"CAN","cpi",0.1,1978,3,1977,NA,1,7.29760156767424,7.84182965065589,8.50208927062595,7.54783828416051,FALSE,2.01147168291511
"CAN","cpi",0.1,1978,3,1977,NA,1.5,10.7912263290456,11.3586414118825,8.50208927062595,9.72562756342223,FALSE,5.65438632376946
"CAN","cpi",0.1,1979,3,1979,NA,0,8.49562961547182,8.5404282676524,8.65147652410481,8.56376390232469,FALSE,0.291572555408155
"CAN","cpi",0.1,1979,3,1979,NA,0.5,8.45855843207091,8.73185598243404,8.65147652410481,8.29599284966764,TRUE,0.273297550363136
"CAN","cpi",0.1,1979,3,1978,NA,1,9.00924861915112,9.55740532344515,8.65147652410481,9.20311500508918,FALSE,1.34320580439693
"CAN","cpi",0.1,1979,3,1978,NA,1.5,9.61523645341865,10.1843398452064,8.65147652410481,8.55646910152924,FALSE,2.71079212359631
"CAN","cpi",0.1,1980,3,1980,NA,0,9.46476224065218,9.50814020736313,9.5171912664748,9.50406722106931,FALSE,0.0634914314035401
"CAN","cpi",0.1,1980,3,1980,NA,0.5,8.7847688968771,9.05603306034746,9.5171912664748,8.57798914335092,FALSE,1.29606017708666
"CAN","cpi",0.1,1980,3,1979,NA,1,8.1166759916754,8.64530562631521,9.5171912664748,8.17875203710815,FALSE,2.46615327943889
"CAN","cpi",0.1,1980,3,1979,NA,1.5,9.30229021061647,9.87742184749852,9.5171912664748,8.39204766062112,TRUE,0.575131636882048
"CAN","cpi",0.1,1981,3,1981,NA,0,11.6771078447525,11.7204900406691,11.5813425032741,11.7113878984199,FALSE,0.256194065868468
"CAN","cpi",0.1,1981,3,1981,NA,0.5,12.3799470310854,12.6413027819571,11.5813425032741,12.2156196752767,FALSE,2.03603247934107
"CAN","cpi",0.1,1981,3,1980,NA,1,11.3355039614682,11.8295298248214,11.5813425032741,11.0496853423024,TRUE,0.494025863353265
"CAN","cpi",0.1,1981,3,1980,NA,1.5,9.34380362801319,9.91255316581787,11.5813425032741,8.33809792174894,FALSE,4.2771702877075
"CAN","cpi",0.1,1982,3,1982,NA,0,10.2343287910812,10.2748534191654,10.1124203763629,10.2566668151097,FALSE,0.31143221634694
"CAN","cpi",0.1,1982,3,1982,NA,0.5,10.3512550601761,10.590035619398,10.1124203763629,10.1085355973545,FALSE,0.769524301028845
"CAN","cpi",0.1,1982,3,1981,NA,1,12.2286741236798,12.7022121359167,10.1124203763629,11.770988683124,FALSE,5.1763241173855
"CAN","cpi",0.1,1982,3,1981,NA,1.5,14.0529150972776,14.6387139227042,10.1124203763629,12.8701250351281,FALSE,9.34245376079255
"CAN","cpi",0.1,1983,3,1983,NA,0,5.71423418939862,5.75342826534858,5.67091787896303,5.7310121416489,FALSE,0.135452543584602
"CAN","cpi",0.1,1983,3,1983,NA,0.5,5.10397007522183,5.34339561523919,5.67091787896303,4.91343016009654,FALSE,0.967252792737019
"CAN","cpi",0.1,1983,3,1982,NA,1,9.47774958199253,9.97957277644565,5.67091787896303,9.18500149866057,FALSE,8.96144920118533
"CAN","cpi",0.1,1983,3,1982,NA,1.5,10.7866167077168,11.4001787577401,5.67091787896303,9.68672301569366,FALSE,11.9817816694762
"CAN","cpi",0.1,1984,3,1984,NA,0,NA,NA,4.19799576814029,NA,NA,NA
"CAN","cpi",0.1,1984,3,1984,NA,0.5,6.13957407772083,6.37675247961207,4.19799576814029,5.85770686024457,FALSE,4.55179686762578
"CAN","cpi",0.1,1984,3,1983,NA,1,5.80194642588332,6.37471767900061,4.19799576814029,5.76553357996429,FALSE,4.1371060481018
"CAN","cpi",0.1,1984,3,1983,NA,1.5,3.44016068611024,4.16636158352511,4.19799576814029,2.9197996794717,FALSE,0.796499085448592
"CAN","cpi",0.1,1985,3,1985,NA,0,3.83955729059605,3.87637302061601,3.86444262005169,3.85417990135378,TRUE,0.0368157300199634
"CAN","cpi",0.1,1985,3,1985,NA,0.5,4.19113886797362,4.44795696865474,3.86444262005169,4.21990042382899,FALSE,0.982809762729851
"CAN","cpi",0.1,1985,3,1984,NA,1,NA,NA,3.86444262005169,NA,NA,NA
"CAN","cpi",0.1,1985,3,1984,NA,1.5,9.05353114832129,9.77084905742607,3.86444262005169,8.62999660305356,FALSE,12.2486257497039
"CAN","cpi",0.1,1986,3,1986,NA,0,3.99722852798057,4.02234047463596,4.08685396749431,4.03771389199993,FALSE,0.168475264118398
"CAN","cpi",0.1,1986,3,1986,NA,0.5,4.16754827977257,4.37989394835192,4.08685396749431,4.38219332503529,FALSE,0.391666362531035
"CAN","cpi",0.1,1986,3,1985,NA,1,2.94017699784986,3.50589893180008,4.08685396749431,3.37849976080849,FALSE,1.85673312438184
"CAN","cpi",0.1,1986,3,1985,NA,1.5,4.39805005438971,5.07516487508807,4.08685396749431,4.95309858900956,FALSE,1.36866168046592
"CAN","cpi",0.1,1987,3,1987,NA,0,NA,NA,4.23980729277887,NA,NA,NA
"CAN","cpi",0.1,1987,3,1987,NA,0.5,3.80761090347881,3.99938557874011,4.23980729277887,4.13342161080085,FALSE,0.726045150902991
"CAN","cpi",0.1,1987,3,1986,NA,1,3.08495096180973,3.62071606545062,4.23980729277887,3.66140988164798,FALSE,1.91152338659256
"CAN","cpi",0.1,1987,3,1986,NA,1.5,3.83149883505989,4.40760578513011,4.23980729277887,4.80242768143514,TRUE,0.57610695007022
"CAN","cpi",0.1,1988,3,1988,NA,0,3.8977062368679,3.91988296231194,3.92899537638065,3.9438316199536,FALSE,0.042426534485625
"CAN","cpi",0.1,1988,3,1988,NA,0.5,3.17281369411101,3.34289354102237,3.92899537638065,3.35419215340812,FALSE,1.47252836992976
"CAN","cpi",0.1,1988,3,1987,NA,1,NA,NA,3.92899537638065,NA,NA,NA
"CAN","cpi",0.1,1988,3,1987,NA,1.5,2.8059612892753,3.37026244196982,3.92899537638065,3.89461929526446,FALSE,1.8059298958297
"CAN","cpi",0.1,1989,3,1989,NA,0,4.90072030697694,4.922292280494,4.82821664544208,4.95130318392835,FALSE,0.182691221372314
"CAN","cpi",0.1,1989,3,1989,NA,0.5,4.13528795578988,4.30988794049669,4.82821664544208,4.23024942747073,FALSE,1.32644155125212
"CAN","cpi",0.1,1989,3,1988,NA,1,3.5150835991291,3.89492357634607,4.82821664544208,4.05841794603162,FALSE,2.4538245752081
"CAN","cpi",0.1,1989,3,1988,NA,1.5,1.54927695361741,2.11631938301655,4.82821664544208,2.597843559383,FALSE,6.59348079034477
"CAN","cpi",0.1,1990,3,1990,NA,0,4.43008486282805,4.44995641631349,4.64347549432717,4.4746950192663,FALSE,0.449913949071396
"CAN","cpi",0.1,1990,3,1990,NA,0.5,4.91039965719826,5.09033081047544,4.64347549432717,4.96487168902479,FALSE,0.773095959657388
"CAN","cpi",0.1,1990,3,1989,NA,1,4.87698489907873,5.25262446659139,4.64347549432717,5.43871373969076,FALSE,0.894549355849449
"CAN","cpi",0.1,1990,3,1989,NA,1.5,2.61986634188999,3.22453476351878,4.64347549432717,3.3732540002381,FALSE,3.75787004564744
"CAN","cpi",0.1,1991,3,1991,NA,0,5.57287582437531,5.59685789358812,5.4258100696218,5.61053369942382,FALSE,0.350794857553947
"CAN","cpi",0.1,1991,3,1991,NA,0.5,7.70611952329072,7.88578440876989,5.4258100696218,7.82199295477594,FALSE,5.24701922696567
"CAN","cpi",0.1,1991,3,1990,NA,1,3.07772301318104,3.45466195981632,5.4258100696218,3.66716818384097,FALSE,4.75726807953633
"CAN","cpi",0.1,1991,3,1990,NA,1.5,4.17230051707871,4.78890684686687,5.4258100696218,4.82481948664164,FALSE,2.03194682479911
"CAN","cpi",0.1,1992,3,1992,NA,0,NA,NA,1.47496888572843,NA,NA,NA
"CAN","cpi",0.1,1992,3,1992,NA,0.5,NA,NA,1.47496888572843,NA,NA,NA
"CAN","cpi",0.1,1992,3,1991,NA,1,2.21765977320454,2.6093786248672,1.47496888572843,2.76780571233213,FALSE,2.042143046054
"CAN","cpi",0.1,1992,3,1991,NA,1.5,6.45223196994493,7.06279952430739,1.47496888572843,7.14938182660169,FALSE,11.6711521859547
"CAN","cpi",0.1,1993,3,1993,NA,0,NA,NA,NA,NA,NA,NA
"CAN","cpi",0.1,1993,3,1993,NA,0.5,NA,NA,NA,NA,NA,NA
"CAN","cpi",0.1,1993,3,1992,NA,1,NA,NA,NA,NA,NA,NA
"CAN","cpi",0.1,1993,3,1992,NA,1.5,NA,NA,NA,NA,NA,NA
"CAN","cpi",0.1,1994,3,1994,NA,0,NA,NA,NA,NA,NA,NA
"CAN","cpi",0.1,1994,3,1994,NA,0.5,NA,NA,NA,NA,NA,NA
"CAN","cpi",0.1,1994,3,1993,NA,1,NA,NA,NA,NA,NA,NA
"CAN","cpi",0.1,1994,3,1993,NA,1.5,NA,NA,NA,NA,NA,NA
"CAN","cpi",0.1,1995,3,1995,NA,0,NA,NA,2.11688403676572,NA,NA,NA
"CAN","cpi",0.1,1995,3,1995,NA,0.5,1.92703412789449,2.17448929097909,2.11688403676572,2.51937811073084,TRUE,0.247455163084595
"CAN","cpi",0.1,1995,3,1994,NA,1,0.597514507461246,0.886872405387416,2.11688403676572,0.719396410821945,FALSE,3.02271707876683
"CAN","cpi",0.1,1995,3,1994,NA,1.5,-2.08800269110205,-1.43946152097975,2.11688403676572,-1.04654603924828,FALSE,8.55153129844556
"CAN","cpi",0.1,1996,3,1996,NA,0,1.39764329707901,1.42648395585882,1.55309584667184,1.42780748357026,FALSE,0.310200416142084
"CAN","cpi",0.1,1996,3,1996,NA,0.5,NA,NA,1.55309584667184,NA,NA,NA
"CAN","cpi",0.1,1996,3,1995,NA,1,NA,NA,1.55309584667184,NA,NA,NA
"CAN","cpi",0.1,1996,3,1995,NA,1.5,2.06262045608677,2.76659371991368,1.55309584667184,2.92232271175447,FALSE,1.83625017363787
"CAN","cpi",0.1,1997,3,1997,NA,0,1.72288873662809,1.75468238677946,1.60528783555959,1.73535847807117,FALSE,0.293128985859137
"CAN","cpi",0.1,1997,3,1997,NA,0.5,1.68789998222841,1.92330832160295,1.60528783555959,2.11078363597796,FALSE,0.418990887527464
"CAN","cpi",0.1,1997,3,1996,NA,1,1.30227326653338,1.56039362436301,1.60528783555959,0.984961337307556,FALSE,0.357885271599812
"CAN","cpi",0.1,1997,3,1996,NA,1.5,NA,NA,1.60528783555959,NA,NA,NA
"CAN","cpi",0.1,1998,3,1998,NA,0,0.991909396064402,1.02537729289301,0.988908029337191,1.0350847138471,FALSE,0.0401376006668546
"CAN","cpi",0.1,1998,3,1998,NA,0.5,1.23210786464626,1.46816157800635,0.988908029337191,1.68533655437107,FALSE,0.776497791824687
"CAN","cpi",0.1,1998,3,1997,NA,1,2.55667789371265,2.81410723542553,0.988908029337191,2.25159584334757,FALSE,3.74136237365835
"CAN","cpi",0.1,1998,3,1997,NA,1.5,2.03319614191071,2.66984297702241,0.988908029337191,2.38987816876076,FALSE,2.95728708527507
"CAN","cpi",0.1,1999,3,1999,NA,0,1.7314067729559,1.76244059602753,1.7107350135213,1.77618438459462,FALSE,0.0769710662596474
"CAN","cpi",0.1,1999,3,1999,NA,0.5,0.462682070826677,0.695723735196707,1.7107350135213,1.0290924799153,FALSE,2.48862228286912
"CAN","cpi",0.1,1999,3,1998,NA,1,1.87450471241399,2.17061526127279,1.7107350135213,1.85177544064205,FALSE,0.660043213064795
"CAN","cpi",0.1,1999,3,1998,NA,1.5,2.48038279555774,3.12622716390448,1.7107350135213,2.94645730787123,FALSE,2.35617277287217
"CAN","cpi",0.1,2000,3,2000,NA,0,2.65819274178756,2.6893333215581,2.6718361971244,2.7102541785615,TRUE,0.0311405797705406
"CAN","cpi",0.1,2000,3,2000,NA,0.5,1.7907108357568,2.02813955582694,2.6718361971244,2.34405201403356,FALSE,1.66786570073116
"CAN","cpi",0.1,2000,3,1999,NA,1,3.06813778896408,3.34633379573227,2.6718361971244,3.07542936781209,FALSE,1.15886621085637
"CAN","cpi",0.1,2000,3,1999,NA,1.5,1.65033111708849,2.30202034879921,2.6718361971244,2.27809035801724,FALSE,1.47350222798891
"CAN","cpi",0.1,2001,3,2001,NA,0,2.73612978949856,2.7660106327109,2.47906219852806,2.77546584984351,FALSE,0.601142156480111
"CAN","cpi",0.1,2001,3,2001,NA,0.5,1.84853291118368,2.07635340957204,2.47906219852806,2.43566755503104,FALSE,1.12272891829064
"CAN","cpi",0.1,2001,3,2000,NA,1,3.53771235368801,3.81172643425648,2.47906219852806,3.68958695319843,FALSE,2.6265699809239
"CAN","cpi",0.1,2001,3,2000,NA,1.5,2.17520764960177,2.78722208275694,2.47906219852806,3.01270789712173,TRUE,0.612014433155174
"CAN","cpi",0.1,2002,3,2002,NA,0,2.16574289570625,2.19648077614996,2.20880570551249,2.27196234986351,FALSE,0.0581266123604315
"CAN","cpi",0.1,2002,3,2002,NA,0.5,1.04622754828176,1.27845785596428,2.20880570551249,1.58345411989126,FALSE,2.2996699733452
"CAN","cpi",0.1,2002,3,2001,NA,1,2.05567892096233,2.34097281017656,2.20880570551249,2.26510423845898,TRUE,0.285293889214225
"CAN","cpi",0.1,2002,3,2001,NA,1.5,1.96961399155392,2.55759401397083,2.20880570551249,3.02058043279009,TRUE,0.58798002241691
"CAN","cpi",0.1,2003,3,2003,NA,0,2.62517866370354,2.65438778525358,2.71189071546809,2.71326702620668,FALSE,0.156993410915613
"CAN","cpi",0.1,2003,3,2003,NA,0.5,4.4599694760727,4.58975623693943,2.71189071546809,4.51432649273496,FALSE,4.01440622887697
"CAN","cpi",0.1,2003,3,2002,NA,1,3.44870164926606,3.6763721351978,2.71189071546809,3.85618281746238,FALSE,1.8650281165939
"CAN","cpi",0.1,2003,3,2002,NA,1.5,1.1735656216179,1.74733798774591,2.71189071546809,2.39402389849184,FALSE,2.7172228721773
"CAN","cpi",0.1,2004,3,2004,NA,0,1.69621203433848,1.72418428261297,1.83151661303942,1.77466852383015,FALSE,0.266488538111055
"CAN","cpi",0.1,2004,3,2004,NA,0.5,1.23976404802065,1.43327434730077,1.83151661303942,1.55260435151936,FALSE,1.07849311203267
"CAN","cpi",0.1,2004,3,2003,NA,1,1.40767704965714,1.63048313300002,1.83151661303942,1.79415792598285,FALSE,0.669547150097111
"CAN","cpi",0.1,2004,3,2003,NA,1.5,3.90308971832775,4.26182148442907,1.83151661303942,4.26699272545716,FALSE,4.96222755563093
"CAN","cpi",0.1,2005,3,2005,NA,0,2.27843334204192,2.30649265327801,2.18071628336509,2.34345353472953,FALSE,0.245208330517937
"CAN","cpi",0.1,2005,3,2005,NA,0.5,1.2488352923484,1.43542059192061,2.18071628336509,1.50321338317329,FALSE,1.84279794722661
"CAN","cpi",0.1,2005,3,2004,NA,1,1.29432291163741,1.50583101145669,2.18071628336509,1.64043962712234,FALSE,1.71125314850462
"CAN","cpi",0.1,2005,3,2004,NA,1.5,1.40824317550165,1.79033959453019,2.18071628336509,2.03393284113233,FALSE,1.24960017199499
"CAN","cpi",0.1,2006,3,2006,NA,0,2.01901809033875,2.04693903051628,1.97519342012289,2.09514376892657,FALSE,0.125309096212786
"CAN","cpi",0.1,2006,3,2006,NA,0.5,1.92315424160118,2.11111781654781,1.97519342012289,2.09436263599022,TRUE,0.187963574946633
"CAN","cpi",0.1,2006,3,2005,NA,1,2.69143825343007,2.90054669194417,1.97519342012289,2.9582912060806,FALSE,1.80076362364118
"CAN","cpi",0.1,2006,3,2005,NA,1.5,1.08979584336169,1.45492546369143,1.97519342012289,1.64885961980806,FALSE,1.52128063462186
"CAN","cpi",0.1,2007,3,2007,NA,0,2.02594433832456,2.05289129757718,2.10062087284572,2.10683622102307,FALSE,0.133012682071603
"CAN","cpi",0.1,2007,3,2007,NA,0.5,2.03828799331737,2.21652180613778,2.10062087284572,2.17629902083353,TRUE,0.178233812820411
"CAN","cpi",0.1,2007,3,2006,NA,1,1.01914274610472,1.19737655892513,2.10062087284572,1.50861692709856,FALSE,2.18544339931061
"CAN","cpi",0.1,2007,3,2006,NA,1.5,1.38473509878364,1.61322004052164,2.10062087284572,2.15918616350405,FALSE,1.31159790245819
"CAN","cpi",0.1,2008,3,2008,NA,0,2.77996065691646,2.80288187422862,2.31447335265955,2.87079455148828,FALSE,1.05733744899417
"CAN","cpi",0.1,2008,3,2008,NA,0.5,1.17001291963092,1.34743530899308,2.31447335265955,1.31005314695267,FALSE,2.3263958197321
"CAN","cpi",0.1,2008,3,2007,NA,1,1.07137588212681,1.2489598811467,2.31447335265955,1.47031049982668,FALSE,2.54539171349289
"CAN","cpi",0.1,2008,3,2007,NA,1.5,1.8233276778672,2.04745135616271,2.31447335265955,2.46453195342394,FALSE,0.81750589273293
"CAN","cpi",0.1,2009,3,2009,NA,0,0.0482505820383313,0.0897474376810551,0.284533874408197,0.187122346349721,FALSE,0.474355603925262
"CAN","cpi",0.1,2009,3,2009,NA,0.5,-0.0801456990034955,0.106519292560796,0.284533874408197,-0.0727492620466167,FALSE,0.582252951225183
"CAN","cpi",0.1,2009,3,2008,NA,1,3.43467390910479,3.62133890066908,0.284533874408197,3.81780026356951,FALSE,7.18697617977895
"CAN","cpi",0.1,2009,3,2008,NA,1.5,1.08435045916052,1.29979205438346,0.284533874408197,1.68675152630419,FALSE,1.99281178356143
"CAN","cpi",0.1,2010,3,2010,NA,0,1.48185628484016,1.52599531919029,1.75525687020327,1.6089956646354,FALSE,0.553609147712318
"CAN","cpi",0.1,2010,3,2010,NA,0.5,2.00361421743229,2.18203188919439,1.75525687020327,1.91109502526183,FALSE,0.73032288782659
"CAN","cpi",0.1,2010,3,2009,NA,1,0.368702986884145,0.623468404530954,1.75525687020327,0.992295788494754,FALSE,2.76985089691863
"CAN","cpi",0.1,2010,3,2009,NA,1.5,0.262926664235494,0.517692081882302,1.75525687020327,0.885103052815867,FALSE,3.00490939169341
"CAN","cpi",0.1,2011,3,2011,NA,0,2.75696358119135,2.80469780692684,2.85717434028225,2.86665414062098,FALSE,0.164348744303059
"CAN","cpi",0.1,2011,3,2011,NA,0.5,2.78384010288543,2.95901437499219,2.85717434028225,2.76583381894771,TRUE,0.175174272106752
"CAN","cpi",0.1,2011,3,2010,NA,1,0.845275636870717,1.11256097164549,2.85717434028225,1.39294644169719,FALSE,4.14420393174535
"CAN","cpi",0.1,2011,3,2010,NA,1.5,1.20553754166449,1.47282287643926,2.85717434028225,1.64253060592363,FALSE,3.34362192109253
"CAN","cpi",0.1,2012,3,2012,NA,0,1.42106011931732,1.46900469201922,1.50118536134935,1.52822510849394,FALSE,0.119457171213285
"CAN","cpi",0.1,2012,3,2012,NA,0.5,1.92124731220285,2.09553021055217,1.50118536134935,1.92429021972789,FALSE,1.10775390024599
"CAN","cpi",0.1,2012,3,2011,NA,1,1.60911679530916,1.9013356095311,1.50118536134935,1.99945242447079,FALSE,0.532066445243747
"CAN","cpi",0.1,2012,3,2011,NA,1.5,2.10667685138338,2.39889566560533,1.50118536134935,2.48150957397962,FALSE,1.63775545874203
"CAN","cpi",0.1,2013,3,2013,NA,0,0.975139633701687,1.02006048441498,0.931270594714462,1.05630513423211,FALSE,0.142407604018236
"CAN","cpi",0.1,2013,3,2013,NA,0.5,1.12226142305376,1.30038666009401,0.931270594714462,1.16963454554932,FALSE,0.602549300016465
"CAN","cpi",0.1,2013,3,2012,NA,1,0.763777676521889,1.05463306041508,0.931270594714462,1.08868089128742,TRUE,0.290855383893189
"CAN","cpi",0.1,2013,3,2012,NA,1.5,1.73097365023372,2.02182903412691,0.931270594714462,2.14573179530527,FALSE,2.0679732850471
"CAN","cpi",0.1,2014,3,2014,NA,0,1.91170925501575,1.95688705114509,1.87639912240215,1.99862849145116,FALSE,0.123644757492899
"CAN","cpi",0.1,2014,3,2014,NA,0.5,1.66912789514985,1.84185143010647,1.87639912240215,1.79231976082687,FALSE,0.249496184502581
"CAN","cpi",0.1,2014,3,2013,NA,1,1.0709567116337,1.36500808210339,1.87639912240215,1.40664989819898,FALSE,1.43047590446693
"CAN","cpi",0.1,2014,3,2013,NA,1.5,1.06139721820883,1.35544858867853,1.87639912240215,1.51436121777893,FALSE,1.45171922318885
"CAN","cpi",0.1,2015,3,2015,NA,0,1.11246231198442,1.15751673644053,1.11090953952792,1.2103065042478,FALSE,0.0485050299149975
"CAN","cpi",0.1,2015,3,2015,NA,0.5,0.542821783826534,0.643615403728904,1.11090953952792,0.458547315718059,FALSE,1.13922503278906
"CAN","cpi",0.1,2015,3,2014,NA,1,1.38301274914139,1.67420993606906,1.11090953952792,1.57054781428135,FALSE,0.895870986068726
"CAN","cpi",0.1,2015,3,2014,NA,1.5,1.43476974103494,1.72596692796261,1.11090953952792,1.88229109541157,FALSE,1.01088652360995
"CAN","cpi",0.1,2016,3,2016,NA,0,1.30487563305989,1.34869556468582,1.41168586698797,1.41630667471992,FALSE,0.183798381186248
"CAN","cpi",0.1,2016,3,2016,NA,0.5,1.2947098685377,1.40197584658373,1.41168586698797,1.17972158292925,FALSE,0.128843801166557
"CAN","cpi",0.1,2016,3,2015,NA,1,1.64497150438692,1.90852378932879,1.41168586698797,1.8638656605167,FALSE,0.781964812495096
"CAN","cpi",0.1,2016,3,2015,NA,1.5,0.787812447088414,1.05136473203029,1.41168586698797,1.07023002715086,FALSE,1.06426591818116
"CAN","cpi",0.1,2017,3,2017,NA,0,1.4078840458219,1.45167609971597,1.57888581671161,1.50492692646759,FALSE,0.326480313884388
"CAN","cpi",0.1,2017,3,2017,NA,0.5,2.16913810704514,2.2688297867455,1.57888581671161,2.09086618282141,FALSE,1.41136343599709
"CAN","cpi",0.1,2017,3,2016,NA,1,0.837659383504659,1.10069896900295,1.57888581671161,1.14652050352824,FALSE,1.32567702485087
"CAN","cpi",0.1,2017,3,2016,NA,1.5,1.00341710558091,1.26645669107921,1.57888581671161,1.26788084523026,FALSE,0.957326531348085
"CAN","cpi",0.1,2018,3,2018,NA,0,2.33321643019442,2.37809683761132,2.23316270166586,2.41317537496083,FALSE,0.267222026369267
"CAN","cpi",0.1,2018,3,2018,NA,0.5,2.56604833443227,2.67494937087445,2.23316270166586,2.52809119314695,FALSE,0.848646887034208
"CAN","cpi",0.1,2018,3,2017,NA,1,0.98890521582567,1.24977109506395,2.23316270166586,1.16800101916097,FALSE,2.44618056057586
"CAN","cpi",0.1,2018,3,2017,NA,1.5,1.80821360618764,2.06907948542591,2.23316270166586,2.07298402260093,FALSE,0.625495248660378
"CAN","cpi",0.1,2019,3,2019,NA,0,NA,NA,1.91921619871868,NA,NA,NA
"CAN","cpi",0.1,2019,3,2019,NA,0.5,1.48978710354431,1.60174064271799,1.91921619871868,1.47328806303322,FALSE,0.817454774730764
"CAN","cpi",0.1,2019,3,2018,NA,1,2.0965343327681,2.36157424013673,1.91921619871868,2.23470281046333,FALSE,0.659080205256231
"CAN","cpi",0.1,2019,3,2018,NA,1.5,2.07333401062604,2.33837391799467,1.91921619871868,2.32030562567512,FALSE,0.607523933829423
"CAN","cpi",0.1,2020,3,2020,NA,0,0.635768207126655,0.661372610715255,0.71139989671781,0.673588636713597,FALSE,0.136776150260945
"CAN","cpi",0.1,2020,3,2020,NA,0.5,NA,NA,0.71139989671781,NA,NA,NA
"CAN","cpi",0.1,2020,3,2019,NA,1,NA,NA,0.71139989671781,NA,NA,NA
"CAN","cpi",0.1,2020,3,2019,NA,1.5,1.53565238229846,1.74391216533153,0.71139989671781,1.77705491937904,FALSE,2.03993197321229
"CAN","cpi",0.1,2021,3,2021,NA,0,3.20950750082119,3.23366532092507,3.31148121717802,3.2525646654712,FALSE,0.197082033999336
"CAN","cpi",0.1,2021,3,2021,NA,0.5,2.11054721709299,2.20121413388108,3.31148121717802,2.16773480502693,FALSE,2.55792710189241
"CAN","cpi",0.1,2021,3,2020,NA,1,1.75735158648275,1.92636053513644,3.31148121717802,1.61070774476322,FALSE,3.24705490874609
"CAN","cpi",0.1,2021,3,2020,NA,1.5,NA,NA,3.31148121717802,NA,NA,NA
"CAN","cpi",0.1,2022,3,2022,NA,0,6.53673105684034,6.55750133920898,6.50977236228281,6.58682891800883,FALSE,0.0806784924964779
"CAN","cpi",0.1,2022,3,2022,NA,0.5,5.64494506159423,5.76927385638586,6.50977236228281,5.58900513180898,FALSE,1.76988103011819
"CAN","cpi",0.1,2022,3,2021,NA,1,3.58331988543383,3.77848075525204,6.50977236228281,3.35597076522593,FALSE,6.26469777433104
"CAN","cpi",0.1,2022,3,2021,NA,1.5,1.59264275781944,1.78780362763764,6.50977236228281,1.89458222166426,FALSE,10.6884247245853
"CAN","cpi",0.1,2023,3,2023,NA,0,3.90535826280811,3.9261321744609,3.78831288758619,3.96221561415741,FALSE,0.280874745479283
"CAN","cpi",0.1,2023,3,2023,NA,0.5,3.74416440930609,3.88232370022311,3.78831288758619,3.6121970566696,TRUE,0.138159290917018
"CAN","cpi",0.1,2023,3,2022,NA,1,5.83828998498714,6.12185437722285,3.78831288758619,5.4861852561408,FALSE,4.83906905312671
"CAN","cpi",0.1,2023,3,2022,NA,1.5,3.78937207609965,4.19316065245961,3.78831288758619,3.85557075258935,FALSE,0.40614232861209
"CAN","cpi",0.1,2024,3,2023,NA,1,4.93578063732424,5.25768834959229,NA,4.72280809903739,NA,NA
"CAN","cpi",0.1,2024,3,2023,NA,1.5,4.39726313905335,4.79085154611488,NA,4.36705509613113,NA,NA
"CAN","cpi",0.2,1959,3,1959,NA,0,1.15024766095649,1.23066095797582,1.19382698397654,1.24991216431293,TRUE,0.0804132970193301
"CAN","cpi",0.2,1959,3,1959,NA,0.5,0.296849737702713,1.21970961903679,1.19382698397654,0.437839731590327,TRUE,0.922859881334074
"CAN","cpi",0.2,1959,3,1958,NA,1,-0.836509640873645,0.772613732387965,1.19382698397654,1.75862762885946,FALSE,2.66215650223305
"CAN","cpi",0.2,1959,3,1958,NA,1.5,0.570737546214648,3.85692849125491,1.19382698397654,1.77407172713766,TRUE,3.28619094504026
"CAN","cpi",0.2,1960,3,1960,NA,0,0.95069498649354,1.02153655505708,1.34209404870695,1.02361304259477,FALSE,0.872235302688221
"CAN","cpi",0.2,1960,3,1960,NA,0.5,0.498307441313631,1.41695812478865,1.34209404870695,0.53898348018166,TRUE,0.918650683475017
"CAN","cpi",0.2,1960,3,1959,NA,1,1.07623270022716,2.40021465628449,1.34209404870695,3.95759373689442,TRUE,1.32398195605733
"CAN","cpi",0.2,1960,3,1959,NA,1.5,-2.71484539940617,0.367225705088894,1.34209404870695,-0.873476815404885,FALSE,5.5192419635402
"CAN","cpi",0.2,1961,3,1961,NA,0,0.964683038312806,1.05177611550772,1.00921348094007,1.00921348094007,TRUE,0.0870930771949138
"CAN","cpi",0.2,1961,3,1961,NA,0.5,1.48508969629304,2.1544700607711,1.00921348094007,1.00921348094007,FALSE,1.85907090286048
"CAN","cpi",0.2,1961,3,1960,NA,1,-2.33458686836305,-1.22937077519466,1.00921348094007,0.0537704626035329,FALSE,6.70167673350522
"CAN","cpi",0.2,1961,3,1960,NA,1.5,-1.78992282836731,1.11879290637475,1.00921348094007,-0.862181798940035,TRUE,2.90871573474206
"CAN","cpi",0.2,1962,3,1962,NA,0,1.04017825073207,1.11791207949122,1.04957947883042,1.10232402731478,TRUE,0.0777338287591469
"CAN","cpi",0.2,1962,3,1962,NA,0.5,0.246717757350329,0.816044124657826,1.04957947883042,0,FALSE,1.15316475273897
"CAN","cpi",0.2,1962,3,1961,NA,1,-2.10539971696823,-0.936098090904204,1.04957947883042,0,FALSE,6.13349555040057
"CAN","cpi",0.2,1962,3,1961,NA,1.5,0.381210183382358,2.78152150690996,1.04957947883042,0,TRUE,2.40031132352761
"CAN","cpi",0.2,1963,3,1963,NA,0,1.85112672654162,1.92896520799105,1.60677118395228,1.91491729531202,FALSE,0.688727337922771
"CAN","cpi",0.2,1963,3,1963,NA,0.5,1.09029301199326,1.66122727568156,1.60677118395228,0.836828714617504,TRUE,0.570934263688309
"CAN","cpi",0.2,1963,3,1962,NA,1,0.369185985730482,1.41848515797538,1.60677118395228,2.56411490415144,FALSE,1.52001423718716
"CAN","cpi",0.2,1963,3,1962,NA,1.5,-0.278151356027706,1.43803371515868,1.60677118395228,0,FALSE,2.1380287431704
"CAN","cpi",0.2,1964,3,1964,NA,0,1.88813488412808,1.97496891243245,1.88764670034376,1.98877256446048,FALSE,0.0880544877651731
"CAN","cpi",0.2,1964,3,1964,NA,0.5,2.10543147457547,2.36120258155657,1.88764670034376,1.38369006227607,FALSE,0.800233042560368
"CAN","cpi",0.2,1964,3,1963,NA,1,3.72710135632365,4.56359213666906,1.88764670034376,5.39044290347256,FALSE,5.43512742029514
"CAN","cpi",0.2,1964,3,1963,NA,1.5,0.44717076665905,1.91375667914211,1.88764670034376,0,TRUE,1.46658591248306
"CAN","cpi",0.2,1965,3,1965,NA,0,2.24113484433865,2.32820601883411,2.29538304394236,2.34557047418999,TRUE,0.0870711744954562
"CAN","cpi",0.2,1965,3,1965,NA,0.5,2.29664990930932,2.55724175768858,2.29538304394236,1.61079447956654,FALSE,0.263759011796669
"CAN","cpi",0.2,1965,3,1964,NA,1,0.487259113736983,1.26174660081616,2.29538304394236,2.42518862179847,FALSE,3.35857859489467
"CAN","cpi",0.2,1965,3,1964,NA,1.5,2.41479078759059,3.18927827466976,2.29538304394236,0.818102552316399,FALSE,1.07300684619975
"CAN","cpi",0.2,1966,3,1966,NA,0,3.73480341935215,3.81727412828696,3.72486065470629,3.82010987863709,FALSE,0.107327620549456
"CAN","cpi",0.2,1966,3,1966,NA,0.5,4.64872040561557,4.90810252916063,3.72486065470629,3.99123398895563,FALSE,2.56903150081825
"CAN","cpi",0.2,1966,3,1965,NA,1,1.50549927082329,2.28194044350012,3.72486065470629,3.20722068745854,FALSE,4.38374170069226
"CAN","cpi",0.2,1966,3,1965,NA,1.5,3.16102606138803,3.93746723406486,3.72486065470629,1.60663824631958,TRUE,0.776441172676829
"CAN","cpi",0.2,1967,3,1967,NA,0,3.66913000677375,3.75016957684458,3.49360316391996,3.76768849328632,FALSE,0.519856677205315
"CAN","cpi",0.2,1967,3,1967,NA,0.5,2.93496302424229,3.23412098326697,3.49360316391996,2.4074547441976,FALSE,0.947863410657159
"CAN","cpi",0.2,1967,3,1966,NA,1,1.8324279843087,2.59612535073291,3.49360316391996,3.18103323070284,FALSE,3.00739189939183
"CAN","cpi",0.2,1967,3,1966,NA,1.5,6.21649095762982,6.98018832405403,3.49360316391996,4.65128160487248,FALSE,7.57091685069886
"CAN","cpi",0.2,1968,3,1968,NA,0,4.06946413535422,4.15276009447059,3.95128347779386,4.17287945672396,FALSE,0.378747603017277
"CAN","cpi",0.2,1968,3,1968,NA,0.5,4.5517153629683,4.77158049417301,3.95128347779386,4.07097205779852,FALSE,1.72094484414083
"CAN","cpi",0.2,1968,3,1967,NA,1,4.4608100822386,5.27239986403644,3.95128347779386,5.84521682123848,FALSE,2.0854062929097
"CAN","cpi",0.2,1968,3,1967,NA,1.5,3.39903879186547,4.21062857366332,3.95128347779386,2.25565858240226,TRUE,0.811589781797842
"CAN","cpi",0.2,1969,3,1969,NA,0,4.35974168427011,4.44496828162924,4.42679496126681,4.46896837073893,TRUE,0.0852265973591351
"CAN","cpi",0.2,1969,3,1969,NA,0.5,3.3388484191599,3.56988737894555,4.42679496126681,2.96612019395715,FALSE,2.37330791558882
"CAN","cpi",0.2,1969,3,1968,NA,1,5.59645410802758,6.23185033566586,4.42679496126681,6.72487630040807,FALSE,3.5595440945402
"CAN","cpi",0.2,1969,3,1968,NA,1.5,5.23558434360322,5.8709805712415,4.42679496126681,4.31664452944541,FALSE,2.65736968347929
"CAN","cpi",0.2,1970,3,1970,NA,0,3.40634302028071,3.48707782400985,3.28128405769805,3.52697515579364,FALSE,0.393382210185792
"CAN","cpi",0.2,1970,3,1970,NA,0.5,5.13487434182507,5.3958066808584,3.28128405769805,4.65371085276917,FALSE,4.89490804935089
"CAN","cpi",0.2,1970,3,1969,NA,1,3.37199092723376,4.02350691648247,3.28128405769805,4.52747875087707,FALSE,0.878283163087996
"CAN","cpi",0.2,1970,3,1969,NA,1.5,2.87164580095516,3.52316179020387,3.28128405769805,2.07973847283129,TRUE,0.651515989248714
"CAN","cpi",0.2,1971,3,1971,NA,0,2.69978919424427,2.78385405106386,2.64123406634756,2.8393232579169,FALSE,0.23045267656135
"CAN","cpi",0.2,1971,3,1971,NA,0.5,2.29149758593253,2.67862067305777,2.64123406634756,2.06692165705507,TRUE,0.387123087125245
"CAN","cpi",0.2,1971,3,1970,NA,1,1.44119950933603,2.05757089733303,2.64123406634756,2.64105994583495,FALSE,2.07552931053333
"CAN","cpi",0.2,1971,3,1970,NA,1.5,5.61123695666602,6.22760834466302,2.64123406634756,4.63977638900468,FALSE,8.04137861379315
"CAN","cpi",0.2,1972,3,1972,NA,0,4.8600469391035,4.91199000001129,4.83230569625923,5.03048103188219,FALSE,0.121296168018461
"CAN","cpi",0.2,1972,3,1972,NA,0.5,5.27278287205602,5.65601049462852,4.83230569625923,5.06705904355972,FALSE,1.48442056206447
"CAN","cpi",0.2,1972,3,1971,NA,1,4.92363032489256,5.60242930036889,4.83230569625923,5.9169160270675,FALSE,0.90711054705965
"CAN","cpi",0.2,1972,3,1971,NA,1.5,3.64991052953721,4.32870950501355,4.83230569625923,3.09276495441271,FALSE,1.93778945359054
"CAN","cpi",0.2,1973,3,1973,NA,0,6.80674366162614,6.85359445838297,7.12388603531779,6.99264756193144,FALSE,0.722579739093879
"CAN","cpi",0.2,1973,3,1973,NA,0.5,5.65551160224102,6.04587917877926,7.12388603531779,5.47469896411854,FALSE,3.08538471788456
"CAN","cpi",0.2,1973,3,1972,NA,1,5.52487720609922,6.17767724923037,7.12388603531779,6.69062283747837,FALSE,3.0183220083497
"CAN","cpi",0.2,1973,3,1972,NA,1.5,5.28990070097708,5.94270074410823,7.12388603531779,4.73174243586486,FALSE,3.60576327115505
"CAN","cpi",0.2,1974,3,1974,NA,0,9.76751548411236,9.82960938183647,10.2717243737774,9.94431520564033,FALSE,1.16738137757647
"CAN","cpi",0.2,1974,3,1974,NA,0.5,8.55690728015322,8.97983596990705,10.2717243737774,8.3378654175141,FALSE,3.65264969942975
"CAN","cpi",0.2,1974,3,1973,NA,1,5.9611335012135,6.58236622622699,10.2717243737774,7.16712422635118,FALSE,9.84462809388956
"CAN","cpi",0.2,1974,3,1973,NA,1.5,4.71604440190643,5.40066972239616,10.2717243737774,4.05174749178054,FALSE,12.8622619489429
"CAN","cpi",0.2,1975,3,1975,NA,0,9.96159407369,10.048820610297,10.0232981493341,10.0931823619779,TRUE,0.0872265366069591
"CAN","cpi",0.2,1975,3,1975,NA,0.5,9.28126539041914,9.75671772600106,10.0232981493341,8.98267476097328,FALSE,1.14190339391457
"CAN","cpi",0.2,1975,3,1974,NA,1,6.83217247319679,7.6832104948113,10.0232981493341,7.7837982223054,FALSE,6.70125715792157
"CAN","cpi",0.2,1975,3,1974,NA,1.5,6.67308014092297,7.69753577836066,10.0232981493341,5.75931605308519,FALSE,6.83886156487134
"CAN","cpi",0.2,1976,3,1976,NA,0,6.94402702319425,7.03126233613915,7.22784311401172,7.07277954951717,FALSE,0.578687257626314
"CAN","cpi",0.2,1976,3,1976,NA,0.5,8.9354982488983,9.41649232712244,7.22784311401172,8.59089060438327,FALSE,4.7501319154406
"CAN","cpi",0.2,1976,3,1975,NA,1,10.0144636921249,10.8056722101475,7.22784311401172,10.4141477685142,FALSE,7.75775996330561
"CAN","cpi",0.2,1976,3,1975,NA,1.5,7.52014361555644,8.62492290132771,7.22784311401172,6.43051086134862,FALSE,1.83553053963308
"CAN","cpi",0.2,1977,3,1977,NA,0,7.43952862241054,7.53354303386435,7.58101410153764,7.55301151664772,FALSE,0.212692080637049
"CAN","cpi",0.2,1977,3,1977,NA,0.5,8.10186283977679,8.65936606341564,7.58101410153764,7.98165850021887,FALSE,1.85962506923671
"CAN","cpi",0.2,1977,3,1976,NA,1,2.98055332909771,3.89825291417364,7.58101410153764,3.72134649143602,FALSE,10.1246025534859
"CAN","cpi",0.2,1977,3,1976,NA,1.5,9.02714705390765,10.1387116772528,7.58101410153764,8.00272044475614,FALSE,4.7268970042702
"CAN","cpi",0.2,1978,3,1978,NA,0,8.56858514897928,8.66342970096262,8.50208927062595,8.67127840358843,FALSE,0.26108424786667
"CAN","cpi",0.2,1978,3,1978,NA,0.5,8.48479108270922,9.04636253561826,8.50208927062595,8.3788273181893,TRUE,0.561571452909035
"CAN","cpi",0.2,1978,3,1977,NA,1,7.02110375787094,8.11832746045919,8.50208927062595,7.54783828416051,FALSE,2.05662822800515
"CAN","cpi",0.2,1978,3,1977,NA,1.5,10.5029482475577,11.6469194933704,8.50208927062595,9.72562756342223,FALSE,6.14611868814209
"CAN","cpi",0.2,1979,3,1979,NA,0,8.47286943532418,8.56318844780004,8.65147652410481,8.56376390232469,FALSE,0.31103920323778
"CAN","cpi",0.2,1979,3,1979,NA,0.5,8.31970823954499,8.87070617495996,8.65147652410481,8.29599284966764,TRUE,0.550997935414976
"CAN","cpi",0.2,1979,3,1978,NA,1,8.7307548535668,9.83589908902946,8.65147652410481,9.20311500508918,FALSE,1.30334005911763
"CAN","cpi",0.2,1979,3,1978,NA,1.5,9.32610061809232,10.4734756805327,8.65147652410481,8.55646910152924,FALSE,2.83393529740921
"CAN","cpi",0.2,1980,3,1980,NA,0,9.44272384688979,9.53017860112552,9.5171912664748,9.50406722106931,TRUE,0.0874547542357291
"CAN","cpi",0.2,1980,3,1980,NA,0.5,8.64695177677048,9.19385018045408,9.5171912664748,8.57798914335092,FALSE,1.35525111873539
"CAN","cpi",0.2,1980,3,1979,NA,1,7.84810305186268,8.91387856612793,9.5171912664748,8.17875203710815,FALSE,2.57405726513241
"CAN","cpi",0.2,1980,3,1979,NA,1.5,9.01009169510577,10.1696203630092,9.5171912664748,8.39204766062112,TRUE,1.15952866790344
"CAN","cpi",0.2,1981,3,1981,NA,0,11.655067302321,11.7425305831006,11.5813425032741,11.7113878984199,FALSE,0.271775278396689
"CAN","cpi",0.2,1981,3,1981,NA,0.5,12.2471639297437,12.7740858832987,11.5813425032741,12.2156196752767,FALSE,2.19147551972891
"CAN","cpi",0.2,1981,3,1980,NA,1,11.0845116413825,12.0805221449071,11.5813425032741,11.0496853423024,TRUE,0.996010503524687
"CAN","cpi",0.2,1981,3,1980,NA,1.5,9.05484756997945,10.2015092238516,11.5813425032741,8.33809792174894,FALSE,4.59624485242849
"CAN","cpi",0.2,1982,3,1982,NA,0,10.213740050333,10.2954421599136,10.1124203763629,10.2566668151097,FALSE,0.335001294505683
"CAN","cpi",0.2,1982,3,1982,NA,0.5,10.2299413982886,10.7113492812854,10.1124203763629,10.1085355973545,FALSE,0.775210437811
"CAN","cpi",0.2,1982,3,1981,NA,1,11.9880907592111,12.9427955003854,10.1124203763629,11.770988683124,FALSE,5.64388069829471
"CAN","cpi",0.2,1982,3,1981,NA,1.5,13.7552970630733,14.9363319569085,10.1124203763629,12.8701250351281,FALSE,10.2882266106111
"CAN","cpi",0.2,1983,3,1983,NA,0,5.69432144234218,5.77334101240503,5.67091787896303,5.7310121416489,FALSE,0.13752847851071
"CAN","cpi",0.2,1983,3,1983,NA,0.5,4.98232872760324,5.46503696285778,5.67091787896303,4.91343016009654,FALSE,0.99741052551768
"CAN","cpi",0.2,1983,3,1982,NA,1,9.22279578869579,10.2345265697424,5.67091787896303,9.18500149866057,FALSE,9.89142555537848
"CAN","cpi",0.2,1983,3,1982,NA,1.5,10.4748934278735,11.7119020375834,5.67091787896303,9.68672301569366,FALSE,13.2469474819861
"CAN","cpi",0.2,1984,3,1984,NA,0,NA,NA,4.19799576814029,NA,NA,NA
"CAN","cpi",0.2,1984,3,1984,NA,0.5,6.01907439990875,6.49725215742415,4.19799576814029,5.85770686024457,FALSE,5.03087433693656
"CAN","cpi",0.2,1984,3,1983,NA,1,5.51094711519438,6.66571698968955,4.19799576814029,5.76553357996429,FALSE,4.4371482421304
"CAN","cpi",0.2,1984,3,1983,NA,1.5,3.07121067435723,4.53531159527813,4.19799576814029,2.9197996794717,TRUE,1.4641009209209
"CAN","cpi",0.2,1985,3,1985,NA,0,3.82085287412959,3.89507743708247,3.86444262005169,3.85417990135378,TRUE,0.0742245629528746
"CAN","cpi",0.2,1985,3,1985,NA,0.5,4.06066114259214,4.57843469403623,3.86444262005169,4.21990042382899,FALSE,1.0083198577952
"CAN","cpi",0.2,1985,3,1984,NA,1,NA,NA,3.86444262005169,NA,NA,NA
"CAN","cpi",0.2,1985,3,1984,NA,1.5,8.68909418337539,10.135286022372,3.86444262005169,8.62999660305356,FALSE,13.5078207473058
"CAN","cpi",0.2,1986,3,1986,NA,0,3.98447027741019,4.03509872520633,4.08685396749431,4.03771389199993,FALSE,0.180016553516087
"CAN","cpi",0.2,1986,3,1986,NA,0.5,4.05966499678994,4.48777723133455,4.08685396749431,4.38219332503529,TRUE,0.428112234544617
"CAN","cpi",0.2,1986,3,1985,NA,1,2.65275912915417,3.79331680049577,4.08685396749431,3.37849976080849,FALSE,1.87440058883795
"CAN","cpi",0.2,1986,3,1985,NA,1.5,4.05403847034441,5.41917645913337,4.08685396749431,4.95309858900956,TRUE,1.36513798878896
"CAN","cpi",0.2,1987,3,1987,NA,0,NA,NA,4.23980729277887,NA,NA,NA
"CAN","cpi",0.2,1987,3,1987,NA,0.5,3.71017881692609,4.09681766529283,4.23980729277887,4.13342161080085,FALSE,0.744112917081844
"CAN","cpi",0.2,1987,3,1986,NA,1,2.81275281114808,3.89291421611228,4.23980729277887,3.66140988164798,FALSE,1.94739409663069
"CAN","cpi",0.2,1987,3,1986,NA,1.5,3.53880480678747,4.70029981340253,4.23980729277887,4.80242768143514,TRUE,1.16149500661506
"CAN","cpi",0.2,1988,3,1988,NA,0,3.88643924016995,3.93114995900989,3.92899537638065,3.9438316199536,TRUE,0.0447107188399336
"CAN","cpi",0.2,1988,3,1988,NA,0.5,3.08640377401827,3.42930346111512,3.92899537638065,3.35419215340812,FALSE,1.59212947526069
"CAN","cpi",0.2,1988,3,1987,NA,1,NA,NA,3.92899537638065,NA,NA,NA
"CAN","cpi",0.2,1988,3,1987,NA,1.5,2.51926525562947,3.65695847561565,3.92899537638065,3.89461929526446,FALSE,1.81778547189869
"CAN","cpi",0.2,1989,3,1989,NA,0,4.88976055753159,4.93325202993936,4.82821664544208,4.95130318392835,FALSE,0.197351252631542
"CAN","cpi",0.2,1989,3,1989,NA,0.5,4.04658155699724,4.39859433928932,4.82821664544208,4.23024942747073,FALSE,1.42606854767397
"CAN","cpi",0.2,1989,3,1988,NA,1,3.32210399175413,4.08790318372104,4.82821664544208,4.05841794603162,FALSE,2.61658284626951
"CAN","cpi",0.2,1989,3,1988,NA,1.5,1.26118820057948,2.40440813605447,4.82821664544208,2.597843559383,FALSE,7.202741208944
"CAN","cpi",0.2,1990,3,1990,NA,0,4.41998902031655,4.46005225882499,4.64347549432717,4.4746950192663,FALSE,0.498621327263891
"CAN","cpi",0.2,1990,3,1990,NA,0.5,4.81898473144883,5.18174573622488,4.64347549432717,4.96487168902479,FALSE,0.801534097580198
"CAN","cpi",0.2,1990,3,1989,NA,1,4.68613933094179,5.44347003472832,4.64347549432717,5.43871373969076,FALSE,0.863990295323079
"CAN","cpi",0.2,1990,3,1989,NA,1.5,2.31266151460213,3.53173959080663,4.64347549432717,3.3732540002381,FALSE,3.99841783500585
"CAN","cpi",0.2,1991,3,1991,NA,0,5.56069161371208,5.60904210425134,5.4258100696218,5.61053369942382,FALSE,0.385554350764977
"CAN","cpi",0.2,1991,3,1991,NA,0.5,7.61483987623284,7.97706405582777,5.4258100696218,7.82199295477594,FALSE,5.83479869612254
"CAN","cpi",0.2,1991,3,1990,NA,1,2.88621728895745,3.64616768403992,5.4258100696218,3.66716818384097,FALSE,5.20905635903717
"CAN","cpi",0.2,1991,3,1990,NA,1.5,3.85903057561737,5.1021767883282,5.4258100696218,4.82481948664164,FALSE,2.05222941594481
"CAN","cpi",0.2,1992,3,1992,NA,0,NA,NA,1.47496888572843,NA,NA,NA
"CAN","cpi",0.2,1992,3,1992,NA,0.5,NA,NA,1.47496888572843,NA,NA,NA
"CAN","cpi",0.2,1992,3,1991,NA,1,2.0186450440307,2.80839335404103,1.47496888572843,2.76780571233213,FALSE,2.148938705766
"CAN","cpi",0.2,1992,3,1991,NA,1.5,6.14203005865572,7.3730014355966,1.47496888572843,7.14938182660169,FALSE,12.8986243092591
"CAN","cpi",0.2,1993,3,1993,NA,0,NA,NA,NA,NA,NA,NA
"CAN","cpi",0.2,1993,3,1993,NA,0.5,NA,NA,NA,NA,NA,NA
"CAN","cpi",0.2,1993,3,1992,NA,1,NA,NA,NA,NA,NA,NA
"CAN","cpi",0.2,1993,3,1992,NA,1.5,NA,NA,NA,NA,NA,NA
"CAN","cpi",0.2,1994,3,1994,NA,0,NA,NA,NA,NA,NA,NA
"CAN","cpi",0.2,1994,3,1994,NA,0.5,NA,NA,NA,NA,NA,NA
"CAN","cpi",0.2,1994,3,1993,NA,1,NA,NA,NA,NA,NA,NA
"CAN","cpi",0.2,1994,3,1993,NA,1.5,NA,NA,NA,NA,NA,NA
"CAN","cpi",0.2,1995,3,1995,NA,0,NA,NA,2.11688403676572,NA,NA,NA
"CAN","cpi",0.2,1995,3,1995,NA,0.5,1.80131328996464,2.30021012890894,2.11688403676572,2.51937811073084,TRUE,0.498896838944296
"CAN","cpi",0.2,1995,3,1994,NA,1,0.450504774726506,1.03388213812216,2.11688403676572,0.719396410821945,FALSE,3.29088211000455
"CAN","cpi",0.2,1995,3,1994,NA,1.5,-2.41749728852093,-1.10996692356088,2.11688403676572,-1.04654603924828,FALSE,9.37465776577653
"CAN","cpi",0.2,1996,3,1996,NA,0,1.38299065559419,1.44113659734364,1.55309584667184,1.42780748357026,FALSE,0.338044065069958
"CAN","cpi",0.2,1996,3,1996,NA,0.5,NA,NA,1.55309584667184,NA,NA,NA
"CAN","cpi",0.2,1996,3,1995,NA,1,NA,NA,1.55309584667184,NA,NA,NA
"CAN","cpi",0.2,1996,3,1995,NA,1.5,1.70496330516981,3.12425087083065,1.55309584667184,2.92232271175447,FALSE,1.79895621190575
"CAN","cpi",0.2,1997,3,1997,NA,0,1.70673581305173,1.77083531035581,1.60528783555959,1.73535847807117,FALSE,0.317719441034431
"CAN","cpi",0.2,1997,3,1997,NA,0.5,1.56829959356436,2.04290871026699,1.60528783555959,2.11078363597796,TRUE,0.474609116702632
"CAN","cpi",0.2,1997,3,1996,NA,1,1.17113392286974,1.69153296802665,1.60528783555959,0.984961337307556,TRUE,0.52039904515691
"CAN","cpi",0.2,1997,3,1996,NA,1.5,NA,NA,1.60528783555959,NA,NA,NA
"CAN","cpi",0.2,1998,3,1998,NA,0,0.974905863058288,1.04238082589912,0.988908029337191,1.0350847138471,TRUE,0.0674749628408354
"CAN","cpi",0.2,1998,3,1998,NA,0.5,1.11217959048883,1.58808985216378,0.988908029337191,1.68533655437107,FALSE,0.784089164554045
"CAN","cpi",0.2,1998,3,1997,NA,1,2.42588962425631,2.94489550488188,0.988908029337191,2.25159584334757,FALSE,4.11145986792336
"CAN","cpi",0.2,1998,3,1997,NA,1.5,1.70974452110833,2.99329459782479,0.988908029337191,2.38987816876076,FALSE,3.0856413061443
"CAN","cpi",0.2,1999,3,1999,NA,0,1.71563988334205,1.77820748564139,1.7107350135213,1.77618438459462,FALSE,0.0748297768512241
"CAN","cpi",0.2,1999,3,1999,NA,0.5,0.344284083280338,0.814121722743046,1.7107350135213,1.0290924799153,FALSE,2.71137086640833
"CAN","cpi",0.2,1999,3,1998,NA,1,1.7240642614719,2.32105571221489,1.7107350135213,1.85177544064205,FALSE,0.630314570619497
"CAN","cpi",0.2,1999,3,1998,NA,1.5,2.15225832181997,3.45435163764225,1.7107350135213,2.94645730787123,FALSE,2.40590158656897
"CAN","cpi",0.2,2000,3,2000,NA,0,2.64237161389687,2.70515444944879,2.6718361971244,2.7102541785615,TRUE,0.0627828355519267
"CAN","cpi",0.2,2000,3,2000,NA,0.5,1.67008398253723,2.14876640904651,2.6718361971244,2.34405201403356,FALSE,1.786356896704
"CAN","cpi",0.2,2000,3,1999,NA,1,2.92679891106935,3.48767267362701,2.6718361971244,3.07542936781209,FALSE,1.19828054742003
"CAN","cpi",0.2,2000,3,1999,NA,1.5,1.31923713117508,2.63311433471263,2.6718361971244,2.27809035801724,FALSE,1.41068185956698
"CAN","cpi",0.2,2001,3,2001,NA,0,2.72094867709064,2.78119174511882,2.47906219852806,2.77546584984351,FALSE,0.664959264434622
"CAN","cpi",0.2,2001,3,2001,NA,0.5,1.73278756322669,2.19209875752903,2.47906219852806,2.43566755503104,FALSE,1.17671979679993
"CAN","cpi",0.2,2001,3,2000,NA,1,3.398498124394,3.95094066355049,2.47906219852806,3.68958695319843,FALSE,2.85103235382133
"CAN","cpi",0.2,2001,3,2000,NA,1.5,1.86427064427799,3.09815908808072,2.47906219852806,3.01270789712173,TRUE,1.23388844380272
"CAN","cpi",0.2,2002,3,2002,NA,0,2.15012636123027,2.21209731062595,2.20880570551249,2.27196234986351,TRUE,0.0619709493956826
"CAN","cpi",0.2,2002,3,2002,NA,0.5,0.928241774573856,1.39644362967219,2.20880570551249,1.58345411989126,FALSE,2.49910704469908
"CAN","cpi",0.2,2002,3,2001,NA,1,1.91073392825666,2.48591780288223,2.20880570551249,2.26510423845898,TRUE,0.575183874625576
"CAN","cpi",0.2,2002,3,2001,NA,1.5,1.67088778926816,2.8563202162566,2.20880570551249,3.02058043279009,TRUE,1.18543242698844
"CAN","cpi",0.2,2003,3,2003,NA,0,2.61033882285847,2.66922762609865,2.71189071546809,2.71326702620668,FALSE,0.165546526663774
"CAN","cpi",0.2,2003,3,2003,NA,0.5,4.39403066063247,4.65569505237966,2.71189071546809,4.51432649273496,FALSE,4.46701425465814
"CAN","cpi",0.2,2003,3,2002,NA,1,3.33303251589078,3.79204126857308,2.71189071546809,3.85618281746238,FALSE,2.01186325373903
"CAN","cpi",0.2,2003,3,2002,NA,1.5,0.882057690437881,2.03884591892593,2.71189071546809,2.39402389849184,FALSE,2.83940021984345
"CAN","cpi",0.2,2004,3,2004,NA,0,1.68200059317065,1.73839572378079,1.83151661303942,1.77466852383015,FALSE,0.289197353756713
"CAN","cpi",0.2,2004,3,2004,NA,0.5,1.14145016897164,1.53158822634979,1.83151661303942,1.55260435151936,FALSE,1.13995902410224
"CAN","cpi",0.2,2004,3,2003,NA,1,1.29447930043839,1.74368088221877,1.83151661303942,1.79415792598285,FALSE,0.668790908832015
"CAN","cpi",0.2,2004,3,2003,NA,1.5,3.72083424358183,4.44407695917499,1.83151661303942,4.26699272545716,FALSE,5.44653679194917
"CAN","cpi",0.2,2005,3,2005,NA,0,2.26417766809937,2.32074832722057,2.18071628336509,2.34345353472953,FALSE,0.26522412095689
"CAN","cpi",0.2,2005,3,2005,NA,0.5,1.15403969416728,1.53021619010173,2.18071628336509,1.50321338317329,FALSE,2.00242672909285
"CAN","cpi",0.2,2005,3,2004,NA,1,1.18686515966825,1.61328876342585,2.18071628336509,1.64043962712234,FALSE,1.84499240360571
"CAN","cpi",0.2,2005,3,2004,NA,1.5,1.21411717153607,1.98446559849576,2.18071628336509,2.03393284113233,FALSE,1.26097513913301
"CAN","cpi",0.2,2006,3,2006,NA,0,2.00483271650718,2.06112440434785,1.97519342012289,2.09514376892657,FALSE,0.130389928801408
"CAN","cpi",0.2,2006,3,2006,NA,0.5,1.82765840369659,2.2066136544524,1.97519342012289,2.09436263599022,TRUE,0.378955250755817
"CAN","cpi",0.2,2006,3,2005,NA,1,2.58519966143429,3.00678528393995,1.97519342012289,2.9582912060806,FALSE,1.94660122578417
"CAN","cpi",0.2,2006,3,2005,NA,1.5,0.904289906655209,1.64043140039792,1.97519342012289,1.64885961980806,FALSE,1.57304654305513
"CAN","cpi",0.2,2007,3,2007,NA,0,2.01225380039166,2.06658183551008,2.10062087284572,2.10683622102307,FALSE,0.139425628457525
"CAN","cpi",0.2,2007,3,2007,NA,0.5,1.94773540990833,2.30707438954681,2.10062087284572,2.17629902083353,TRUE,0.359338979638479
"CAN","cpi",0.2,2007,3,2006,NA,1,0.928590162695686,1.28792914233417,2.10062087284572,1.50861692709856,FALSE,2.39106830591737
"CAN","cpi",0.2,2007,3,2006,NA,1.5,1.26865217704708,1.72930296225819,2.10062087284572,2.15918616350405,FALSE,1.38894556167994
"CAN","cpi",0.2,2008,3,2008,NA,0,2.76831541738726,2.81452711375782,2.31447335265955,2.87079455148828,FALSE,1.18081685818982
"CAN","cpi",0.2,2008,3,2008,NA,0.5,1.07987258398353,1.43757564464047,2.31447335265955,1.31005314695267,FALSE,2.54994733070464
"CAN","cpi",0.2,2008,3,2007,NA,1,0.981153439881454,1.33918232339206,2.31447335265955,1.47031049982668,FALSE,2.79625645667934
"CAN","cpi",0.2,2008,3,2007,NA,1.5,1.70946051791791,2.16131851611201,2.31447335265955,2.46453195342394,FALSE,0.834745089562962
"CAN","cpi",0.2,2009,3,2009,NA,0,0.0271678961980937,0.110830123521293,0.284533874408197,0.187122346349721,FALSE,0.51792160454046
"CAN","cpi",0.2,2009,3,2009,NA,0.5,-0.174981785101277,0.201355378658578,0.284533874408197,-0.0727492620466167,FALSE,0.584283403133904
"CAN","cpi",0.2,2009,3,2008,NA,1,3.33983782300701,3.71617498676687,0.284533874408197,3.81780026356951,FALSE,8.01459703525689
"CAN","cpi",0.2,2009,3,2008,NA,1.5,0.974894275103803,1.40924823844017,0.284533874408197,1.68675152630419,FALSE,2.16025496507539
"CAN","cpi",0.2,2010,3,2010,NA,0,1.45943122684282,1.54842037718763,1.75525687020327,1.6089956646354,FALSE,0.606080382883921
"CAN","cpi",0.2,2010,3,2010,NA,0.5,1.91296822356489,2.2726778830618,1.75525687020327,1.91109502526183,FALSE,0.753988042900949
"CAN","cpi",0.2,2010,3,2009,NA,1,0.239268137423536,0.752903253991563,1.75525687020327,0.992295788494754,FALSE,3.0195191570973
"CAN","cpi",0.2,2010,3,2009,NA,1.5,0.133491814774885,0.647126931342911,1.75525687020327,0.885103052815867,FALSE,3.28395996371893
"CAN","cpi",0.2,2011,3,2011,NA,0,2.73271196816136,2.82894941995682,2.85717434028225,2.86665414062098,FALSE,0.166799752609014
"CAN","cpi",0.2,2011,3,2011,NA,0.5,2.6948419344961,3.04801254338152,2.85717434028225,2.76583381894771,TRUE,0.353170608885415
"CAN","cpi",0.2,2011,3,2010,NA,1,0.709479980658215,1.24835662785799,2.85717434028225,1.39294644169719,FALSE,4.56092092826042
"CAN","cpi",0.2,2011,3,2010,NA,1.5,1.06974188545198,1.60861853265176,2.85717434028225,1.64253060592363,FALSE,3.66026616627599
"CAN","cpi",0.2,2012,3,2012,NA,0,1.39670163845503,1.49336317288151,1.50118536134935,1.52822510849394,FALSE,0.116217005596062
"CAN","cpi",0.2,2012,3,2012,NA,0.5,1.83270201072604,2.18407551202897,1.50118536134935,1.92429021972789,FALSE,1.18016512474467
"CAN","cpi",0.2,2012,3,2011,NA,1,1.46065355968739,2.04979884515287,1.50118536134935,1.99945242447079,TRUE,0.589145285465471
"CAN","cpi",0.2,2012,3,2011,NA,1.5,1.95821361576162,2.54735890122709,1.50118536134935,2.48150957397962,FALSE,1.73171592149616
"CAN","cpi",0.2,2013,3,2013,NA,0,0.952317369976011,1.04288274814065,0.931270594714462,1.05630513423211,FALSE,0.143182316318516
"CAN","cpi",0.2,2013,3,2013,NA,0.5,1.03176400211493,1.39088408103284,0.931270594714462,1.16963454554932,FALSE,0.610353597419077
"CAN","cpi",0.2,2013,3,2012,NA,1,0.616007138523621,1.20240359841335,0.931270594714462,1.08868089128742,TRUE,0.586396459889726
"CAN","cpi",0.2,2013,3,2012,NA,1.5,1.58320311223545,2.16959957212518,0.931270594714462,2.14573179530527,FALSE,2.2162277536922
"CAN","cpi",0.2,2014,3,2014,NA,0,1.88875644888149,1.97983985727936,1.87639912240215,1.99862849145116,FALSE,0.121976724596211
"CAN","cpi",0.2,2014,3,2014,NA,0.5,1.58137483607333,1.92960448918298,1.87639912240215,1.79231976082687,TRUE,0.34822965310965
"CAN","cpi",0.2,2014,3,2013,NA,1,0.921562436610091,1.514402357127,1.87639912240215,1.40664989819898,FALSE,1.49783183370479
"CAN","cpi",0.2,2014,3,2013,NA,1.5,0.912002943185229,1.50484286370214,1.87639912240215,1.51436121777893,FALSE,1.52173056726694
"CAN","cpi",0.2,2015,3,2015,NA,0,1.08957218544811,1.18040686297683,1.11090953952792,1.2103065042478,TRUE,0.0908346775287248
"CAN","cpi",0.2,2015,3,2015,NA,0.5,0.491613079210511,0.694824108344927,1.11090953952792,0.458547315718059,FALSE,1.24342460709189
"CAN","cpi",0.2,2015,3,2014,NA,1,1.23506855639547,1.82215412881499,1.11090953952792,1.57054781428135,FALSE,0.897483114588394
"CAN","cpi",0.2,2015,3,2014,NA,1.5,1.28682554828902,1.87391112070854,1.11090953952792,1.88229109541157,FALSE,1.02687559432227
"CAN","cpi",0.2,2016,3,2016,NA,0,1.28261269680361,1.37095850094211,1.41168586698797,1.41630667471992,FALSE,0.190164219253145
"CAN","cpi",0.2,2016,3,2016,NA,0.5,1.24021284987294,1.45647286524849,1.41168586698797,1.17972158292925,TRUE,0.216260015375549
"CAN","cpi",0.2,2016,3,2015,NA,1,1.51107244288343,2.04242285083227,1.41168586698797,1.8638656605167,FALSE,0.779816847687506
"CAN","cpi",0.2,2016,3,2015,NA,1.5,0.65391338558493,1.18526379353377,1.41168586698797,1.07023002715086,FALSE,1.09740559158433
"CAN","cpi",0.2,2017,3,2017,NA,0,1.38563527298725,1.47392487255062,1.57888581671161,1.50492692646759,FALSE,0.350691959965853
"CAN","cpi",0.2,2017,3,2017,NA,0.5,2.11848924868093,2.31947864510971,1.57888581671161,2.09086618282141,FALSE,1.54999797635208
"CAN","cpi",0.2,2017,3,2016,NA,1,0.704020801527442,1.23433755098017,1.57888581671161,1.14652050352824,FALSE,1.39168741378133
"CAN","cpi",0.2,2017,3,2016,NA,1.5,0.869778523603693,1.40009527305642,1.57888581671161,1.26788084523026,FALSE,0.9772931085907
"CAN","cpi",0.2,2018,3,2018,NA,0,2.31041471388852,2.40089855391723,2.23316270166586,2.41317537496083,FALSE,0.283613870585362
"CAN","cpi",0.2,2018,3,2018,NA,0.5,2.5107206161407,2.73027708916602,2.23316270166586,2.52809119314695,FALSE,0.913451259212425
"CAN","cpi",0.2,2018,3,2017,NA,1,0.856370996226739,1.38230531466288,2.23316270166586,1.16800101916097,FALSE,2.65307778594359
"CAN","cpi",0.2,2018,3,2017,NA,1.5,1.67567938658871,2.20161370502484,2.23316270166586,2.07298402260093,FALSE,0.604806810038674
"CAN","cpi",0.2,2019,3,2019,NA,0,NA,NA,1.91921619871868,NA,NA,NA
"CAN","cpi",0.2,2019,3,2019,NA,0.5,1.4329085459152,1.6586192003471,1.91921619871868,1.47328806303322,FALSE,0.877203150360844
"CAN","cpi",0.2,2019,3,2018,NA,1,1.96187947722224,2.49622909568259,1.91921619871868,2.23470281046333,FALSE,0.641007814719251
"CAN","cpi",0.2,2019,3,2018,NA,1.5,1.93867915508018,2.47302877354053,1.91921619871868,2.32030562567512,FALSE,0.58300700936409
"CAN","cpi",0.2,2020,3,2020,NA,0,0.622759761339033,0.674381056502876,0.71139989671781,0.673588636713597,FALSE,0.144168395701178
"CAN","cpi",0.2,2020,3,2020,NA,0.5,NA,NA,0.71139989671781,NA,NA,NA
"CAN","cpi",0.2,2020,3,2019,NA,1,NA,NA,0.71139989671781,NA,NA,NA
"CAN","cpi",0.2,2020,3,2019,NA,1.5,1.4298449539804,1.84971959364958,0.71139989671781,1.77705491937904,FALSE,2.21598728282566
"CAN","cpi",0.2,2021,3,2021,NA,0,3.19723399903542,3.24593882271084,3.31148121717802,3.2525646654712,FALSE,0.21256080984338
"CAN","cpi",0.2,2021,3,2021,NA,0.5,2.06448343483431,2.24727791613976,3.31148121717802,2.16773480502693,FALSE,2.84330273390111
"CAN","cpi",0.2,2021,3,2020,NA,1,1.67148574162616,2.01222637999304,3.31148121717802,1.61070774476322,FALSE,3.58887773132935
"CAN","cpi",0.2,2021,3,2020,NA,1.5,NA,NA,3.31148121717802,NA,NA,NA
"CAN","cpi",0.2,2022,3,2022,NA,0,6.52617861060775,6.56805378544156,6.50977236228281,6.58682891800883,FALSE,0.0828907956461653
"CAN","cpi",0.2,2022,3,2022,NA,0.5,5.58177919321964,5.83243972476044,6.50977236228281,5.58900513180898,FALSE,1.94399212534672
"CAN","cpi",0.2,2022,3,2021,NA,1,3.48416742573642,3.87763321494945,6.50977236228281,3.35597076522593,FALSE,6.97381365754643
"CAN","cpi",0.2,2022,3,2021,NA,1.5,1.49349029812202,1.88695608733505,6.50977236228281,1.89458222166426,FALSE,11.9505064765824
"CAN","cpi",0.2,2023,3,2023,NA,0,3.8948039726995,3.93668646456952,3.78831288758619,3.96221561415741,FALSE,0.308110204653288
"CAN","cpi",0.2,2023,3,2023,NA,0.5,3.67397188794033,3.95251622158886,3.78831288758619,3.6121970566696,TRUE,0.278544333648524
"CAN","cpi",0.2,2023,3,2022,NA,1,5.69422367190417,6.26592069030581,3.78831288758619,5.4861852561408,FALSE,5.3364739791966
"CAN","cpi",0.2,2023,3,2022,NA,1.5,3.58422526269846,4.3983074658608,3.78831288758619,3.85557075258935,TRUE,0.814082203162339
"CAN","cpi",0.2,2024,3,2023,NA,1,4.77223380799991,5.42123517891661,NA,4.72280809903739,NA,NA
"CAN","cpi",0.2,2024,3,2023,NA,1.5,4.19729857287319,4.99081611229504,NA,4.36705509613113,NA,NA
"CAN","cpi",0.3,1959,3,1959,NA,0,1.12930324689362,1.2516053720387,1.19382698397654,1.24991216431293,TRUE,0.122302125145081
"CAN","cpi",0.3,1959,3,1959,NA,0.5,0.0564820349329704,1.46007732180653,1.19382698397654,0.437839731590327,TRUE,1.40359528687356
"CAN","cpi",0.3,1959,3,1958,NA,1,-1.25562124874294,1.19172534025726,1.19382698397654,1.75862762885946,FALSE,2.453351285341
"CAN","cpi",0.3,1959,3,1958,NA,1.5,-0.28518238735121,4.71284842482077,1.19382698397654,1.77407172713766,TRUE,4.99803081217198
"CAN","cpi",0.3,1960,3,1960,NA,0,0.932243620863032,1.03998792068759,1.34209404870695,1.02361304259477,FALSE,0.970904665594169
"CAN","cpi",0.3,1960,3,1960,NA,0.5,0.259036064476296,1.65622950162598,1.34209404870695,0.53898348018166,TRUE,1.39719343714969
"CAN","cpi",0.3,1960,3,1959,NA,1,0.731388907878052,2.7450584486336,1.34209404870695,3.95759373689442,TRUE,2.01366954075555
"CAN","cpi",0.3,1960,3,1959,NA,1.5,-3.51760036377795,1.16998066946067,1.34209404870695,-0.873476815404885,FALSE,5.17933354537084
"CAN","cpi",0.3,1961,3,1961,NA,0,0.941998811469803,1.07446034235072,1.00921348094007,1.00921348094007,TRUE,0.13246153088092
"CAN","cpi",0.3,1961,3,1961,NA,0.5,1.31074316358195,2.32881659348219,1.00921348094007,1.00921348094007,FALSE,1.87958680887703
"CAN","cpi",0.3,1961,3,1960,NA,1,-2.62245099459964,-0.941506648958071,1.00921348094007,0.0537704626035329,FALSE,7.25443043106483
"CAN","cpi",0.3,1961,3,1960,NA,1.5,-2.54752572487577,1.87639580288321,1.00921348094007,-0.862181798940035,TRUE,4.42392152775899
"CAN","cpi",0.3,1962,3,1962,NA,0,1.01993172986336,1.13815860035994,1.04957947883042,1.10232402731478,TRUE,0.118226870496582
"CAN","cpi",0.3,1962,3,1962,NA,0.5,0.0984312473352653,0.96433063467289,1.04957947883042,0,FALSE,1.10946751350198
"CAN","cpi",0.3,1962,3,1961,NA,1,-2.40995553458123,-0.631542273291205,1.04957947883042,0,FALSE,6.5816182673518
"CAN","cpi",0.3,1962,3,1961,NA,1.5,-0.243973910582685,3.40670560087501,1.04957947883042,0,TRUE,3.65067951145769
"CAN","cpi",0.3,1963,3,1963,NA,0,1.8308529478765,1.94923898665618,1.60677118395228,1.91491729531202,FALSE,0.758619649991715
"CAN","cpi",0.3,1963,3,1963,NA,0.5,0.941587709952268,1.80993257772255,1.60677118395228,0.836828714617504,TRUE,0.868344867770284
"CAN","cpi",0.3,1963,3,1962,NA,1,0.0958859575765922,1.69178518612927,1.60677118395228,2.56411490415144,TRUE,1.59589922855268
"CAN","cpi",0.3,1963,3,1962,NA,1.5,-0.725148209431356,1.88503056856233,1.60677118395228,0,TRUE,2.61017877799368
"CAN","cpi",0.3,1964,3,1964,NA,0,1.86551812905191,1.99758566750862,1.88764670034376,1.98877256446048,TRUE,0.132067538456716
"CAN","cpi",0.3,1964,3,1964,NA,0.5,2.0388134379012,2.42782061823083,1.88764670034376,1.38369006227607,FALSE,0.820912144779465
"CAN","cpi",0.3,1964,3,1963,NA,1,3.50922931385385,4.78146417913887,1.88764670034376,5.39044290347256,FALSE,5.90532804674242
"CAN","cpi",0.3,1964,3,1963,NA,1.5,0.0651844068354741,2.29574303896569,1.88764670034376,0,TRUE,2.23055863213021
"CAN","cpi",0.3,1965,3,1965,NA,0,2.21845632226368,2.35088454090907,2.29538304394236,2.34557047418999,TRUE,0.13242821864539
"CAN","cpi",0.3,1965,3,1965,NA,0.5,2.22877626432554,2.62511540267237,2.29538304394236,1.61079447956654,TRUE,0.39633913834683
"CAN","cpi",0.3,1965,3,1964,NA,1,0.285536423371443,1.4634692911817,2.29538304394236,2.42518862179847,FALSE,3.55482930426927
"CAN","cpi",0.3,1965,3,1964,NA,1.5,2.21306809722505,3.3910009650353,2.29538304394236,0.818102552316399,TRUE,1.17793286781026
"CAN","cpi",0.3,1966,3,1966,NA,0,3.71332313263322,3.83875441500589,3.72486065470629,3.82010987863709,TRUE,0.125431282372666
"CAN","cpi",0.3,1966,3,1966,NA,0.5,4.58116184506146,4.97566108971473,3.72486065470629,3.99123398895563,FALSE,2.84107407423947
"CAN","cpi",0.3,1966,3,1965,NA,1,1.30326772431551,2.4841719900079,3.72486065470629,3.20722068745854,FALSE,4.72572902197351
"CAN","cpi",0.3,1966,3,1965,NA,1.5,2.95879451488025,4.13969878057264,3.72486065470629,1.60663824631958,TRUE,1.18090426569238
"CAN","cpi",0.3,1967,3,1967,NA,0,3.64802247389107,3.77127710972727,3.49360316391996,3.76768849328632,FALSE,0.564452664325081
"CAN","cpi",0.3,1967,3,1967,NA,0.5,2.85704446604025,3.312039541469,3.49360316391996,2.4074547441976,FALSE,0.973748282431488
"CAN","cpi",0.3,1967,3,1966,NA,1,1.63351568430349,2.79503765073812,3.49360316391996,3.18103323070284,FALSE,3.15742343266845
"CAN","cpi",0.3,1967,3,1966,NA,1.5,6.01757865762461,7.17910062405924,3.49360316391996,4.65128160487248,FALSE,8.37288051987649
"CAN","cpi",0.3,1968,3,1968,NA,0,4.04776890431453,4.17445532551028,3.95128347779386,4.17287945672396,FALSE,0.402359068397669
"CAN","cpi",0.3,1968,3,1968,NA,0.5,4.49444938188519,4.82884647525613,3.95128347779386,4.07097205779852,FALSE,1.88629967648903
"CAN","cpi",0.3,1968,3,1967,NA,1,4.2494237435453,5.48378620272974,3.95128347779386,5.84521682123848,FALSE,2.08619178990285
"CAN","cpi",0.3,1968,3,1967,NA,1.5,3.18765245317217,4.42201491235662,3.95128347779386,2.25565858240226,TRUE,1.23436245918444
"CAN","cpi",0.3,1969,3,1969,NA,0,4.3375435999927,4.46716636590666,4.42679496126681,4.46896837073893,TRUE,0.129622765913963
"CAN","cpi",0.3,1969,3,1969,NA,0.5,3.27867210730884,3.6300636907966,4.42679496126681,2.96612019395715,FALSE,2.62776664197408
"CAN","cpi",0.3,1969,3,1968,NA,1,5.43095906953356,6.39734537415988,4.42679496126681,6.72487630040807,FALSE,3.83542661395988
"CAN","cpi",0.3,1969,3,1968,NA,1.5,5.0700893051092,6.03647560973552,4.42679496126681,4.31664452944541,FALSE,2.80437014417599
"CAN","cpi",0.3,1970,3,1970,NA,0,3.38531486671325,3.5081059775773,3.28128405769805,3.52697515579364,FALSE,0.420021993764636
"CAN","cpi",0.3,1970,3,1970,NA,0.5,5.06691201278644,5.46376900989703,3.28128405769805,4.65371085276917,FALSE,5.498651154506
"CAN","cpi",0.3,1970,3,1969,NA,1,3.20229734230179,4.19320050141444,3.28128405769805,4.52747875087707,TRUE,0.99090315911265
"CAN","cpi",0.3,1970,3,1969,NA,1.5,2.70195221602319,3.69285537513584,3.28128405769805,2.07973847283129,TRUE,0.99090315911265
"CAN","cpi",0.3,1971,3,1971,NA,0,2.677893696427,2.80574954888112,2.64123406634756,2.8393232579169,FALSE,0.232597652681087
"CAN","cpi",0.3,1971,3,1971,NA,0.5,2.19066766686951,2.7794505921208,2.64123406634756,2.06692165705507,TRUE,0.588782925251291
"CAN","cpi",0.3,1971,3,1970,NA,1,1.2806596727016,2.21811073396745,2.64123406634756,2.64105994583495,FALSE,2.14637486806616
"CAN","cpi",0.3,1971,3,1970,NA,1.5,5.4506971200316,6.38814818129745,2.64123406634756,4.63977638900468,FALSE,8.96448835750595
"CAN","cpi",0.3,1972,3,1972,NA,0,4.84651787095592,4.92551906815887,4.83230569625923,5.03048103188219,FALSE,0.119607410622061
"CAN","cpi",0.3,1972,3,1972,NA,0.5,5.17296756407828,5.75582580260626,4.83230569625923,5.06705904355972,FALSE,1.55617786086812
"CAN","cpi",0.3,1972,3,1971,NA,1,4.74683062465872,5.77922900060273,4.83230569625923,5.9169160270675,TRUE,1.03239837594401
"CAN","cpi",0.3,1972,3,1971,NA,1.5,3.47311082930337,4.50550920524739,4.83230569625923,3.09276495441271,FALSE,1.96610263597785
"CAN","cpi",0.3,1973,3,1973,NA,0,6.79454092249191,6.8657971975172,7.12388603531779,6.99264756193144,FALSE,0.808652954455542
"CAN","cpi",0.3,1973,3,1973,NA,0.5,5.5538366248082,6.14755415621208,7.12388603531779,5.47469896411854,FALSE,3.38323718599163
"CAN","cpi",0.3,1973,3,1972,NA,1,5.35484917702444,6.34770527830515,7.12388603531779,6.69062283747837,FALSE,3.21051540703111
"CAN","cpi",0.3,1973,3,1972,NA,1.5,5.11987267190229,6.11272877318301,7.12388603531779,4.73174243586486,FALSE,3.88187685023722
"CAN","cpi",0.3,1974,3,1974,NA,0,9.7513425332085,9.84578233274034,10.2717243737774,9.94431520564033,FALSE,1.31141705963779
"CAN","cpi",0.3,1974,3,1974,NA,0.5,8.44675144864759,9.08999180141268,10.2717243737774,8.3378654175141,FALSE,4.01961913095005
"CAN","cpi",0.3,1974,3,1973,NA,1,5.79932748275162,6.74417224468887,10.2717243737774,7.16712422635118,FALSE,11.0235651307617
"CAN","cpi",0.3,1974,3,1973,NA,1.5,4.53772717426162,5.57898695004097,10.2717243737774,4.05174749178054,FALSE,14.4490809864549
"CAN","cpi",0.3,1975,3,1975,NA,0,9.93887508606376,10.0715395979232,10.0232981493341,10.0931823619779,TRUE,0.132664511859424
"CAN","cpi",0.3,1975,3,1975,NA,0.5,9.15742927185786,9.88055384456234,10.0232981493341,8.98267476097328,FALSE,1.130965443481
"CAN","cpi",0.3,1975,3,1974,NA,1,6.61051146228636,7.90487150572172,10.0232981493341,7.7837982223054,FALSE,7.34700759661364
"CAN","cpi",0.3,1975,3,1974,NA,1.5,6.40625084956355,7.96436506972008,10.0232981493341,5.75931605308519,FALSE,7.44078016191093
"CAN","cpi",0.3,1976,3,1976,NA,0,6.92130574968667,7.05398360964673,7.22784311401172,7.07277954951717,FALSE,0.629419301002874
"CAN","cpi",0.3,1976,3,1976,NA,0.5,8.81021873034186,9.54177184567888,7.22784311401172,8.59089060438327,FALSE,5.25262630485172
"CAN","cpi",0.3,1976,3,1975,NA,1,9.80838584895982,11.0117500533126,7.22784311401172,10.4141477685142,FALSE,8.57634344706166
"CAN","cpi",0.3,1976,3,1975,NA,1.5,7.23239325999373,8.91267325689041,7.22784311401172,6.43051086134862,FALSE,1.69328041398816
"CAN","cpi",0.3,1977,3,1977,NA,0,7.41504166771083,7.55802998856405,7.58101410153764,7.55301151664772,FALSE,0.208657215063479
"CAN","cpi",0.3,1977,3,1977,NA,0.5,7.95665578086869,8.80457312232373,7.58101410153764,7.98165850021887,FALSE,1.9211792824009
"CAN","cpi",0.3,1977,3,1976,NA,1,2.7415296749558,4.13727656831555,7.58101410153764,3.72134649143602,FALSE,11.23499698828
"CAN","cpi",0.3,1977,3,1976,NA,1.5,8.73762939212853,10.428229339032,7.58101410153764,8.00272044475614,FALSE,4.99521506287739
"CAN","cpi",0.3,1978,3,1978,NA,0,8.5438819762208,8.6881328737211,8.50208927062595,8.67127840358843,FALSE,0.263658627771307
"CAN","cpi",0.3,1978,3,1978,NA,0.5,8.33852441448904,9.19262920383844,8.50208927062595,8.3788273181893,TRUE,0.854104789349407
"CAN","cpi",0.3,1978,3,1977,NA,1,6.73532132637723,8.4041098919529,8.50208927062595,7.54783828416051,FALSE,1.94872964749867
"CAN","cpi",0.3,1978,3,1977,NA,1.5,10.2049899703021,11.944877770626,8.50208927062595,9.72562756342223,FALSE,6.6053183708272
"CAN","cpi",0.3,1979,3,1979,NA,0,8.44934498271294,8.58671290041129,8.65147652410481,8.56376390232469,FALSE,0.32240684253699
"CAN","cpi",0.3,1979,3,1979,NA,0.5,8.17619554531549,9.01421886918946,8.65147652410481,8.29599284966764,TRUE,0.838023323873969
"CAN","cpi",0.3,1979,3,1978,NA,1,8.4429094433585,10.1237444992378,8.65147652410481,9.20311500508918,TRUE,1.68083505587926
"CAN","cpi",0.3,1979,3,1978,NA,1.5,9.02725578416649,10.7723205144586,8.65147652410481,8.55646910152924,FALSE,2.81871975903975
"CAN","cpi",0.3,1980,3,1980,NA,0,9.41994541779442,9.5529570302209,9.5171912664748,9.50406722106931,TRUE,0.133011612426479
"CAN","cpi",0.3,1980,3,1980,NA,0.5,8.50450684487916,9.3362951123454,9.5171912664748,8.57798914335092,FALSE,1.34863442212165
"CAN","cpi",0.3,1980,3,1979,NA,1,7.57051160248484,9.19147001550577,9.5171912664748,8.17875203710815,FALSE,2.55159055864672
"CAN","cpi",0.3,1980,3,1979,NA,1.5,8.70808133813077,10.4716307199842,9.5171912664748,8.39204766062112,TRUE,1.76354938185345
"CAN","cpi",0.3,1981,3,1981,NA,0,11.6322866524055,11.7653112330161,11.5813425032741,11.7113878984199,FALSE,0.278579292414435
"CAN","cpi",0.3,1981,3,1981,NA,0.5,12.1099220557857,12.9113277572567,11.5813425032741,12.2156196752767,FALSE,2.31163299436118
"CAN","cpi",0.3,1981,3,1980,NA,1,10.8250911578301,12.3399426284595,11.5813425032741,11.0496853423024,TRUE,1.51485147062941
"CAN","cpi",0.3,1981,3,1980,NA,1.5,8.75618855015407,10.500168243677,11.5813425032741,8.33809792174894,FALSE,4.83304900665764
"CAN","cpi",0.3,1982,3,1982,NA,0,10.1924599526837,10.3167222575628,10.1124203763629,10.2566668151097,FALSE,0.352946808652787
"CAN","cpi",0.3,1982,3,1982,NA,0.5,10.1045541003124,10.8367365792617,10.1124203763629,10.1085355973545,TRUE,0.732182478949266
"CAN","cpi",0.3,1982,3,1981,NA,1,11.7394287574262,13.1914575021703,10.1124203763629,11.770988683124,FALSE,6.1006241192106
"CAN","cpi",0.3,1982,3,1981,NA,1.5,13.4476852033924,15.2439438165894,10.1124203763629,12.8701250351281,FALSE,11.3255866904241
"CAN","cpi",0.3,1983,3,1983,NA,0,5.6737400378256,5.79392241692161,5.67091787896303,5.7310121416489,FALSE,0.128245690131908
"CAN","cpi",0.3,1983,3,1983,NA,0.5,4.85660274041606,5.59076295004496,5.67091787896303,4.91343016009654,FALSE,0.963174292251975
"CAN","cpi",0.3,1983,3,1982,NA,1,8.95928080816585,10.4980415502723,5.67091787896303,9.18500149866057,FALSE,10.9340833969717
"CAN","cpi",0.3,1983,3,1982,NA,1.5,10.1527026773204,12.0340927881365,5.67091787896303,9.68672301569366,FALSE,14.6864895346943
"CAN","cpi",0.3,1984,3,1984,NA,0,NA,NA,4.19799576814029,NA,NA,NA
"CAN","cpi",0.3,1984,3,1984,NA,0.5,5.89452841907859,6.62179813825431,4.19799576814029,5.85770686024457,FALSE,5.57450586471372
"CAN","cpi",0.3,1984,3,1983,NA,1,5.21017623158108,6.96648787330285,4.19799576814029,5.76553357996429,FALSE,4.64825582298118
"CAN","cpi",0.3,1984,3,1983,NA,1.5,2.68987155440752,4.91665071522783,4.19799576814029,2.9197996794717,TRUE,2.22677916082031
"CAN","cpi",0.3,1985,3,1985,NA,0,3.80152037518048,3.91440993603158,3.86444262005169,3.85417990135378,TRUE,0.112889560851103
"CAN","cpi",0.3,1985,3,1985,NA,0.5,3.92580205766189,4.71329377896648,3.86444262005169,4.21990042382899,FALSE,0.962804400190863
"CAN","cpi",0.3,1985,3,1984,NA,1,NA,NA,3.86444262005169,NA,NA,NA
"CAN","cpi",0.3,1985,3,1984,NA,1.5,8.31241965549208,10.5119605502553,3.86444262005169,8.62999660305356,FALSE,14.9080467103072
"CAN","cpi",0.3,1986,3,1986,NA,0,3.97128361284963,4.0482853897669,4.08685396749431,4.03771389199993,FALSE,0.187197713281309
"CAN","cpi",0.3,1986,3,1986,NA,0.5,3.94815906135329,4.5992831667712,4.08685396749431,4.38219332503529,TRUE,0.651124105417916
"CAN","cpi",0.3,1986,3,1985,NA,1,2.35568995009259,4.09038597955736,4.08685396749431,3.37849976080849,TRUE,1.73469602946477
"CAN","cpi",0.3,1986,3,1985,NA,1.5,3.69847519474232,5.77473973473547,4.08685396749431,4.95309858900956,TRUE,2.07626453999315
"CAN","cpi",0.3,1987,3,1987,NA,0,NA,NA,4.23980729277887,NA,NA,NA
"CAN","cpi",0.3,1987,3,1987,NA,0.5,3.60947502248971,4.19752145972921,4.23980729277887,4.13342161080085,FALSE,0.708863103095675
"CAN","cpi",0.3,1987,3,1986,NA,1,2.53141441863235,4.174252608628,4.23980729277887,3.66140988164798,FALSE,1.83013728756956
"CAN","cpi",0.3,1987,3,1986,NA,1.5,3.23628229804541,5.00282232214459,4.23980729277887,4.80242768143514,TRUE,1.76654002409918
"CAN","cpi",0.3,1988,3,1988,NA,0,3.87479390484429,3.94279529433555,3.92899537638065,3.9438316199536,TRUE,0.068001389491263
"CAN","cpi",0.3,1988,3,1988,NA,0.5,2.99709226342493,3.51861497170846,3.92899537638065,3.35419215340812,FALSE,1.69403815020409
"CAN","cpi",0.3,1988,3,1987,NA,1,NA,NA,3.92899537638065,NA,NA,NA
"CAN","cpi",0.3,1988,3,1987,NA,1.5,2.22294215038247,3.95328158086265,3.92899537638065,3.89461929526446,TRUE,1.73033943048019
"CAN","cpi",0.3,1989,3,1989,NA,0,4.87843278662706,4.94457980084388,4.82821664544208,4.95130318392835,FALSE,0.209621703316776
"CAN","cpi",0.3,1989,3,1989,NA,0.5,3.95489645340078,4.49027944288579,4.82821664544208,4.23024942747073,FALSE,1.50091785393155
"CAN","cpi",0.3,1989,3,1988,NA,1,3.12264425113791,4.28736292433726,4.82821664544208,4.05841794603162,FALSE,2.71001501921312
"CAN","cpi",0.3,1989,3,1988,NA,1.5,0.963425609303481,2.70217072733047,4.82821664544208,2.597843559383,FALSE,7.81316202691729
"CAN","cpi",0.3,1990,3,1990,NA,0,4.40955416579468,4.47048711334686,4.64347549432717,4.4746950192663,FALSE,0.555185464638782
"CAN","cpi",0.3,1990,3,1990,NA,0.5,4.72450015027231,5.27623031740139,4.64347549432717,4.96487168902479,FALSE,0.783229184115204
"CAN","cpi",0.3,1990,3,1989,NA,1,4.48888528925237,5.64072407641774,4.64347549432717,5.43871373969076,TRUE,1.15183878716536
"CAN","cpi",0.3,1990,3,1989,NA,1.5,1.99514094338537,3.8492601620234,4.64347549432717,3.3732540002381,FALSE,4.1233058823631
"CAN","cpi",0.3,1991,3,1991,NA,0,5.54809826495592,5.62163545300751,5.4258100696218,5.61053369942382,FALSE,0.422932031863369
"CAN","cpi",0.3,1991,3,1991,NA,0.5,7.52049511632083,8.07140881573977,5.4258100696218,7.82199295477594,FALSE,6.53572811855905
"CAN","cpi",0.3,1991,3,1990,NA,1,2.68828092355724,3.84410404944012,5.4258100696218,3.66716818384097,FALSE,5.6749831835448
"CAN","cpi",0.3,1991,3,1990,NA,1.5,3.53524122752669,5.42596613641889,5.4258100696218,4.82481948664164,TRUE,1.8907249088922
"CAN","cpi",0.3,1992,3,1992,NA,0,NA,NA,1.47496888572843,NA,NA,NA
"CAN","cpi",0.3,1992,3,1992,NA,0.5,NA,NA,1.47496888572843,NA,NA,NA
"CAN","cpi",0.3,1992,3,1991,NA,1,1.81294752604015,3.01409087203158,1.47496888572843,2.76780571233213,FALSE,2.16679660402491
"CAN","cpi",0.3,1992,3,1991,NA,1.5,5.82141176325115,7.69361973100117,1.47496888572843,7.14938182660169,FALSE,14.2906161892435
"CAN","cpi",0.3,1993,3,1993,NA,0,NA,NA,NA,NA,NA,NA
"CAN","cpi",0.3,1993,3,1993,NA,0.5,NA,NA,NA,NA,NA,NA
"CAN","cpi",0.3,1993,3,1992,NA,1,NA,NA,NA,NA,NA,NA
"CAN","cpi",0.3,1993,3,1992,NA,1.5,NA,NA,NA,NA,NA,NA
"CAN","cpi",0.3,1994,3,1994,NA,0,NA,NA,NA,NA,NA,NA
"CAN","cpi",0.3,1994,3,1994,NA,0.5,NA,NA,NA,NA,NA,NA
"CAN","cpi",0.3,1994,3,1993,NA,1,NA,NA,NA,NA,NA,NA
"CAN","cpi",0.3,1994,3,1993,NA,1.5,NA,NA,NA,NA,NA,NA
"CAN","cpi",0.3,1995,3,1995,NA,0,NA,NA,2.11688403676572,NA,NA,NA
"CAN","cpi",0.3,1995,3,1995,NA,0.5,1.67137082576003,2.43015259311355,2.11688403676572,2.51937811073084,TRUE,0.758781767353522
"CAN","cpi",0.3,1995,3,1994,NA,1,0.29855854808528,1.18582836476338,2.11688403676572,0.719396410821945,FALSE,3.54742887954191
"CAN","cpi",0.3,1995,3,1994,NA,1.5,-2.75805610626127,-0.769408105820529,2.11688403676572,-1.04654603924828,FALSE,10.2351969792586
"CAN","cpi",0.3,1996,3,1996,NA,0,1.36784598766963,1.4562812652682,1.55309584667184,1.42780748357026,FALSE,0.365048367323269
"CAN","cpi",0.3,1996,3,1996,NA,0.5,NA,NA,1.55309584667184,NA,NA,NA
"CAN","cpi",0.3,1996,3,1995,NA,1,NA,NA,1.55309584667184,NA,NA,NA
"CAN","cpi",0.3,1996,3,1995,NA,1.5,1.33529625318528,3.49391792281518,1.55309584667184,2.92232271175447,TRUE,2.1586216696299
"CAN","cpi",0.3,1997,3,1997,NA,0,1.69004048451128,1.78753063889627,1.60528783555959,1.73535847807117,FALSE,0.339640579961235
"CAN","cpi",0.3,1997,3,1997,NA,0.5,1.44468309944342,2.16652520438794,1.60528783555959,2.11078363597796,TRUE,0.721842104944518
"CAN","cpi",0.3,1997,3,1996,NA,1,1.03559100293361,1.82707588796278,1.60528783555959,0.984961337307556,TRUE,0.791484885029177
"CAN","cpi",0.3,1997,3,1996,NA,1.5,NA,NA,1.60528783555959,NA,NA,NA
"CAN","cpi",0.3,1998,3,1998,NA,0,0.957331362161056,1.05995532679636,0.988908029337191,1.0350847138471,TRUE,0.1026239646353
"CAN","cpi",0.3,1998,3,1998,NA,0.5,0.988224200686868,1.71204524196574,0.988908029337191,1.68533655437107,TRUE,0.723821041278872
"CAN","cpi",0.3,1998,3,1997,NA,1,2.29070956737745,3.08007556176074,0.988908029337191,2.25159584334757,FALSE,4.5087989602126
"CAN","cpi",0.3,1998,3,1997,NA,1.5,1.37543159931974,3.32760751961337,0.988908029337191,2.38987816876076,FALSE,3.05652897738663
"CAN","cpi",0.3,1999,3,1999,NA,0,1.69934355154057,1.79450381744287,1.7107350135213,1.77618438459462,TRUE,0.0951602659023076
"CAN","cpi",0.3,1999,3,1999,NA,0.5,0.221910366146645,0.936495439876739,1.7107350135213,1.0290924799153,FALSE,2.92669814128597
"CAN","cpi",0.3,1999,3,1998,NA,1,1.56857211527433,2.47654785841246,1.7107350135213,1.85177544064205,TRUE,0.907975743138125
"CAN","cpi",0.3,1999,3,1998,NA,1.5,1.81311563564794,3.79349432381428,1.7107350135213,2.94645730787123,FALSE,2.27289475138532
"CAN","cpi",0.3,2000,3,2000,NA,0,2.62601922253148,2.72150684081418,2.6718361971244,2.7102541785615,TRUE,0.0954876182826965
"CAN","cpi",0.3,2000,3,2000,NA,0.5,1.54540655582977,2.27344383575397,2.6718361971244,2.34405201403356,FALSE,1.866301169554
"CAN","cpi",0.3,2000,3,1999,NA,1,2.78071396298934,3.63375762170701,2.6718361971244,3.07542936781209,FALSE,1.16412298976036
"CAN","cpi",0.3,2000,3,1999,NA,1.5,0.977025218485452,2.97532624740225,2.6718361971244,2.27809035801724,TRUE,1.9983010289168
"CAN","cpi",0.3,2001,3,2001,NA,0,2.70525779252341,2.79688262968605,2.47906219852806,2.77546584984351,FALSE,0.737897962863634
"CAN","cpi",0.3,2001,3,2001,NA,0.5,1.61315555964313,2.31173076111259,2.47906219852806,2.43566755503104,FALSE,1.17666502265653
"CAN","cpi",0.3,2001,3,2000,NA,1,3.25460916927183,4.09482961867266,2.47906219852806,3.68958695319843,FALSE,3.05606893724016
"CAN","cpi",0.3,2001,3,2000,NA,1.5,1.54289257084581,3.4195371615129,2.47906219852806,3.01270789712173,TRUE,1.87664459066708
"CAN","cpi",0.3,2002,3,2002,NA,0,2.13398543339714,2.22823823845907,2.20880570551249,2.27196234986351,TRUE,0.0942528050619336
"CAN","cpi",0.3,2002,3,2002,NA,0.5,0.806294113158744,1.5183912910873,2.20880570551249,1.58345411989126,FALSE,2.68470979057195
"CAN","cpi",0.3,2002,3,2001,NA,1,1.76092177430964,2.63572995682925,2.20880570551249,2.26510423845898,TRUE,0.874808182519616
"CAN","cpi",0.3,2002,3,2001,NA,1.5,1.36213054992206,3.16507745560269,2.20880570551249,3.02058043279009,TRUE,1.80294690568063
"CAN","cpi",0.3,2003,3,2003,NA,0,2.59500066953747,2.68456577941965,2.71189071546809,2.71326702620668,FALSE,0.167636355734857
"CAN","cpi",0.3,2003,3,2003,NA,0.5,4.32587766144694,4.72384805156518,2.71189071546809,4.51432649273496,FALSE,5.00936166434354
"CAN","cpi",0.3,2003,3,2002,NA,1,3.21347928612642,3.91159449833744,2.71189071546809,3.85618281746238,FALSE,2.13122541409196
"CAN","cpi",0.3,2003,3,2002,NA,1.5,0.580761107178894,2.34014250218492,2.71189071546809,2.39402389849184,FALSE,2.82151914724366
"CAN","cpi",0.3,2004,3,2004,NA,0,1.66731194079088,1.75308437616057,1.83151661303942,1.77466852383015,FALSE,0.309864540737844
"CAN","cpi",0.3,2004,3,2004,NA,0.5,1.03983497200428,1.63320342331715,1.83151661303942,1.55260435151936,FALSE,1.15997756480508
"CAN","cpi",0.3,2004,3,2003,NA,1,1.17748044234847,1.86067974030869,1.83151661303942,1.79415792598285,TRUE,0.683199297960216
"CAN","cpi",0.3,2004,3,2003,NA,1.5,3.53245874519006,4.63245245756676,1.83151661303942,4.26699272545716,FALSE,5.95982837566423
"CAN","cpi",0.3,2005,3,2005,NA,0,2.24944329763624,2.33548269768369,2.18071628336509,2.34345353472953,FALSE,0.282402297965024
"CAN","cpi",0.3,2005,3,2005,NA,0.5,1.0560609197156,1.62819496455341,2.18071628336509,1.50321338317329,FALSE,2.15076638429976
"CAN","cpi",0.3,2005,3,2004,NA,1,1.07579904430756,1.72435487878654,2.18071628336509,1.64043962712234,FALSE,1.95244556184627
"CAN","cpi",0.3,2005,3,2004,NA,1.5,1.01347253905631,2.18511023097552,2.18071628336509,2.03393284113233,TRUE,1.1716376919192
"CAN","cpi",0.3,2006,3,2006,NA,0,1.99017100678833,2.0757861140667,1.97519342012289,2.09514376892657,FALSE,0.128408212036786
"CAN","cpi",0.3,2006,3,2006,NA,0.5,1.72895587591411,2.30531618223488,1.97519342012289,2.09436263599022,TRUE,0.576360306320766
"CAN","cpi",0.3,2006,3,2005,NA,1,2.47539364466828,3.11659130070596,1.97519342012289,2.9582912060806,FALSE,2.07034115473881
"CAN","cpi",0.3,2006,3,2005,NA,1.5,0.712554797844722,1.8321665092084,1.97519342012289,1.64885961980806,FALSE,1.5282600282622
"CAN","cpi",0.3,2007,3,2007,NA,0,1.99810354284819,2.08073209305355,2.10062087284572,2.10683622102307,FALSE,0.139453635325854
"CAN","cpi",0.3,2007,3,2007,NA,0.5,1.85414212798295,2.4006676714722,2.10062087284572,2.17629902083353,TRUE,0.546525543489243
"CAN","cpi",0.3,2007,3,2006,NA,1,0.834996880770305,1.38152242425955,2.10062087284572,1.50861692709856,FALSE,2.60109253944974
"CAN","cpi",0.3,2007,3,2006,NA,1.5,1.14867126416981,1.84928387513546,2.10062087284572,2.15918616350405,FALSE,1.41871831870925
"CAN","cpi",0.3,2008,3,2008,NA,0,2.75627913807514,2.82656339306994,2.31447335265955,2.87079455148828,FALSE,1.33258649903933
"CAN","cpi",0.3,2008,3,2008,NA,0.5,0.986705392839057,1.53074283578494,2.31447335265955,1.31005314695267,FALSE,2.78326749115905
"CAN","cpi",0.3,2008,3,2007,NA,1,0.88790138505136,1.43243437822215,2.31447335265955,1.47031049982668,FALSE,3.06464434870622
"CAN","cpi",0.3,2008,3,2007,NA,1.5,1.59176977070822,2.27900926332169,2.31447335265955,2.46453195342394,FALSE,0.788565462150213
"CAN","cpi",0.3,2009,3,2009,NA,0,0.00537726709283134,0.132620752626555,0.284533874408197,0.187122346349721,FALSE,0.561280976338416
"CAN","cpi",0.3,2009,3,2009,NA,0.5,-0.27300240702827,0.29937600058557,0.284533874408197,-0.0727492620466167,TRUE,0.57237840761384
"CAN","cpi",0.3,2009,3,2008,NA,1,3.24181720108002,3.81419560869386,0.284533874408197,3.81780026356951,FALSE,9.0217593409619
"CAN","cpi",0.3,2009,3,2008,NA,1.5,0.861762621569173,1.5223798919748,0.284533874408197,1.68675152630419,FALSE,2.30984226229413
"CAN","cpi",0.3,2010,3,2010,NA,0,1.43625314957187,1.57159845445857,1.75525687020327,1.6089956646354,FALSE,0.660083635585845
"CAN","cpi",0.3,2010,3,2010,NA,0.5,1.81927839451699,2.3663677121097,1.75525687020327,1.91109502526183,FALSE,0.730007958489038
"CAN","cpi",0.3,2010,3,2009,NA,1,0.105486947528434,0.886684443886665,1.75525687020327,0.992295788494754,FALSE,3.26283300011997
"CAN","cpi",0.3,2010,3,2009,NA,1.5,-0.000289375120217594,0.780908121238014,1.75525687020327,0.885103052815867,FALSE,3.5650510648304
"CAN","cpi",0.3,2011,3,2011,NA,0,2.70764600129427,2.85401538682392,2.85717434028225,2.86665414062098,FALSE,0.155394966839157
"CAN","cpi",0.3,2011,3,2011,NA,0.5,2.6028552638643,3.13999921401332,2.85717434028225,2.76583381894771,TRUE,0.537143950149012
"CAN","cpi",0.3,2011,3,2010,NA,1,0.569124392140892,1.38871221637531,2.85717434028225,1.39294644169719,FALSE,5.01519389253995
"CAN","cpi",0.3,2011,3,2010,NA,1.5,0.929386296934661,1.74897412116908,2.85717434028225,1.64253060592363,FALSE,3.98587416455775
"CAN","cpi",0.3,2012,3,2012,NA,0,1.37152521520137,1.51853959613518,1.50118536134935,1.52822510849394,TRUE,0.147014380933812
"CAN","cpi",0.3,2012,3,2012,NA,0.5,1.74118341399145,2.27559410876357,1.50118536134935,1.92429021972789,FALSE,1.2201194166067
"CAN","cpi",0.3,2012,3,2011,NA,1,1.3072050224509,2.20324738238936,1.50118536134935,1.99945242447079,TRUE,0.896042359938462
"CAN","cpi",0.3,2012,3,2011,NA,1.5,1.80476507852512,2.70080743846359,1.50118536134935,2.48150957397962,FALSE,1.76341298044069
"CAN","cpi",0.3,2013,3,2013,NA,0,0.928728749059433,1.06647136905723,0.931270594714462,1.05630513423211,TRUE,0.137742619997799
"CAN","cpi",0.3,2013,3,2013,NA,0.5,0.938227734980633,1.48442034816713,0.931270594714462,1.16963454554932,FALSE,0.566070156804134
"CAN","cpi",0.3,2013,3,2012,NA,1,0.463274559258991,1.35513617767798,0.931270594714462,1.08868089128742,TRUE,0.891861618418985
"CAN","cpi",0.3,2013,3,2012,NA,1.5,1.43047053297082,2.32233215138981,0.931270594714462,2.14573179530527,FALSE,2.3181471562943
"CAN","cpi",0.3,2014,3,2014,NA,0,1.86503290202475,2.0035634041361,1.87639912240215,1.99862849145116,TRUE,0.138530502111347
"CAN","cpi",0.3,2014,3,2014,NA,0.5,1.49067508473809,2.02030424051822,1.87639912240215,1.79231976082687,TRUE,0.529629155780133
"CAN","cpi",0.3,2014,3,2013,NA,1,0.767151596257111,1.66881319747998,1.87639912240215,1.40664989819898,FALSE,1.49476424385764
"CAN","cpi",0.3,2014,3,2013,NA,1.5,0.757592102832249,1.65925370405512,1.87639912240215,1.51436121777893,FALSE,1.52207708221439
"CAN","cpi",0.3,2015,3,2015,NA,0,1.06591342293061,1.20406562549433,1.11090953952792,1.2103065042478,TRUE,0.138152202563722
"CAN","cpi",0.3,2015,3,2015,NA,0.5,0.438684818660378,0.74775236889506,1.11090953952792,0.458547315718059,FALSE,1.34665946632856
"CAN","cpi",0.3,2015,3,2014,NA,1,1.08215649116651,1.97506619404394,1.11090953952792,1.57054781428135,TRUE,0.89290970287743
"CAN","cpi",0.3,2015,3,2014,NA,1.5,1.13391348306006,2.02682318593749,1.11090953952792,1.88229109541157,FALSE,0.958635255826419
"CAN","cpi",0.3,2016,3,2016,NA,0,1.25960218521931,1.3939690125264,1.41168586698797,1.41630667471992,FALSE,0.184986411482984
"CAN","cpi",0.3,2016,3,2016,NA,0.5,1.18388585576672,1.51279985935471,1.41168586698797,1.17972158292925,TRUE,0.328914003587987
"CAN","cpi",0.3,2016,3,2015,NA,1,1.3726771355267,2.18081815818901,1.41168586698797,1.8638656605167,TRUE,0.80814102266231
"CAN","cpi",0.3,2016,3,2015,NA,1.5,0.515518078228196,1.32365910089051,1.41168586698797,1.07023002715086,FALSE,1.05964606865505
"CAN","cpi",0.3,2017,3,2017,NA,0,1.36263940042334,1.49692074511453,1.57888581671161,1.50492692646759,FALSE,0.368467263539996
"CAN","cpi",0.3,2017,3,2017,NA,0.5,2.0661396336659,2.37182826012474,1.57888581671161,2.09086618282141,FALSE,1.69784238918538
"CAN","cpi",0.3,2017,3,2016,NA,1,0.565894720434828,1.37246363207278,1.57888581671161,1.14652050352824,FALSE,1.3963465820346
"CAN","cpi",0.3,2017,3,2016,NA,1.5,0.73165244251108,1.53822135414904,1.57888581671161,1.26788084523026,FALSE,0.92275309038817
"CAN","cpi",0.3,2018,3,2018,NA,0,2.28684733036109,2.42446593744466,2.23316270166586,2.41317537496083,FALSE,0.291003260498511
"CAN","cpi",0.3,2018,3,2018,NA,0.5,2.45353502803925,2.78746267726747,2.23316270166586,2.52809119314695,FALSE,0.963562867437912
"CAN","cpi",0.3,2018,3,2017,NA,1,0.719386361303052,1.51928994958656,2.23316270166586,1.16800101916097,FALSE,2.83954002279578
"CAN","cpi",0.3,2018,3,2017,NA,1.5,1.53869475166502,2.33859833994853,2.23316270166586,2.07298402260093,TRUE,0.799903588283512
"CAN","cpi",0.3,2019,3,2019,NA,0,NA,NA,1.91921619871868,NA,NA,NA
"CAN","cpi",0.3,2019,3,2019,NA,0.5,1.37412004227148,1.71740770399082,1.91921619871868,1.47328806303322,FALSE,0.91988336094179
"CAN","cpi",0.3,2019,3,2018,NA,1,1.82270299673689,2.63540557616794,1.91921619871868,2.23470281046333,TRUE,0.812702579431051
"CAN","cpi",0.3,2019,3,2018,NA,1.5,1.79950267459483,2.61220525402588,1.91921619871868,2.32030562567512,TRUE,0.812702579431051
"CAN","cpi",0.3,2020,3,2020,NA,0,0.609314500163962,0.687826317677947,0.71139989671781,0.673588636713597,FALSE,0.145864900485022
"CAN","cpi",0.3,2020,3,2020,NA,0.5,NA,NA,0.71139989671781,NA,NA,NA
"CAN","cpi",0.3,2020,3,2019,NA,1,NA,NA,0.71139989671781,NA,NA,NA
"CAN","cpi",0.3,2020,3,2019,NA,1.5,1.3204845790959,1.95907996853408,0.71139989671781,1.77705491937904,FALSE,2.37883733908987
"CAN","cpi",0.3,2021,3,2021,NA,0,3.18454836081724,3.25862446092901,3.31148121717802,3.2525646654712,FALSE,0.22509540368037
"CAN","cpi",0.3,2021,3,2021,NA,0.5,2.01687285988239,2.29488849109168,3.31148121717802,2.16773480502693,FALSE,3.18256627717028
"CAN","cpi",0.3,2021,3,2020,NA,1,1.58273657597152,2.10097554564768,3.31148121717802,1.61070774476322,FALSE,3.97682660262
"CAN","cpi",0.3,2021,3,2020,NA,1.5,NA,NA,3.31148121717802,NA,NA,NA
"CAN","cpi",0.3,2022,3,2022,NA,0,6.51527181990044,6.57896057614887,6.50977236228281,6.58682891800883,FALSE,0.0794014922988069
"CAN","cpi",0.3,2022,3,2022,NA,0.5,5.51649225490956,5.89772666307052,6.50977236228281,5.58900513180898,FALSE,2.12993640591035
"CAN","cpi",0.3,2022,3,2021,NA,1,3.38168548911252,3.98011515157335,6.50977236228281,3.35597076522593,FALSE,7.82602169305929
"CAN","cpi",0.3,2022,3,2021,NA,1.5,1.39100836149812,1.98943802395896,6.50977236228281,1.89458222166426,FALSE,13.5136706291004
"CAN","cpi",0.3,2023,3,2023,NA,0,3.88389527619997,3.94759516106905,3.78831288758619,3.96221561415741,FALSE,0.336792423765584
"CAN","cpi",0.3,2023,3,2023,NA,0.5,3.6014223460729,4.0250657634563,3.78831288758619,3.6121970566696,TRUE,0.423643417383398
"CAN","cpi",0.3,2023,3,2022,NA,1,5.54531970308622,6.41482465912377,3.78831288758619,5.4861852561408,FALSE,5.88952442889477
"CAN","cpi",0.3,2023,3,2022,NA,1.5,3.37218974896804,4.61034297959122,3.78831288758619,3.85557075258935,TRUE,1.23815323062317
"CAN","cpi",0.3,2024,3,2023,NA,1,4.60319517951803,5.59027380739849,NA,4.72280809903739,NA,NA
"CAN","cpi",0.3,2024,3,2023,NA,1.5,3.99061932295,5.19749536221824,NA,4.36705509613113,NA,NA
"CAN","cpi",0.4,1959,3,1959,NA,0,1.10723098923961,1.27367762969271,1.19382698397654,1.24991216431293,TRUE,0.166446640453107
"CAN","cpi",0.4,1959,3,1959,NA,0.5,-0.196829318218743,1.71338867495824,1.19382698397654,0.437839731590327,TRUE,1.91021799317698
"CAN","cpi",0.4,1959,3,1958,NA,1,-1.69730175443327,1.63340584594759,1.19382698397654,1.75862762885946,TRUE,3.33070760038085
"CAN","cpi",0.4,1959,3,1958,NA,1.5,-1.18719307374025,5.61485911120981,1.19382698397654,1.77407172713766,TRUE,6.80205218495006
"CAN","cpi",0.4,1960,3,1960,NA,0,0.912798660739423,1.0594328808112,1.34209404870695,1.02361304259477,FALSE,1.08883811305763
"CAN","cpi",0.4,1960,3,1960,NA,0.5,0.00688007372241506,1.90838549237987,1.34209404870695,0.53898348018166,TRUE,1.90150541865745
"CAN","cpi",0.4,1960,3,1959,NA,1,0.367975493099945,3.10847186341171,1.34209404870695,3.95759373689442,TRUE,2.74049637031176
"CAN","cpi",0.4,1960,3,1959,NA,1.5,-4.36358318065025,2.01596348633298,1.34209404870695,-0.873476815404885,TRUE,6.37954666698323
"CAN","cpi",0.4,1961,3,1961,NA,0,0.918093053206156,1.09836610061437,1.00921348094007,1.00921348094007,TRUE,0.180273047408214
"CAN","cpi",0.4,1961,3,1961,NA,0.5,1.12700817918322,2.51255157788091,1.00921348094007,1.00921348094007,FALSE,1.77819239284153
"CAN","cpi",0.4,1961,3,1960,NA,1,-2.92581642390059,-0.638141219657121,1.00921348094007,0.0537704626035329,FALSE,7.77885753956744
"CAN","cpi",0.4,1961,3,1960,NA,1.5,-3.34592506328462,2.67479514129206,1.00921348094007,-0.862181798940035,TRUE,6.02072020457668
"CAN","cpi",0.4,1962,3,1962,NA,0,0.998594946515295,1.159495383708,1.04957947883042,1.10232402731478,TRUE,0.160900437192706
"CAN","cpi",0.4,1962,3,1962,NA,0.5,-0.0578403984525364,1.12060228046069,1.04957947883042,0,TRUE,1.17844267891323
"CAN","cpi",0.4,1962,3,1961,NA,1,-2.73091149239424,-0.310586315478198,1.04957947883042,0,FALSE,6.95421115794475
"CAN","cpi",0.4,1962,3,1961,NA,1.5,-0.902823776793364,4.06555546708568,1.04957947883042,0,TRUE,4.96837924387905
"CAN","cpi",0.4,1963,3,1963,NA,0,1.80948743891675,1.97060449561592,1.60677118395228,1.91491729531202,FALSE,0.836837906580728
"CAN","cpi",0.4,1963,3,1963,NA,0.5,0.784874720450009,1.96664556722481,1.60677118395228,0.836828714617504,TRUE,1.1817708467748
"CAN","cpi",0.4,1963,3,1962,NA,1,-0.192131106073516,1.97980224977938,1.60677118395228,2.56411490415144,TRUE,2.1719333558529
"CAN","cpi",0.4,1963,3,1962,NA,1.5,-1.19621556367863,2.3560979228096,1.60677118395228,0,TRUE,3.55231348648822
"CAN","cpi",0.4,1964,3,1964,NA,0,1.84168347586751,2.02142032069302,1.88764670034376,1.98877256446048,TRUE,0.179736844825512
"CAN","cpi",0.4,1964,3,1964,NA,0.5,1.96860806163885,2.49802599449319,1.88764670034376,1.38369006227607,FALSE,0.799289137171296
"CAN","cpi",0.4,1964,3,1963,NA,1,3.27962499823237,5.01106849476035,1.88764670034376,5.39044290347256,FALSE,6.37137115615668
"CAN","cpi",0.4,1964,3,1963,NA,1.5,-0.337371679433315,2.69829912523448,1.88764670034376,0,TRUE,3.03567080466779
"CAN","cpi",0.4,1965,3,1965,NA,0,2.19455657596626,2.37478428720649,2.29538304394236,2.34557047418999,TRUE,0.180227711240233
"CAN","cpi",0.4,1965,3,1965,NA,0.5,2.1572476660319,2.696644000966,2.29538304394236,1.61079447956654,TRUE,0.539396334934103
"CAN","cpi",0.4,1965,3,1964,NA,1,0.0729510923594463,1.6760546221937,2.29538304394236,2.42518862179847,FALSE,3.66753160232978
"CAN","cpi",0.4,1965,3,1964,NA,1.5,2.00048276621305,3.6035862960473,2.29538304394236,0.818102552316399,TRUE,1.60310352983425
"CAN","cpi",0.4,1966,3,1966,NA,0,3.69068614591595,3.86139140172315,3.72486065470629,3.82010987863709,TRUE,0.170705255807199
"CAN","cpi",0.4,1966,3,1966,NA,0.5,4.50996529829687,5.04685763647932,3.72486065470629,3.99123398895563,FALSE,3.15390781681772
"CAN","cpi",0.4,1966,3,1965,NA,1,1.09014613557644,2.69729357874697,3.72486065470629,3.20722068745854,FALSE,5.0323710297016
"CAN","cpi",0.4,1966,3,1965,NA,1.5,2.74567292614118,4.35282036931171,3.72486065470629,1.60663824631958,TRUE,1.60714744317053
"CAN","cpi",0.4,1967,3,1967,NA,0,3.62577831357087,3.79352127004747,3.49360316391996,3.76768849328632,FALSE,0.608326788646297
"CAN","cpi",0.4,1967,3,1967,NA,0.5,2.77493004223726,3.39415396527199,3.49360316391996,2.4074547441976,FALSE,0.950721251861284
"CAN","cpi",0.4,1967,3,1966,NA,1,1.42389208141411,3.0046612536275,3.49360316391996,3.18103323070284,FALSE,3.21057553985491
"CAN","cpi",0.4,1967,3,1966,NA,1.5,5.80795505473523,7.38872422694862,3.49360316391996,4.65128160487248,FALSE,9.29527547493095
"CAN","cpi",0.4,1968,3,1968,NA,0,4.02490539865933,4.19731883116548,3.95128347779386,4.17287945672396,FALSE,0.417819835391058
"CAN","cpi",0.4,1968,3,1968,NA,0.5,4.43409966355543,4.88919619358588,3.95128347779386,4.07097205779852,FALSE,2.06448381590237
"CAN","cpi",0.4,1968,3,1967,NA,1,4.0266543827902,5.70655556348484,3.95128347779386,5.84521682123848,FALSE,1.93113753068245
"CAN","cpi",0.4,1968,3,1967,NA,1.5,2.96488309241708,4.64478427311171,3.95128347779386,2.25565858240226,TRUE,1.67990118069463
"CAN","cpi",0.4,1969,3,1969,NA,0,4.31415016276759,4.49055980313176,4.42679496126681,4.46896837073893,TRUE,0.176409640364177
"CAN","cpi",0.4,1969,3,1969,NA,0.5,3.21525533872046,3.69348045938499,4.42679496126681,2.96612019395715,FALSE,2.92260679360396
"CAN","cpi",0.4,1969,3,1968,NA,1,5.2565522267766,6.57175221691685,4.42679496126681,6.72487630040807,FALSE,4.08105754183952
"CAN","cpi",0.4,1969,3,1968,NA,1.5,4.89568246235223,6.21088245249249,4.42679496126681,4.31664452944541,FALSE,2.87815832709165
"CAN","cpi",0.4,1970,3,1970,NA,0,3.36315436023473,3.53026648405582,3.28128405769805,3.52697515579364,FALSE,0.440013132276712
"CAN","cpi",0.4,1970,3,1970,NA,0.5,4.99528995485709,5.53539106782638,3.28128405769805,4.65371085276917,FALSE,6.25345410349944
"CAN","cpi",0.4,1970,3,1969,NA,1,3.02346586400847,4.37203197970776,3.28128405769805,4.52747875087707,TRUE,1.34856611569929
"CAN","cpi",0.4,1970,3,1969,NA,1.5,2.52312073772987,3.87168685342916,3.28128405769805,2.07973847283129,TRUE,1.34856611569929
"CAN","cpi",0.4,1971,3,1971,NA,0,2.65481913975357,2.82882410555455,2.64123406634756,2.8393232579169,FALSE,0.219288543821011
