isdrw/probabilistic-benchmark-forecasts/exploratory analysis/linear_quantile_regression_lag results/ldr_lag_prediction_ar1_2026-02-25_19-36-43.csv
"country","target","tau","target_year","target_quarter","forecast_year","forecast_quarter","horizon","lower_bound","upper_bound","truth_value","prediction","covered","IS"
"CAN","cpi",0.1,1952,3,1952,NA,0,2.70614679242123,2.70614679242123,2.55562336095485,2.50792675283471,FALSE,0.334496514369742
"CAN","cpi",0.1,1952,3,1952,NA,0.5,4.71472247021009,4.71472247021009,2.55562336095485,3.80942800622696,FALSE,4.79799802056722
"CAN","cpi",0.1,1952,3,1951,NA,1,5.84034280856463,5.84034280856463,2.55562336095485,6.36946346746546,FALSE,7.29937655024396
"CAN","cpi",0.1,1952,3,1951,NA,1.5,-11.9976975802162,-11.9976975802162,2.55562336095485,4.80604275648344,FALSE,32.3407132026022
"CAN","cpi",0.1,1953,3,1953,NA,0,-0.497981743864032,-0.497981743864032,-1.01492775838436,-1.00118391953201,FALSE,1.14876892115629
"CAN","cpi",0.1,1953,3,1953,NA,0.5,1.38339800459375,1.38339800459375,-1.01492775838436,-1.88711612688489,FALSE,5.32961280661803
"CAN","cpi",0.1,1953,3,1952,NA,1,-0.754321879464138,-0.754321879464138,-1.01492775838436,-0.873617238258229,FALSE,0.579124175378276
"CAN","cpi",0.1,1953,3,1952,NA,1.5,5.6924500962626,5.6924500962626,-1.01492775838436,0.432272395627528,FALSE,14.9052841214377
"CAN","cpi",0.1,1954,3,1954,NA,0,0.884427845816549,0.70009167045733,0.644425455961438,0.831821956393317,FALSE,0.34900246876325
"CAN","cpi",0.1,1954,3,1954,NA,0.5,1.10851630415733,0.924180128798111,0.644425455961438,-0.141712452464762,FALSE,0.846976820631652
"CAN","cpi",0.1,1954,3,1953,NA,1,8.74059013230381,8.55625395694459,0.644425455961438,2.12291681679911,FALSE,17.8071408831794
"CAN","cpi",0.1,1954,3,1953,NA,1.5,-3.39783340852307,-3.58216958388229,0.644425455961438,-1.28741438714058,FALSE,9.20809724651574
"CAN","cpi",0.1,1955,3,1955,NA,0,0.0758035245056749,0.0758035245056749,0.173649026558865,0.10295813188439,FALSE,0.217434449007089
"CAN","cpi",0.1,1955,3,1955,NA,0.5,0.494706824845946,0.494706824845946,0.173649026558865,-0.548848324097393,FALSE,0.713461773971292
"CAN","cpi",0.1,1955,3,1954,NA,1,1.83545168384422,5.92898643730052,0.173649026558865,2.19101630104756,FALSE,7.78642954742376
"CAN","cpi",0.1,1955,3,1954,NA,1.5,0.244995913101274,4.33853066655757,0.173649026558865,-0.815294949881493,FALSE,4.25208339021721
"CAN","cpi",0.1,1956,3,1956,NA,0,1.43750852277056,1.43750852277056,1.32752769429961,1.46434436590257,FALSE,0.244401841046565
"CAN","cpi",0.1,1956,3,1956,NA,0.5,0.342692803095664,0.506180107856998,1.32752769429961,-0.485738076612692,FALSE,1.98870416352269
"CAN","cpi",0.1,1956,3,1955,NA,1,-0.309125090031469,-0.145637785270134,1.32752769429961,0.557995939500226,FALSE,3.43718837047187
"CAN","cpi",0.1,1956,3,1955,NA,1.5,-0.626041978962363,1.00683877439472,1.32752769429961,-0.793756041684752,FALSE,2.34552279759017
"CAN","cpi",0.1,1957,3,1957,NA,0,3.31480693496871,3.33493612604342,3.24684755852518,3.35523637829212,FALSE,0.171150027615901
"CAN","cpi",0.1,1957,3,1957,NA,0.5,3.24346537102861,3.26359456210332,3.24684755852518,2.12793087018929,TRUE,0.0201291910747114
"CAN","cpi",0.1,1957,3,1956,NA,1,2.72147942577109,4.24311125719728,3.24684755852518,4.42886834530761,TRUE,1.52163183142618
"CAN","cpi",0.1,1957,3,1956,NA,1.5,1.10617273385962,2.6278045652858,3.24684755852518,-0.785064469253982,FALSE,2.89728292751368
"CAN","cpi",0.1,1958,3,1958,NA,0,2.15169847355933,2.17891279142001,2.33186388641149,2.20013349321115,FALSE,0.367105640063971
"CAN","cpi",0.1,1958,3,1958,NA,0.5,3.0053846308425,3.03259894870318,2.33186388641149,2.0126030377883,FALSE,1.52392708326292
"CAN","cpi",0.1,1958,3,1957,NA,1,1.73264417657905,1.75985849443973,2.33186388641149,2.83859761398538,FALSE,1.29833741113125
"CAN","cpi",0.1,1958,3,1957,NA,1.5,2.06957603373736,3.13857552210571,2.33186388641149,0.366312073207214,TRUE,1.06899948836835
"CAN","cpi",0.1,1959,3,1959,NA,0,1.14257233952932,1.17080626417419,1.19382698397654,1.18954599151176,FALSE,0.0793910797612019
"CAN","cpi",0.1,1959,3,1959,NA,0.5,1.52296244107476,1.55119636571964,1.19382698397654,0.545308327160925,FALSE,0.759646051529807
"CAN","cpi",0.1,1959,3,1958,NA,1,0.880634054233776,1.11054542608671,1.19382698397654,1.13295114249046,FALSE,0.414981500497005
"CAN","cpi",0.1,1959,3,1958,NA,1.5,0.551767616732013,0.781678988584944,1.19382698397654,0.717422088079289,FALSE,1.14579580605648
"CAN","cpi",0.1,1960,3,1960,NA,0,1.00442997262496,1.00442997262496,1.34209404870695,1.02361304259477,FALSE,0.750364613515535
"CAN","cpi",0.1,1960,3,1960,NA,0.5,1.50736554705905,1.64019828832781,1.34209404870695,0.648611007713657,FALSE,0.500102737606748
"CAN","cpi",0.1,1960,3,1959,NA,1,1.98304830484187,2.11588104611063,1.34209404870695,2.37666873185636,FALSE,1.55717553267969
"CAN","cpi",0.1,1960,3,1959,NA,1.5,1.39237101345771,1.56283558850165,1.34209404870695,-0.349092179567277,FALSE,0.282191163378955
"CAN","cpi",0.1,1961,3,1961,NA,0,0.994779018256465,1.00172161988571,1.00921348094007,1.00921348094007,FALSE,0.0235911817500484
"CAN","cpi",0.1,1961,3,1961,NA,0.5,1.81981723604912,1.82675983767836,1.00921348094007,1.00921348094007,FALSE,1.80828427964935
"CAN","cpi",0.1,1961,3,1960,NA,1,0.0708110452225371,0.465067640991241,1.00921348094007,0.0537704626035329,FALSE,1.60346957343277
"CAN","cpi",0.1,1961,3,1960,NA,1.5,1.31746223880669,1.7117188345754,1.00921348094007,-0.332316386156399,FALSE,1.07925383547231
"CAN","cpi",0.1,1962,3,1962,NA,0,1.05878735939126,1.06287054606068,1.04957947883042,1.0653801125483,FALSE,0.0245451434712974
"CAN","cpi",0.1,1962,3,1962,NA,0.5,0.718115527232994,0.749872048030128,1.04957947883042,0,FALSE,0.697773033686661
"CAN","cpi",0.1,1962,3,1961,NA,1,0.753826225851415,0.869835436060116,1.04957947883042,0,FALSE,0.515440416364921
"CAN","cpi",0.1,1962,3,1961,NA,1.5,0.63551324388507,0.751522454093772,1.04957947883042,0,FALSE,0.778358154067909
"CAN","cpi",0.1,1963,3,1963,NA,0,1.81695718484556,1.8254206524597,1.60677118395228,1.83024954277348,FALSE,0.475543469599192
"CAN","cpi",0.1,1963,3,1963,NA,0.5,1.67982549756041,1.88161563841256,1.60677118395228,0.836828714617504,FALSE,0.364133059981316
"CAN","cpi",0.1,1963,3,1962,NA,1,1.60328014815497,1.80507028900712,1.60677118395228,1.60935100695326,TRUE,0.20179014085215
"CAN","cpi",0.1,1963,3,1962,NA,1.5,0.85461895333786,1.05640909419001,1.60677118395228,0,FALSE,1.42481700699054
"CAN","cpi",0.1,1964,3,1964,NA,0,1.94380515391504,1.95182892669353,1.88764670034376,1.95194648443024,FALSE,0.132820336270218
"CAN","cpi",0.1,1964,3,1964,NA,0.5,2.04435116968893,2.09664896710107,1.88764670034376,1.27307816843398,FALSE,0.40052995151252
"CAN","cpi",0.1,1964,3,1963,NA,1,2.48377100526501,2.5764929455159,1.88764670034376,3.20172332637508,FALSE,1.41744261785367
"CAN","cpi",0.1,1964,3,1963,NA,1.5,1.3831380420307,1.47585998228159,1.88764670034376,0,FALSE,1.0078035359446
"CAN","cpi",0.1,1965,3,1965,NA,0,2.28925727618932,2.29326117594283,2.29538304394236,2.29800189469823,FALSE,0.00871916197468082
"CAN","cpi",0.1,1965,3,1965,NA,0.5,2.14992251256237,2.2158387307445,2.29538304394236,1.39443218256826,FALSE,0.242681358621814
"CAN","cpi",0.1,1965,3,1964,NA,1,1.45998573099553,1.61329299616992,2.29538304394236,1.48078368039448,FALSE,1.66906292689093
"CAN","cpi",0.1,1965,3,1964,NA,1.5,1.2632088928932,1.41651615806759,2.29538304394236,0.293257399533461,FALSE,2.10634478934053
"CAN","cpi",0.1,1966,3,1966,NA,0,3.77492358583949,3.77972402442717,3.72486065470629,3.77511268244847,FALSE,0.116051396661457
"CAN","cpi",0.1,1966,3,1966,NA,0.5,4.21844058309368,4.33510618438976,3.72486065470629,3.37743719728421,FALSE,1.21350988660138
"CAN","cpi",0.1,1966,3,1965,NA,1,1.63504935228945,1.80586454896438,3.72486065470629,1.98486973144544,FALSE,4.4352509872125
"CAN","cpi",0.1,1966,3,1965,NA,1.5,1.24886553787416,1.41968073454909,3.72486065470629,0.578640834001038,FALSE,5.2934372414687
"CAN","cpi",0.1,1967,3,1967,NA,0,3.696041270743,3.69878154993148,3.49360316391996,3.68375770714608,FALSE,0.452602738795229
"CAN","cpi",0.1,1967,3,1967,NA,0.5,2.71847767585755,2.78715059185932,3.49360316391996,2.11054708048259,FALSE,1.63856752058097
"CAN","cpi",0.1,1967,3,1966,NA,1,1.72571716927551,1.79439008527729,3.49360316391996,2.02003307533501,FALSE,3.84470197965215
"CAN","cpi",0.1,1967,3,1966,NA,1.5,1.18039707889783,1.24906999489961,3.49360316391996,1.71558536379673,FALSE,5.05652440271367
"CAN","cpi",0.1,1968,3,1968,NA,0,4.03427053263254,4.08497894743942,3.95128347779386,4.07085717819357,FALSE,0.235124092226184
"CAN","cpi",0.1,1968,3,1968,NA,0.5,4.08122035756499,4.36651483979125,3.95128347779386,3.50732233276501,FALSE,0.574043103939886
"CAN","cpi",0.1,1968,3,1967,NA,1,2.36272968708488,2.64802416931114,3.95128347779386,3.66303679301692,FALSE,3.18142627885451
"CAN","cpi",0.1,1968,3,1967,NA,1.5,1.82111721452728,2.10641169675354,3.95128347779386,0.834881519045053,FALSE,4.38500955120475
"CAN","cpi",0.1,1969,3,1969,NA,0,4.49159317777602,4.54468038466056,4.42679496126681,4.52532640008253,FALSE,0.197083243571667
"CAN","cpi",0.1,1969,3,1969,NA,0.5,3.20149933220812,3.31814136213618,4.42679496126681,2.69090620784681,FALSE,2.5803166946628
"CAN","cpi",0.1,1969,3,1968,NA,1,2.72353446343338,2.84017649336145,4.42679496126681,4.0779393276339,FALSE,3.64246084749555
"CAN","cpi",0.1,1969,3,1968,NA,1.5,1.53331059439622,1.7557628714958,4.42679496126681,1.61221871335458,FALSE,6.15807914325739
"CAN","cpi",0.1,1970,3,1970,NA,0,3.51791622328908,3.57951314200115,3.28128405769805,3.55878605435979,FALSE,0.587446175581041
"CAN","cpi",0.1,1970,3,1970,NA,0.5,4.36720689268236,4.52278190364505,3.28128405769805,3.74969277403504,FALSE,2.56873686648339
"CAN","cpi",0.1,1970,3,1969,NA,1,2.20354710440828,2.35912211537097,3.28128405769805,3.11186608282608,FALSE,2.20482377168953
"CAN","cpi",0.1,1970,3,1969,NA,1.5,2.51576705406597,2.67134206502866,3.28128405769805,0.764941977259638,FALSE,1.51100166133911
"CAN","cpi",0.1,1971,3,1971,NA,0,2.74832607782634,2.79528902612502,2.64123406634756,2.81514553288871,FALSE,0.284945196029299
"CAN","cpi",0.1,1971,3,1971,NA,0.5,1.75391752280014,1.83158330642343,2.64123406634756,1.11673730766521,FALSE,1.8768896945658
"CAN","cpi",0.1,1971,3,1970,NA,1,1.76744755147657,1.84511333509986,2.64123406634756,1.92043450460395,FALSE,1.84682296417374
"CAN","cpi",0.1,1971,3,1970,NA,1.5,0.993500304358326,1.07116608798162,2.64123406634756,1.70194075200601,FALSE,3.56670573554761
"CAN","cpi",0.1,1972,3,1972,NA,0,4.93277808664879,4.97858708150245,4.83230569625923,5.04828762155974,FALSE,0.26908097349713
"CAN","cpi",0.1,1972,3,1972,NA,0.5,4.52165146504655,4.67358214038763,4.83230569625923,4.09602385359717,FALSE,0.504649688389073
"CAN","cpi",0.1,1972,3,1971,NA,1,2.97932019558472,3.1312508709258,4.83230569625923,4.16812111633716,FALSE,3.93205250941537
"CAN","cpi",0.1,1972,3,1971,NA,1.5,1.59048409735781,1.91644585712562,4.83230569625923,0.692030005351089,FALSE,6.80565029117584
"CAN","cpi",0.1,1973,3,1973,NA,0,7.0937040919579,7.06408934399206,7.12388603531779,7.25096132226983,FALSE,0.10326678831357
"CAN","cpi",0.1,1973,3,1973,NA,0.5,5.69204206084239,5.95449580399846,7.12388603531779,5.30446017290082,FALSE,2.86109870164346
"CAN","cpi",0.1,1973,3,1972,NA,1,3.49784527687017,4.26355173466158,7.12388603531779,4.92276035792265,FALSE,7.1220049036941
"CAN","cpi",0.1,1973,3,1972,NA,1.5,1.78769779278079,2.5534042505722,7.12388603531779,1.79187879074203,FALSE,10.9223326461149
"CAN","cpi",0.1,1974,3,1974,NA,0,10.0027851812654,9.97676124867477,10.2717243737774,10.148911210151,FALSE,0.629449678748623
"CAN","cpi",0.1,1974,3,1974,NA,0.5,8.56765626274526,8.99449084773579,10.2717243737774,7.90446289245049,FALSE,3.26513130952749
"CAN","cpi",0.1,1974,3,1973,NA,1,4.55132508247001,6.52258620237468,10.2717243737774,7.30476096756609,FALSE,10.3026792785774
"CAN","cpi",0.1,1974,3,1973,NA,1.5,2.62269902024453,4.59396014014921,10.2717243737774,2.5663290958369,FALSE,14.5885149724118
"CAN","cpi",0.1,1975,3,1975,NA,0,10.0873428031777,10.1846717741726,10.0232981493341,10.1746571103793,FALSE,0.239650423980634
"CAN","cpi",0.1,1975,3,1975,NA,0.5,8.86410844627268,9.02582045531937,10.0232981493341,8.07152306914465,FALSE,2.37832910685725
"CAN","cpi",0.1,1975,3,1974,NA,1,6.86870993491797,7.82693761545795,10.0232981493341,7.8187778356914,FALSE,5.83902886693146
"CAN","cpi",0.1,1975,3,1974,NA,1.5,4.99925838547663,5.95748606601661,10.0232981493341,3.64914274700436,FALSE,9.99336564346778
"CAN","cpi",0.1,1976,3,1976,NA,0,7.14878904976303,7.13771012895677,7.22784311401172,7.18995143043805,FALSE,0.189216601538061
"CAN","cpi",0.1,1976,3,1976,NA,0.5,7.54592145741997,7.8564762810449,7.22784311401172,6.61333364285308,FALSE,1.01739558675438
"CAN","cpi",0.1,1976,3,1975,NA,1,9.58223920936621,9.89279403299114,7.22784311401172,8.584971075903,FALSE,5.54254614663491
"CAN","cpi",0.1,1976,3,1975,NA,1.5,5.97282934396267,10.1592591342331,7.22784311401172,3.14738569995591,TRUE,4.18642979027039
"CAN","cpi",0.1,1977,3,1977,NA,0,7.40890696575321,7.49038427583111,7.58101410153764,7.50176944503946,FALSE,0.282876922759092
"CAN","cpi",0.1,1977,3,1977,NA,0.5,7.22223883362004,7.39459952776293,7.58101410153764,6.40571638826874,FALSE,0.586615302531138
"CAN","cpi",0.1,1977,3,1976,NA,1,4.1392749847282,4.46626831681112,7.58101410153764,4.04909286077014,FALSE,7.2486506314752
"CAN","cpi",0.1,1977,3,1976,NA,1.5,5.14332170272978,5.47031503481269,7.58101410153764,2.59432747727492,FALSE,5.01743570258282
"CAN","cpi",0.1,1978,3,1978,NA,0,8.50163004331654,8.57674747014838,8.50208927062595,8.59104847384149,TRUE,0.0751174268318415
"CAN","cpi",0.1,1978,3,1978,NA,0.5,8.39261368876954,8.57672705782079,8.50208927062595,7.34113908733495,TRUE,0.184113369051254
"CAN","cpi",0.1,1978,3,1977,NA,1,5.59040286771245,6.809409394946,8.50208927062595,5.87902868518151,FALSE,4.98051736207788
"CAN","cpi",0.1,1978,3,1977,NA,1.5,4.89435370451946,6.113360231753,8.50208927062595,3.89293485842214,FALSE,6.52729328028453
"CAN","cpi",0.1,1979,3,1979,NA,0,8.41467620687353,8.48501728341216,8.65147652410481,8.48651410143776,FALSE,0.44025050030008
"CAN","cpi",0.1,1979,3,1979,NA,0.5,8.48691870756689,8.61377039888496,8.65147652410481,7.46186747064873,FALSE,0.210643080695507
"CAN","cpi",0.1,1979,3,1978,NA,1,7.45349711064612,8.53749070256575,8.65147652410481,6.93686058379669,FALSE,1.33729541756199
"CAN","cpi",0.1,1979,3,1978,NA,1.5,6.56754801243412,7.65154160435374,8.65147652410481,3.9179710204728,FALSE,3.30607119136644
"CAN","cpi",0.1,1980,3,1980,NA,0,9.35227190389969,9.43098694577951,9.5171912664748,9.43711128155219,FALSE,0.270280198980456
"CAN","cpi",0.1,1980,3,1980,NA,0.5,8.96229145740573,9.09196917157014,9.5171912664748,7.89144076485851,FALSE,1.07461570284143
"CAN","cpi",0.1,1980,3,1979,NA,1,7.79488099166683,7.92455870583125,9.5171912664748,5.69387794711803,FALSE,3.66886118226119
"CAN","cpi",0.1,1980,3,1979,NA,1.5,6.82211120089799,8.86183238144058,9.5171912664748,4.27199048256738,FALSE,3.4960742583964
"CAN","cpi",0.1,1981,3,1981,NA,0,11.54985433046,11.5885266637328,11.5813425032741,11.617538759154,TRUE,0.0386723332727854
"CAN","cpi",0.1,1981,3,1981,NA,0.5,12.7431593883978,12.7818317216706,11.5813425032741,11.3038259100907,FALSE,2.62048763354751
"CAN","cpi",0.1,1981,3,1980,NA,1,9.85227286010617,9.89094519337895,11.5813425032741,8.22922472590444,FALSE,3.79511079970653
"CAN","cpi",0.1,1981,3,1980,NA,1.5,9.61142749215416,9.65009982542695,11.5813425032741,4.54818367546621,FALSE,4.33032272848877
"CAN","cpi",0.1,1982,3,1982,NA,0,10.2581680265673,10.1496635303783,10.1124203763629,10.1863972123348,FALSE,0.215379170931869
"CAN","cpi",0.1,1982,3,1982,NA,0.5,10.5969818661775,10.4884773699885,10.1124203763629,9.38011590167964,FALSE,0.968298814510092
"CAN","cpi",0.1,1982,3,1981,NA,1,11.459433488197,11.350928992008,10.1124203763629,8.92774959502704,FALSE,2.88485797455339
"CAN","cpi",0.1,1982,3,1981,NA,1.5,13.2611341442206,13.1526296480316,10.1124203763629,7.65688060941457,FALSE,6.88863721016132
"CAN","cpi",0.1,1983,3,1983,NA,0,5.7938445037897,5.8230247378942,5.67091787896303,5.79231449937116,FALSE,0.302350511497088
"CAN","cpi",0.1,1983,3,1983,NA,0.5,5.26596527300741,5.3596331081876,5.67091787896303,4.48935486750539,FALSE,0.785411770236713
"CAN","cpi",0.1,1983,3,1982,NA,1,9.22752367011316,9.32119150529334,5.67091787896303,6.68360843662591,FALSE,7.99723625995824
"CAN","cpi",0.1,1983,3,1982,NA,1.5,9.11057103426461,9.20423886944479,5.67091787896303,5.80492936344428,FALSE,7.73734151362813
"CAN","cpi",0.1,1984,3,1984,NA,0,4.13873967899515,4.17572478926481,4.19799576814029,4.1863442377944,FALSE,0.086476174437385
"CAN","cpi",0.1,1984,3,1984,NA,0.5,5.26112191664522,5.40860290339305,4.19799576814029,4.37368919035215,FALSE,2.50998353898102
"CAN","cpi",0.1,1984,3,1983,NA,1,5.42733811610509,5.97912528376023,4.19799576814029,4.8252398586334,FALSE,3.28365905202137
"CAN","cpi",0.1,1984,3,1983,NA,1.5,4.50908550162849,5.88529936254213,4.19799576814029,1.63651850095104,FALSE,2.06752437977631
"CAN","cpi",0.1,1985,3,1985,NA,0,3.80727045317883,3.84831760029913,3.86444262005169,3.87488963413478,FALSE,0.07688052434821
"CAN","cpi",0.1,1985,3,1985,NA,0.5,4.54986931426843,4.61872416805077,3.86444262005169,3.66954460168274,FALSE,1.59202528537509
"CAN","cpi",0.1,1985,3,1984,NA,1,3.51082063136914,3.57967548515148,3.86444262005169,2.51760914226531,FALSE,0.701670709116152
"CAN","cpi",0.1,1985,3,1984,NA,1.5,4.15257585874317,4.22143071252551,3.86444262005169,2.74468923002786,FALSE,0.709150939763402
"CAN","cpi",0.1,1986,3,1986,NA,0,4.03414877984755,4.07310340329907,4.08685396749431,4.09009381020777,FALSE,0.0695114327742811
"CAN","cpi",0.1,1986,3,1986,NA,0.5,5.06152410418976,5.12509556945876,4.08685396749431,4.18867743652029,FALSE,2.22950510237
"CAN","cpi",0.1,1986,3,1985,NA,1,3.64298995487303,3.70656142014202,4.08685396749431,2.96346536694636,FALSE,0.90866601494074
"CAN","cpi",0.1,1986,3,1985,NA,1.5,3.84563642906184,3.90920789433084,4.08685396749431,2.65645514502224,FALSE,0.458340516743383
"CAN","cpi",0.1,1987,3,1987,NA,0,4.26661923471936,4.26958312587315,4.23980729277887,4.30382748919395,FALSE,0.0625459843548859
"CAN","cpi",0.1,1987,3,1987,NA,0.5,4.46481322343646,4.46777711459025,4.23980729277887,3.60745044359556,FALSE,0.502977070392872
"CAN","cpi",0.1,1987,3,1986,NA,1,4.25178396297815,4.25474785413194,4.23980729277887,3.48954394276064,FALSE,0.0295787138188604
"CAN","cpi",0.1,1987,3,1986,NA,1.5,4.08471143613174,4.08767532728553,4.23980729277887,3.05061614822702,FALSE,0.341034925583431
"CAN","cpi",0.1,1988,3,1988,NA,0,3.90944461420001,3.95507149054222,3.92899537638065,3.96651200874969,TRUE,0.0456268763422072
"CAN","cpi",0.1,1988,3,1988,NA,0.5,4.01982764935447,4.20757236057221,3.92899537638065,3.27588434563216,FALSE,0.389594206715108
"CAN","cpi",0.1,1988,3,1987,NA,1,4.10332364769066,4.3119548290603,3.92899537638065,3.36557853238272,FALSE,0.596027339836321
"CAN","cpi",0.1,1988,3,1987,NA,1.5,3.97196283542405,4.44568700926388,3.92899537638065,2.22890665988493,FALSE,0.569207416158487
"CAN","cpi",0.1,1989,3,1989,NA,0,4.89662951005335,4.92113097737434,4.82821664544208,4.96224122245117,FALSE,0.176530055346032
"CAN","cpi",0.1,1989,3,1989,NA,0.5,4.94332710472595,5.14393759388056,4.82821664544208,4.15246181762677,FALSE,0.456411509785435
"CAN","cpi",0.1,1989,3,1988,NA,1,3.92189383428825,4.12250432344286,4.82821664544208,3.35061776773985,FALSE,1.76886009359731
"CAN","cpi",0.1,1989,3,1988,NA,1.5,3.73295786501555,3.95141274373446,4.82821664544208,2.03293210635829,FALSE,2.16690799362474
"CAN","cpi",0.1,1990,3,1990,NA,0,4.4363950234078,4.46651376861346,4.64347549432717,4.49116732458404,FALSE,0.423367024569459
"CAN","cpi",0.1,1990,3,1990,NA,0.5,5.5095522188799,5.83726684118172,4.64347549432717,4.80635133900141,FALSE,2.25232956575233
"CAN","cpi",0.1,1990,3,1989,NA,1,4.94241587709769,5.36651977429658,4.64347549432717,4.45332930526201,FALSE,1.08841585891115
"CAN","cpi",0.1,1990,3,1989,NA,1.5,4.55219257952811,4.976296476727,4.64347549432717,2.93994143296931,TRUE,0.424103897198886
"CAN","cpi",0.1,1991,3,1991,NA,0,5.53418991925805,5.55835923765683,5.4258100696218,5.5966415351231,FALSE,0.265013428701568
"CAN","cpi",0.1,1991,3,1991,NA,0.5,8.9927682854632,9.11944044656075,5.4258100696218,8.0424604401558,FALSE,8.05324597407845
"CAN","cpi",0.1,1991,3,1990,NA,1,4.10694661056511,4.23361877166266,5.4258100696218,3.00766385389873,FALSE,2.77598615656229
"CAN","cpi",0.1,1991,3,1990,NA,1.5,4.47810878566973,4.60478094676728,5.4258100696218,3.42461322750937,FALSE,1.95118132299648
"CAN","cpi",0.1,1992,3,1992,NA,0,1.59192948164886,1.34187717613356,1.47496888572843,1.46118300949616,FALSE,0.305619484518694
"CAN","cpi",0.1,1992,3,1992,NA,0.5,2.03127240665636,1.78122010114106,1.47496888572843,1.2379681755847,FALSE,0.986177740991203
"CAN","cpi",0.1,1992,3,1991,NA,1,4.1126877414613,3.862635435946,1.47496888572843,1.8723365291461,FALSE,5.61154515166885
"CAN","cpi",0.1,1992,3,1991,NA,1.5,6.12224749073286,5.87219518521756,1.47496888572843,6.89933696838937,FALSE,10.0772334833834
"CAN","cpi",0.1,1993,3,1993,NA,0,1.7492549305302,1.75039424841161,1.84351085411351,1.80220567555903,FALSE,0.208065108330073
"CAN","cpi",0.1,1993,3,1993,NA,0.5,2.97153838026651,2.97267769814792,1.84351085411351,2.21818498229346,FALSE,2.50786715377697
"CAN","cpi",0.1,1993,3,1992,NA,1,1.7415573159508,1.74269663383221,1.84351085411351,1.3520429918812,FALSE,0.225170918506519
"CAN","cpi",0.1,1993,3,1992,NA,1.5,1.91035763415398,1.91149695203539,1.84351085411351,0.933485487336859,FALSE,0.149687717971334
"CAN","cpi",0.1,1994,3,1994,NA,0,0.170448187080313,0.182292634755024,0.161630694655448,0.202109657487191,FALSE,0.0314388752855221
"CAN","cpi",0.1,1994,3,1994,NA,0.5,0.093585754344804,0.107487387943434,0.161630694655448,-0.572639707462777,FALSE,0.134220092958661
"CAN","cpi",0.1,1994,3,1993,NA,1,1.74384919637492,1.75775082997355,0.161630694655448,1.14110533076836,FALSE,3.5299427485308
"CAN","cpi",0.1,1994,3,1993,NA,1.5,2.07895428161507,2.0928559152137,0.161630694655448,1.65023462295923,FALSE,4.27462071573113
"CAN","cpi",0.1,1995,3,1995,NA,0,2.05501651500624,2.08500280699406,2.11688403676572,2.14851249512314,FALSE,0.100833469258163
"CAN","cpi",0.1,1995,3,1995,NA,0.5,3.36666710139681,3.39665339338464,2.11688403676572,2.60072443309243,FALSE,2.80728199116805
"CAN","cpi",0.1,1995,3,1994,NA,1,1.354214583786,1.38420087577383,2.11688403676572,1.43373972642191,FALSE,1.65817109419202
"CAN","cpi",0.1,1995,3,1994,NA,1.5,0.729189507689278,1.16158043474177,2.11688403676572,-1.26611333424577,FALSE,2.55528782043903
"CAN","cpi",0.1,1996,3,1996,NA,0,1.38612841408091,1.42917227357056,1.55309584667184,1.43665270425039,FALSE,0.318429577492504
"CAN","cpi",0.1,1996,3,1996,NA,0.5,1.91782991285892,1.9678388643117,1.55309584667184,1.23276330365037,FALSE,0.860529098535175
"CAN","cpi",0.1,1996,3,1995,NA,1,1.4724585836619,1.71905588775759,1.55309584667184,0.729753259393914,TRUE,0.246597304095694
"CAN","cpi",0.1,1996,3,1995,NA,1.5,1.85239180868976,2.09898911278546,1.55309584667184,2.31904839186543,FALSE,0.911699441913297
"CAN","cpi",0.1,1997,3,1997,NA,0,1.61954867281745,1.66235187445015,1.60528783555959,1.67949478723595,FALSE,0.0744939510946077
"CAN","cpi",0.1,1997,3,1997,NA,0.5,2.62672591980613,2.66952912143882,1.60528783555959,1.93291992098407,FALSE,2.31266561106943
"CAN","cpi",0.1,1997,3,1996,NA,1,1.19944174507916,1.27511612381458,1.60528783555959,0.614630451620954,FALSE,0.809389293724341
"CAN","cpi",0.1,1997,3,1996,NA,1.5,1.63368734216468,1.88849017143796,1.60528783555959,0.962161564198873,FALSE,0.317912843951256
"CAN","cpi",0.1,1998,3,1998,NA,0,0.919008537093537,0.959004081892315,0.988908029337191,0.967063680387792,FALSE,0.106448761342946
"CAN","cpi",0.1,1998,3,1998,NA,0.5,2.02904161885437,2.07667662507572,0.988908029337191,1.34897459866337,FALSE,2.35904298292619
"CAN","cpi",0.1,1998,3,1997,NA,1,1.45521541628496,1.63925984513129,0.988908029337191,0.792689959246129,FALSE,1.22028306650804
"CAN","cpi",0.1,1998,3,1997,NA,1.5,1.54066994498731,1.72471437383365,0.988908029337191,1.28384000376946,FALSE,1.41018201917994
"CAN","cpi",0.1,1999,3,1999,NA,0,1.70051646306875,1.74202944265304,1.7107350135213,1.76864633894604,TRUE,0.0415129795842835
"CAN","cpi",0.1,1999,3,1999,NA,0.5,1.4086507184234,1.45016369800769,1.7107350135213,0.732099710600531,FALSE,0.620560347392304
"CAN","cpi",0.1,1999,3,1998,NA,1,0.885652631074512,0.927165610658795,1.7107350135213,0.369052571959629,FALSE,1.78277831927873
"CAN","cpi",0.1,1999,3,1998,NA,1.5,0.869567702006225,0.911080681590509,1.7107350135213,1.26847007023129,FALSE,1.81852260609715
"CAN","cpi",0.1,2000,3,2000,NA,0,2.63667429454325,2.67669742954937,2.6718361971244,2.70257810674034,TRUE,0.0400231350061118
"CAN","cpi",0.1,2000,3,2000,NA,0.5,2.62617741668045,2.68945973956741,2.6718361971244,1.95948305880876,TRUE,0.0632823228869581
"CAN","cpi",0.1,2000,3,1999,NA,1,2.44165622631618,2.77202107251226,2.6718361971244,2.16154661985999,TRUE,0.330364846196079
"CAN","cpi",0.1,2000,3,1999,NA,1.5,1.89881555494335,2.22918040113943,2.6718361971244,0.50278387806376,FALSE,1.31404439282936
"CAN","cpi",0.1,2001,3,2001,NA,0,2.68042697096903,2.71163655853252,2.47906219852806,2.73154549386087,FALSE,0.478686859654525
"CAN","cpi",0.1,2001,3,2001,NA,0.5,2.3389284916666,2.38448745270685,2.47906219852806,1.65861828263926,FALSE,0.255725062865164
"CAN","cpi",0.1,2001,3,2000,NA,1,3.20858509167638,3.4936217426078,2.47906219852806,2.84133895788986,FALSE,1.90619863570546
"CAN","cpi",0.1,2001,3,2000,NA,1.5,2.73632518036411,3.02136183129552,2.47906219852806,1.14191354447969,FALSE,0.856732166122625
"CAN","cpi",0.1,2002,3,2002,NA,0,2.26059493532302,2.29518883522307,2.20880570551249,2.31282527465204,FALSE,0.149681077256787
"CAN","cpi",0.1,2002,3,2002,NA,0.5,1.92821071459173,1.98212143424797,2.20880570551249,1.24731948634093,FALSE,0.557653544688497
"CAN","cpi",0.1,2002,3,2001,NA,1,1.64036582574781,1.81075685019486,2.20880570551249,0.695491540886875,FALSE,1.05494403626401
"CAN","cpi",0.1,2002,3,2001,NA,1.5,2.75091121004801,3.01375479945238,2.20880570551249,0.47606161882134,FALSE,1.4675224883722
"CAN","cpi",0.1,2003,3,2003,NA,0,2.6868409711258,2.71359608846056,2.71189071546809,2.75460397277825,TRUE,0.0267551173347549
"CAN","cpi",0.1,2003,3,2003,NA,0.5,4.78022314451231,4.8976246495242,2.71189071546809,4.16096970792426,FALSE,4.71369579177682
"CAN","cpi",0.1,2003,3,2002,NA,1,3.36390323066523,3.67434757665346,2.71189071546809,3.27791908188471,FALSE,1.75936104642632
"CAN","cpi",0.1,2003,3,2002,NA,1.5,2.09973750065453,2.41018184664277,2.71189071546809,1.51830012756901,FALSE,0.98090849893339
"CAN","cpi",0.1,2004,3,2004,NA,0,1.71622551597933,1.73709869057123,1.83151661303942,1.76153103901938,FALSE,0.230690780076769
"CAN","cpi",0.1,2004,3,2004,NA,0.5,2.07735164671144,2.12415695914302,1.83151661303942,1.38945604480572,FALSE,0.593105387258284
"CAN","cpi",0.1,2004,3,2003,NA,1,1.96547434116331,2.192355459054,1.83151661303942,1.01874619159597,FALSE,0.524564958165997
"CAN","cpi",0.1,2004,3,2003,NA,1.5,2.26618661351267,2.49306773140335,1.83151661303942,2.99105359104411,FALSE,1.19281445227568
"CAN","cpi",0.1,2005,3,2005,NA,0,2.29422696246754,2.32507255359347,2.18071628336509,2.35062481142317,FALSE,0.283091544686929
"CAN","cpi",0.1,2005,3,2005,NA,0.5,2.13251244098109,2.17277514610595,2.18071628336509,1.4552837212303,FALSE,0.0579096768118384
"CAN","cpi",0.1,2005,3,2004,NA,1,1.50296310873443,1.59452472152825,2.18071628336509,0.79648671202377,FALSE,1.3942095279868
"CAN","cpi",0.1,2005,3,2004,NA,1.5,1.81665146002964,2.01464467645228,2.18071628336509,1.13680951350797,FALSE,0.56704123178444
"CAN","cpi",0.1,2006,3,2006,NA,0,2.00737675403527,2.03011925250269,1.97519342012289,2.06448042324351,FALSE,0.0942610182727253
"CAN","cpi",0.1,2006,3,2006,NA,0.5,2.44260566845073,2.49627484315717,1.97519342012289,1.77073314120205,FALSE,1.09236305987942
"CAN","cpi",0.1,2006,3,2005,NA,1,2.84020329968538,3.12017045262427,1.97519342012289,2.58808204718941,FALSE,2.20221132974443
"CAN","cpi",0.1,2006,3,2005,NA,1.5,2.36336530639465,2.64333245933354,1.97519342012289,0.762075268916728,FALSE,1.14257134465391
"CAN","cpi",0.1,2007,3,2007,NA,0,2.04700721911468,2.07060190842053,2.10062087284572,2.10807340507977,FALSE,0.0903034991396168
"CAN","cpi",0.1,2007,3,2007,NA,0.5,2.75824154893821,2.81098966492023,2.10062087284572,2.09760271424675,FALSE,1.51412739618754
"CAN","cpi",0.1,2007,3,2006,NA,1,1.32874033226198,1.5466952042784,2.10062087284572,0.438862458623872,FALSE,1.44890080216602
"CAN","cpi",0.1,2007,3,2006,NA,1.5,1.92808477322409,2.28867173422221,2.10062087284572,1.08089197775225,TRUE,0.360586960998122
"CAN","cpi",0.1,2008,3,2008,NA,0,2.84225705470813,2.87062937868194,2.31447335265955,2.9146675338117,FALSE,1.20122499519287
"CAN","cpi",0.1,2008,3,2008,NA,0.5,1.7326036164565,1.76869650735779,2.31447335265955,1.04562745221765,FALSE,1.2489303249052
"CAN","cpi",0.1,2008,3,2007,NA,1,1.5060435788631,1.56421120071551,2.31447335265955,0.365030180386173,FALSE,1.72541684839472
"CAN","cpi",0.1,2008,3,2007,NA,1.5,1.83711873633662,1.95313735336643,2.31447335265955,2.04107389452134,FALSE,0.918987504347852
"CAN","cpi",0.1,2009,3,2009,NA,0,0.251862634769947,0.253558298705465,0.284533874408197,0.272618836216429,FALSE,0.0705302766082553
"CAN","cpi",0.1,2009,3,2009,NA,0.5,-0.0644163644502249,-0.0627207005147069,0.284533874408197,-0.807426338518035,FALSE,0.773372497097527
"CAN","cpi",0.1,2009,3,2008,NA,1,3.09809747632775,3.22400348893216,0.284533874408197,3.28355694764985,FALSE,6.37826957242564
"CAN","cpi",0.1,2009,3,2008,NA,1.5,2.50132601126352,2.75874654027002,0.284533874408197,0.703376955238912,FALSE,5.18362527757388
"CAN","cpi",0.1,2010,3,2010,NA,0,1.65156076158798,1.67153677926221,1.75525687020327,1.72708036400674,FALSE,0.206020664209917
"CAN","cpi",0.1,2010,3,2010,NA,0.5,2.07480869552796,2.10121689168544,1.75525687020327,1.42243266198166,FALSE,0.736523363545678
"CAN","cpi",0.1,2010,3,2009,NA,1,0.77611525348523,0.802635011925805,1.75525687020327,0.515829437079458,FALSE,2.14345722127939
"CAN","cpi",0.1,2010,3,2009,NA,1.5,0.714640196925587,1.09971482141797,1.75525687020327,-0.666399632006793,FALSE,1.84183473290416
"CAN","cpi",0.1,2011,3,2011,NA,0,2.76214543748352,2.79712761738366,2.85717434028225,2.82871118728348,FALSE,0.168419341896994
"CAN","cpi",0.1,2011,3,2011,NA,0.5,3.12399578818,3.27380016049988,2.85717434028225,2.59305645945043,FALSE,0.742740923203773
"CAN","cpi",0.1,2011,3,2010,NA,1,1.97671533874246,2.15706132595142,2.85717434028225,1.58194849312145,FALSE,1.73615268572191
"CAN","cpi",0.1,2011,3,2010,NA,1.5,1.79777592964054,2.10769594097646,2.85717434028225,1.00866231757724,FALSE,1.97542756534877
"CAN","cpi",0.1,2012,3,2012,NA,0,1.44235359914293,1.46728400424003,1.50118536134935,1.46681751445377,FALSE,0.100266754228918
"CAN","cpi",0.1,2012,3,2012,NA,0.5,2.28328943332016,2.37864654467601,1.50118536134935,1.63866597060755,FALSE,1.83336616017989
"CAN","cpi",0.1,2012,3,2011,NA,1,2.13287655920094,2.3758557455385,1.50118536134935,0.848240548987433,FALSE,1.64673740378555
"CAN","cpi",0.1,2012,3,2011,NA,1.5,2.80270476657084,3.0456839529084,1.50118536134935,1.68384299188515,FALSE,3.13524453127422
"CAN","cpi",0.1,2013,3,2013,NA,0,0.994471110076173,1.02090947555948,0.931270594714462,1.03083115414128,FALSE,0.166883955176
"CAN","cpi",0.1,2013,3,2013,NA,0.5,1.59948428990127,1.72007679113485,0.931270594714462,1.00184063196526,FALSE,1.60551182387092
"CAN","cpi",0.1,2013,3,2012,NA,1,0.912555156372847,1.16952913643037,0.931270594714462,-0.272545990872386,TRUE,0.256973980057518
"CAN","cpi",0.1,2013,3,2012,NA,1.5,1.55387075688453,1.86255460186763,0.931270594714462,0.958608804136071,FALSE,1.69223976091659
"CAN","cpi",0.1,2014,3,2014,NA,0,1.92325523520301,1.95938045077495,1.87639912240215,1.98613278510701,FALSE,0.140249910684961
"CAN","cpi",0.1,2014,3,2014,NA,0.5,2.37524621913179,2.58036562100581,1.87639912240215,1.95223885123801,FALSE,1.31366850571766
"CAN","cpi",0.1,2014,3,2013,NA,1,1.15224817622539,1.364297508359,1.87639912240215,0.688658687283847,FALSE,1.35005291889617
"CAN","cpi",0.1,2014,3,2013,NA,1.5,0.996019702777578,1.2760096743818,1.87639912240215,0.891594199884501,FALSE,1.61418874498278
"CAN","cpi",0.1,2015,3,2015,NA,0,1.2045622728916,1.23327458951738,1.11090953952792,1.24641866377254,FALSE,0.236829501878415
"CAN","cpi",0.1,2015,3,2015,NA,0.5,0.835017026704514,0.942467864977796,1.11090953952792,0.198117162089698,FALSE,0.481765670606884
"CAN","cpi",0.1,2015,3,2014,NA,1,1.53547713242802,1.64866904684631,1.11090953952792,0.532106072596766,FALSE,1.05667545419629
"CAN","cpi",0.1,2015,3,2014,NA,1.5,1.71867039830228,1.98095359683125,1.11090953952792,1.81035920235268,FALSE,1.61286288469422
"CAN","cpi",0.1,2016,3,2016,NA,0,1.3781524128718,1.41772497695782,1.41168586698797,1.44184957394589,TRUE,0.0395725640860158
"CAN","cpi",0.1,2016,3,2016,NA,0.5,1.3315353732076,1.52381072944775,1.41168586698797,0.843100047406122,TRUE,0.192275356240145
"CAN","cpi",0.1,2016,3,2015,NA,1,1.63344981990801,1.85868232749974,1.41168586698797,1.23484853770273,FALSE,0.718041291858496
"CAN","cpi",0.1,2016,3,2015,NA,1.5,1.52135018066235,1.74658268825407,1.41168586698797,0.107462752177283,FALSE,0.468930982423686
"CAN","cpi",0.1,2017,3,2017,NA,0,1.46329838498062,1.49006666647,1.57888581671161,1.51739925639673,FALSE,0.224144170915181
"CAN","cpi",0.1,2017,3,2017,NA,0.5,2.36123849954495,2.51227108659798,1.57888581671161,1.88170269277887,FALSE,1.88959410446045
"CAN","cpi",0.1,2017,3,2016,NA,1,1.21294598165088,1.36397856870391,1.57888581671161,0.418338346755244,FALSE,0.628604249292365
"CAN","cpi",0.1,2017,3,2016,NA,1.5,1.56013899365805,1.8854232430449,1.57888581671161,0.52557608733729,TRUE,0.325284249386848
"CAN","cpi",0.1,2018,3,2018,NA,0,2.34491576200466,2.37703465996836,2.23316270166586,2.40611378585155,FALSE,0.280459032049929
"CAN","cpi",0.1,2018,3,2018,NA,0.5,2.99860185663858,3.20814632069283,2.23316270166586,2.62207020824204,FALSE,1.91052036399363
"CAN","cpi",0.1,2018,3,2017,NA,1,1.26874169767895,1.4782861617332,2.23316270166586,0.40411310060617,FALSE,1.88704788612682
"CAN","cpi",0.1,2018,3,2017,NA,1.5,1.39952575961183,1.66876001234151,2.23316270166586,1.53787524714926,FALSE,1.52346245122824
"CAN","cpi",0.1,2019,3,2019,NA,0,1.96097125155193,1.98879010869281,1.91921619871868,2.01142839895124,FALSE,0.120607863436983
"CAN","cpi",0.1,2019,3,2019,NA,0.5,2.05259956374961,2.16632664640695,1.91921619871868,1.51883708040586,FALSE,0.410134560503847
"CAN","cpi",0.1,2019,3,2018,NA,1,2.11913669678693,2.34096644686889,1.91921619871868,1.41942984101848,FALSE,0.666097523566958
"CAN","cpi",0.1,2019,3,2018,NA,1.5,1.96604639856401,2.24863683971317,1.91921619871868,2.06105171090012,FALSE,0.386657551916559
"CAN","cpi",0.1,2020,3,2020,NA,0,0.687056300038702,0.713326055474963,0.71139989671781,0.726179852791075,TRUE,0.026269755436261
"CAN","cpi",0.1,2020,3,2020,NA,0.5,1.61972113970676,1.72791150794255,0.71139989671781,1.07225945048052,FALSE,2.12668201932234
"CAN","cpi",0.1,2020,3,2019,NA,1,1.76091741035628,1.97913654071544,0.71139989671781,1.01913964327806,FALSE,2.55048027177798
"CAN","cpi",0.1,2020,3,2019,NA,1.5,1.87234916123236,2.12039011029042,0.71139989671781,1.22761645350518,FALSE,2.82792820353484
"CAN","cpi",0.1,2021,3,2021,NA,0,3.21172910523264,3.2532392248057,3.31148121717802,3.30988753190892,FALSE,0.170936769289337
"CAN","cpi",0.1,2021,3,2021,NA,0.5,2.7611938314641,2.97201903714325,3.31148121717802,2.4899040786607,FALSE,0.965185605756424
"CAN","cpi",0.1,2021,3,2020,NA,1,1.3716345320992,1.64268445428209,3.31148121717802,1.1979067045331,FALSE,3.97948717306274
"CAN","cpi",0.1,2021,3,2020,NA,1.5,0.757876313220382,1.02892623540327,3.31148121717802,0.670626810990653,FALSE,5.34339432612679
"CAN","cpi",0.1,2022,3,2022,NA,0,6.43185590993964,6.48804898515223,6.50977236228281,6.54555789178856,FALSE,0.104467246613878
"CAN","cpi",0.1,2022,3,2022,NA,0.5,6.16243123535454,6.40851734818233,6.50977236228281,5.96468998606203,FALSE,0.4710972552733
"CAN","cpi",0.1,2022,3,2021,NA,1,3.63809128653304,3.96115478061525,6.50977236228281,3.42105264822981,FALSE,5.98665812001013
"CAN","cpi",0.1,2022,3,2021,NA,1.5,3.04536258772187,3.36842608180408,6.50977236228281,1.93276265883962,FALSE,7.30383300625717
"CAN","cpi",0.1,2023,3,2023,NA,0,3.97528869986194,3.96182342610039,3.78831288758619,3.97188685244318,FALSE,0.402036531295668
"CAN","cpi",0.1,2023,3,2023,NA,0.5,3.6509615773985,3.63749630363695,3.78831288758619,2.8392001035463,FALSE,0.321682690570099
"CAN","cpi",0.1,2023,3,2022,NA,1,4.59532310426075,4.5818578304992,3.78831288758619,2.86884991489758,FALSE,1.77989076329303
"CAN","cpi",0.1,2023,3,2022,NA,1.5,5.6673544407292,6.0308017860979,3.78831288758619,4.03317247515909,FALSE,4.53909524124205
"CAN","cpi",0.1,2024,3,2023,NA,1,3.49289508779786,3.79914757081376,NA,2.89946754179362,NA,NA
"CAN","cpi",0.1,2024,3,2023,NA,1.5,3.81200575829998,4.12597958309458,NA,1.17991651782151,NA,NA
"CAN","cpi",0.2,1952,3,1952,NA,0,2.70614679242123,2.70614679242123,2.55562336095485,2.50792675283471,FALSE,0.376308578665961
"CAN","cpi",0.2,1952,3,1952,NA,0.5,4.7147224702101,4.71472247021009,2.55562336095485,3.80942800622696,FALSE,5.39774777313812
"CAN","cpi",0.2,1952,3,1951,NA,1,5.84034280856463,5.84034280856463,2.55562336095485,6.36946346746546,FALSE,8.21179861902446
"CAN","cpi",0.2,1952,3,1951,NA,1.5,-11.9976975802161,-11.9976975802161,2.55562336095485,4.80604275648344,FALSE,36.3833023529275
"CAN","cpi",0.2,1953,3,1953,NA,0,-0.345780123994177,-0.650183363733887,-1.01492775838436,-1.00118391953201,FALSE,1.36846584623575
"CAN","cpi",0.2,1953,3,1953,NA,0.5,1.69549671387283,1.39109347413312,-1.01492775838436,-1.88711612688489,FALSE,6.47165794090327
"CAN","cpi",0.2,1953,3,1952,NA,1,-0.305412489393942,-0.609815729133651,-1.01492775838436,-0.873617238258229,FALSE,1.46938493273634
"CAN","cpi",0.2,1953,3,1952,NA,1.5,1.81914354914876,5.6924500962626,-1.01492775838436,0.432272395627528,FALSE,10.9584848159467
"CAN","cpi",0.2,1954,3,1954,NA,0,0.792259758136939,0.792259758136939,0.644425455961438,0.831821956393317,FALSE,0.369585755438754
"CAN","cpi",0.2,1954,3,1954,NA,0.5,1.9499531710657,2.51488577493524,0.644425455961438,-0.141712452464762,FALSE,3.82875189163019
"CAN","cpi",0.2,1954,3,1953,NA,1,8.36595574268943,8.93088834655897,0.644425455961438,2.12291681679911,FALSE,19.8687583206895
"CAN","cpi",0.2,1954,3,1953,NA,1.5,-3.77246779813745,-3.20753519426792,0.644425455961438,-1.28741438714058,FALSE,10.1948342294429
"CAN","cpi",0.2,1955,3,1955,NA,0,0.0303739385908672,0.060660329200739,0.173649026558865,0.10295813188439,FALSE,0.312758134005187
"CAN","cpi",0.2,1955,3,1955,NA,0.5,0.479563629541011,0.509850020150882,0.173649026558865,-0.548848324097393,FALSE,0.795072898065236
"CAN","cpi",0.2,1955,3,1954,NA,1,1.83545168384422,5.92898643730052,0.173649026558865,2.19101630104756,FALSE,8.24804139666969
"CAN","cpi",0.2,1955,3,1954,NA,1.5,0.244995913101274,4.33853066655757,0.173649026558865,-0.815294949881493,FALSE,4.27190196981232
"CAN","cpi",0.2,1956,3,1956,NA,0,1.43750852277056,1.52579966349739,1.32752769429961,1.46434436590257,FALSE,0.363243211904212
"CAN","cpi",0.2,1956,3,1956,NA,0.5,0.342692803095664,0.506180107856998,1.32752769429961,-0.485738076612692,FALSE,2.21685627086786
"CAN","cpi",0.2,1956,3,1955,NA,1,-0.309125090031469,-0.145637785270134,1.32752769429961,0.557995939500226,FALSE,3.84640100368569
"CAN","cpi",0.2,1956,3,1955,NA,1.5,-0.626041978962363,1.57424648099162,1.32752769429961,-0.793756041684752,TRUE,2.20028845995398
"CAN","cpi",0.2,1957,3,1957,NA,0,3.30474233943136,3.34500072158078,3.24684755852518,3.35523637829212,FALSE,0.184995334414871
"CAN","cpi",0.2,1957,3,1957,NA,0.5,3.02891679762838,3.25352996656597,3.24684755852518,2.12793087018929,TRUE,0.224613168937587
"CAN","cpi",0.2,1957,3,1956,NA,1,2.25055396919223,4.71403671377614,3.24684755852518,4.42886834530761,TRUE,2.46348274458391
"CAN","cpi",0.2,1957,3,1956,NA,1.5,1.57709819043848,4.04058093502239,3.24684755852518,-0.785064469253982,TRUE,2.46348274458391
"CAN","cpi",0.2,1958,3,1958,NA,0,2.14127229914308,2.18450883923482,2.33186388641149,2.20013349321115,FALSE,0.411624158033416
"CAN","cpi",0.2,1958,3,1958,NA,0.5,2.99737351972697,3.0406100598187,2.33186388641149,2.0126030377883,FALSE,1.70701062338043
"CAN","cpi",0.2,1958,3,1957,NA,1,1.10188521862699,2.21419979190222,2.33186388641149,2.83859761398538,FALSE,1.4064748095484
"CAN","cpi",0.2,1958,3,1957,NA,1.5,2.04791849128392,3.16023306455915,2.33186388641149,0.366312073207214,TRUE,1.11231457327523
"CAN","cpi",0.2,1959,3,1959,NA,0,1.08668193466015,1.18108619592183,1.19382698397654,1.18954599151176,FALSE,0.126256231398466
"CAN","cpi",0.2,1959,3,1959,NA,0.5,1.2923158318943,1.53157181885962,1.19382698397654,0.545308327160925,FALSE,0.485478106759722
"CAN","cpi",0.2,1959,3,1958,NA,1,0.875961746677584,1.1152177336429,1.19382698397654,1.13295114249046,FALSE,0.435779112799418
"CAN","cpi",0.2,1959,3,1958,NA,1.5,0.547095309175821,0.786351296141136,1.19382698397654,0.717422088079289,FALSE,1.25794520655383
"CAN","cpi",0.2,1960,3,1960,NA,0,0.950825759595383,1.01842683458386,1.34209404870695,1.02361304259477,FALSE,0.8767691102962
"CAN","cpi",0.2,1960,3,1960,NA,0.5,1.44094917642466,1.7147607561417,1.34209404870695,0.648611007713657,FALSE,0.520949399011314
"CAN","cpi",0.2,1960,3,1959,NA,1,1.68477373119991,2.18485531289641,1.34209404870695,2.37666873185636,FALSE,1.35678078792889
"CAN","cpi",0.2,1960,3,1959,NA,1.5,1.29527643168865,1.84507478499967,1.34209404870695,-0.349092179567277,TRUE,0.549798353311016
"CAN","cpi",0.2,1961,3,1961,NA,0,0.991307717441842,1.07720587280933,1.00921348094007,1.00921348094007,TRUE,0.0858981553674854
"CAN","cpi",0.2,1961,3,1961,NA,0.5,1.75773660261319,2.07543000307614,1.00921348094007,1.00921348094007,FALSE,2.18900120464575
"CAN","cpi",0.2,1961,3,1960,NA,1,-0.188901712253048,0.578475268087425,1.00921348094007,0.0537704626035329,FALSE,1.84422251247209
"CAN","cpi",0.2,1961,3,1960,NA,1.5,1.36577793975321,2.13315492009369,1.00921348094007,-0.332316386156399,FALSE,1.65878812737333
"CAN","cpi",0.2,1962,3,1962,NA,0,1.04468587266636,1.06287054606068,1.04957947883042,1.0653801125483,TRUE,0.0181846733943196
"CAN","cpi",0.2,1962,3,1962,NA,0.5,0.791715776029651,0.951508351574489,1.04957947883042,0,FALSE,0.404970393684653
"CAN","cpi",0.2,1962,3,1961,NA,1,0.815332635331551,0.97512521087639,1.04957947883042,0,FALSE,0.345928245429902
"CAN","cpi",0.2,1962,3,1961,NA,1.5,0.709438374063538,0.869230949608377,1.04957947883042,0,FALSE,0.610663898599935
"CAN","cpi",0.2,1963,3,1963,NA,0,1.81695718484556,1.82917373308567,1.60677118395228,1.83024954277348,FALSE,0.537681550473298
"CAN","cpi",0.2,1963,3,1963,NA,0.5,1.534932837318,1.91183265339776,1.60677118395228,0.836828714617504,TRUE,0.376899816079761
"CAN","cpi",0.2,1963,3,1962,NA,1,1.29524559858084,1.7050841575955,1.60677118395228,1.60935100695326,TRUE,0.409838559014661
"CAN","cpi",0.2,1963,3,1962,NA,1.5,0.750594744256605,1.16043330327127,1.60677118395228,0,FALSE,1.52568326071721
"CAN","cpi",0.2,1964,3,1964,NA,0,1.93954085186764,1.95182892669353,1.88764670034376,1.95194648443024,FALSE,0.142023453635591
"CAN","cpi",0.2,1964,3,1964,NA,0.5,2.02050997835215,2.26223156017474,1.88764670034376,1.27307816843398,FALSE,0.573879776843573
"CAN","cpi",0.2,1964,3,1963,NA,1,2.41723264040285,2.65895422222544,1.88764670034376,3.20172332637508,FALSE,1.56568643197031
"CAN","cpi",0.2,1964,3,1963,NA,1.5,1.27092708206699,1.51264866388958,1.88764670034376,0,FALSE,1.17921667295803
"CAN","cpi",0.2,1965,3,1965,NA,0,2.28925727618932,2.30079497197625,2.29538304394236,2.29800189469823,TRUE,0.0115376957869309
"CAN","cpi",0.2,1965,3,1965,NA,0.5,2.05544296159382,2.2158387307445,2.29538304394236,1.39443218256826,FALSE,0.359256552145326
"CAN","cpi",0.2,1965,3,1964,NA,1,1.36733689175252,1.58685909766914,2.29538304394236,1.48078368039448,FALSE,1.99083207159966
"CAN","cpi",0.2,1965,3,1964,NA,1.5,1.23207491957239,1.45159712548901,2.29538304394236,0.293257399533461,FALSE,2.32898700204999
"CAN","cpi",0.2,1966,3,1966,NA,0,3.77492358583949,3.78396506476938,3.72486065470629,3.77511268244847,FALSE,0.134198806762892
"CAN","cpi",0.2,1966,3,1966,NA,0.5,4.06437280242445,4.3377882700012,3.72486065470629,3.37743719728421,FALSE,1.12219583687216
"CAN","cpi",0.2,1966,3,1965,NA,1,1.61025353056736,1.88366899814411,3.72486065470629,1.98486973144544,FALSE,4.8763946089822
"CAN","cpi",0.2,1966,3,1965,NA,1.5,1.22007971046858,1.49349517804533,3.72486065470629,0.578640834001038,FALSE,5.85182915922915
"CAN","cpi",0.2,1967,3,1967,NA,0,3.65288622157179,3.70023376179435,3.49360316391996,3.68375770714608,FALSE,0.445555184352141
"CAN","cpi",0.2,1967,3,1967,NA,0.5,2.70545478095638,2.88110977986831,3.49360316391996,2.11054708048259,FALSE,1.70688845904105
"CAN","cpi",0.2,1967,3,1966,NA,1,1.64063580229054,1.81629080120248,3.49360316391996,2.02003307533501,FALSE,4.36893590570564
"CAN","cpi",0.2,1967,3,1966,NA,1.5,1.10925466228435,1.28490966119629,3.49360316391996,1.71558536379673,FALSE,5.69738875572111
"CAN","cpi",0.2,1968,3,1968,NA,0,4.03427053263254,4.08636639674044,3.95128347779386,4.07085717819357,FALSE,0.259563501204614
"CAN","cpi",0.2,1968,3,1968,NA,0.5,3.95581249614505,4.41073258905971,3.95128347779386,3.50732233276501,FALSE,0.466242638792648
"CAN","cpi",0.2,1968,3,1967,NA,1,2.15748515959811,2.61240525251277,3.95128347779386,3.66303679301692,FALSE,3.80211565611738
"CAN","cpi",0.2,1968,3,1967,NA,1.5,1.77109688344171,2.22601697635637,3.95128347779386,0.834881519045053,FALSE,4.76808634650838
"CAN","cpi",0.2,1969,3,1969,NA,0,4.46539138273022,4.54587201058123,4.42679496126681,4.52532640008253,FALSE,0.17697168150953
"CAN","cpi",0.2,1969,3,1969,NA,0.5,3.20356003697678,3.56768430407699,4.42679496126681,2.69090620784681,FALSE,2.51190091007477
"CAN","cpi",0.2,1969,3,1968,NA,1,2.48798074528835,2.85210501238857,4.42679496126681,4.0779393276339,FALSE,4.30084913929584
"CAN","cpi",0.2,1969,3,1968,NA,1.5,1.48685820253121,1.85701948016148,4.42679496126681,1.61221871335458,FALSE,6.79459998039362
"CAN","cpi",0.2,1970,3,1970,NA,0,3.49825404465073,3.58088321388942,3.28128405769805,3.55878605435979,FALSE,0.625054136620396
"CAN","cpi",0.2,1970,3,1970,NA,0.5,4.26204515696036,4.59017552965167,3.28128405769805,3.74969277403504,FALSE,2.78003312084709
"CAN","cpi",0.2,1970,3,1969,NA,1,2.09693728607524,2.42506765876654,3.28128405769805,3.11186608282608,FALSE,2.46867137002007
"CAN","cpi",0.2,1970,3,1969,NA,1.5,2.50576426397073,2.83389463666203,3.28128405769805,0.764941977259638,FALSE,1.44660392528134
"CAN","cpi",0.2,1971,3,1971,NA,0,2.74832607782634,2.82388929763375,2.64123406634756,2.81514553288871,FALSE,0.343293248504351
"CAN","cpi",0.2,1971,3,1971,NA,0.5,1.74440326197251,1.96484446161097,2.64123406634756,1.11673730766521,FALSE,1.91141521147994
"CAN","cpi",0.2,1971,3,1970,NA,1,1.87320325075044,2.32657952215943,2.64123406634756,1.92043450460395,FALSE,1.24001263187932
"CAN","cpi",0.2,1971,3,1970,NA,1.5,0.911779369083571,1.36515564049257,2.64123406634756,1.70194075200601,FALSE,3.64357233604649
"CAN","cpi",0.2,1972,3,1972,NA,0,4.91590931160991,4.97858708150245,4.83230569625923,5.04828762155974,FALSE,0.271686808269236
"CAN","cpi",0.2,1972,3,1972,NA,0.5,4.5214643979335,5.20509469425057,4.83230569625923,4.09602385359717,TRUE,0.683630296317064
"CAN","cpi",0.2,1972,3,1971,NA,1,2.98615149804583,3.66978179436289,4.83230569625923,4.16812111633716,FALSE,3.58994005105791
"CAN","cpi",0.2,1972,3,1971,NA,1.5,1.44883381190647,2.13246410822353,4.83230569625923,0.692030005351089,FALSE,7.43323426640631
"CAN","cpi",0.2,1973,3,1973,NA,0,7.11406374941954,7.16771186899022,7.12388603531779,7.25096132226983,TRUE,0.0536481195706813
"CAN","cpi",0.2,1973,3,1973,NA,0.5,5.59185056357132,6.09866094693687,7.12388603531779,5.30446017290082,FALSE,3.06987310431786
"CAN","cpi",0.2,1973,3,1972,NA,1,3.28064013303934,4.76169736978752,7.12388603531779,4.92276035792265,FALSE,7.38652890057385
"CAN","cpi",0.2,1973,3,1972,NA,1.5,1.89707094765473,3.37812818440291,7.12388603531779,1.79187879074203,FALSE,10.8454518640354
"CAN","cpi",0.2,1974,3,1974,NA,0,9.99548310141146,9.97676124867478,10.2717243737774,10.148911210151,FALSE,0.718685960019923
"CAN","cpi",0.2,1974,3,1974,NA,0.5,7.96322310079354,8.95869164910505,10.2717243737774,7.90446289245049,FALSE,4.27805035999244
"CAN","cpi",0.2,1974,3,1973,NA,1,4.42385892279187,6.57363525394927,10.2717243737774,7.30476096756609,FALSE,11.3949991307278
"CAN","cpi",0.2,1974,3,1973,NA,1.5,2.51240578367317,4.66218211483057,10.2717243737774,2.5663290958369,FALSE,16.1736319785245
"CAN","cpi",0.2,1975,3,1975,NA,0,10.0873428031777,10.2644965703207,10.0232981493341,10.1746571103793,FALSE,0.337265401751938
"CAN","cpi",0.2,1975,3,1975,NA,0.5,8.68248567241867,8.95292962115915,10.0232981493341,8.07152306914465,FALSE,2.9463652691779
"CAN","cpi",0.2,1975,3,1974,NA,1,4.50845962262668,7.85346765802976,10.0232981493341,7.8187778356914,FALSE,8.76958426366397
"CAN","cpi",0.2,1975,3,1974,NA,1.5,3.99401535932756,7.89622128769973,10.0232981493341,3.64914274700436,FALSE,9.21989808245815
"CAN","cpi",0.2,1976,3,1976,NA,0,7.14721947105732,7.17334698208241,7.22784311401172,7.18995143043805,FALSE,0.162367840848345
"CAN","cpi",0.2,1976,3,1976,NA,0.5,7.5136578594785,8.45631416218783,7.22784311401172,6.61333364285308,FALSE,1.65719316637629
"CAN","cpi",0.2,1976,3,1975,NA,1,9.04468347835692,10.6242656346759,7.22784311401172,8.584971075903,FALSE,6.12168306718195
"CAN","cpi",0.2,1976,3,1975,NA,1.5,4.4321773542969,10.2903995409977,7.22784311401172,3.14738569995591,TRUE,5.85822218670079
"CAN","cpi",0.2,1977,3,1977,NA,0,7.40278603144206,7.50871119010661,7.58101410153764,7.50176944503946,FALSE,0.286682437242129
"CAN","cpi",0.2,1977,3,1977,NA,0.5,7.15552333930195,7.79604329718322,7.58101410153764,6.40571638826874,TRUE,0.640519957881271
"CAN","cpi",0.2,1977,3,1976,NA,1,4.07513247119962,4.71565242908089,7.58101410153764,4.04909286077014,FALSE,7.80392413902316
"CAN","cpi",0.2,1977,3,1976,NA,1.5,3.78939308977375,6.96376995328681,7.58101410153764,2.59432747727492,FALSE,4.71748723414015
"CAN","cpi",0.2,1978,3,1978,NA,0,8.48660556456482,8.59460165355442,8.50208927062595,8.59104847384149,TRUE,0.107996088989601
"CAN","cpi",0.2,1978,3,1978,NA,0.5,8.14177678608651,8.57245936962411,8.50208927062595,7.34113908733495,TRUE,0.430682583537596
"CAN","cpi",0.2,1978,3,1977,NA,1,5.58149440641814,7.36172780166476,8.50208927062595,5.87902868518151,FALSE,4.63113706764959
"CAN","cpi",0.2,1978,3,1977,NA,1.5,4.44561867316508,6.2258520684117,8.50208927062595,3.89293485842214,FALSE,7.47082640078224
"CAN","cpi",0.2,1979,3,1979,NA,0,8.40205276003202,8.50027658112184,8.65147652410481,8.48651410143776,FALSE,0.476223678547238
"CAN","cpi",0.2,1979,3,1979,NA,0.5,8.4903018716915,8.69387275284013,8.65147652410481,7.46186747064873,TRUE,0.203570881148636
"CAN","cpi",0.2,1979,3,1978,NA,1,6.41363242619237,8.52999039609713,8.65147652410481,6.93686058379669,FALSE,2.42007328992397
"CAN","cpi",0.2,1979,3,1978,NA,1.5,5.63721892554376,7.75357689544852,8.65147652410481,3.9179710204728,FALSE,4.36110704154549
"CAN","cpi",0.2,1980,3,1980,NA,0,9.35446435775566,9.50821204730339,9.5171912664748,9.43711128155219,FALSE,0.176195737476248
"CAN","cpi",0.2,1980,3,1980,NA,0.5,8.94677002867571,9.10051771822345,9.5171912664748,7.89144076485851,FALSE,1.19543156017611
"CAN","cpi",0.2,1980,3,1979,NA,1,6.77438114547086,7.78216448749432,9.5171912664748,5.69387794711803,FALSE,5.34535028947465
"CAN","cpi",0.2,1980,3,1979,NA,1.5,7.04184689193495,8.71634936400472,9.5171912664748,4.27199048256738,FALSE,3.67660722824497
"CAN","cpi",0.2,1981,3,1981,NA,0,11.5216726098705,11.694258354292,11.5813425032741,11.617538759154,TRUE,0.172585744421458
"CAN","cpi",0.2,1981,3,1981,NA,0.5,12.6028253490678,12.7754110934892,11.5813425032741,11.3038259100907,FALSE,2.72629285890555
"CAN","cpi",0.2,1981,3,1980,NA,1,9.91693712713638,10.0895228715578,11.5813425032741,8.22922472590444,FALSE,3.90213482371222
"CAN","cpi",0.2,1981,3,1980,NA,1.5,7.58978792939345,9.62078112046036,11.5813425032741,4.54818367546621,FALSE,6.93239664810136
"CAN","cpi",0.2,1982,3,1982,NA,0,10.1811187369025,10.287568983852,10.1124203763629,10.1863972123348,FALSE,0.278196148298334
"CAN","cpi",0.2,1982,3,1982,NA,0.5,10.4480373824415,10.6226636700016,10.1124203763629,9.38011590167964,FALSE,1.0136688027565
"CAN","cpi",0.2,1982,3,1981,NA,1,11.6288503581436,12.6670106974627,10.1124203763629,8.92774959502704,FALSE,4.82923529377076
"CAN","cpi",0.2,1982,3,1981,NA,1.5,12.8922690694583,13.9304294087774,10.1124203763629,7.65688060941457,FALSE,7.98778207205739
"CAN","cpi",0.2,1983,3,1983,NA,0,5.79383378101332,5.84016660749605,5.67091787896303,5.79231449937116,FALSE,0.353622581608446
"CAN","cpi",0.2,1983,3,1983,NA,0.5,5.10473825048147,5.51567186447054,5.67091787896303,4.48935486750539,FALSE,0.799048650220309
"CAN","cpi",0.2,1983,3,1982,NA,1,8.16828283252385,9.03350581907005,5.67091787896303,6.68360843662591,FALSE,7.10863537044823
"CAN","cpi",0.2,1983,3,1982,NA,1.5,8.53386408622091,9.96874475231758,5.67091787896303,5.80492936344428,FALSE,8.59224618424135
"CAN","cpi",0.2,1984,3,1984,NA,0,4.13571281398132,4.19861109505052,4.19799576814029,4.1863442377944,TRUE,0.0628982810691987
"CAN","cpi",0.2,1984,3,1984,NA,0.5,5.11237014033679,5.48109603055636,4.19799576814029,4.37368919035215,FALSE,2.65466182071083
"CAN","cpi",0.2,1984,3,1983,NA,1,5.34188456111082,6.21687988804027,4.19799576814029,4.8252398586334,FALSE,3.73471730935578
"CAN","cpi",0.2,1984,3,1983,NA,1.5,4.41965595513243,6.29466890213332,4.19799576814029,1.63651850095104,FALSE,2.42916341448124
"CAN","cpi",0.2,1985,3,1985,NA,0,3.80588627918793,3.87392550713714,3.86444262005169,3.87488963413478,TRUE,0.0680392279492086
"CAN","cpi",0.2,1985,3,1985,NA,0.5,4.47799204250073,4.71736560568522,3.86444262005169,3.66954460168274,FALSE,1.77324711930708
"CAN","cpi",0.2,1985,3,1984,NA,1,3.47645167836221,3.7158252415467,3.86444262005169,2.51760914226531,FALSE,0.610917009446975
"CAN","cpi",0.2,1985,3,1984,NA,1.5,4.00682399528532,4.24619755846981,3.86444262005169,2.74468923002786,FALSE,0.595327001268557
"CAN","cpi",0.2,1986,3,1986,NA,0,4.01292245190241,4.08360529837385,4.08685396749431,4.09009381020777,FALSE,0.0788045192725826
"CAN","cpi",0.2,1986,3,1986,NA,0.5,5.04143578773843,5.24426926747331,4.08685396749431,4.18867743652029,FALSE,2.58928803034518
"CAN","cpi",0.2,1986,3,1985,NA,1,3.70609981114388,3.90893329087876,4.08685396749431,2.96346536694636,FALSE,0.647635171273756
"CAN","cpi",0.2,1986,3,1985,NA,1.5,3.70448836245841,3.9073218421933,4.08685396749431,2.65645514502224,FALSE,0.651663792987421
"CAN","cpi",0.2,1987,3,1987,NA,0,4.2268849479796,4.2989392424566,4.23980729277887,4.30382748919395,TRUE,0.0720542944770024
"CAN","cpi",0.2,1987,3,1987,NA,0.5,4.32419289896766,4.59363759289636,4.23980729277887,3.60745044359556,FALSE,0.480408709400671
"CAN","cpi",0.2,1987,3,1986,NA,1,4.12884953761706,4.39829423154577,4.23980729277887,3.48954394276064,TRUE,0.269444693928705
"CAN","cpi",0.2,1987,3,1986,NA,1.5,4.02036051772176,4.28980521165047,4.23980729277887,3.05061614822702,TRUE,0.269444693928705
"CAN","cpi",0.2,1988,3,1988,NA,0,3.89806826458517,3.96538815217706,3.92899537638065,3.96651200874969,TRUE,0.0673198875918848
"CAN","cpi",0.2,1988,3,1988,NA,0.5,3.95888333030447,4.26197295119045,3.92899537638065,3.27588434563216,FALSE,0.377809505695521
"CAN","cpi",0.2,1988,3,1987,NA,1,3.91446403877184,4.53116615013867,3.92899537638065,3.36557853238272,TRUE,0.616702111366829
"CAN","cpi",0.2,1988,3,1987,NA,1.5,3.9458723411777,4.56257445254453,3.92899537638065,2.22890665988493,FALSE,0.658894523359441
"CAN","cpi",0.2,1989,3,1989,NA,0,4.87334262420632,4.95054645762348,4.82821664544208,4.96224122245117,FALSE,0.19001878032777
"CAN","cpi",0.2,1989,3,1989,NA,0.5,4.85254521536041,5.19864427136264,4.82821664544208,4.15246181762677,FALSE,0.406920480798056
"CAN","cpi",0.2,1989,3,1988,NA,1,3.80012862630607,4.37385673911264,4.82821664544208,3.35061776773985,FALSE,1.70962787863017
"CAN","cpi",0.2,1989,3,1988,NA,1.5,3.69517568163094,4.26890379443751,4.82821664544208,2.03293210635829,FALSE,1.97201024031798
"CAN","cpi",0.2,1990,3,1990,NA,0,4.42398555437118,4.49199983860211,4.64347549432717,4.49116732458404,FALSE,0.446703423543578
"CAN","cpi",0.2,1990,3,1990,NA,0.5,5.49926260279796,5.88093599640976,4.64347549432717,4.80635133900141,FALSE,2.52114116478877
"CAN","cpi",0.2,1990,3,1989,NA,1,4.89412289600958,5.51333692005349,4.64347549432717,4.45332930526201,FALSE,1.24583252824992
"CAN","cpi",0.2,1990,3,1989,NA,1.5,4.44499699447277,5.06421101851669,4.64347549432717,2.93994143296931,TRUE,0.619214024043915
"CAN","cpi",0.2,1991,3,1991,NA,0,5.50769367104849,5.58810249617183,5.4258100696218,5.5966415351231,FALSE,0.285117828690073
"CAN","cpi",0.2,1991,3,1991,NA,0.5,8.89846444993313,9.22574995838699,5.4258100696218,8.0424604401558,FALSE,9.0089214592322
"CAN","cpi",0.2,1991,3,1990,NA,1,3.9835128431318,4.31079835158567,5.4258100696218,3.00766385389873,FALSE,3.11481480354419
"CAN","cpi",0.2,1991,3,1990,NA,1.5,4.51214991091684,4.83943541937071,5.4258100696218,3.42461322750937,FALSE,1.79322213408159
"CAN","cpi",0.2,1992,3,1992,NA,0,1.61254789952328,1.33124835407042,1.47496888572843,1.46118300949616,FALSE,0.421949318179285
"CAN","cpi",0.2,1992,3,1992,NA,0.5,2.18238518805667,1.90108564260382,1.47496888572843,1.2379681755847,FALSE,1.48724121036775
"CAN","cpi",0.2,1992,3,1991,NA,1,3.83374002492487,3.55244047947201,1.47496888572843,1.8723365291461,FALSE,5.61562830253823
"CAN","cpi",0.2,1992,3,1991,NA,1.5,5.91131215951127,5.63001261405841,1.47496888572843,6.89933696838937,FALSE,10.8095586390042
"CAN","cpi",0.2,1993,3,1993,NA,0,1.72276872054876,1.78628357066438,1.84351085411351,1.80220567555903,FALSE,0.206583058738442
"CAN","cpi",0.2,1993,3,1993,NA,0.5,2.91738308683233,3.12679346623552,1.84351085411351,2.21818498229346,FALSE,2.89409096120024
"CAN","cpi",0.2,1993,3,1992,NA,1,1.69917141516179,1.97587757928604,1.84351085411351,1.3520429918812,TRUE,0.276706164124253
"CAN","cpi",0.2,1993,3,1992,NA,1.5,1.91326766461426,2.18997382873852,1.84351085411351,0.933485487336859,FALSE,0.45109819037613
"CAN","cpi",0.2,1994,3,1994,NA,0,0.174899719422507,0.181816211465865,0.161630694655448,0.202109657487191,FALSE,0.040089053961007
"CAN","cpi",0.2,1994,3,1994,NA,0.5,0.109927998880501,0.116844490923859,0.161630694655448,-0.572639707462777,FALSE,0.11888200137233
"CAN","cpi",0.2,1994,3,1993,NA,1,1.81536889290069,1.82228538494405,0.161630694655448,1.14110533076836,FALSE,4.14126198765646
"CAN","cpi",0.2,1994,3,1993,NA,1.5,2.27449145188992,2.28140794393327,0.161630694655448,1.65023462295923,FALSE,5.28906838512953
"CAN","cpi",0.2,1995,3,1995,NA,0,2.04630263441145,2.11567028301882,2.11688403676572,2.14851249512314,FALSE,0.072402032974608
"CAN","cpi",0.2,1995,3,1995,NA,0.5,3.30481228426304,3.5420536905024,2.11688403676572,2.60072443309243,FALSE,3.20706202498267
"CAN","cpi",0.2,1995,3,1994,NA,1,1.35007906193465,1.69472784543576,2.11688403676572,1.43373972642191,FALSE,1.40003926182599
"CAN","cpi",0.2,1995,3,1994,NA,1.5,0.514450568518791,1.39970667495716,2.11688403676572,-1.26611333424577,FALSE,2.67819951095975
"CAN","cpi",0.2,1996,3,1996,NA,0,1.38006640953334,1.42980613050715,1.55309584667184,1.43665270425039,FALSE,0.357964011385536
"CAN","cpi",0.2,1996,3,1996,NA,0.5,1.9165925258022,2.05325865343429,1.55309584667184,1.23276330365037,FALSE,1.04540782545798
"CAN","cpi",0.2,1996,3,1995,NA,1,1.14221782869037,1.37225272620115,1.55309584667184,0.729753259393914,FALSE,0.682142698687504
"CAN","cpi",0.2,1996,3,1995,NA,1.5,2.22812895867412,2.4581638561849,1.55309584667184,2.31904839186543,FALSE,1.91761767751647
"CAN","cpi",0.2,1997,3,1997,NA,0,1.61003516108554,1.66525574523782,1.60528783555959,1.67949478723595,FALSE,0.0670888979671518
"CAN","cpi",0.2,1997,3,1997,NA,0.5,2.58558291128882,2.76893732437149,1.60528783555959,1.93291992098407,FALSE,2.63409210240574
"CAN","cpi",0.2,1997,3,1996,NA,1,1.1983239027837,1.38167831586637,1.60528783555959,0.614630451620954,FALSE,0.742378212315716
"CAN","cpi",0.2,1997,3,1996,NA,1.5,1.81771612692291,2.00107054000558,1.60528783555959,0.962161564198873,FALSE,0.71442514149097
"CAN","cpi",0.2,1998,3,1998,NA,0,0.910198633144344,0.958038702944554,0.988908029337191,0.967063680387792,FALSE,0.125013385781802
"CAN","cpi",0.2,1998,3,1998,NA,0.5,1.95893489275043,2.15064583772502,0.988908029337191,1.34897459866337,FALSE,2.61677810350769
"CAN","cpi",0.2,1998,3,1997,NA,1,1.35909715736539,1.64793230791729,0.988908029337191,0.792689959246129,FALSE,1.2143079706224
"CAN","cpi",0.2,1998,3,1997,NA,1.5,1.55679515987597,1.84563031042787,0.988908029337191,1.28384000376946,FALSE,1.70855297689884
"CAN","cpi",0.2,1999,3,1999,NA,0,1.68884715305787,1.7482126619418,1.7107350135213,1.76864633894604,TRUE,0.0593655088839333
"CAN","cpi",0.2,1999,3,1999,NA,0.5,1.30349176084514,1.49740570128446,1.7107350135213,0.732099710600531,FALSE,0.727237221031416
"CAN","cpi",0.2,1999,3,1998,NA,1,0.79214002824542,1.08721584601463,1.7107350135213,0.369052571959629,FALSE,1.85387373653587
"CAN","cpi",0.2,1999,3,1998,NA,1.5,0.7460320228413,1.04110784061051,1.7107350135213,1.26847007023129,FALSE,1.96914375004617
"CAN","cpi",0.2,2000,3,2000,NA,0,2.62710342016376,2.68304028022336,2.6718361971244,2.70257810674034,TRUE,0.0559368600595969
"CAN","cpi",0.2,2000,3,2000,NA,0.5,2.53684066450004,2.79069398668612,2.6718361971244,1.95948305880876,TRUE,0.253853322186085
"CAN","cpi",0.2,2000,3,1999,NA,1,2.37240643216967,2.8690493318913,2.6718361971244,2.16154661985999,TRUE,0.496642899721635
"CAN","cpi",0.2,2000,3,1999,NA,1.5,1.84258248718054,2.33922538690217,2.6718361971244,0.50278387806376,FALSE,1.3281699252772
"CAN","cpi",0.2,2001,3,2001,NA,0,2.6696850614261,2.72180862297279,2.47906219852806,2.73154549386087,FALSE,0.528680718791777
"CAN","cpi",0.2,2001,3,2001,NA,0.5,2.28147605094589,2.50501441320407,2.47906219852806,1.65861828263926,TRUE,0.22353836225818
"CAN","cpi",0.2,2001,3,2000,NA,1,3.12002374918039,3.63829826670162,2.47906219852806,2.84133895788986,FALSE,2.12067839415205
"CAN","cpi",0.2,2001,3,2000,NA,1.5,2.62808509767778,3.21333598371408,2.47906219852806,1.14191354447969,FALSE,0.957808133910602
"CAN","cpi",0.2,2002,3,2002,NA,0,2.24745001657158,2.30390528420598,2.20880570551249,2.31282527465204,FALSE,0.153066045282134
"CAN","cpi",0.2,2002,3,2002,NA,0.5,1.93284307075922,2.07709763599467,2.20880570551249,1.24731948634093,FALSE,0.473524739030001
"CAN","cpi",0.2,2002,3,2001,NA,1,1.52714404204001,1.82543453955467,2.20880570551249,0.695491540886875,FALSE,1.25671841240921
"CAN","cpi",0.2,2002,3,2001,NA,1.5,2.60440913686446,3.20043045660684,2.20880570551249,0.47606161882134,FALSE,1.58502989812231
"CAN","cpi",0.2,2003,3,2003,NA,0,2.67768036410699,2.73402543501491,2.71189071546809,2.75460397277825,TRUE,0.0563450709079198
"CAN","cpi",0.2,2003,3,2003,NA,0.5,4.75193949678552,5.05127759573896,2.71189071546809,4.16096970792426,FALSE,5.39946005224702
"CAN","cpi",0.2,2003,3,2002,NA,1,3.26863034102631,3.71650196385255,2.71189071546809,3.27791908188471,FALSE,1.8397206867218
"CAN","cpi",0.2,2003,3,2002,NA,1.5,2.03062532711689,2.47849694994313,2.71189071546809,1.51830012756901,FALSE,1.03135603663864
"CAN","cpi",0.2,2004,3,2004,NA,0,1.75553016379077,1.71062095662865,1.83151661303942,1.76153103901938,FALSE,0.257329933864815
"CAN","cpi",0.2,2004,3,2004,NA,0.5,2.14371264066375,2.09880343350162,1.83151661303942,1.38945604480572,FALSE,0.73558086189869
"CAN","cpi",0.2,2004,3,2003,NA,1,2.11133866809413,2.06642946093201,1.83151661303942,1.01874619159597,FALSE,0.654645930474654
"CAN","cpi",0.2,2004,3,2003,NA,1.5,2.78374966736849,2.73884046020636,1.83151661303942,2.99105359104411,FALSE,2.33567342866054
"CAN","cpi",0.2,2005,3,2005,NA,0,2.28287762910241,2.33018154989652,2.18071628336509,2.35062481142317,FALSE,0.302707285137405
"CAN","cpi",0.2,2005,3,2005,NA,0.5,2.05301373808623,2.23490726047732,2.18071628336509,1.4552837212303,TRUE,0.181893522391086
"CAN","cpi",0.2,2005,3,2004,NA,1,1.39819832191342,1.74136042698549,2.18071628336509,0.79648671202377,FALSE,1.44155174602108
"CAN","cpi",0.2,2005,3,2004,NA,1.5,1.79056809260514,2.15134837961295,2.18071628336509,1.13680951350797,FALSE,0.434200046388168
"CAN","cpi",0.2,2006,3,2006,NA,0,1.9985211020479,2.05100177201543,1.97519342012289,2.06448042324351,FALSE,0.11079987478006
"CAN","cpi",0.2,2006,3,2006,NA,0.5,2.37729179984598,2.56724726776857,1.97519342012289,1.77073314120205,FALSE,1.19520141723032
"CAN","cpi",0.2,2006,3,2005,NA,1,2.63958283890268,3.24090581817308,1.97519342012289,2.58808204718941,FALSE,2.26229652621989
"CAN","cpi",0.2,2006,3,2005,NA,1.5,2.15957064699405,2.76089362626445,1.97519342012289,0.762075268916728,FALSE,1.06226604644831
"CAN","cpi",0.2,2007,3,2007,NA,0,2.03694571662841,2.09183642675095,2.10062087284572,2.10807340507977,FALSE,0.076851825359471
"CAN","cpi",0.2,2007,3,2007,NA,0.5,2.65861532623387,2.83969648371676,2.10062087284572,2.09760271424675,FALSE,1.57606729095325
"CAN","cpi",0.2,2007,3,2006,NA,1,1.32998253654564,1.52568488499723,2.10062087284572,0.438862458623872,FALSE,1.63304231807282
"CAN","cpi",0.2,2007,3,2006,NA,1.5,1.9223513213899,2.34097511610773,2.10062087284572,1.08089197775225,TRUE,0.418623794717824
"CAN","cpi",0.2,2008,3,2008,NA,0,2.83339843363552,2.89116422224272,2.31447335265955,2.9146675338117,FALSE,1.35507849104712
"CAN","cpi",0.2,2008,3,2008,NA,0.5,1.64966340539392,1.81973301828251,2.31447335265955,1.04562745221765,FALSE,1.4069204488312
"CAN","cpi",0.2,2008,3,2007,NA,1,1.34577392508986,1.53238512433763,2.31447335265955,0.365030180386173,FALSE,2.14183177005258
"CAN","cpi",0.2,2008,3,2007,NA,1.5,1.78749542788636,2.02651341616662,2.31447335265955,2.04107389452134,FALSE,0.958917829512593
"CAN","cpi",0.2,2009,3,2009,NA,0,0.235235132123011,0.279877662903165,0.284533874408197,0.272618836216429,FALSE,0.0562830595427344
"CAN","cpi",0.2,2009,3,2009,NA,0.5,-0.0365556297632659,0.0226369012904768,0.284533874408197,-0.807426338518035,FALSE,0.713934963848044
"CAN","cpi",0.2,2009,3,2008,NA,1,3.04064634069277,3.66446770332832,0.284533874408197,3.28355694764985,FALSE,7.51410252834699
"CAN","cpi",0.2,2009,3,2008,NA,1.5,2.28690693414422,2.92883994993497,0.284533874408197,0.703376955238912,FALSE,5.64786566513081
"CAN","cpi",0.2,2010,3,2010,NA,0,1.63419431006452,1.69664602138457,1.75525687020327,1.72708036400674,FALSE,0.208978833366802
"CAN","cpi",0.2,2010,3,2010,NA,0.5,1.95386766100474,2.07838728836918,1.75525687020327,1.42243266198166,FALSE,0.621046604368113
"CAN","cpi",0.2,2010,3,2009,NA,1,0.650338467933883,0.920963802080162,1.75525687020327,0.515829437079458,FALSE,2.35635800445406
"CAN","cpi",0.2,2010,3,2009,NA,1.5,0.743122144886325,1.25386363951981,1.75525687020327,-0.666399632006793,FALSE,1.76422457134214
"CAN","cpi",0.2,2011,3,2011,NA,0,2.74343533643552,2.80618514572141,2.85717434028225,2.82871118728348,FALSE,0.190222795687973
"CAN","cpi",0.2,2011,3,2011,NA,0.5,3.07732433507602,3.31088233638134,2.85717434028225,2.59305645945043,FALSE,0.783932988289755
"CAN","cpi",0.2,2011,3,2010,NA,1,1.90856076623343,2.26294655671578,2.85717434028225,1.58194849312145,FALSE,1.83995524939851
"CAN","cpi",0.2,2011,3,2010,NA,1.5,1.83712952573371,2.19151531621606,2.85717434028225,1.00866231757724,FALSE,2.01853335064781
"CAN","cpi",0.2,2012,3,2012,NA,0,1.42907600443003,1.47158075022223,1.50118536134935,1.46681751445377,FALSE,0.116516273609993
"CAN","cpi",0.2,2012,3,2012,NA,0.5,2.20441874051063,2.44604389711717,1.50118536134935,1.63866597060755,FALSE,1.99970860450975
"CAN","cpi",0.2,2012,3,2011,NA,1,1.91116979654098,2.31203560366907,1.50118536134935,0.848240548987433,FALSE,1.42582689510717
"CAN","cpi",0.2,2012,3,2011,NA,1.5,2.65420868083468,3.17524074585811,1.50118536134935,1.68384299188515,FALSE,3.40359036373676
"CAN","cpi",0.2,2013,3,2013,NA,0,0.980567032944482,1.02575778296536,0.931270594714462,1.03083115414128,FALSE,0.168431845595931
"CAN","cpi",0.2,2013,3,2013,NA,0.5,1.51402286285487,1.72517806485965,0.931270594714462,1.00184063196526,FALSE,1.6680358723558
"CAN","cpi",0.2,2013,3,2012,NA,1,0.765471873402394,0.976627075407183,0.931270594714462,-0.272545990872386,TRUE,0.211155202004789
"CAN","cpi",0.2,2013,3,2012,NA,1.5,1.69410234595682,1.90525754796161,0.931270594714462,0.958608804136071,FALSE,2.11823458011069
"CAN","cpi",0.2,2014,3,2014,NA,0,1.90183342315305,1.96454418852801,1.87639912240215,1.98613278510701,FALSE,0.126296517252213
"CAN","cpi",0.2,2014,3,2014,NA,0.5,2.34617473414766,2.59190790829826,1.87639912240215,1.95223885123801,FALSE,1.42017220351437
"CAN","cpi",0.2,2014,3,2013,NA,1,1.0897983497125,1.3355315238631,1.87639912240215,0.688658687283847,FALSE,1.59790217049823
"CAN","cpi",0.2,2014,3,2013,NA,1.5,1.10242308489466,1.34815625904526,1.87639912240215,0.891594199884501,FALSE,1.56634033254283
"CAN","cpi",0.2,2015,3,2015,NA,0,1.18848893530548,1.24277867391132,1.11090953952792,1.24641866377254,FALSE,0.248238228049758
"CAN","cpi",0.2,2015,3,2015,NA,0.5,0.803469960394239,0.969475418194659,1.11090953952792,0.198117162089698,FALSE,0.519590761133564
"CAN","cpi",0.2,2015,3,2014,NA,1,1.46573774320254,1.63448498247245,1.11090953952792,0.532106072596766,FALSE,1.05581774845646
"CAN","cpi",0.2,2015,3,2014,NA,1.5,1.6265641330268,2.03874870978511,1.11090953952792,1.81035920235268,FALSE,1.70132106050552
"CAN","cpi",0.2,2016,3,2016,NA,0,1.36415405163997,1.42374070653544,1.41168586698797,1.44184957394589,TRUE,0.0595866548954689
"CAN","cpi",0.2,2016,3,2016,NA,0.5,1.31250287556165,1.56052429065515,1.41168586698797,0.843100047406122,TRUE,0.248021415093501
"CAN","cpi",0.2,2016,3,2015,NA,1,1.45077832947247,1.80083124587529,1.41168586698797,1.23484853770273,FALSE,0.44778407261409
"CAN","cpi",0.2,2016,3,2015,NA,1.5,1.52287765853256,1.87293057493538,1.41168586698797,0.107462752177283,FALSE,0.628032395264309
"CAN","cpi",0.2,2017,3,2017,NA,0,1.44701239395627,1.50122794053344,1.57888581671161,1.51739925639673,FALSE,0.248360237022594
"CAN","cpi",0.2,2017,3,2017,NA,0.5,2.28813645770905,2.56918899598315,1.57888581671161,1.88170269277887,FALSE,2.05417914076769
"CAN","cpi",0.2,2017,3,2016,NA,1,1.09563434347405,1.37668688174815,1.57888581671161,0.418338346755244,FALSE,0.786549875682758
"CAN","cpi",0.2,2017,3,2016,NA,1.5,1.59201568550261,1.99437531274761,1.57888581671161,0.52557608733729,FALSE,0.435184299222487
"CAN","cpi",0.2,2018,3,2018,NA,0,2.32320860003919,2.38637421012399,2.23316270166586,2.40611378585155,FALSE,0.288280356018127
"CAN","cpi",0.2,2018,3,2018,NA,0.5,2.99113740913272,3.28165735619886,2.23316270166586,2.62207020824204,FALSE,2.1854567157333
"CAN","cpi",0.2,2018,3,2017,NA,1,1.15162992615258,1.44214987321872,2.23316270166586,0.40411310060617,FALSE,2.268052018184
"CAN","cpi",0.2,2018,3,2017,NA,1.5,1.39719011886448,1.68771006593062,2.23316270166586,1.53787524714926,FALSE,1.65415153640425
"CAN","cpi",0.2,2019,3,2019,NA,0,1.94289226839851,1.99955966490234,1.91921619871868,2.01142839895124,FALSE,0.115857570703399
"CAN","cpi",0.2,2019,3,2019,NA,0.5,2.03160734246319,2.26886987588311,1.91921619871868,1.51883708040586,FALSE,0.518240392781193
"CAN","cpi",0.2,2019,3,2018,NA,1,1.97376545591486,2.41430151190993,1.91921619871868,1.41942984101848,FALSE,0.576909198985524
"CAN","cpi",0.2,2019,3,2018,NA,1.5,1.7597925411844,2.20032859717946,1.91921619871868,2.06105171090012,TRUE,0.440536055995068
"CAN","cpi",0.2,2020,3,2020,NA,0,0.675500884179391,0.724162579332423,0.71139989671781,0.726179852791075,TRUE,0.0486616951530321
"CAN","cpi",0.2,2020,3,2020,NA,0.5,1.5975620139212,1.81482080712707,0.71139989671781,1.07225945048052,FALSE,2.43266408621435
"CAN","cpi",0.2,2020,3,2019,NA,1,1.63189050810386,2.00335323248274,0.71139989671781,1.01913964327806,FALSE,2.672689252844
"CAN","cpi",0.2,2020,3,2019,NA,1.5,1.81948560192282,2.23695917020046,0.71139989671781,1.22761645350518,FALSE,3.18768783129016
"CAN","cpi",0.2,2021,3,2021,NA,0,3.19177232806034,3.26665934844511,3.31148121717802,3.30988753190892,FALSE,0.186941692217055
"CAN","cpi",0.2,2021,3,2021,NA,0.5,2.74308819462886,3.03012667261794,3.31148121717802,2.4899040786607,FALSE,0.990424839389282
"CAN","cpi",0.2,2021,3,2020,NA,1,1.29111813194674,1.57815660993582,3.31148121717802,1.1979067045331,FALSE,4.62034999609458
"CAN","cpi",0.2,2021,3,2020,NA,1.5,0.937116254185064,1.22415473217415,3.31148121717802,0.670626810990653,FALSE,5.50535469049878
"CAN","cpi",0.2,2022,3,2022,NA,0,6.42032554043237,6.49654605829178,6.50977236228281,6.54555789178856,FALSE,0.109286277836984
"CAN","cpi",0.2,2022,3,2022,NA,0.5,6.19472751539893,6.66966137059937,6.50977236228281,5.96468998606203,TRUE,0.474933855200435
"CAN","cpi",0.2,2022,3,2021,NA,1,3.48594256197499,4.27937639061962,6.50977236228281,3.42105264822981,FALSE,6.36942375780261
"CAN","cpi",0.2,2022,3,2021,NA,1.5,2.68380004545428,3.47723387409891,6.50977236228281,1.93276265883962,FALSE,8.37478004910438
"CAN","cpi",0.2,2023,3,2023,NA,0,3.94243434354309,3.99109565815136,3.78831288758619,3.97188685244318,FALSE,0.433964954500529
"CAN","cpi",0.2,2023,3,2023,NA,0.5,3.47564930505049,3.83210178905256,3.78831288758619,2.8392001035463,TRUE,0.35645248400207
"CAN","cpi",0.2,2023,3,2022,NA,1,4.44886111038816,4.82253510830874,3.78831288758619,2.86884991489758,FALSE,2.0250445549255
"CAN","cpi",0.2,2023,3,2022,NA,1.5,4.62104140814163,6.09561208622158,3.78831288758619,4.03317247515909,FALSE,3.55639197946855
"CAN","cpi",0.2,2024,3,2023,NA,1,3.37274700129983,4.07631263437783,NA,2.89946754179362,NA,NA
"CAN","cpi",0.2,2024,3,2023,NA,1.5,3.16726363665697,4.36691549637612,NA,1.17991651782151,NA,NA
"CAN","cpi",0.3,1952,3,1952,NA,0,2.70614679242123,2.70614679242123,2.55562336095485,2.50792675283471,FALSE,0.430066947046814
"CAN","cpi",0.3,1952,3,1952,NA,0.5,4.7147224702101,4.71472247021009,2.55562336095485,3.80942800622696,FALSE,6.16885459787214
"CAN","cpi",0.3,1952,3,1951,NA,1,5.84034280856463,5.84034280856463,2.55562336095485,6.36946346746546,FALSE,9.38491270745653
"CAN","cpi",0.3,1952,3,1951,NA,1.5,-11.9976975802161,-11.9976975802161,2.55562336095485,4.80604275648344,FALSE,41.5809169747743
"CAN","cpi",0.3,1953,3,1953,NA,0,-0.327109659780932,-0.640848131627264,-1.01492775838436,-1.00118391953201,FALSE,1.65145609559204
"CAN","cpi",0.3,1953,3,1953,NA,0.5,1.70016432992614,1.38642585807981,-1.01492775838436,-1.88711612688489,FALSE,7.44366749475511
"CAN","cpi",0.3,1953,3,1952,NA,1,-0.30074487334063,-0.614483345186963,-1.01492775838436,-0.873617238258229,FALSE,1.72678405685004
"CAN","cpi",0.3,1953,3,1952,NA,1.5,1.81914354914876,5.6924500962626,-1.01492775838436,0.432272395627528,FALSE,11.9706531400656
"CAN","cpi",0.3,1954,3,1954,NA,0,1.17533873017814,0.41685241547726,0.644425455961438,0.831821956393317,FALSE,1.40861744158734
"CAN","cpi",0.3,1954,3,1954,NA,0.5,3.09168493371687,2.333198619016,0.644425455961438,-0.141712452464762,FALSE,6.23368362174322
"CAN","cpi",0.3,1954,3,1953,NA,1,9.88125275832836,9.12276644362749,0.644425455961438,2.12291681679911,FALSE,25.6324488349189
"CAN","cpi",0.3,1954,3,1953,NA,1.5,-4.21975194141477,-4.97823825611564,0.644425455961438,-1.28741438714058,FALSE,15.3062671483765
"CAN","cpi",0.3,1955,3,1955,NA,0,-0.0681158905256677,0.0758035245056749,0.173649026558865,0.10295813188439,FALSE,0.423477992326171
"CAN","cpi",0.3,1955,3,1955,NA,0.5,0.139378098264794,0.494706824845946,0.173649026558865,-0.548848324097393,TRUE,0.355328726581152
"CAN","cpi",0.3,1955,3,1954,NA,1,1.79871117517307,5.96572694597167,0.173649026558865,2.19101630104756,FALSE,8.8100504811249
"CAN","cpi",0.3,1955,3,1954,NA,1.5,0.281736421772429,4.44875219257104,0.173649026558865,-0.815294949881493,FALSE,4.47583689998022
"CAN","cpi",0.3,1956,3,1956,NA,0,1.43750852277056,1.52579966349739,1.32752769429961,1.46434436590257,FALSE,0.402522079215266
"CAN","cpi",0.3,1956,3,1956,NA,0.5,0.260949150714996,0.587923760237666,1.32752769429961,-0.485738076612692,FALSE,2.44012870684251
"CAN","cpi",0.3,1956,3,1955,NA,1,0.326676449608216,3.77053517300307,1.32752769429961,0.557995939500226,TRUE,3.44385872339485
"CAN","cpi",0.3,1956,3,1955,NA,1.5,-1.15621796090192,2.28764076249293,1.32752769429961,-0.793756041684752,TRUE,3.44385872339485
"CAN","cpi",0.3,1957,3,1957,NA,0,3.26399428504777,3.34500072158078,3.24684755852518,3.35523637829212,FALSE,0.129997083740426
"CAN","cpi",0.3,1957,3,1957,NA,0.5,3.02891679762838,3.76159627676319,3.24684755852518,2.12793087018929,TRUE,0.732679479134807
"CAN","cpi",0.3,1957,3,1956,NA,1,1.78087000068188,5.00392717291037,3.24684755852518,4.42886834530761,TRUE,3.22305717222849
"CAN","cpi",0.3,1957,3,1956,NA,1.5,1.18480947270891,5.32507566846969,3.24684755852518,-0.785064469253982,TRUE,4.14026619576078
"CAN","cpi",0.3,1958,3,1958,NA,0,2.12256938060164,2.20321175777625,2.33186388641149,2.20013349321115,FALSE,0.448219887560996
"CAN","cpi",0.3,1958,3,1958,NA,0.5,2.82592200059741,3.02190714127727,2.33186388641149,2.0126030377883,FALSE,1.60757975263963
"CAN","cpi",0.3,1958,3,1957,NA,1,1.08022767617355,2.23585733435566,2.33186388641149,2.83859761398538,FALSE,1.42993409262733
"CAN","cpi",0.3,1958,3,1957,NA,1.5,2.06957603373736,3.41639597562523,2.33186388641149,0.366312073207214,TRUE,1.34681994188787
"CAN","cpi",0.3,1959,3,1959,NA,0,1.08290512924337,1.25990464542193,1.19382698397654,1.18954599151176,TRUE,0.176999516178559
"CAN","cpi",0.3,1959,3,1959,NA,0.5,1.28297121678192,1.540916433972,1.19382698397654,0.545308327160925,FALSE,0.512643025205451
"CAN","cpi",0.3,1959,3,1958,NA,1,0.474141784702109,1.06674106397832,1.19382698397654,1.13295114249046,FALSE,0.955701907842553
"CAN","cpi",0.3,1959,3,1958,NA,1.5,0.63959279388292,1.23219207315913,1.19382698397654,0.717422088079289,TRUE,0.592599279276212
"CAN","cpi",0.3,1960,3,1960,NA,0,0.896569545830727,1.01842683458386,1.34209404870695,1.02361304259477,FALSE,1.04662075767624
"CAN","cpi",0.3,1960,3,1960,NA,0.5,1.42297930358233,1.7147607561417,1.34209404870695,0.648611007713657,FALSE,0.52288218077474
"CAN","cpi",0.3,1960,3,1959,NA,1,1.0521445747311,2.09757129977909,1.34209404870695,2.37666873185636,TRUE,1.04542672504799
"CAN","cpi",0.3,1960,3,1959,NA,1.5,1.04746224582016,2.09288897086815,1.34209404870695,-0.349092179567277,TRUE,1.04542672504799
"CAN","cpi",0.3,1961,3,1961,NA,0,0.938131127173791,1.07720587280933,1.00921348094007,1.00921348094007,TRUE,0.139074745635536
"CAN","cpi",0.3,1961,3,1961,NA,0.5,1.69464706954973,2.08316141352183,1.00921348094007,1.00921348094007,FALSE,2.34689602571398
"CAN","cpi",0.3,1961,3,1960,NA,1,-0.130871610695532,0.813178795625878,1.00921348094007,0.0537704626035329,FALSE,1.50414950721911
"CAN","cpi",0.3,1961,3,1960,NA,1.5,1.24713461532979,2.1911850216512,1.00921348094007,-0.332316386156399,FALSE,1.62382507600633
"CAN","cpi",0.3,1962,3,1962,NA,0,1.04468587266636,1.13192202434941,1.04957947883042,1.0653801125483,TRUE,0.0872361516830424
"CAN","cpi",0.3,1962,3,1962,NA,0.5,0.704586972902272,1.03852339638544,1.04957947883042,0,FALSE,0.365525230468802
"CAN","cpi",0.3,1962,3,1961,NA,1,0.0919806990048163,0.638298080710779,1.04957947883042,0,FALSE,1.72140709061921
"CAN","cpi",0.3,1962,3,1961,NA,1.5,0.405519062384069,0.951836444090032,1.04957947883042,0,FALSE,0.825583195249916
"CAN","cpi",0.3,1963,3,1963,NA,0,1.81245920325119,1.82917373308567,1.60677118395228,1.83024954277348,FALSE,0.604394584974207
"CAN","cpi",0.3,1963,3,1963,NA,0.5,1.53466818592775,1.91987322968164,1.60677118395228,0.836828714617504,TRUE,0.385205043753889
"CAN","cpi",0.3,1963,3,1962,NA,1,1.28788658697171,1.71244316920464,1.60677118395228,1.60935100695326,TRUE,0.424556582232925
"CAN","cpi",0.3,1963,3,1962,NA,1.5,0.691118582382251,1.11567516461518,1.60677118395228,0,FALSE,1.82768806605323
"CAN","cpi",0.3,1964,3,1964,NA,0,1.86338627535963,1.95538702693507,1.88764670034376,1.95194648443024,TRUE,0.0920007515754366
"CAN","cpi",0.3,1964,3,1964,NA,0.5,1.946367699185,2.34369497494047,1.88764670034376,1.27307816843398,FALSE,0.565101558159001
"CAN","cpi",0.3,1964,3,1963,NA,1,1.74308105811319,2.40360291977772,1.88764670034376,3.20172332637508,TRUE,0.660521861664529
"CAN","cpi",0.3,1964,3,1963,NA,1.5,1.08968939278147,1.750211254446,1.88764670034376,0,FALSE,1.05319456422956
"CAN","cpi",0.3,1965,3,1965,NA,0,2.23376380539127,2.30413579458256,2.29538304394236,2.29800189469823,TRUE,0.0703719891912931
"CAN","cpi",0.3,1965,3,1965,NA,0.5,2.0098104587308,2.43022096342081,2.29538304394236,1.39443218256826,TRUE,0.420410504690014
"CAN","cpi",0.3,1965,3,1964,NA,1,1.28587901099239,1.70628951568241,2.29538304394236,1.48078368039448,FALSE,2.10353487114701
"CAN","cpi",0.3,1965,3,1964,NA,1.5,1.1807496056804,1.60764102305532,2.29538304394236,0.293257399533461,FALSE,2.39186861990932
"CAN","cpi",0.3,1966,3,1966,NA,0,3.73009007021294,3.78396506476938,3.72486065470629,3.77511268244847,FALSE,0.0688161817182936
"CAN","cpi",0.3,1966,3,1966,NA,0.5,4.04364836419247,4.46513447440862,3.72486065470629,3.37743719728421,FALSE,1.33230813731953
"CAN","cpi",0.3,1966,3,1965,NA,1,1.48716757244994,1.90865368266609,3.72486065470629,1.98486973144544,FALSE,5.61064888747385
"CAN","cpi",0.3,1966,3,1965,NA,1.5,1.14615806442103,1.56764417463718,3.72486065470629,0.578640834001038,FALSE,6.58496176755646
"CAN","cpi",0.3,1967,3,1967,NA,0,3.652589735789,3.70393769912392,3.49360316391996,3.68375770714608,FALSE,0.505595311532179
"CAN","cpi",0.3,1967,3,1967,NA,0.5,2.68351662954353,2.91001418541635,3.49360316391996,2.11054708048259,FALSE,1.8938946373117
"CAN","cpi",0.3,1967,3,1966,NA,1,1.56447820708411,1.79097576295693,3.49360316391996,2.02003307533501,FALSE,5.09114727291004
"CAN","cpi",0.3,1967,3,1966,NA,1.5,0.970085369420091,1.19658292529292,3.49360316391996,1.71558536379673,FALSE,6.78941252337867
"CAN","cpi",0.3,1968,3,1968,NA,0,4.00948518993557,4.08990515399087,3.95128347779386,4.07085717819357,FALSE,0.246710570174478
"CAN","cpi",0.3,1968,3,1968,NA,0.5,3.92655351932333,4.4915466668372,3.95128347779386,3.50732233276501,TRUE,0.564993147513864
"CAN","cpi",0.3,1968,3,1967,NA,1,2.10244863229851,2.66744177981237,3.95128347779386,3.66303679301692,FALSE,4.23311228460382
"CAN","cpi",0.3,1968,3,1967,NA,1.5,1.78164896436741,2.34664211188127,3.95128347779386,0.834881519045053,FALSE,5.14968276440696
"CAN","cpi",0.3,1969,3,1969,NA,0,4.44223237913854,4.5489113107297,4.42679496126681,4.52532640008253,FALSE,0.150785839796089
"CAN","cpi",0.3,1969,3,1969,NA,0.5,3.14094329705699,3.6844946586826,4.42679496126681,2.69090620784681,FALSE,2.66440936900908
"CAN","cpi",0.3,1969,3,1968,NA,1,2.29583856716486,2.84754995224677,4.42679496126681,4.0779393276339,FALSE,5.06383998228204
"CAN","cpi",0.3,1969,3,1968,NA,1.5,1.37145107562222,1.92316246070413,4.42679496126681,1.61221871335458,FALSE,7.70494710097529
"CAN","cpi",0.3,1970,3,1970,NA,0,3.48796895319022,3.58437764919935,3.28128405769805,3.55878605435979,FALSE,0.686936968843916
"CAN","cpi",0.3,1970,3,1970,NA,0.5,4.15235645664153,4.76262233257888,3.28128405769805,3.74969277403504,FALSE,3.09904415863302
"CAN","cpi",0.3,1970,3,1969,NA,1,2.10002219256591,3.58165711951471,3.28128405769805,3.11186608282608,TRUE,1.4816349269488
"CAN","cpi",0.3,1970,3,1969,NA,1.5,2.44334071426787,3.92497564121667,3.28128405769805,0.764941977259638,TRUE,1.4816349269488
"CAN","cpi",0.3,1971,3,1971,NA,0,2.7385878469273,2.82564494774543,2.64123406634756,2.81514553288871,FALSE,0.365210759617383
"CAN","cpi",0.3,1971,3,1971,NA,0.5,1.66435495165125,2.07945511484573,2.64123406634756,1.11673730766521,FALSE,2.02018288177114
"CAN","cpi",0.3,1971,3,1970,NA,1,1.81082040301502,2.27721672021049,2.64123406634756,1.92043450460395,FALSE,1.5064458775871
"CAN","cpi",0.3,1971,3,1970,NA,1.5,0.905269346190335,1.3716656633858,2.64123406634756,1.70194075200601,FALSE,4.09373461137193
"CAN","cpi",0.3,1972,3,1972,NA,0,4.91590931160991,5.05908360201953,4.83230569625923,5.04828762155974,FALSE,0.382041762840123
"CAN","cpi",0.3,1972,3,1972,NA,0.5,4.40415723249028,5.22630744245057,4.83230569625923,4.09602385359717,TRUE,0.822150209960288
"CAN","cpi",0.3,1972,3,1971,NA,1,2.72147485376247,4.1003287248444,4.83230569625923,4.16812111633716,FALSE,3.47021664655287
"CAN","cpi",0.3,1972,3,1971,NA,1.5,1.32952143535799,2.70837530643992,4.83230569625923,0.692030005351089,FALSE,7.44722641342283
"CAN","cpi",0.3,1973,3,1973,NA,0,7.08017630822874,7.15978976446907,7.12388603531779,7.25096132226983,TRUE,0.0796134562403292
"CAN","cpi",0.3,1973,3,1973,NA,0.5,5.54131307308232,6.36253584885732,7.12388603531779,5.30446017290082,FALSE,2.99650902280491
"CAN","cpi",0.3,1973,3,1972,NA,1,3.27395770414862,4.84923692368979,7.12388603531779,4.92276035792265,FALSE,8.07427668133546
"CAN","cpi",0.3,1973,3,1972,NA,1.5,1.82182726190107,3.39710648144224,7.12388603531779,1.79187879074203,FALSE,12.2232208020427
"CAN","cpi",0.3,1974,3,1974,NA,0,9.95307815883609,10.0258335846575,10.2717243737774,10.148911210151,FALSE,0.775300537592578
"CAN","cpi",0.3,1974,3,1974,NA,0.5,7.98891552242637,8.9570188461924,10.2717243737774,7.90446289245049,FALSE,4.7244048311518
"CAN","cpi",0.3,1974,3,1973,NA,1,4.32680518475225,6.90754602182703,10.2717243737774,7.30476096756609,FALSE,12.1926789855045
"CAN","cpi",0.3,1974,3,1973,NA,1.5,2.73720076021327,5.6715212408471,10.2717243737774,2.5663290958369,FALSE,16.0777580032919
"CAN","cpi",0.3,1975,3,1975,NA,0,10.1018534883456,10.2644965703207,10.0232981493341,10.1746571103793,FALSE,0.387086907722179
"CAN","cpi",0.3,1975,3,1975,NA,0.5,8.35930730669697,10.2407716784829,10.0232981493341,8.07152306914465,TRUE,1.88146437178588
"CAN","cpi",0.3,1975,3,1974,NA,1,4.29466927614564,8.71772899825582,10.0232981493341,7.8187778356914,FALSE,8.15325729661961
"CAN","cpi",0.3,1975,3,1974,NA,1.5,3.81327829404972,9.80596444523517,10.0232981493341,3.64914274700436,FALSE,6.61363959146817
"CAN","cpi",0.3,1976,3,1976,NA,0,7.12539016882315,7.26870546304688,7.22784311401172,7.18995143043805,TRUE,0.143315294223729
"CAN","cpi",0.3,1976,3,1976,NA,0.5,7.24055155158728,8.44532775254276,7.22784311401172,6.61333364285308,FALSE,1.24108602259996
"CAN","cpi",0.3,1976,3,1975,NA,1,5.70453365820905,10.6099255646099,7.22784311401172,8.584971075903,TRUE,4.90539190640085
"CAN","cpi",0.3,1976,3,1975,NA,1.5,4.4321773542969,10.3551639992821,7.22784311401172,3.14738569995591,TRUE,5.92298664498524
"CAN","cpi",0.3,1977,3,1977,NA,0,7.37314311771796,7.51016955813509,7.58101410153764,7.50176944503946,FALSE,0.339439421567287
"CAN","cpi",0.3,1977,3,1977,NA,0.5,7.0831696894743,8.10072980609894,7.58101410153764,6.40571638826874,TRUE,1.01756011662464
"CAN","cpi",0.3,1977,3,1976,NA,1,3.8186513716202,5.89641988032284,7.58101410153764,4.04909286077014,FALSE,6.89089485503065
"CAN","cpi",0.3,1977,3,1976,NA,1.5,2.96803574145938,7.09316043533163,7.58101410153764,2.59432747727492,FALSE,5.51899231160372
"CAN","cpi",0.3,1978,3,1978,NA,0,8.4906955084836,8.65271693053139,8.50208927062595,8.59104847384149,TRUE,0.162021422047786
"CAN","cpi",0.3,1978,3,1978,NA,0.5,8.03116272997849,9.12141245712855,8.50208927062595,7.34113908733495,TRUE,1.09024972715006
"CAN","cpi",0.3,1978,3,1977,NA,1,5.24334431640004,7.64377842466328,8.50208927062595,5.87902868518151,FALSE,4.85275081101372
"CAN","cpi",0.3,1978,3,1977,NA,1.5,2.68021406548146,6.00295645519661,8.50208927062595,3.89293485842214,FALSE,10.4631218623704
"CAN","cpi",0.3,1979,3,1979,NA,0,8.40827106597912,8.52662553044991,8.65147652410481,8.48651410143776,FALSE,0.475071589199079
"CAN","cpi",0.3,1979,3,1979,NA,0.5,8.13233272618916,8.66525025369153,8.65147652410481,7.46186747064873,TRUE,0.53291752750237
"CAN","cpi",0.3,1979,3,1978,NA,1,6.27571713549033,8.52681119966844,8.65147652410481,6.93686058379669,FALSE,2.60728070542488
"CAN","cpi",0.3,1979,3,1978,NA,1.5,5.52456542592416,7.77565949010226,8.65147652410481,3.9179710204728,FALSE,4.75342844704253
"CAN","cpi",0.3,1980,3,1980,NA,0,9.35013391729768,9.5058016619154,9.5171912664748,9.43711128155219,FALSE,0.188209471930281
"CAN","cpi",0.3,1980,3,1980,NA,0.5,8.96049428284043,9.11616202745814,9.5171912664748,7.89144076485851,FALSE,1.30146557037959
"CAN","cpi",0.3,1980,3,1979,NA,1,5.34106727422204,7.78521864393819,9.5171912664748,5.69387794711803,FALSE,7.39264457696359
"CAN","cpi",0.3,1980,3,1979,NA,1.5,5.88778881474321,8.42376264681097,9.5171912664748,4.27199048256738,FALSE,5.66005560253584
"CAN","cpi",0.3,1981,3,1981,NA,0,11.5210551608133,11.7130760147437,11.5813425032741,11.617538759154,TRUE,0.192020853930327
"CAN","cpi",0.3,1981,3,1981,NA,0.5,12.6472914578247,13.1328185588537,11.5813425032741,11.3038259100907,FALSE,3.53109554260203
"CAN","cpi",0.3,1981,3,1980,NA,1,8.61408661465906,10.6544035646403,11.5813425032741,8.22922472590444,FALSE,4.6887139175065
"CAN","cpi",0.3,1981,3,1980,NA,1.5,7.55030595012325,9.59062290010448,11.5813425032741,4.54818367546621,FALSE,7.72808724475169
"CAN","cpi",0.3,1982,3,1982,NA,0,10.1546970818931,10.2860044544536,10.1124203763629,10.1863972123348,FALSE,0.252097959789435
"CAN","cpi",0.3,1982,3,1982,NA,0.5,10.0089731256547,10.6226636700016,10.1124203763629,9.38011590167964,TRUE,0.61369054434698
"CAN","cpi",0.3,1982,3,1981,NA,1,11.4848128012091,12.8291940520154,10.1124203763629,8.92774959502704,FALSE,5.26550246465239
"CAN","cpi",0.3,1982,3,1981,NA,1.5,9.967658296916,13.040653558573,10.1124203763629,7.65688060941457,TRUE,3.07299526165695
"CAN","cpi",0.3,1983,3,1983,NA,0,5.78915081640962,5.8682468648987,5.67091787896303,5.79231449937116,FALSE,0.416904441193616
"CAN","cpi",0.3,1983,3,1983,NA,0.5,5.0684444819291,5.48105317250742,5.67091787896303,4.48935486750539,FALSE,0.955079280451511
"CAN","cpi",0.3,1983,3,1982,NA,1,8.10078495426587,9.83382498191107,5.67091787896303,6.68360843662591,FALSE,8.6755173856533
"CAN","cpi",0.3,1983,3,1982,NA,1.5,8.39212973444378,10.125169762089,5.67091787896303,5.80492936344428,FALSE,9.50793104330447
"CAN","cpi",0.3,1984,3,1984,NA,0,4.12591273830416,4.22057674419516,4.19799576814029,4.1863442377944,TRUE,0.0946640058910013
"CAN","cpi",0.3,1984,3,1984,NA,0.5,5.08262212779409,5.56189279351432,4.19799576814029,4.37368919035215,FALSE,3.00677455044538
"CAN","cpi",0.3,1984,3,1983,NA,1,5.05412435047329,6.22658304013963,4.19799576814029,4.8252398586334,FALSE,3.61854035347492
"CAN","cpi",0.3,1984,3,1983,NA,1.5,4.41927083604786,6.35658355663592,4.19799576814029,1.63651850095104,FALSE,2.56952720032397
"CAN","cpi",0.3,1985,3,1985,NA,0,3.79180079400825,3.89585911525299,3.86444262005169,3.87488963413478,TRUE,0.104058321244736
"CAN","cpi",0.3,1985,3,1985,NA,0.5,4.36202483519264,4.76788031621021,3.86444262005169,3.66954460168274,FALSE,1.82751895284885
"CAN","cpi",0.3,1985,3,1984,NA,1,2.77117502492277,3.52174887807306,3.86444262005169,2.51760914226531,FALSE,1.72969883023211
"CAN","cpi",0.3,1985,3,1984,NA,1.5,3.8210610175839,4.57163487073419,3.86444262005169,2.74468923002786,TRUE,0.750573853150286
"CAN","cpi",0.3,1986,3,1986,NA,0,3.99838496255297,4.10473538463326,4.08685396749431,4.09009381020777,TRUE,0.106350422080293
"CAN","cpi",0.3,1986,3,1986,NA,0.5,4.89983718864386,5.31568251427881,4.08685396749431,4.18867743652029,FALSE,2.73865452891937
"CAN","cpi",0.3,1986,3,1985,NA,1,3.23528406316318,3.91091457157701,4.08685396749431,2.96346536694636,FALSE,1.17831449674898
"CAN","cpi",0.3,1986,3,1985,NA,1.5,3.4130366641723,4.08866717258614,4.08685396749431,2.65645514502224,TRUE,0.675630508413836
"CAN","cpi",0.3,1987,3,1987,NA,0,4.21839351051316,4.30165576910281,4.23980729277887,4.30382748919395,TRUE,0.0832622585896541
"CAN","cpi",0.3,1987,3,1987,NA,0.5,4.29389854984954,4.70469593304644,4.23980729277887,3.60745044359556,FALSE,0.565343831970232
"CAN","cpi",0.3,1987,3,1986,NA,1,3.70174982370078,4.36200357567318,4.23980729277887,3.48954394276064,TRUE,0.660253751972398
"CAN","cpi",0.3,1987,3,1986,NA,1.5,3.60166407820935,4.26191783018175,4.23980729277887,3.05061614822702,TRUE,0.660253751972398
"CAN","cpi",0.3,1988,3,1988,NA,0,3.88995423105127,3.967059988594,3.92899537638065,3.96651200874969,TRUE,0.0771057575427285
"CAN","cpi",0.3,1988,3,1988,NA,0.5,3.94044650464759,4.35574939323018,3.92899537638065,3.27588434563216,FALSE,0.448020397916695
"CAN","cpi",0.3,1988,3,1987,NA,1,3.54086031401956,4.457225737178,3.92899537638065,3.36557853238272,TRUE,0.916365423158434
"CAN","cpi",0.3,1988,3,1987,NA,1.5,3.82524279261033,4.74160821576876,3.92899537638065,2.22890665988493,TRUE,0.916365423158434
"CAN","cpi",0.3,1989,3,1989,NA,0,4.86952667578054,4.9559907433693,4.82821664544208,4.96224122245117,FALSE,0.204492725698657
"CAN","cpi",0.3,1989,3,1989,NA,0.5,4.82467154276959,5.27682756146501,4.82821664544208,4.15246181762677,TRUE,0.452156018695417
"CAN","cpi",0.3,1989,3,1988,NA,1,3.75595019071047,4.46584718127894,4.82821664544208,3.35061776773985,FALSE,1.74523831674886
"CAN","cpi",0.3,1989,3,1988,NA,1.5,3.66355153616721,4.37344852673568,4.82821664544208,2.03293210635829,FALSE,2.00923447258675
"CAN","cpi",0.3,1990,3,1990,NA,0,4.41505713359799,4.49274087642329,4.64347549432717,4.49116732458404,FALSE,0.50835407969353
"CAN","cpi",0.3,1990,3,1990,NA,0.5,5.47525860740422,5.94639710925984,4.64347549432717,4.80635133900141,FALSE,2.84766168207577
"CAN","cpi",0.3,1990,3,1989,NA,1,4.84783781543759,5.55953388691983,4.64347549432717,4.45332930526201,FALSE,1.295588417512
"CAN","cpi",0.3,1990,3,1989,NA,1.5,4.40086307395496,5.1125591454372,4.64347549432717,2.93994143296931,TRUE,0.711696071482237
"CAN","cpi",0.3,1991,3,1991,NA,0,5.49690160296033,5.59312447338365,5.4258100696218,5.5966415351231,FALSE,0.299341537104841
"CAN","cpi",0.3,1991,3,1991,NA,0.5,8.80881681068332,9.1607250350159,5.4258100696218,8.0424604401558,FALSE,10.0176417702227
"CAN","cpi",0.3,1991,3,1990,NA,1,3.91323771470499,4.26514593903757,5.4258100696218,3.00766385389873,FALSE,3.66809145457322
"CAN","cpi",0.3,1991,3,1990,NA,1.5,4.49122470342517,4.84313292775775,5.4258100696218,3.42461322750937,FALSE,2.01670005822986
"CAN","cpi",0.3,1992,3,1992,NA,0,1.64729979667798,1.29538485713318,1.47496888572843,1.46118300949616,FALSE,0.653556316297481
"CAN","cpi",0.3,1992,3,1992,NA,0.5,2.22267898362813,1.87076404408334,1.47496888572843,1.2379681755847,FALSE,1.78439962588292
"CAN","cpi",0.3,1992,3,1991,NA,1,3.74382500576103,3.39191006621623,1.47496888572843,1.8723365291461,FALSE,6.13053111769118
"CAN","cpi",0.3,1992,3,1991,NA,1.5,5.71684240377853,5.36492746423373,1.47496888572843,6.89933696838937,FALSE,11.7677236834555
"CAN","cpi",0.3,1993,3,1993,NA,0,1.71797919973516,1.78745621384941,1.84351085411351,1.80220567555903,FALSE,0.229633129154546
"CAN","cpi",0.3,1993,3,1993,NA,0.5,2.85107311541532,3.12228892809975,1.84351085411351,2.21818498229346,FALSE,3.1499651306896
"CAN","cpi",0.3,1993,3,1992,NA,1,1.48598447363198,2.01244174377893,1.84351085411351,1.3520429918812,TRUE,0.526457270146951
"CAN","cpi",0.3,1993,3,1992,NA,1.5,1.73356806642786,2.26002533657481,1.84351085411351,0.933485487336859,TRUE,0.526457270146951
"CAN","cpi",0.3,1994,3,1994,NA,0,0.153830224669998,0.197140599061381,0.161630694655448,0.202109657487191,TRUE,0.0433103743913829
"CAN","cpi",0.3,1994,3,1994,NA,0.5,0.111958633160632,0.29247381965758,0.161630694655448,-0.572639707462777,TRUE,0.180515186496948
"CAN","cpi",0.3,1994,3,1993,NA,1,1.38297295739068,1.84689087737021,0.161630694655448,1.14110533076836,FALSE,3.95346724208019
"CAN","cpi",0.3,1994,3,1993,NA,1.5,2.04648110905904,2.51039902903857,0.161630694655448,1.65023462295923,FALSE,5.84920481827551
"CAN","cpi",0.3,1995,3,1995,NA,0,2.03522741857441,2.12380484809189,2.11688403676572,2.14851249512314,TRUE,0.088577429517473
"CAN","cpi",0.3,1995,3,1995,NA,0.5,3.21227379269982,3.47545212703509,2.11688403676572,2.60072443309243,FALSE,3.39286335128985
"CAN","cpi",0.3,1995,3,1994,NA,1,1.38632536646953,1.82374428316373,2.11688403676572,1.43373972642191,FALSE,1.27496106984273
"CAN","cpi",0.3,1995,3,1994,NA,1.5,0.517763634828409,1.51370890606064,2.11688403676572,-1.26611333424577,FALSE,2.71930278753244
"CAN","cpi",0.3,1996,3,1996,NA,0,1.37687925064124,1.42901296230016,1.55309584667184,1.43665270425039,FALSE,0.406656238435156
"CAN","cpi",0.3,1996,3,1996,NA,0.5,1.91924678421702,2.07624817719682,1.55309584667184,1.23276330365037,FALSE,1.20314692882316
"CAN","cpi",0.3,1996,3,1995,NA,1,1.20022657215634,1.35722796513614,1.55309584667184,0.729753259393914,FALSE,0.716623911653229
"CAN","cpi",0.3,1996,3,1995,NA,1.5,2.09841920589851,2.25542059887831,1.55309584667184,2.31904839186543,FALSE,1.71506813362741
"CAN","cpi",0.3,1997,3,1997,NA,0,1.60573255547323,1.66918336702667,1.60528783555959,1.67949478723595,FALSE,0.0647214398781086
"CAN","cpi",0.3,1997,3,1997,NA,0.5,2.52985445970703,2.82833914140507,1.60528783555959,1.93291992098407,FALSE,2.94010360783358
"CAN","cpi",0.3,1997,3,1996,NA,1,0.75690872538813,1.38127707274208,1.60528783555959,0.614630451620954,FALSE,1.26439909826113
"CAN","cpi",0.3,1997,3,1996,NA,1.5,1.4284490210944,2.05281736844835,1.60528783555959,0.962161564198873,TRUE,0.624368347353947
"CAN","cpi",0.3,1998,3,1998,NA,0,0.907422539751916,0.95687664699229,0.988908029337191,0.967063680387792,FALSE,0.14097234251152
"CAN","cpi",0.3,1998,3,1998,NA,0.5,1.83854156733202,2.2353959952688,0.988908029337191,1.34897459866337,FALSE,2.82437882220772
"CAN","cpi",0.3,1998,3,1997,NA,1,0.967030850486336,1.5417779432345,0.988908029337191,0.792689959246129,TRUE,0.574747092748167
"CAN","cpi",0.3,1998,3,1997,NA,1.5,1.36904694079067,1.94379403353884,0.988908029337191,1.28384000376946,FALSE,1.66085826832953
"CAN","cpi",0.3,1999,3,1999,NA,0,1.68385248094291,1.75206475738334,1.7107350135213,1.76864633894604,TRUE,0.068212276440438
"CAN","cpi",0.3,1999,3,1999,NA,0.5,1.17505248981422,1.53035198299286,1.7107350135213,0.732099710600531,FALSE,0.870679580402747
"CAN","cpi",0.3,1999,3,1998,NA,1,0.690116787110572,1.04541628028921,1.7107350135213,0.369052571959629,FALSE,2.25621015955603
"CAN","cpi",0.3,1999,3,1998,NA,1.5,0.85507893842167,1.21037843160031,1.7107350135213,1.26847007023129,FALSE,1.78488972723861
"CAN","cpi",0.3,2000,3,2000,NA,0,2.61168884947285,2.68699037329949,2.6718361971244,2.70257810674034,TRUE,0.0753015238266475
"CAN","cpi",0.3,2000,3,2000,NA,0.5,2.43523368256627,2.85980458694066,2.6718361971244,1.95948305880876,TRUE,0.424570904374387
"CAN","cpi",0.3,2000,3,1999,NA,1,2.38787127312681,2.96114443645043,2.6718361971244,2.16154661985999,TRUE,0.573273163323615
"CAN","cpi",0.3,2000,3,1999,NA,1.5,1.82041241739254,2.41262039862185,2.6718361971244,0.50278387806376,FALSE,1.33282454837946
"CAN","cpi",0.3,2001,3,2001,NA,0,2.65596149318856,2.72217888020106,2.47906219852806,2.73154549386087,FALSE,0.571643943185348
"CAN","cpi",0.3,2001,3,2001,NA,0.5,2.14334320806147,2.58053552276214,2.47906219852806,1.65861828263926,TRUE,0.43719231470067
"CAN","cpi",0.3,2001,3,2000,NA,1,3.17473886166111,3.71800777485008,2.47906219852806,2.84133895788986,FALSE,2.53091652214052
"CAN","cpi",0.3,2001,3,2000,NA,1.5,2.3499059140721,3.42912612835016,2.47906219852806,1.14191354447969,TRUE,1.07922021427806
"CAN","cpi",0.3,2002,3,2002,NA,0,2.24213390765957,2.30417111671658,2.20880570551249,2.31282527465204,FALSE,0.157260643762961
"CAN","cpi",0.3,2002,3,2002,NA,0.5,1.85569727220942,2.1564540529391,2.20880570551249,1.24731948634093,FALSE,0.450332930939363
"CAN","cpi",0.3,2002,3,2001,NA,1,0.86541187817499,1.84730083171792,2.20880570551249,0.695491540886875,FALSE,2.01476002152741
"CAN","cpi",0.3,2002,3,2001,NA,1.5,2.39629092522201,3.37817987876494,2.20880570551249,0.47606161882134,FALSE,1.51756100985586
"CAN","cpi",0.3,2003,3,2003,NA,0,2.67057477468826,2.74029578874011,2.71189071546809,2.75460397277825,TRUE,0.0697210140518543
"CAN","cpi",0.3,2003,3,2003,NA,0.5,4.69174421557112,5.11472347765447,2.71189071546809,4.16096970792426,FALSE,6.07970354809201
"CAN","cpi",0.3,2003,3,2002,NA,1,3.28568360748791,3.90199560219805,2.71189071546809,3.27791908188471,FALSE,2.25572025762392
"CAN","cpi",0.3,2003,3,2002,NA,1.5,1.83723121121821,2.45354320592836,2.71189071546809,1.51830012756901,FALSE,1.35444773625224
"CAN","cpi",0.3,2004,3,2004,NA,0,1.70531380708524,1.75885171572354,1.83151661303942,1.76153103901938,FALSE,0.261151900969402
"CAN","cpi",0.3,2004,3,2004,NA,0.5,1.92763989252282,2.30767826067759,1.83151661303942,1.38945604480572,FALSE,0.654676309535911
"CAN","cpi",0.3,2004,3,2003,NA,1,1.68975822183762,2.2016378365089,1.83151661303942,1.01874619159597,TRUE,0.511879614671282
"CAN","cpi",0.3,2004,3,2003,NA,1.5,1.8486898925575,2.64064450787292,1.83151661303942,2.99105359104411,FALSE,0.841021128224222
"CAN","cpi",0.3,2005,3,2005,NA,0,2.26851618702891,2.33502398944505,2.18071628336509,2.35062481142317,FALSE,0.317364670027055
"CAN","cpi",0.3,2005,3,2005,NA,0.5,1.95708955743722,2.33146134861139,2.18071628336509,1.4552837212303,TRUE,0.37437179117417
"CAN","cpi",0.3,2005,3,2004,NA,1,1.40024628075422,1.77461807192839,2.18071628336509,0.79648671202377,FALSE,1.53465239527904
"CAN","cpi",0.3,2005,3,2004,NA,1.5,1.72095848262621,2.16559061118082,2.18071628336509,1.13680951350797,FALSE,0.487848334795377
"CAN","cpi",0.3,2006,3,2006,NA,0,1.99325901065248,2.0543442768964,1.97519342012289,2.06448042324351,FALSE,0.11270123918562
"CAN","cpi",0.3,2006,3,2006,NA,0.5,2.25341998943312,2.60276634735599,1.97519342012289,1.77073314120205,FALSE,1.14427941309498
