isdrw/probabilistic-benchmark-forecasts/exploratory analysis/linear_quantile_regression_lag results/ldr_lag_prediction_arima1_1_0_2026-02-18_16-02-44.csv
"country","target","tau","target_year","target_quarter","forecast_year","forecast_quarter","horizon","lower_bound","upper_bound","truth_value","prediction","covered","IS"
"CAN","cpi",0.1,1952,3,1952,NA,0,2.66039440148687,2.66039440148687,2.55562336095485,2.46502621244774,FALSE,0.232824534515607
"CAN","cpi",0.1,1952,3,1952,NA,0.5,4.68439190678893,4.68439190678893,2.55562336095485,4.32129924776399,FALSE,4.7305967685202
"CAN","cpi",0.1,1952,3,1951,NA,1,6.26117213572233,6.26117213572233,2.55562336095485,9.65785623271456,FALSE,8.23455283281663
"CAN","cpi",0.1,1952,3,1951,NA,1.5,7.31905103975627,7.31905103975627,2.55562336095485,10.2729097180516,FALSE,10.585394841781
"CAN","cpi",0.1,1953,3,1953,NA,0,-0.501012738988479,-0.501012738988481,-1.01492775838436,-1.00749856253296,FALSE,1.1420333764353
"CAN","cpi",0.1,1953,3,1953,NA,0.5,1.26158744977227,1.26158744977227,-1.01492775838436,-2.06778904141071,FALSE,5.05892268479252
"CAN","cpi",0.1,1953,3,1952,NA,1,-0.83569512528358,-0.835695125283582,-1.01492775838436,-1.55171650633025,FALSE,0.398294740223959
"CAN","cpi",0.1,1953,3,1952,NA,1.5,-13.7827151397103,-13.7827151397103,-1.01492775838436,1.96017794195978,FALSE,28.372860847391
"CAN","cpi",0.1,1954,3,1954,NA,0,0.847600631430562,0.801405039704863,0.644425455961438,0.844896913757956,FALSE,0.405304798205688
"CAN","cpi",0.1,1954,3,1954,NA,0.5,1.00381154972875,0.957615958003052,0.644425455961438,-0.153040348587994,FALSE,0.752440172201663
"CAN","cpi",0.1,1954,3,1953,NA,1,8.61713140322905,8.57093581150336,0.644425455961438,2.75483618067449,FALSE,17.6709287355357
"CAN","cpi",0.1,1954,3,1953,NA,1.5,-2.91051263799775,-2.95670822972345,0.644425455961438,-2.52548049332379,FALSE,7.95632370979628
"CAN","cpi",0.1,1955,3,1955,NA,0,0.0588364652868128,0.0505896959435689,0.173649026558865,0.10765252516202,FALSE,0.265218409801858
"CAN","cpi",0.1,1955,3,1955,NA,0.5,0.385566426194479,0.385566426194479,0.173649026558865,-0.685764272176465,FALSE,0.47092755474581
"CAN","cpi",0.1,1955,3,1954,NA,1,1.49917586177014,6.48464027662457,0.173649026558865,3.05598167297881,FALSE,7.93107960421282
"CAN","cpi",0.1,1955,3,1954,NA,1.5,-0.698921357468379,4.28654305738606,0.173649026558865,-1.37299158518014,TRUE,4.98546441485443
"CAN","cpi",0.1,1956,3,1956,NA,0,1.44750769216207,1.53732237159536,1.32752769429961,1.5132196707054,FALSE,0.356436896905433
"CAN","cpi",0.1,1956,3,1956,NA,0.5,0.403614379666557,0.493429059099843,1.32752769429961,-0.533297708724126,FALSE,1.94336720209943
"CAN","cpi",0.1,1956,3,1955,NA,1,-0.154136474543464,-0.064321795110178,1.32752769429961,0.79482048855347,FALSE,3.18281354478837
"CAN","cpi",0.1,1956,3,1955,NA,1.5,-0.445637879300092,-0.355823199866806,1.32752769429961,-1.67555014996128,FALSE,3.83059444424754
"CAN","cpi",0.1,1957,3,1957,NA,0,3.32477897092992,3.32477897092992,3.24684755852518,3.4081189986054,FALSE,0.173180916454992
"CAN","cpi",0.1,1957,3,1957,NA,0.5,3.182012971616,3.182012971616,3.24684755852518,2.36364513914165,FALSE,0.144076859798165
"CAN","cpi",0.1,1957,3,1956,NA,1,2.58408148748345,4.19028326808864,3.24684755852518,6.42400073504334,TRUE,1.60620178060519
"CAN","cpi",0.1,1957,3,1956,NA,1.5,1.31866111951741,2.9248629001226,3.24684755852518,-1.44175113719435,FALSE,2.32172324372202
"CAN","cpi",0.1,1958,3,1958,NA,0,2.15334297088712,2.17227485613948,2.33186388641149,2.22393716079583,FALSE,0.373574174745713
"CAN","cpi",0.1,1958,3,1958,NA,0.5,2.93198076840402,2.95091265365638,2.33186388641149,2.22874439106395,FALSE,1.35252495634687
"CAN","cpi",0.1,1958,3,1957,NA,1,1.8891787758226,1.90811066107496,2.33186388641149,4.33819969505612,FALSE,0.960605719333535
"CAN","cpi",0.1,1958,3,1957,NA,1.5,3.03273878900774,3.43908314403031,2.33186388641149,1.22685206136826,FALSE,1.9638441385698
"CAN","cpi",0.1,1959,3,1959,NA,0,1.15888017210307,1.15888017210307,1.19382698397654,1.19679708996586,FALSE,0.0776595819410497
"CAN","cpi",0.1,1959,3,1959,NA,0.5,1.53212889087056,1.53212889087056,1.19382698397654,0.655175994826909,FALSE,0.751782015320046
"CAN","cpi",0.1,1959,3,1958,NA,1,1.03507149970627,1.13960985183002,1.19382698397654,1.75938857815981,FALSE,0.225020868004912
"CAN","cpi",0.1,1959,3,1958,NA,1.5,0.632706355959577,0.737244708083331,1.19382698397654,1.7749666101295,FALSE,1.11916563188644
"CAN","cpi",0.1,1960,3,1960,NA,0,0.973701817728705,1.01381902127828,1.34209404870695,1.03130246511349,FALSE,0.769617264502183
"CAN","cpi",0.1,1960,3,1960,NA,0.5,1.54986795080401,1.63961119177932,1.34209404870695,0.745602653132245,FALSE,0.551463023413223
"CAN","cpi",0.1,1960,3,1959,NA,1,1.93540520698659,2.0251484479619,1.34209404870695,3.33587387303437,FALSE,1.40821248159673
"CAN","cpi",0.1,1960,3,1959,NA,1.5,1.32765859605379,1.51015349392631,1.34209404870695,-0.32541909428789,TRUE,0.182494897872528
"CAN","cpi",0.1,1961,3,1961,NA,0,0.964599571569681,0.984405287812271,1.00921348094007,1.00921348094007,FALSE,0.074935034304369
"CAN","cpi",0.1,1961,3,1961,NA,0.5,2.02474096158327,2.04454667782586,1.00921348094007,1.31141131508129,FALSE,2.27653345100526
"CAN","cpi",0.1,1961,3,1960,NA,1,0.146192365994427,0.521824836587954,1.00921348094007,0.143625905669962,FALSE,1.45871834693157
"CAN","cpi",0.1,1961,3,1960,NA,1.5,1.3792258275634,1.75485829815693,1.00921348094007,-0.34011142415222,FALSE,1.19788212975648
"CAN","cpi",0.1,1962,3,1962,NA,0,1.08980945148103,1.1050660758651,1.04957947883042,1.11132998230876,FALSE,0.10465656360766
"CAN","cpi",0.1,1962,3,1962,NA,0.5,0.703648532130641,0.806518076615278,1.04957947883042,1.64134322488006e-44,FALSE,0.643005993851608
"CAN","cpi",0.1,1962,3,1961,NA,1,0.63762601611671,0.936729070576638,1.04957947883042,-9.44308782563385e-19,FALSE,0.549881739468321
"CAN","cpi",0.1,1962,3,1961,NA,1.5,0.302826915103337,0.601929969563266,1.04957947883042,0.754384248690751,FALSE,1.29387974172026
"CAN","cpi",0.1,1963,3,1963,NA,0,1.78612789216682,1.82335714690363,1.60677118395228,1.85599510888664,FALSE,0.435799717435778
"CAN","cpi",0.1,1963,3,1963,NA,0.5,1.70733167191794,1.84874007511133,1.60677118395228,0.932300293637426,FALSE,0.364876154228187
"CAN","cpi",0.1,1963,3,1962,NA,1,1.7476909085998,1.88909931179319,1.60677118395228,2.66748522343727,FALSE,0.454563346854539
"CAN","cpi",0.1,1963,3,1962,NA,1.5,0.962387867489479,1.10379627068287,1.60677118395228,4.10321927477868e-44,FALSE,1.25913043268097
"CAN","cpi",0.1,1964,3,1964,NA,0,1.92807259870989,1.96259197003922,1.88764670034376,1.98894154569002,FALSE,0.124354701031852
"CAN","cpi",0.1,1964,3,1964,NA,0.5,1.99287680742712,2.09034567141442,1.88764670034376,1.38377582747094,FALSE,0.331313546394757
"CAN","cpi",0.1,1964,3,1963,NA,1,2.36025185309195,2.53623907019268,1.88764670034376,4.71286552905431,FALSE,1.22622088987449
"CAN","cpi",0.1,1964,3,1963,NA,1.5,1.36228247814624,1.53826969524697,1.88764670034376,0.238779673172327,FALSE,0.95238056176026
"CAN","cpi",0.1,1965,3,1965,NA,0,2.2947946682419,2.32705795450263,2.29538304394236,2.35494510510554,TRUE,0.032263286260731
"CAN","cpi",0.1,1965,3,1965,NA,0.5,2.05376556845655,2.2352008509491,2.29538304394236,1.56044896459738,FALSE,0.315173489144238
"CAN","cpi",0.1,1965,3,1964,NA,1,1.51160560105053,1.69304088354308,2.29538304394236,2.42710731898607,FALSE,1.51997341671316
"CAN","cpi",0.1,1965,3,1964,NA,1.5,1.29113474715604,1.47257002964859,2.29538304394236,0.818315757903116,FALSE,2.00990864758981
"CAN","cpi",0.1,1966,3,1966,NA,0,3.77669163422643,3.7769522927464,3.72486065470629,3.84664136390011,FALSE,0.115440613009173
"CAN","cpi",0.1,1966,3,1966,NA,0.5,4.17318555479992,4.39301780310648,3.72486065470629,3.84691400230302,FALSE,1.21610980407019
"CAN","cpi",0.1,1966,3,1965,NA,1,1.77474289952852,1.99457514783508,3.72486065470629,3.31367997089714,FALSE,4.0649111524648
"CAN","cpi",0.1,1966,3,1965,NA,1.5,1.31967336869494,1.5395056170015,3.72486065470629,1.48150382413513,FALSE,5.07617677653943
"CAN","cpi",0.1,1967,3,1967,NA,0,3.72661298576763,3.72696874291509,3.49360316391996,3.76862969063141,FALSE,0.518155361253394
"CAN","cpi",0.1,1967,3,1967,NA,0.5,2.67152074389608,2.8010018956052,3.49360316391996,2.36174420726938,FALSE,1.66859508129748
"CAN","cpi",0.1,1967,3,1966,NA,1,1.8149331163697,1.95907348799809,3.49360316391996,3.4823384545504,FALSE,3.55420631812144
"CAN","cpi",0.1,1967,3,1966,NA,1.5,1.20906623459715,1.35320660622555,3.49360316391996,4.29257700443622,FALSE,4.90057716650487
"CAN","cpi",0.1,1968,3,1968,NA,0,4.00845156509688,4.06303199680545,3.95128347779386,4.1134030125927,FALSE,0.181620625715281
"CAN","cpi",0.1,1968,3,1968,NA,0.5,4.02853449751931,4.33290239415125,3.95128347779386,3.89224433743933,FALSE,0.476036829355162
"CAN","cpi",0.1,1968,3,1967,NA,1,2.44973014848786,2.7540980451198,3.95128347779386,5.85596711509228,FALSE,2.96477996924095
"CAN","cpi",0.1,1968,3,1967,NA,1.5,2.03444844480063,2.33881634143257,3.95128347779386,2.14187095150408,FALSE,3.88762819965703
"CAN","cpi",0.1,1969,3,1969,NA,0,4.53447722599647,4.59464017228243,4.42679496126681,4.64263065146317,FALSE,0.299456867907416
"CAN","cpi",0.1,1969,3,1969,NA,0.5,3.28125628952217,3.34270295637089,4.42679496126681,3.06199492877772,FALSE,2.47054001106189
"CAN","cpi",0.1,1969,3,1968,NA,1,2.82625945830884,2.88770612515756,4.42679496126681,6.05582378748629,FALSE,3.48164408042484
"CAN","cpi",0.1,1969,3,1968,NA,1.5,1.71761791479999,1.92173845917478,4.42679496126681,3.87227485119322,FALSE,5.77091277124597
"CAN","cpi",0.1,1970,3,1970,NA,0,3.50524613923125,3.52361359740661,3.28128405769805,3.58996474924422,FALSE,0.516060972693587
"CAN","cpi",0.1,1970,3,1970,NA,0.5,4.30062243142987,4.50214930503363,3.28128405769805,4.17180269652751,FALSE,2.46672325967448
"CAN","cpi",0.1,1970,3,1969,NA,1,2.4881378915112,2.68966476511497,3.28128405769805,5.43865496465038,FALSE,1.51623641267727
"CAN","cpi",0.1,1970,3,1969,NA,1.5,2.80791819238367,3.24747860054885,3.28128405769805,2.31672730979866,FALSE,0.5146836462745
"CAN","cpi",0.1,1971,3,1971,NA,0,2.79462726603916,2.82012457022414,2.64123406634756,2.89424739818036,FALSE,0.36637108127742
"CAN","cpi",0.1,1971,3,1971,NA,0.5,1.60984036542571,1.66543086531758,2.64123406634756,1.07533993963556,FALSE,2.22404205773628
"CAN","cpi",0.1,1971,3,1970,NA,1,1.79988975513592,1.85548025502779,2.64123406634756,2.98160965133743,FALSE,1.80171008060247
"CAN","cpi",0.1,1971,3,1970,NA,1.5,1.06231538949665,1.14328984868059,2.64123406634756,4.15708260691123,FALSE,3.40973938733277
"CAN","cpi",0.1,1972,3,1972,NA,0,4.90581289840333,4.94928469806925,4.83230569625923,5.10321489701878,FALSE,0.206821137763928
"CAN","cpi",0.1,1972,3,1972,NA,0.5,4.64413166407989,4.88197747534674,4.83230569625923,4.57526784474473,TRUE,0.237845811266848
"CAN","cpi",0.1,1972,3,1971,NA,1,3.06637825828486,3.30422406955171,4.83230569625923,6.5673313651466,FALSE,3.63358275950578
"CAN","cpi",0.1,1972,3,1971,NA,1.5,2.00227202333972,2.29121378207426,4.83230569625923,1.20127092516847,FALSE,5.93581267914558
"CAN","cpi",0.1,1973,3,1973,NA,0,7.07225957495217,7.09360371776125,7.12388603531779,7.36268749116872,FALSE,0.0886381818236161
"CAN","cpi",0.1,1973,3,1973,NA,0.5,5.64789353567161,5.91863630777605,7.12388603531779,5.89432993074317,FALSE,2.94907549997497
"CAN","cpi",0.1,1973,3,1972,NA,1,3.47107047027056,4.10804355399601,7.12388603531779,7.371399360381,FALSE,7.33884526444052
"CAN","cpi",0.1,1973,3,1972,NA,1.5,1.96092398202995,2.59789706575541,7.12388603531779,4.50324671282129,FALSE,10.6947263494196
"CAN","cpi",0.1,1974,3,1974,NA,0,10.0188902299323,10.0095385261373,10.2717243737774,10.3222881332229,FALSE,0.573283513183003
"CAN","cpi",0.1,1974,3,1974,NA,0.5,8.49009422160286,8.89083732907613,10.2717243737774,8.8471290293637,FALSE,3.46938098458725
"CAN","cpi",0.1,1974,3,1973,NA,1,4.7337773695897,5.71726934447983,10.2717243737774,10.9884402825372,FALSE,11.104503151107
"CAN","cpi",0.1,1974,3,1973,NA,1.5,2.79632504166161,3.77981701655174,10.2717243737774,6.19554852079723,FALSE,15.409952768725
"CAN","cpi",0.1,1975,3,1975,NA,0,10.0315667208844,10.1503268507343,10.0232981493341,10.2646941702359,FALSE,0.137134733294955
"CAN","cpi",0.1,1975,3,1975,NA,0.5,8.76309531753112,9.07560217980153,10.0232981493341,9.21855388205318,FALSE,2.41849790567618
"CAN","cpi",0.1,1975,3,1974,NA,1,6.15534036635079,7.87578220863974,10.0232981493341,11.9905143933903,FALSE,6.49269948827646
"CAN","cpi",0.1,1975,3,1974,NA,1.5,4.8118912214168,6.53233306370575,10.0232981493341,8.68009129130424,FALSE,9.47814203257421
"CAN","cpi",0.1,1976,3,1976,NA,0,7.13144511484975,7.12859385153615,7.22784311401172,7.25383067322222,FALSE,0.217702653298771
"CAN","cpi",0.1,1976,3,1976,NA,0.5,7.42035557807417,7.91944740767841,7.22784311401172,7.41547675604771,FALSE,0.926897305298579
"CAN","cpi",0.1,1976,3,1975,NA,1,8.64943465275398,9.92007671673324,7.22784311401172,11.9151510581142,FALSE,4.4297343722954
"CAN","cpi",0.1,1976,3,1975,NA,1.5,5.67384398867738,10.0808916051784,7.22784311401172,8.01331538119686,TRUE,4.40704761650103
"CAN","cpi",0.1,1977,3,1977,NA,0,7.42178423893288,7.48395295921064,7.58101410153764,7.61867129691007,FALSE,0.277860147671102
"CAN","cpi",0.1,1977,3,1977,NA,0.5,6.96762846302214,7.16606186489319,7.58101410153764,7.02287871989832,FALSE,1.12054948330318
"CAN","cpi",0.1,1977,3,1976,NA,1,3.56370044943497,4.24825511947786,7.58101410153764,5.87261903876238,FALSE,8.09068574128685
"CAN","cpi",0.1,1977,3,1976,NA,1.5,4.9689735641141,5.65352823415699,7.58101410153764,6.15322645024094,FALSE,4.96785659755545
"CAN","cpi",0.1,1978,3,1978,NA,0,8.4510238681288,8.56898760953967,8.50208927062595,8.68125407245005,TRUE,0.117963741410868
"CAN","cpi",0.1,1978,3,1978,NA,0.5,8.2070398003824,8.54261032516452,8.50208927062595,8.12508742330222,TRUE,0.335570524782121
"CAN","cpi",0.1,1978,3,1977,NA,1,5.49826426072566,7.13511388977041,8.50208927062595,8.64318766852961,FALSE,4.67457269761261
"CAN","cpi",0.1,1978,3,1977,NA,1.5,4.59321548629369,6.64309137058937,8.50208927062595,7.66028936796504,FALSE,6.18098232882141
"CAN","cpi",0.1,1979,3,1979,NA,0,8.45356058236599,8.47212874525175,8.65147652410481,8.61075946409788,FALSE,0.417118782559228
"CAN","cpi",0.1,1979,3,1979,NA,0.5,8.14317768732812,8.48768459546331,8.65147652410481,8.10062835274572,FALSE,0.708488971782971
"CAN","cpi",0.1,1979,3,1978,NA,1,7.55999245601143,8.19579558448841,8.65147652410481,9.5826348846829,FALSE,1.64842743873565
"CAN","cpi",0.1,1979,3,1978,NA,1.5,5.88684071960714,7.94507402630311,8.65147652410481,7.94183844676527,FALSE,3.6280166351442
"CAN","cpi",0.1,1980,3,1980,NA,0,9.3503963058172,9.42364221838008,9.5171912664748,9.53109046750286,FALSE,0.281132686106694
"CAN","cpi",0.1,1980,3,1980,NA,0.5,8.75026195424933,9.11992008624469,9.5171912664748,8.68563614915422,FALSE,1.25248297695115
"CAN","cpi",0.1,1980,3,1979,NA,1,7.4898179313047,7.85947606330007,9.5171912664748,8.32548734166583,FALSE,4.05346969460587
"CAN","cpi",0.1,1980,3,1979,NA,1.5,7.62762845631985,8.1327094314424,9.5171912664748,7.98047102096121,FALSE,3.58170727519455
"CAN","cpi",0.1,1981,3,1981,NA,0,11.5492871105579,11.5586254082191,11.5813425032741,11.708955977523,FALSE,0.0598207311168327
"CAN","cpi",0.1,1981,3,1981,NA,0.5,12.4090075730498,12.4183458707109,11.5813425032741,12.1263962907449,FALSE,1.84859400827372
"CAN","cpi",0.1,1981,3,1980,NA,1,9.22104791118569,9.2618352500225,11.5813425032741,10.9849401653028,FALSE,5.19524790161824
"CAN","cpi",0.1,1981,3,1980,NA,1.5,9.02531874136554,9.68205204829421,11.5813425032741,8.62735225265647,FALSE,4.87737876243962
"CAN","cpi",0.1,1982,3,1982,NA,0,10.249402307785,10.2537582662135,10.1124203763629,10.3109749747662,FALSE,0.308760250477507
"CAN","cpi",0.1,1982,3,1982,NA,0.5,9.9293194058104,10.5730287303705,10.1124203763629,10.0996836619997,TRUE,0.643709324560142
"CAN","cpi",0.1,1982,3,1981,NA,1,10.4929260514947,11.1366353760548,10.1124203763629,11.6194795199153,FALSE,1.48927749151961
"CAN","cpi",0.1,1982,3,1981,NA,1.5,9.89163568208788,10.535345006648,10.1124203763629,12.7194356761443,TRUE,0.643709324560142
"CAN","cpi",0.1,1983,3,1983,NA,0,5.78662536497684,5.8327193270868,5.67091787896303,5.82764740362034,FALSE,0.303221708807311
"CAN","cpi",0.1,1983,3,1983,NA,0.5,5.27223836113875,5.57230185769706,5.67091787896303,4.97543944794331,FALSE,0.519210210482701
"CAN","cpi",0.1,1983,3,1982,NA,1,8.68877123588492,9.24958610553119,5.67091787896303,9.23778396682256,FALSE,7.26715566280602
"CAN","cpi",0.1,1983,3,1982,NA,1.5,9.3907679595362,9.95158282918248,5.67091787896303,9.78870144173853,FALSE,8.8271483820311
"CAN","cpi",0.1,1984,3,1984,NA,0,4.12302201269413,4.16134371092469,4.19799576814029,4.21357537293321,FALSE,0.119770714265215
"CAN","cpi",0.1,1984,3,1984,NA,0.5,5.05521388532283,5.26753861819697,4.19799576814029,4.64258933063566,FALSE,2.11725388216868
"CAN","cpi",0.1,1984,3,1983,NA,1,5.11420710717555,5.49128074326219,4.19799576814029,6.13137654871218,FALSE,2.41309883394278
"CAN","cpi",0.1,1984,3,1983,NA,1.5,6.19684145650174,6.57391509258839,4.19799576814029,3.46832438596907,FALSE,4.81895294355655
"CAN","cpi",0.1,1985,3,1985,NA,0,3.80517317437142,3.85681921913145,3.86444262005169,3.91909325760218,FALSE,0.068586935693905
"CAN","cpi",0.1,1985,3,1985,NA,0.5,4.373939788558,4.52050413176894,3.86444262005169,3.89150188195039,FALSE,1.27878027322496
"CAN","cpi",0.1,1985,3,1984,NA,1,3.24393174473343,3.49434191831831,3.86444262005169,3.29397074977035,FALSE,1.07285617743684
"CAN","cpi",0.1,1985,3,1984,NA,1.5,3.63900085262839,3.88941102621328,3.86444262005169,4.4666103475984,TRUE,0.250410173584887
"CAN","cpi",0.1,1986,3,1986,NA,0,3.9970059353317,4.03369724347152,4.08685396749431,4.1058885406559,FALSE,0.154817361523792
"CAN","cpi",0.1,1986,3,1986,NA,0.5,4.86006256238323,4.99238034487507,4.08685396749431,4.41001406158749,FALSE,1.85055910446722
"CAN","cpi",0.1,1986,3,1985,NA,1,3.45928340189647,3.67713225012429,4.08685396749431,3.99303879319441,FALSE,1.12834155349453
"CAN","cpi",0.1,1986,3,1985,NA,1.5,3.40368159694895,3.62153044517677,4.08685396749431,4.22326323880904,FALSE,1.25190112004458
"CAN","cpi",0.1,1987,3,1987,NA,0,4.24900497357236,4.28633477122192,4.23980729277887,4.35976718480882,FALSE,0.0577690883017629
"CAN","cpi",0.1,1987,3,1987,NA,0.5,4.3424161942973,4.5155603270576,4.23980729277887,3.90936321394769,FALSE,0.401163913912371
"CAN","cpi",0.1,1987,3,1986,NA,1,3.71395345120851,3.92348687059866,4.23980729277887,4.33099659151455,FALSE,0.912467690901732
"CAN","cpi",0.1,1987,3,1986,NA,1.5,3.47836558232769,3.68789900171783,4.23980729277887,4.75247122036215,FALSE,1.43599628841467
"CAN","cpi",0.1,1988,3,1988,NA,0,3.91366910259502,3.94923616143045,3.92899537638065,4.01269560152408,TRUE,0.0355670588354329
"CAN","cpi",0.1,1988,3,1988,NA,0.5,3.89125133127662,4.10558566541453,3.92899537638065,3.47075595914335,TRUE,0.214334334137912
"CAN","cpi",0.1,1988,3,1987,NA,1,3.92677299565697,4.15001272593352,3.92899537638065,4.58162438495066,TRUE,0.223239730276555
"CAN","cpi",0.1,1988,3,1987,NA,1.5,4.08899370257878,4.31223343285533,3.92899537638065,3.81364776332008,FALSE,0.578791566272379
"CAN","cpi",0.1,1989,3,1989,NA,0,4.89343712566426,4.93387768224673,4.82821664544208,5.02395320873108,FALSE,0.185374957076203
"CAN","cpi",0.1,1989,3,1989,NA,0.5,4.78663286805084,4.94418102925125,4.82821664544208,4.36789847845152,TRUE,0.15754816120041
"CAN","cpi",0.1,1989,3,1988,NA,1,3.77941951168598,3.97110668070008,4.82821664544208,4.46162561835953,FALSE,2.09637597955187
"CAN","cpi",0.1,1989,3,1988,NA,1.5,3.91403413748531,4.1057213064994,4.82821664544208,3.27838152614011,FALSE,1.79723236666448
"CAN","cpi",0.1,1990,3,1990,NA,0,4.4108245794417,4.44474214973683,4.64347549432717,4.51963128519567,FALSE,0.475547224940333
"CAN","cpi",0.1,1990,3,1990,NA,0.5,5.3561250840654,5.53071139136403,4.64347549432717,4.98434426998405,FALSE,1.75825206227247
"CAN","cpi",0.1,1990,3,1989,NA,1,4.76888773934634,5.02085260601888,4.64347549432717,5.9177493923911,FALSE,0.530658744492921
"CAN","cpi",0.1,1990,3,1989,NA,1.5,4.56907505859151,4.82103992526405,4.64347549432717,4.56185858388509,TRUE,0.251964866672543
"CAN","cpi",0.1,1991,3,1991,NA,0,5.49440391384879,5.53296688295319,5.4258100696218,5.62406762795447,FALSE,0.190993734053276
"CAN","cpi",0.1,1991,3,1991,NA,0.5,8.60655837974552,8.64512134884993,5.4258100696218,8.39172083833767,FALSE,7.10689254715714
"CAN","cpi",0.1,1991,3,1990,NA,1,3.88265750407799,4.01651040265602,5.4258100696218,3.86917616551897,FALSE,3.26562993627976
"CAN","cpi",0.1,1991,3,1990,NA,1.5,4.15031652292538,4.28416942150341,5.4258100696218,5.12288497855213,FALSE,2.6708321166189
"CAN","cpi",0.1,1992,3,1992,NA,0,1.47278017183675,1.48014023786778,1.47496888572843,1.48060592990191,TRUE,0.00736006603103156
"CAN","cpi",0.1,1992,3,1992,NA,0.5,1.70441426955361,1.82897376275872,1.47496888572843,1.17198715241532,FALSE,0.63443812392773
"CAN","cpi",0.1,1992,3,1991,NA,1,3.69398802279884,3.81854751600395,1.47496888572843,2.52024528073196,FALSE,5.05571313113935
"CAN","cpi",0.1,1992,3,1991,NA,1.5,3.29248646826797,3.41704596147308,1.47496888572843,10.1533377092026,FALSE,4.16348745440408
"CAN","cpi",0.1,1993,3,1993,NA,0,1.70409109335398,1.71570203035604,1.84351085411351,1.80262144325658,FALSE,0.295630545352002
"CAN","cpi",0.1,1993,3,1993,NA,0.5,2.87632707121479,2.96178489672406,1.84351085411351,2.34241315558581,FALSE,2.38060497462322
"CAN","cpi",0.1,1993,3,1992,NA,1,1.48308759522235,1.73832680717876,1.84351085411351,1.81805946412584,FALSE,0.488981538478079
"CAN","cpi",0.1,1993,3,1992,NA,1.5,1.52295912405083,1.77819833600724,1.84351085411351,1.14026360102641,FALSE,0.400378141081463
"CAN","cpi",0.1,1994,3,1994,NA,0,0.124402714665842,0.134297846142161,0.161630694655448,0.163616628358327,FALSE,0.0706347948391786
"CAN","cpi",0.1,1994,3,1994,NA,0.5,0.247191593260962,0.359658113301338,0.161630694655448,-0.385140098029379,FALSE,0.302601850274852
"CAN","cpi",0.1,1994,3,1993,NA,1,1.58002613146951,1.72797462589502,0.161630694655448,1.37474728133383,FALSE,3.29993835401232
"CAN","cpi",0.1,1994,3,1993,NA,1.5,1.37568719943091,1.52363569385642,0.161630694655448,2.59685615311524,FALSE,2.84585183837098
"CAN","cpi",0.1,1995,3,1995,NA,0,2.05864296609523,2.09652820023301,2.11688403676572,2.19356448193293,FALSE,0.0831204264326822
"CAN","cpi",0.1,1995,3,1995,NA,0.5,3.21002831212264,3.30373898834498,2.11688403676572,2.67750903542847,FALSE,2.5229201770155
"CAN","cpi",0.1,1995,3,1994,NA,1,0.736154756676408,1.02043367416685,2.11688403676572,1.34092618105198,FALSE,2.72083527882126
"CAN","cpi",0.1,1995,3,1994,NA,1.5,0.9253398501358,1.20961876762624,2.11688403676572,-1.3139842175605,FALSE,2.30042396002261
"CAN","cpi",0.1,1996,3,1996,NA,0,1.40883189688166,1.44355453883849,1.55309584667184,1.48206512402721,FALSE,0.278147770475385
"CAN","cpi",0.1,1996,3,1996,NA,0.5,1.77453884010502,1.87234076302317,1.55309584667184,1.23598680875262,FALSE,0.589897463880763
"CAN","cpi",0.1,1996,3,1995,NA,1,1.52411994027871,1.70613678647775,1.55309584667184,1.32983461361347,TRUE,0.182016846199034
"CAN","cpi",0.1,1996,3,1995,NA,1.5,1.25093364556174,1.43295049176077,1.55309584667184,3.42580605950136,FALSE,0.449006523779195
"CAN","cpi",0.1,1997,3,1997,NA,0,1.62054188440172,1.63901168277165,1.60528783555959,1.69050032419864,FALSE,0.0523676846857747
"CAN","cpi",0.1,1997,3,1997,NA,0.5,2.61931304257041,2.72794890377425,1.60528783555959,2.11979188984917,FALSE,2.36202521011677
"CAN","cpi",0.1,1997,3,1996,NA,1,1.28761542357221,1.48511727469824,1.60528783555959,1.19524084873691,FALSE,0.46454754192903
"CAN","cpi",0.1,1997,3,1996,NA,1.5,1.60492648620105,1.80242833732708,1.60528783555959,1.35560903862103,TRUE,0.197501851126025
"CAN","cpi",0.1,1998,3,1998,NA,0,0.917733596162628,0.943633643261309,0.988908029337191,0.980088020931525,FALSE,0.126509793933973
"CAN","cpi",0.1,1998,3,1998,NA,0.5,1.82465577032453,1.95520868666879,0.988908029337191,1.31078347146242,FALSE,1.98777011853835
"CAN","cpi",0.1,1998,3,1997,NA,1,1.29341522348888,1.47758309650303,0.988908029337191,1.06570792570078,FALSE,0.860850526684568
"CAN","cpi",0.1,1998,3,1997,NA,1.5,1.19741619949376,1.3815840725079,0.988908029337191,2.25360669266494,FALSE,0.647519362250961
"CAN","cpi",0.1,1999,3,1999,NA,0,1.73246664638943,1.75447117324843,1.7107350135213,1.81711295343144,FALSE,0.0702970443437423
"CAN","cpi",0.1,1999,3,1999,NA,0.5,1.3504186350862,1.43327504677419,1.7107350135213,0.788387565724544,FALSE,0.69943411557045
"CAN","cpi",0.1,1999,3,1998,NA,1,0.82575711930017,0.927462228529732,1.7107350135213,0.575366492854125,FALSE,1.8423112980997
"CAN","cpi",0.1,1999,3,1998,NA,1.5,0.618369333361283,0.720074442590844,1.7107350135213,1.68716976710558,FALSE,2.30317304463057
"CAN","cpi",0.1,2000,3,2000,NA,0,2.61602052497032,2.66010068449502,2.6718361971244,2.72999398726497,FALSE,0.0701590764788881
"CAN","cpi",0.1,2000,3,2000,NA,0.5,2.52615437013552,2.67498963869747,2.6718361971244,2.06798867425529,TRUE,0.148835268561953
"CAN","cpi",0.1,2000,3,1999,NA,1,2.26782287850313,2.57508482318956,2.6718361971244,3.09152396062306,FALSE,0.522264997874955
"CAN","cpi",0.1,2000,3,1999,NA,1.5,2.00039827537294,2.30766022005937,2.6718361971244,0.842861855264031,FALSE,1.11654189371983
"CAN","cpi",0.1,2001,3,2001,NA,0,2.75651053077272,2.78518253633374,2.47906219852806,2.84208465688611,FALSE,0.645223854993581
"CAN","cpi",0.1,2001,3,2001,NA,0.5,2.35753518706806,2.47687455336174,2.47906219852806,1.88638468602912,FALSE,0.124200799996624
"CAN","cpi",0.1,2001,3,2000,NA,1,2.92522064686004,3.26849785612117,2.47906219852806,3.69789354026514,FALSE,1.33474042777664
"CAN","cpi",0.1,2001,3,2000,NA,1.5,2.90341003461387,3.24668724387499,2.47906219852806,1.8681620253813,FALSE,1.28627240056292
"CAN","cpi",0.1,2002,3,2002,NA,0,2.28827582933314,2.32524997890014,2.20880570551249,2.37599565696257,FALSE,0.213574424724006
"CAN","cpi",0.1,2002,3,2002,NA,0.5,1.43542195673999,1.55549435662037,2.20880570551249,0.913576617687781,FALSE,1.57187539741842
"CAN","cpi",0.1,2002,3,2001,NA,1,2.0178974011892,2.23974317018829,2.20880570551249,1.93734082085477,TRUE,0.221845768999095
"CAN","cpi",0.1,2002,3,2001,NA,1.5,2.9290107442501,3.15085651324919,2.20880570551249,1.22267801456389,FALSE,1.82230141063824
"CAN","cpi",0.1,2003,3,2003,NA,0,2.62844074081383,2.67041598660323,2.71189071546809,2.73251886371656,FALSE,0.134141309933539
"CAN","cpi",0.1,2003,3,2003,NA,0.5,4.69213766669222,4.80771932191403,2.71189071546809,4.31675684669419,FALSE,4.51613043571988
"CAN","cpi",0.1,2003,3,2002,NA,1,3.17103788459074,3.5112651326382,2.71189071546809,4.61862409576541,FALSE,1.36055429054224
"CAN","cpi",0.1,2003,3,2002,NA,1.5,2.41777681559924,2.7580040636467,2.71189071546809,1.3655866266696,TRUE,0.340227248047461
"CAN","cpi",0.1,2004,3,2004,NA,0,1.76361563918348,1.79372712154184,1.83151661303942,1.82990600335775,FALSE,0.114088130130767
"CAN","cpi",0.1,2004,3,2004,NA,0.5,1.9657050320327,2.02414676485227,1.83151661303942,1.43982618755963,FALSE,0.356638219471305
"CAN","cpi",0.1,2004,3,2003,NA,1,1.81643032976712,1.87487206258669,1.83151661303942,1.02946817322814,TRUE,0.0584417328195683
"CAN","cpi",0.1,2004,3,2003,NA,1.5,1.62186929161472,1.78589751139439,1.83151661303942,4.64649519124043,FALSE,0.265404001213082
"CAN","cpi",0.1,2005,3,2005,NA,0,2.28359511011893,2.3236890137913,2.18071628336509,2.38454318695835,FALSE,0.268713518680897
"CAN","cpi",0.1,2005,3,2005,NA,0.5,2.09300041303432,2.23072551197628,2.18071628336509,1.60616687455658,TRUE,0.137725098941967
"CAN","cpi",0.1,2005,3,2004,NA,1,1.69410991390577,1.83734079853883,2.18071628336509,1.65181790765431,FALSE,0.906287517580309
"CAN","cpi",0.1,2005,3,2004,NA,1.5,1.8499328309011,1.99316371553416,2.18071628336509,1.76259299547523,FALSE,0.560014368701792
"CAN","cpi",0.1,2006,3,2006,NA,0,2.05001595670647,2.08580194086317,1.97519342012289,2.13635134601064,FALSE,0.202058287675768
"CAN","cpi",0.1,2006,3,2006,NA,0.5,2.27349844792031,2.392987911943,1.97519342012289,1.78685076876899,FALSE,0.782389525794747
"CAN","cpi",0.1,2006,3,2005,NA,1,2.6359508277558,2.93384856466939,1.97519342012289,3.50484952590076,FALSE,1.76624753165339
"CAN","cpi",0.1,2006,3,2005,NA,1.5,2.37497245130421,2.6728701882178,1.97519342012289,1.46813842301012,FALSE,1.18629558398319
"CAN","cpi",0.1,2007,3,2007,NA,0,2.10682519993983,2.14956329543643,2.10062087284572,2.20475175639581,FALSE,0.0565254890390514
"CAN","cpi",0.1,2007,3,2007,NA,0.5,2.45122169110592,2.57734364106733,2.10062087284572,1.98527746740088,FALSE,0.905234879428517
"CAN","cpi",0.1,2007,3,2006,NA,1,1.57305048486961,1.69917243483102,2.10062087284572,1.24740231882683,FALSE,1.01822958999407
"CAN","cpi",0.1,2007,3,2006,NA,1.5,2.12281855456821,2.24894050452962,2.10062087284572,1.60497207990466,FALSE,0.175450131566943
"CAN","cpi",0.1,2008,3,2008,NA,0,2.89772280368357,2.93677222783435,2.31447335265955,3.01767576079065,FALSE,1.33515931531526
"CAN","cpi",0.1,2008,3,2008,NA,0.5,1.55629687731473,1.64673966833174,2.31447335265955,1.03762364210032,FALSE,1.57429542285659
"CAN","cpi",0.1,2008,3,2007,NA,1,1.72149340989999,1.85180236438867,2.31447335265955,1.40291213269118,FALSE,1.15846670620175
"CAN","cpi",0.1,2008,3,2007,NA,1.5,1.78567945460339,1.91598840909207,2.31447335265955,2.69934766650446,FALSE,1.01583105130531
"CAN","cpi",0.1,2009,3,2009,NA,0,0.287632586125262,0.300000863910571,0.284533874408197,0.321726231334406,FALSE,0.019254303823231
"CAN","cpi",0.1,2009,3,2009,NA,0.5,-0.648021932616957,-0.579094335724812,0.284533874408197,-1.32493870283985,FALSE,1.98810139718772
"CAN","cpi",0.1,2009,3,2008,NA,1,3.27982502231297,3.63006873874742,0.284533874408197,5.07610742917547,FALSE,7.00644626733394
"CAN","cpi",0.1,2009,3,2008,NA,1.5,2.71105668014802,3.06130039658247,0.284533874408197,1.01106559029091,FALSE,5.7425166180785
"CAN","cpi",0.1,2010,3,2010,NA,0,1.65084117775218,1.65220776223476,1.75525687020327,1.75432596686424,FALSE,0.23036460219039
"CAN","cpi",0.1,2010,3,2010,NA,0.5,2.04318020197278,2.04454678645536,1.75525687020327,1.49344630005585,FALSE,0.641196210637048
"CAN","cpi",0.1,2010,3,2009,NA,1,0.738568683570774,1.04746811710139,1.75525687020327,1.13010370525173,FALSE,1.88176332931257
"CAN","cpi",0.1,2010,3,2009,NA,1.5,1.45148333104981,1.76038276458042,1.75525687020327,-2.25919184326718,TRUE,0.308899433530617
"CAN","cpi",0.1,2011,3,2011,NA,0,2.78496003584364,2.82340388776046,2.85717434028225,2.90832322356675,FALSE,0.113489301965235
"CAN","cpi",0.1,2011,3,2011,NA,0.5,3.20419590217901,3.24263975409583,2.85717434028225,2.81495035644064,FALSE,0.809602878354073
"CAN","cpi",0.1,2011,3,2010,NA,1,1.99267007959063,2.13223684642215,2.85717434028225,2.24995624930718,FALSE,1.75053897540951
"CAN","cpi",0.1,2011,3,2010,NA,1.5,1.78607379725711,1.92564056408862,2.85717434028225,1.69121218305118,FALSE,2.20964182503957
"CAN","cpi",0.1,2012,3,2012,NA,0,1.44977150228884,1.48111523604607,1.50118536134935,1.50859370689259,FALSE,0.0759440122089548
"CAN","cpi",0.1,2012,3,2012,NA,0.5,2.29159237160321,2.34563409976374,1.50118536134935,1.75125264874692,FALSE,1.8105017509469
"CAN","cpi",0.1,2012,3,2011,NA,1,2.34540901594401,2.39945074410453,1.50118536134935,1.8474445607568,FALSE,1.93009429392644
"CAN","cpi",0.1,2012,3,2011,NA,1.5,2.67582172777941,2.76433462820251,1.50118536134935,3.06926058053075,FALSE,2.69881593693434
"CAN","cpi",0.1,2013,3,2013,NA,0,0.98327896976763,1.01655301127407,0.931270594714462,1.05615594966199,FALSE,0.148848208291259
"CAN","cpi",0.1,2013,3,2013,NA,0.5,1.55774553022436,1.65225525722462,0.931270594714462,1.02417936454929,FALSE,1.48667625035559
"CAN","cpi",0.1,2013,3,2012,NA,1,0.905246065759397,0.999755792759654,0.931270594714462,0.0685845185761151,TRUE,0.0945097270002573
"CAN","cpi",0.1,2013,3,2012,NA,1.5,1.46260264918696,1.55711237618722,0.931270594714462,1.71916958716775,FALSE,1.27524762582803
"CAN","cpi",0.1,2014,3,2014,NA,0,1.94884776338404,1.99519534748239,1.87639912240215,2.06386975595087,FALSE,0.207344564058103
"CAN","cpi",0.1,2014,3,2014,NA,0.5,2.18516438967764,2.41297942395443,1.87639912240215,1.92715211220712,FALSE,0.913960072666769
"CAN","cpi",0.1,2014,3,2013,NA,1,1.10011528936072,1.32793032363751,1.87639912240215,1.11372323439473,FALSE,1.4466345870871
"CAN","cpi",0.1,2014,3,2013,NA,1.5,0.720478023956034,0.948293058232831,1.87639912240215,1.40040388240124,FALSE,2.29027295465306
"CAN","cpi",0.1,2015,3,2015,NA,0,1.23445844189061,1.25617023485946,1.11090953952792,1.30732778141228,FALSE,0.296264909330391
"CAN","cpi",0.1,2015,3,2015,NA,0.5,0.683119579109416,0.829260222535154,1.11090953952792,0.0832530397055839,FALSE,0.772028014520767
"CAN","cpi",0.1,2015,3,2014,NA,1,1.65524539245296,1.8013860358787,1.11090953952792,1.43393836679687,FALSE,1.35577587214806
"CAN","cpi",0.1,2015,3,2014,NA,1.5,1.51216710884501,1.65830775227075,1.11090953952792,2.67552344749624,FALSE,1.03782413079706
"CAN","cpi",0.1,2016,3,2016,NA,0,1.41409392251709,1.44107500867293,1.41168586698797,1.50891536161516,FALSE,0.0323323206650046
"CAN","cpi",0.1,2016,3,2016,NA,0.5,1.21291536117202,1.42606619964436,1.41168586698797,0.786851742019216,TRUE,0.213150838472331
"CAN","cpi",0.1,2016,3,2015,NA,1,1.61693527976651,1.90507851806892,1.41168586698797,2.15660249634191,FALSE,0.744253044476945
"CAN","cpi",0.1,2016,3,2015,NA,1.5,1.66211556105324,1.95025879935566,1.41168586698797,-0.117220285505753,FALSE,0.844653669558588
"CAN","cpi",0.1,2017,3,2017,NA,0,1.45659417243375,1.47227838382925,1.57888581671161,1.54881337220766,FALSE,0.252589617800753
"CAN","cpi",0.1,2017,3,2017,NA,0.5,2.21736155969617,2.43081700300542,1.57888581671161,1.91336997918348,FALSE,1.63229042771938
"CAN","cpi",0.1,2017,3,2016,NA,1,1.31493351203568,1.52997896015219,1.57888581671161,1.18768855671255,FALSE,0.323727351581892
"CAN","cpi",0.1,2017,3,2016,NA,1.5,1.71904076025204,1.93408620836854,1.57888581671161,0.6644917028394,FALSE,0.526500878206334
"CAN","cpi",0.1,2018,3,2018,NA,0,2.33172446333935,2.36685033130481,2.23316270166586,2.44523056077762,FALSE,0.254152005017662
"CAN","cpi",0.1,2018,3,2018,NA,0.5,3.00521427258424,3.17990203685373,2.23316270166586,2.80156516368753,FALSE,1.8903579218659
"CAN","cpi",0.1,2018,3,2017,NA,1,1.24442643681749,1.41911420108698,2.23316270166586,0.82019125662587,FALSE,1.98368443222255
"CAN","cpi",0.1,2018,3,2017,NA,1.5,1.13558113553947,1.31026889980896,2.23316270166586,2.43256495233066,FALSE,2.22556287950705
"CAN","cpi",0.1,2019,3,2019,NA,0,1.99364382508007,2.02445299493629,1.91921619871868,2.08489368525497,FALSE,0.196203895103752
"CAN","cpi",0.1,2019,3,2019,NA,0.5,1.88349864320373,2.05391607936757,1.91921619871868,1.47181960590434,TRUE,0.170417436163842
"CAN","cpi",0.1,2019,3,2018,NA,1,2.12699845709158,2.29741589325542,1.91921619871868,2.1812391651413,FALSE,0.632155788103621
"CAN","cpi",0.1,2019,3,2018,NA,1.5,1.56671104906802,1.73712848523186,1.91921619871868,3.59347997035086,FALSE,0.57505679946788
"CAN","cpi",0.1,2020,3,2020,NA,0,0.636272636128981,0.640822645182251,0.71139989671781,0.692133240684643,FALSE,0.161388345798957
"CAN","cpi",0.1,2020,3,2020,NA,0.5,1.53879417381264,1.68975087268271,0.71139989671781,1.05558053361148,FALSE,1.98961064796969
"CAN","cpi",0.1,2020,3,2019,NA,1,1.90197068395996,2.11267394810288,0.71139989671781,2.01486975979332,FALSE,2.85641612468104
"CAN","cpi",0.1,2020,3,2019,NA,1.5,1.91794041790516,2.12864368204808,0.71139989671781,1.77269016603738,FALSE,2.89190442233703
"CAN","cpi",0.1,2021,3,2021,NA,0,3.21269125402916,3.2631134363345,3.31148121717802,3.37410895790077,FALSE,0.157906139735392
"CAN","cpi",0.1,2021,3,2021,NA,0.5,2.75433721369198,3.00918813609216,3.31148121717802,2.68190793980083,FALSE,0.926613324813202
"CAN","cpi",0.1,2021,3,2020,NA,1,0.980966040373391,1.23581696277357,3.31148121717802,1.19247466620579,FALSE,4.86743815441008
"CAN","cpi",0.1,2021,3,2020,NA,1.5,0.629914500305961,0.884765422706141,3.31148121717802,0.994097524483704,FALSE,5.64755268789325
"CAN","cpi",0.1,2022,3,2022,NA,0,6.5050692605061,6.57908553237808,6.50977236228281,6.71215382839029,TRUE,0.0740162718719741
"CAN","cpi",0.1,2022,3,2022,NA,0.5,6.21318544295519,6.46703599116193,6.50977236228281,6.42154306210558,FALSE,0.348820261808687
"CAN","cpi",0.1,2022,3,2021,NA,1,3.74840866942707,4.06221777322862,6.50977236228281,4.97199453293936,FALSE,5.75281930169976
"CAN","cpi",0.1,2022,3,2021,NA,1.5,2.98513320875418,3.29894231255573,6.50977236228281,3.45701838810354,FALSE,7.44898699208395
"CAN","cpi",0.1,2023,3,2023,NA,0,3.98132402270337,4.01453130352922,3.78831288758619,4.042121841464,FALSE,0.462120914419583
"CAN","cpi",0.1,2023,3,2023,NA,0.5,3.60142061203222,3.64532567628758,3.78831288758619,3.05997192794191,FALSE,0.36165442269671
"CAN","cpi",0.1,2023,3,2022,NA,1,5.27052063979206,5.31442570404742,3.78831288758619,5.28351765661874,FALSE,3.33770006915729
"CAN","cpi",0.1,2023,3,2022,NA,1.5,5.69915720619592,5.75679657899992,3.78831288758619,7.28752716372712,FALSE,4.30396008082562
"CAN","cpi",0.1,2024,3,2023,NA,1,3.68597269207266,3.92089865123044,NA,4.37793695924716,NA,NA
"CAN","cpi",0.1,2024,3,2023,NA,1.5,4.09994186502879,4.33486782418656,NA,2.36897983740768,NA,NA
"CAN","cpi",0.2,1952,3,1952,NA,0,2.66039440148687,2.66039440148687,2.55562336095485,2.46502621244774,FALSE,0.261927601330058
"CAN","cpi",0.2,1952,3,1952,NA,0.5,4.68439190678894,4.68439190678893,2.55562336095485,4.32129924776399,FALSE,5.32192136458522
"CAN","cpi",0.2,1952,3,1951,NA,1,6.26117213572233,6.26117213572233,2.55562336095485,9.65785623271456,FALSE,9.2638719369187
"CAN","cpi",0.2,1952,3,1951,NA,1.5,7.31905103975628,7.31905103975628,2.55562336095485,10.2729097180516,FALSE,11.9085691970036
"CAN","cpi",0.2,1953,3,1953,NA,0,-0.147270288177835,-0.854755189799125,-1.01492775838436,-1.00749856253296,FALSE,1.46165877389503
"CAN","cpi",0.2,1953,3,1953,NA,0.5,1.77524374790404,1.06775884628275,-1.01492775838436,-2.06778904141071,FALSE,6.26794386409972
"CAN","cpi",0.2,1953,3,1952,NA,1,-0.147069077380798,-0.854553979002088,-1.01492775838436,-1.55171650633025,FALSE,1.46216180088762
"CAN","cpi",0.2,1953,3,1952,NA,1.5,-12.5088003300704,-13.2162852316917,-1.01492775838436,1.96017794195978,FALSE,29.795908781647
"CAN","cpi",0.2,1954,3,1954,NA,0,0.762892876690956,0.886112794444469,0.644425455961438,0.844896913757956,FALSE,0.419388469577309
"CAN","cpi",0.2,1954,3,1954,NA,0.5,1.92208749195036,2.35538620435127,0.644425455961438,-0.153040348587994,FALSE,3.62745380237322
"CAN","cpi",0.2,1954,3,1953,NA,1,8.40605196865639,8.8393506810573,0.644425455961438,2.75483618067449,FALSE,19.8373649941383
"CAN","cpi",0.2,1954,3,1953,NA,1.5,-2.76751818921503,-2.33421947681412,0.644425455961438,-2.52548049332379,FALSE,7.87991104433981
"CAN","cpi",0.2,1955,3,1955,NA,0,0.0588364652868129,0.0505896959435689,0.173649026558865,0.10765252516202,FALSE,0.299401557194996
"CAN","cpi",0.2,1955,3,1955,NA,0.5,0.38556642619448,0.385566426194479,0.173649026558865,-0.685764272176465,FALSE,0.529793499089038
"CAN","cpi",0.2,1955,3,1954,NA,1,1.49917586177014,6.48464027662457,0.173649026558865,3.05598167297881,FALSE,8.29928150288262
"CAN","cpi",0.2,1955,3,1954,NA,1.5,-0.69892135746838,4.28654305738605,0.173649026558865,-1.37299158518014,TRUE,4.98546441485443
"CAN","cpi",0.2,1956,3,1956,NA,0,1.44076727279547,1.54406279096196,1.32752769429961,1.5132196707054,FALSE,0.386394464406152
"CAN","cpi",0.2,1956,3,1956,NA,0.5,0.394957119811211,0.502086318955189,1.32752769429961,-0.533297708724126,FALSE,2.17073263750502
"CAN","cpi",0.2,1956,3,1955,NA,1,-0.16279373439881,-0.055664535254832,1.32752769429961,0.79482048855347,FALSE,3.56510977303008
"CAN","cpi",0.2,1956,3,1955,NA,1.5,-0.4215829402228,-0.182835669228876,1.32752769429961,-1.67555014996128,FALSE,4.01465567981513
"CAN","cpi",0.2,1957,3,1957,NA,0,3.3301283004781,3.32477897092992,3.24684755852518,3.4081189986054,FALSE,0.202852525334127
"CAN","cpi",0.2,1957,3,1957,NA,0.5,3.03385076595064,3.182012971616,3.24684755852518,2.36364513914165,FALSE,0.3102486729383
"CAN","cpi",0.2,1957,3,1956,NA,1,2.03897960594662,4.73538514962548,3.24684755852518,6.42400073504334,TRUE,2.69640554367886
"CAN","cpi",0.2,1957,3,1956,NA,1.5,1.86376300105425,5.45555874891869,3.24684755852518,-1.44175113719435,TRUE,3.59179574786444
"CAN","cpi",0.2,1958,3,1958,NA,0,2.11762555067051,2.18558895720342,2.33186388641149,2.22393716079583,FALSE,0.433650729553092
"CAN","cpi",0.2,1958,3,1958,NA,0.5,2.93582892684178,3.00379233337469,2.33186388641149,2.22874439106395,FALSE,1.57787600760863
"CAN","cpi",0.2,1958,3,1957,NA,1,1.39103260923472,2.14674930739257,2.33186388641149,4.33819969505612,FALSE,1.21850314570515
"CAN","cpi",0.2,1958,3,1957,NA,1.5,2.83977494256832,3.59549164072617,2.33186388641149,1.22685206136826,FALSE,2.02549433854992
"CAN","cpi",0.2,1959,3,1959,NA,0,1.08631377058241,1.25266010646828,1.19382698397654,1.19679708996586,TRUE,0.166346335885865
"CAN","cpi",0.2,1959,3,1959,NA,0.5,1.36343441664236,1.60594823299853,1.19382698397654,0.655175994826909,FALSE,0.666532398020715
"CAN","cpi",0.2,1959,3,1958,NA,1,0.712512287929998,1.46216906360629,1.19382698397654,1.75938857815981,TRUE,0.749656775676289
"CAN","cpi",0.2,1959,3,1958,NA,1.5,-1.26036253248603,0.951773252248111,1.19382698397654,1.7749666101295,FALSE,2.81727011405521
"CAN","cpi",0.2,1960,3,1960,NA,0,0.973701817728705,1.01381902127828,1.34209404870695,1.03130246511349,FALSE,0.86080477212126
"CAN","cpi",0.2,1960,3,1960,NA,0.5,1.50499633031636,1.68448281226697,1.34209404870695,0.745602653132245,FALSE,0.586742185974136
"CAN","cpi",0.2,1960,3,1959,NA,1,1.70725960511504,2.1229933438017,1.34209404870695,3.33587387303437,FALSE,1.32864762970687
"CAN","cpi",0.2,1960,3,1959,NA,1.5,1.30619831340087,1.72193205208753,1.34209404870695,-0.32541909428789,TRUE,0.415733738686664
"CAN","cpi",0.2,1961,3,1961,NA,0,0.954696713448386,1.06099417920926,1.00921348094007,1.00921348094007,TRUE,0.106297465760876
"CAN","cpi",0.2,1961,3,1961,NA,0.5,1.8983077648453,2.20206509356915,1.00921348094007,1.31141131508129,FALSE,2.52649303848693
"CAN","cpi",0.2,1961,3,1960,NA,1,-0.0227263622617553,0.52758940582001,1.00921348094007,0.143625905669962,FALSE,1.75437595588192
"CAN","cpi",0.2,1961,3,1960,NA,1.5,1.38499039679546,1.93530616487722,1.00921348094007,-0.34011142415222,FALSE,1.48975805772023
"CAN","cpi",0.2,1962,3,1962,NA,0,1.05595366014056,1.1050660758651,1.04957947883042,1.11132998230876,FALSE,0.0650478689999018
"CAN","cpi",0.2,1962,3,1962,NA,0.5,0.728837403757611,1.00177714185222,1.04957947883042,1.64134322488006e-44,FALSE,0.392445580540093
"CAN","cpi",0.2,1962,3,1961,NA,1,0.257446738409107,0.530386476503719,1.04957947883042,-9.44308782563385e-19,FALSE,1.57092224391135
"CAN","cpi",0.2,1962,3,1961,NA,1.5,-0.10352430193795,0.169415436156662,1.04957947883042,0.754384248690751,FALSE,2.47334984477899
"CAN","cpi",0.2,1963,3,1963,NA,0,1.78614367695851,1.83747579323112,1.60677118395228,1.85599510888664,FALSE,0.499763348788184
"CAN","cpi",0.2,1963,3,1963,NA,0.5,1.49963182993846,1.86684610900561,1.60677118395228,0.932300293637426,TRUE,0.36721427906715
"CAN","cpi",0.2,1963,3,1962,NA,1,1.35185728363524,1.81053600039748,1.60677118395228,2.66748522343727,TRUE,0.458678716762234
"CAN","cpi",0.2,1963,3,1962,NA,1.5,0.807764796542031,1.26644351330427,1.60677118395228,4.10321927477868e-44,FALSE,1.30949789338228
"CAN","cpi",0.2,1964,3,1964,NA,0,1.92799666849617,1.97568293301153,1.88764670034376,1.98894154569002,FALSE,0.148561184896385
"CAN","cpi",0.2,1964,3,1964,NA,0.5,1.90709859494897,2.2081093179501,1.88764670034376,1.38377582747094,FALSE,0.349640459514153
"CAN","cpi",0.2,1964,3,1963,NA,1,2.302419749613,2.60343047261414,1.88764670034376,4.71286552905431,FALSE,1.33794334617424
"CAN","cpi",0.2,1964,3,1963,NA,1.5,1.31723412764784,1.61824485064897,1.88764670034376,0.238779673172327,FALSE,0.974515347238099
"CAN","cpi",0.2,1965,3,1965,NA,0,2.2947946682419,2.32705795450263,2.29538304394236,2.35494510510554,TRUE,0.032263286260731
"CAN","cpi",0.2,1965,3,1965,NA,0.5,2.03089930743774,2.24423524191282,2.29538304394236,1.56044896459738,FALSE,0.341205439548921
"CAN","cpi",0.2,1965,3,1964,NA,1,1.3984466455805,1.69413396129019,2.29538304394236,2.42710731898607,FALSE,1.79881002234011
"CAN","cpi",0.2,1965,3,1964,NA,1.5,1.23573157739526,1.53141889310495,2.29538304394236,0.818315757903116,FALSE,2.2055976928032
"CAN","cpi",0.2,1966,3,1966,NA,0,3.77649814531389,3.80140109186361,3.72486065470629,3.84664136390011,FALSE,0.153996673068715
"CAN","cpi",0.2,1966,3,1966,NA,0.5,3.9786317174298,4.3882052785447,3.72486065470629,3.84691400230302,FALSE,1.04400121792367
"CAN","cpi",0.2,1966,3,1965,NA,1,1.6006131055667,2.01018666668161,3.72486065470629,3.31367997089714,FALSE,4.69625853117661
"CAN","cpi",0.2,1966,3,1965,NA,1.5,1.25498187246353,1.66455543357844,3.72486065470629,1.48150382413513,FALSE,5.56033661393452
"CAN","cpi",0.2,1967,3,1967,NA,0,3.68281609709988,3.74612075041316,3.49360316391996,3.76862969063141,FALSE,0.536336986263089
"CAN","cpi",0.2,1967,3,1967,NA,0.5,2.6440666599195,2.92439772512938,3.49360316391996,2.36174420726938,FALSE,1.70334466218633
"CAN","cpi",0.2,1967,3,1966,NA,1,1.71545315503934,1.99578422024922,3.49360316391996,3.4823384545504,FALSE,4.02487842438673
"CAN","cpi",0.2,1967,3,1966,NA,1.5,0.998454673650033,1.47478386137755,3.49360316391996,4.29257700443622,FALSE,5.52337744408354
"CAN","cpi",0.2,1968,3,1968,NA,0,4.00845156509688,4.06323195148181,3.95128347779386,4.1134030125927,FALSE,0.197700604642483
"CAN","cpi",0.2,1968,3,1968,NA,0.5,3.95552669409423,4.40964325995956,3.95128347779386,3.89224433743933,FALSE,0.464724606616271
"CAN","cpi",0.2,1968,3,1967,NA,1,2.24444040639624,2.77493422481407,3.95128347779386,5.85596711509228,FALSE,3.47136695086729
"CAN","cpi",0.2,1968,3,1967,NA,1.5,2.03058838152335,2.56108219994118,3.95128347779386,2.14187095150408,FALSE,4.00599701304952
"CAN","cpi",0.2,1969,3,1969,NA,0,4.52208493975228,4.59479974090552,4.42679496126681,4.64263065146317,FALSE,0.310939747366906
"CAN","cpi",0.2,1969,3,1969,NA,0.5,3.24976887009031,3.60273694660151,4.42679496126681,3.06199492877772,FALSE,2.41311311317446
"CAN","cpi",0.2,1969,3,1968,NA,1,2.4423046619006,2.843398859337,4.42679496126681,6.05582378748629,FALSE,4.35958445226093
"CAN","cpi",0.2,1969,3,1968,NA,1.5,1.59997686288636,2.00107106032276,4.42679496126681,3.87227485119322,FALSE,6.46540394979654
"CAN","cpi",0.2,1970,3,1970,NA,0,3.49048022475359,3.5637468530128,3.28128405769805,3.58996474924422,FALSE,0.596257045898064
"CAN","cpi",0.2,1970,3,1970,NA,0.5,4.25049199285977,4.54325426191364,3.28128405769805,4.17180269652751,FALSE,2.71578210695817
"CAN","cpi",0.2,1970,3,1969,NA,1,2.397478629771,2.69024089882487,3.28128405769805,5.43865496465038,FALSE,1.77037016623682
"CAN","cpi",0.2,1970,3,1969,NA,1.5,2.80791819238367,3.53451180579145,3.28128405769805,2.31672730979866,TRUE,0.726593613407781
"CAN","cpi",0.2,1971,3,1971,NA,0,2.79004292245378,2.83931816311505,2.64123406634756,2.89424739818036,FALSE,0.421297380926826
"CAN","cpi",0.2,1971,3,1971,NA,0.5,1.60007624034172,1.79242113062339,2.64123406634756,1.07533993963556,FALSE,2.3143772295921
"CAN","cpi",0.2,1971,3,1970,NA,1,1.83232933185347,2.11468502761124,2.64123406634756,2.98160965133743,FALSE,1.59872829259858
"CAN","cpi",0.2,1971,3,1970,NA,1.5,0.883609604556381,1.16596530031415,2.64123406634756,4.15708260691123,FALSE,3.9705276108413
"CAN","cpi",0.2,1972,3,1972,NA,0,4.88640574831661,4.94928469806925,4.83230569625923,5.10321489701878,FALSE,0.198129079896098
"CAN","cpi",0.2,1972,3,1972,NA,0.5,4.59628285847209,5.10193930030366,4.83230569625923,4.57526784474473,TRUE,0.505656441831574
"CAN","cpi",0.2,1972,3,1971,NA,1,3.1585850959323,3.66424153776387,4.83230569625923,6.5673313651466,FALSE,3.42581683806996
"CAN","cpi",0.2,1972,3,1971,NA,1.5,1.87815519332359,2.38381163515516,4.83230569625923,1.20127092516847,FALSE,6.62689159459175
"CAN","cpi",0.2,1973,3,1973,NA,0,7.12024654028266,7.12975282039777,7.12388603531779,7.36268749116872,TRUE,0.00950628011510801
"CAN","cpi",0.2,1973,3,1973,NA,0.5,5.60173304608402,6.07630856794232,7.12388603531779,5.89432993074317,FALSE,3.09351919029698
"CAN","cpi",0.2,1973,3,1972,NA,1,3.47509974971644,4.23747231136835,7.12388603531779,7.371399360381,FALSE,7.97840687152551
"CAN","cpi",0.2,1973,3,1972,NA,1.5,1.88159949501106,2.64397205666297,7.12388603531779,4.50324671282129,FALSE,11.962157508289
"CAN","cpi",0.2,1974,3,1974,NA,0,10.0324010996579,9.99013671818382,10.2717243737774,10.3222881332229,FALSE,0.661704757509885
"CAN","cpi",0.2,1974,3,1974,NA,0.5,8.04169481628444,8.86728116443301,10.2717243737774,8.8471290293637,FALSE,4.3366943715096
"CAN","cpi",0.2,1974,3,1973,NA,1,4.40543980376865,5.94412307949267,10.2717243737774,10.9884402825372,FALSE,12.3576865114359
"CAN","cpi",0.2,1974,3,1973,NA,1.5,3.01284072053212,4.55152399625614,10.2717243737774,6.19554852079723,FALSE,15.8391842195272
"CAN","cpi",0.2,1975,3,1975,NA,0,10.0584398958972,10.2675227340482,10.0232981493341,10.2646941702359,FALSE,0.296937204558635
"CAN","cpi",0.2,1975,3,1975,NA,0.5,8.8172900542932,9.02637289244424,10.0232981493341,9.21855388205318,FALSE,2.70139598037575
"CAN","cpi",0.2,1975,3,1974,NA,1,4.90028052843247,7.95703747481044,10.0232981493341,11.9905143933903,FALSE,8.22240863268718
"CAN","cpi",0.2,1975,3,1974,NA,1.5,4.43725315274675,9.1700312456341,10.0232981493341,8.68009129130424,FALSE,6.8659453521374
"CAN","cpi",0.2,1976,3,1976,NA,0,7.13964791640321,7.13195537766508,7.22784311401172,7.25383067322222,FALSE,0.232026802128455
"CAN","cpi",0.2,1976,3,1976,NA,0.5,7.42287697939959,8.30288530258117,7.22784311401172,7.41547675604771,FALSE,1.36759298665128
"CAN","cpi",0.2,1976,3,1975,NA,1,7.06426408550654,9.91112558383569,7.22784311401172,11.9151510581142,TRUE,2.84686149832915
"CAN","cpi",0.2,1976,3,1975,NA,1.5,5.47734093479878,10.0440910560427,7.22784311401172,8.01331538119686,TRUE,4.56675012124396
"CAN","cpi",0.2,1977,3,1977,NA,0,7.42482359509747,7.52490422493464,7.58101410153764,7.61867129691007,FALSE,0.240355321344689
"CAN","cpi",0.2,1977,3,1977,NA,0.5,6.96342126456534,7.59707876843549,7.58101410153764,7.02287871989832,TRUE,0.63365750387015
"CAN","cpi",0.2,1977,3,1976,NA,1,3.74875765670405,4.3824151605742,7.58101410153764,5.87261903876238,FALSE,8.63015485627876
"CAN","cpi",0.2,1977,3,1976,NA,1.5,3.67120852353375,7.04523589039458,7.58101410153764,6.15322645024094,FALSE,4.71347289471849
"CAN","cpi",0.2,1978,3,1978,NA,0,8.46284659458189,8.5891817795619,8.50208927062595,8.68125407245005,TRUE,0.126335184980007
"CAN","cpi",0.2,1978,3,1978,NA,0.5,7.96038470348366,8.61850525965367,8.50208927062595,8.12508742330222,TRUE,0.658120556170015
"CAN","cpi",0.2,1978,3,1977,NA,1,5.28611167917503,7.41078675942719,8.50208927062595,8.64318766852961,FALSE,4.85293135824905
"CAN","cpi",0.2,1978,3,1977,NA,1.5,3.6230577813728,6.81049643535565,8.50208927062595,7.66028936796504,FALSE,7.41642074215858
"CAN","cpi",0.2,1979,3,1979,NA,0,8.41666241676993,8.5189565669886,8.65147652410481,8.61075946409788,FALSE,0.433594043009185
"CAN","cpi",0.2,1979,3,1979,NA,0.5,8.1454479485098,8.62392937340968,8.65147652410481,8.10062835274572,FALSE,0.547349301637698
"CAN","cpi",0.2,1979,3,1978,NA,1,5.86544381712386,8.19915903538127,8.65147652410481,9.5826348846829,FALSE,3.46450894006626
"CAN","cpi",0.2,1979,3,1978,NA,1.5,5.61905255838039,7.95276777663779,8.65147652410481,7.94183844676527,FALSE,4.08048708692494
"CAN","cpi",0.2,1980,3,1980,NA,0,9.35051835718953,9.46945804055795,9.5171912664748,9.53109046750286,FALSE,0.238272748160536
"CAN","cpi",0.2,1980,3,1980,NA,0.5,8.69980836580196,9.19567720361515,9.5171912664748,8.68563614915422,FALSE,1.29965399496229
"CAN","cpi",0.2,1980,3,1979,NA,1,7.08478601979169,7.67313292949124,9.5171912664748,8.32548734166583,FALSE,5.19849275215845
"CAN","cpi",0.2,1980,3,1979,NA,1.5,5.76867388408991,8.69354617870842,9.5171912664748,7.98047102096121,FALSE,4.98398501403445
"CAN","cpi",0.2,1981,3,1981,NA,0,11.4840570141007,11.6582521865225,11.5813425032741,11.708955977523,TRUE,0.174195172421797
"CAN","cpi",0.2,1981,3,1981,NA,0.5,11.9608722756038,12.4325633835071,11.5813425032741,12.1263962907449,FALSE,1.42051553872742
"CAN","cpi",0.2,1981,3,1980,NA,1,8.81591254897778,9.77793499032416,11.5813425032741,10.9849401653028,FALSE,5.47054122372134
"CAN","cpi",0.2,1981,3,1980,NA,1.5,6.7658609834728,9.65077008133088,11.5813425032741,8.62735225265647,FALSE,7.71134015271623
"CAN","cpi",0.2,1982,3,1982,NA,0,10.1724880564975,10.314282569426,10.1124203763629,10.3109749747662,FALSE,0.291963713265005
"CAN","cpi",0.2,1982,3,1982,NA,0.5,9.92874722819583,10.610906928175,10.1124203763629,10.0996836619997,TRUE,0.682159699979199
"CAN","cpi",0.2,1982,3,1981,NA,1,10.7321795334913,11.8681319999782,10.1124203763629,11.6194795199153,FALSE,2.68535035930784
"CAN","cpi",0.2,1982,3,1981,NA,1.5,9.76149212984646,10.8974445963333,10.1124203763629,12.7194356761443,TRUE,1.13595246648687
"CAN","cpi",0.2,1983,3,1983,NA,0,5.78606571048119,5.83287244198694,5.67091787896303,5.82764740362034,FALSE,0.334676310301135
"CAN","cpi",0.2,1983,3,1983,NA,0.5,5.07988468481541,5.76274917447056,5.67091787896303,4.97543944794331,TRUE,0.682864489655149
"CAN","cpi",0.2,1983,3,1982,NA,1,8.42398143168342,9.15316196805496,5.67091787896303,9.23778396682256,FALSE,7.61183941817251
"CAN","cpi",0.2,1983,3,1982,NA,1.5,9.35611602732831,10.0852965636999,5.67091787896303,9.78870144173853,FALSE,9.94217590728472
"CAN","cpi",0.2,1984,3,1984,NA,0,4.12243296700266,4.17167702452627,4.19799576814029,4.21357537293321,FALSE,0.115040916558651
"CAN","cpi",0.2,1984,3,1984,NA,0.5,4.98563085562918,5.28256651169238,4.19799576814029,4.64258933063566,FALSE,2.26602337478544
"CAN","cpi",0.2,1984,3,1983,NA,1,4.92727153102736,5.68202000681701,4.19799576814029,6.13137654871218,FALSE,2.57793788300732
"CAN","cpi",0.2,1984,3,1983,NA,1.5,6.06172748082773,6.81647595661738,4.19799576814029,3.46832438596907,FALSE,5.41407775750826
"CAN","cpi",0.2,1985,3,1985,NA,0,3.80453848045176,3.86579075244883,3.86444262005169,3.91909325760218,TRUE,0.0612522719970716
"CAN","cpi",0.2,1985,3,1985,NA,0.5,4.29640634710824,4.55776731121583,3.86444262005169,3.89150188195039,FALSE,1.34127028174896
"CAN","cpi",0.2,1985,3,1984,NA,1,2.78076439469995,3.47856711754103,3.86444262005169,3.29397074977035,FALSE,1.66249147911774
"CAN","cpi",0.2,1985,3,1984,NA,1.5,3.23844589329486,3.93624861613594,3.86444262005169,4.4666103475984,TRUE,0.697802722841074
"CAN","cpi",0.2,1986,3,1986,NA,0,3.97868734160936,4.04249265244153,4.08685396749431,4.1058885406559,FALSE,0.174708598464117
"CAN","cpi",0.2,1986,3,1986,NA,0.5,4.8078947976582,5.01258458394042,4.08685396749431,4.41001406158749,FALSE,2.00729186169193
"CAN","cpi",0.2,1986,3,1985,NA,1,3.38739642859898,3.91002439575428,4.08685396749431,3.99303879319441,FALSE,0.964701896505374
"CAN","cpi",0.2,1986,3,1985,NA,1.5,3.02981151104965,3.55243947820495,4.08685396749431,4.22326323880904,FALSE,1.8586641903787
"CAN","cpi",0.2,1987,3,1987,NA,0,4.23053251588678,4.2963955917091,4.23980729277887,4.35976718480882,TRUE,0.0658630758223211
"CAN","cpi",0.2,1987,3,1987,NA,0.5,4.22977987426851,4.49448000839408,4.23980729277887,3.90936321394769,TRUE,0.264700134125565
"CAN","cpi",0.2,1987,3,1986,NA,1,3.77087698742689,4.03557712155245,4.23980729277887,4.33099659151455,FALSE,0.775275562191614
"CAN","cpi",0.2,1987,3,1986,NA,1.5,3.50509143743835,3.76979157156391,4.23980729277887,4.75247122036215,FALSE,1.43973943716296
"CAN","cpi",0.2,1988,3,1988,NA,0,3.89684739279132,3.95694049330653,3.92899537638065,4.01269560152408,TRUE,0.0600931005152106
"CAN","cpi",0.2,1988,3,1988,NA,0.5,3.81858785541635,4.14206299439371,3.92899537638065,3.47075595914335,TRUE,0.323475138977359
"CAN","cpi",0.2,1988,3,1987,NA,1,3.76953574191668,4.40453926644969,3.92899537638065,4.58162438495066,TRUE,0.63500352453301
"CAN","cpi",0.2,1988,3,1987,NA,1.5,3.70105558263532,4.45901447869768,3.92899537638065,3.81364776332008,TRUE,0.757958896062354
"CAN","cpi",0.2,1989,3,1989,NA,0,4.87201718447817,4.94430422146539,4.82821664544208,5.02395320873108,FALSE,0.181788384577444
"CAN","cpi",0.2,1989,3,1989,NA,0.5,4.6800927981602,4.97454096536876,4.82821664544208,4.36789847845152,TRUE,0.294448167208568
"CAN","cpi",0.2,1989,3,1988,NA,1,3.57942439703019,4.22288507465727,4.82821664544208,4.46162561835953,FALSE,2.15678960458909
"CAN","cpi",0.2,1989,3,1988,NA,1.5,3.47284117598892,4.2756927013278,4.82821664544208,3.27838152614011,FALSE,2.18416138562457
"CAN","cpi",0.2,1990,3,1990,NA,0,4.40178666616577,4.46307216183322,4.64347549432717,4.51963128519567,FALSE,0.512293826902331
"CAN","cpi",0.2,1990,3,1990,NA,0.5,5.29341282507979,5.56963650197267,4.64347549432717,4.98434426998405,FALSE,1.90106700377443
"CAN","cpi",0.2,1990,3,1989,NA,1,4.6941612259553,5.30849323956185,4.64347549432717,5.9177493923911,FALSE,0.741046342676875
"CAN","cpi",0.2,1990,3,1989,NA,1.5,4.34042392722302,4.95475594082957,4.64347549432717,4.56185858388509,TRUE,0.61433201360655
"CAN","cpi",0.2,1991,3,1991,NA,0,5.47015569330016,5.54131455703169,5.4258100696218,5.62406762795447,FALSE,0.182022922927441
"CAN","cpi",0.2,1991,3,1991,NA,0.5,8.39799313419122,8.73515763613252,5.4258100696218,8.39172083833767,FALSE,7.76762216336487
"CAN","cpi",0.2,1991,3,1990,NA,1,3.77822805338683,4.11539255532814,5.4258100696218,3.86917616551897,FALSE,3.61320828767545
"CAN","cpi",0.2,1991,3,1990,NA,1.5,4.14051164654831,4.47767614848961,5.4258100696218,5.12288497855213,FALSE,2.70749930477176
"CAN","cpi",0.2,1992,3,1992,NA,0,1.60190406290447,1.35966214211607,1.47496888572843,1.48060592990191,FALSE,0.363362881182598
"CAN","cpi",0.2,1992,3,1992,NA,0.5,1.93512799394085,1.69288607315245,1.47496888572843,1.17198715241532,FALSE,0.90815584974264
"CAN","cpi",0.2,1992,3,1991,NA,1,3.82058203331267,3.57834011252428,1.47496888572843,2.52024528073196,FALSE,5.6217909481722
"CAN","cpi",0.2,1992,3,1991,NA,1.5,4.01106989823715,3.76882797744875,1.47496888572843,10.1533377092026,FALSE,6.09801061048338
"CAN","cpi",0.2,1993,3,1993,NA,0,1.69116120633095,1.73589833362852,1.84351085411351,1.80262144325658,FALSE,0.313768428510057
"CAN","cpi",0.2,1993,3,1993,NA,0.5,2.81082224393747,3.02162982445645,1.84351085411351,2.34241315558581,FALSE,2.62908605507887
"CAN","cpi",0.2,1993,3,1992,NA,1,1.45122147661477,1.81266182998912,1.84351085411351,1.81805946412584,FALSE,0.43856291368534
"CAN","cpi",0.2,1993,3,1992,NA,1.5,1.49908315250384,1.86052350587819,1.84351085411351,1.14026360102641,TRUE,0.361440353374351
"CAN","cpi",0.2,1994,3,1994,NA,0,0.107722061395294,0.142660364394542,0.161630694655448,0.163616628358327,FALSE,0.0823641286515128
"CAN","cpi",0.2,1994,3,1994,NA,0.5,0.281426626537384,0.472989654717277,0.161630694655448,-0.385140098029379,FALSE,0.491052857884734
"CAN","cpi",0.2,1994,3,1993,NA,1,1.40264630473624,1.70078745044716,0.161630694655448,1.37474728133383,FALSE,3.4006801709129
"CAN","cpi",0.2,1994,3,1993,NA,1.5,1.30468654752166,1.60282769323257,0.161630694655448,2.59685615311524,FALSE,3.15578077787644
"CAN","cpi",0.2,1995,3,1995,NA,0,2.05628866185546,2.10852017622343,2.11688403676572,2.19356448193293,FALSE,0.0731411657236882
"CAN","cpi",0.2,1995,3,1995,NA,0.5,3.15488548019406,3.31420330469836,2.11688403676572,2.67750903542847,FALSE,2.75432143307517
"CAN","cpi",0.2,1995,3,1994,NA,1,0.654495092349404,1.08872371628342,2.11688403676572,1.34092618105198,FALSE,3.00462942513976
"CAN","cpi",0.2,1995,3,1994,NA,1.5,0.93895109894914,1.37317972288315,2.11688403676572,-1.3139842175605,FALSE,2.29348940864042
"CAN","cpi",0.2,1996,3,1996,NA,0,1.40653750654458,1.45145076889849,1.55309584667184,1.48206512402721,FALSE,0.299025956787302
"CAN","cpi",0.2,1996,3,1996,NA,0.5,1.73747910132144,1.98954191676024,1.55309584667184,1.23598680875262,FALSE,0.713020952062798
"CAN","cpi",0.2,1996,3,1995,NA,1,1.41671986693649,1.85401458534623,1.55309584667184,1.32983461361347,TRUE,0.437294718409742
"CAN","cpi",0.2,1996,3,1995,NA,1.5,0.992704501778359,1.4299992201881,1.55309584667184,3.42580605950136,FALSE,0.745036284619098
"CAN","cpi",0.2,1997,3,1997,NA,0,1.59920193832485,1.64653418638402,1.60528783555959,1.69050032419864,TRUE,0.0473322480591669
"CAN","cpi",0.2,1997,3,1997,NA,0.5,2.56671174166528,2.80382126920113,1.60528783555959,2.11979188984917,FALSE,2.64066929280007
"CAN","cpi",0.2,1997,3,1996,NA,1,1.13521738898597,1.56135110922945,1.60528783555959,1.19524084873691,FALSE,0.53597553606884
"CAN","cpi",0.2,1997,3,1996,NA,1.5,1.55017931555737,1.97631303580085,1.60528783555959,1.35560903862103,TRUE,0.426133720243476
"CAN","cpi",0.2,1998,3,1998,NA,0,0.911333600797227,0.951873274858123,0.988908029337191,0.980088020931525,FALSE,0.133126560258565
"CAN","cpi",0.2,1998,3,1998,NA,0.5,1.82145882978804,2.04156789726895,0.988908029337191,1.31078347146242,FALSE,2.30148606860803
"CAN","cpi",0.2,1998,3,1997,NA,1,1.27345553822661,1.49356460570752,0.988908029337191,1.06570792570078,FALSE,0.931477839704452
"CAN","cpi",0.2,1998,3,1997,NA,1.5,1.18844899839502,1.40855806587594,0.988908029337191,2.25360669266494,FALSE,0.718961490125496
"CAN","cpi",0.2,1999,3,1999,NA,0,1.71066278085695,1.76150717282758,1.7107350135213,1.81711295343144,TRUE,0.0508443919706254
"CAN","cpi",0.2,1999,3,1999,NA,0.5,1.26817700185551,1.46966386659621,1.7107350135213,0.788387565724544,FALSE,0.804164732053414
"CAN","cpi",0.2,1999,3,1998,NA,1,0.612553186991967,1.02016531499714,1.7107350135213,0.575366492854125,FALSE,2.13403637431557
"CAN","cpi",0.2,1999,3,1998,NA,1.5,0.382659443320837,0.790271571326007,1.7107350135213,1.68716976710558,FALSE,2.70877073349339
"CAN","cpi",0.2,2000,3,2000,NA,0,2.61075133946191,2.66670481146264,2.6718361971244,2.72999398726497,FALSE,0.0687819361551276
"CAN","cpi",0.2,2000,3,2000,NA,0.5,2.51466177717737,2.75668861977442,2.6718361971244,2.06798867425529,TRUE,0.242026842597047
"CAN","cpi",0.2,2000,3,1999,NA,1,2.13569371615818,2.59592811434921,2.6718361971244,3.09152396062306,FALSE,0.650004605129001
"CAN","cpi",0.2,2000,3,1999,NA,1.5,1.99804270462404,2.45827710281507,2.6718361971244,0.842861855264031,FALSE,0.994132133964362
"CAN","cpi",0.2,2001,3,2001,NA,0,2.73911412990668,2.7963047718883,2.47906219852806,2.84208465688611,FALSE,0.707320470428157
"CAN","cpi",0.2,2001,3,2001,NA,0.5,2.32123081530208,2.53061514377632,2.47906219852806,1.88638468602912,TRUE,0.209384328474239
"CAN","cpi",0.2,2001,3,2000,NA,1,2.79926839529495,3.29514288568592,2.47906219852806,3.69789354026514,FALSE,1.29638998230818
"CAN","cpi",0.2,2001,3,2000,NA,1.5,2.85746629603707,3.35334078642804,2.47906219852806,1.8681620253813,FALSE,1.44188473416348
"CAN","cpi",0.2,2002,3,2002,NA,0,2.28318988739168,2.33237123074384,2.20880570551249,2.37599565696257,FALSE,0.235141798050134
"CAN","cpi",0.2,2002,3,2002,NA,0.5,1.42840605682323,1.60645994740503,2.20880570551249,0.913576617687781,FALSE,1.68391828585045
"CAN","cpi",0.2,2002,3,2001,NA,1,1.82141874450745,2.3522091714717,2.20880570551249,1.93734082085477,TRUE,0.530790426964249
"CAN","cpi",0.2,2002,3,2001,NA,1.5,2.86797344013755,3.3987638671018,2.20880570551249,1.22267801456389,FALSE,2.17870976352691
"CAN","cpi",0.2,2003,3,2003,NA,0,2.62334496663857,2.67710466944431,2.71189071546809,2.73251886371656,FALSE,0.140724817865189
"CAN","cpi",0.2,2003,3,2003,NA,0.5,4.57852857905749,4.86483685463894,2.71189071546809,4.31675684669419,FALSE,4.95290293455495
"CAN","cpi",0.2,2003,3,2002,NA,1,3.01901041825268,3.56754553870545,2.71189071546809,4.61862409576541,FALSE,1.31633437741424
"CAN","cpi",0.2,2003,3,2002,NA,1.5,2.37062962163332,2.9191647420861,2.71189071546809,1.3655866266696,TRUE,0.548535120452772
"CAN","cpi",0.2,2004,3,2004,NA,0,1.75839504416273,1.80145700876668,1.83151661303942,1.82990600335775,FALSE,0.11821097528581
"CAN","cpi",0.2,2004,3,2004,NA,0.5,1.94698919475962,2.11233948916837,1.83151661303942,1.43982618755963,FALSE,0.45403174870924
"CAN","cpi",0.2,2004,3,2003,NA,1,1.7501135608534,1.91546385526215,1.83151661303942,1.02946817322814,TRUE,0.165350294408751
"CAN","cpi",0.2,2004,3,2003,NA,1.5,1.46241007269829,1.62776036710704,1.83151661303942,4.64649519124043,FALSE,0.674740909239717
"CAN","cpi",0.2,2005,3,2005,NA,0,2.27822913118842,2.33551595261486,2.18071628336509,2.38454318695835,FALSE,0.301068940984762
"CAN","cpi",0.2,2005,3,2005,NA,0.5,2.08511320693262,2.25455483085335,2.18071628336509,1.60616687455658,TRUE,0.169441623920738
"CAN","cpi",0.2,2005,3,2004,NA,1,1.58183358651475,1.90104134135871,2.18071628336509,1.65181790765431,FALSE,1.01839510985991
"CAN","cpi",0.2,2005,3,2004,NA,1.5,1.81860719800113,2.13781495284509,2.18071628336509,1.76259299547523,FALSE,0.426461081143974
"CAN","cpi",0.2,2006,3,2006,NA,0,2.04463456359088,2.09790857364485,1.97519342012289,2.13635134601064,FALSE,0.226876868723961
"CAN","cpi",0.2,2006,3,2006,NA,0.5,2.24253105612041,2.43391129201633,1.97519342012289,1.78685076876899,FALSE,0.859724325889726
"CAN","cpi",0.2,2006,3,2005,NA,1,2.50111154829506,3.0008709948288,1.97519342012289,3.50484952590076,FALSE,1.81455476696418
"CAN","cpi",0.2,2006,3,2005,NA,1.5,2.34428556024875,2.84404500678249,1.97519342012289,1.46813842301012,FALSE,1.4224897968484
"CAN","cpi",0.2,2007,3,2007,NA,0,2.10655299516082,2.15670362542744,2.10062087284572,2.20475175639581,FALSE,0.0649809360543647
"CAN","cpi",0.2,2007,3,2007,NA,0.5,2.43121403271066,2.60696242605555,2.10062087284572,1.98527746740088,FALSE,1.00223129300724
"CAN","cpi",0.2,2007,3,2006,NA,1,1.45505365177259,1.76152788345247,2.10062087284572,1.24740231882683,FALSE,1.154206705163
"CAN","cpi",0.2,2007,3,2006,NA,1.5,2.02178249329953,2.4162132631846,2.10062087284572,1.60497207990466,TRUE,0.394430769885068
"CAN","cpi",0.2,2008,3,2008,NA,0,2.89406141969755,2.95455045503488,2.31447335265955,3.01767576079065,FALSE,1.50945920293233
"CAN","cpi",0.2,2008,3,2008,NA,0.5,1.47019359444285,1.68306925779192,2.31447335265955,1.03762364210032,FALSE,1.79138590051815
"CAN","cpi",0.2,2008,3,2007,NA,1,1.62410263877439,1.83704841361385,2.31447335265955,1.40291213269118,FALSE,1.40650812245371
"CAN","cpi",0.2,2008,3,2007,NA,1.5,1.75405388403633,1.9669996588758,2.31447335265955,2.69934766650446,FALSE,1.08163000929885
"CAN","cpi",0.2,2009,3,2009,NA,0,0.289014261249665,0.318627327678468,0.284533874408197,0.321726231334406,FALSE,0.0408140335324726
"CAN","cpi",0.2,2009,3,2009,NA,0.5,-0.712486940097723,-0.359463578670304,0.284533874408197,-1.32493870283985,FALSE,1.96301699412367
"CAN","cpi",0.2,2009,3,2008,NA,1,3.24110624544983,3.83666401301936,0.284533874408197,5.07610742917547,FALSE,7.98698869517361
"CAN","cpi",0.2,2009,3,2008,NA,1.5,2.63515599828914,3.23071376585868,0.284533874408197,1.01106559029091,FALSE,6.4721130772719
"CAN","cpi",0.2,2010,3,2010,NA,0,1.62871351318658,1.6805216990416,1.75525687020327,1.75432596686424,FALSE,0.238646113759195
"CAN","cpi",0.2,2010,3,2010,NA,0.5,2.0181112555438,2.08978387726144,1.75525687020327,1.49344630005585,FALSE,0.728808585068953
"CAN","cpi",0.2,2010,3,2009,NA,1,0.637784044986429,1.12908609062878,1.75525687020327,1.13010370525173,FALSE,2.05672899457859
"CAN","cpi",0.2,2010,3,2009,NA,1.5,1.3618682134759,1.867876361504,1.75525687020327,-2.25919184326718,TRUE,0.506008148028101
"CAN","cpi",0.2,2011,3,2011,NA,0,2.78245463062119,2.84199731320753,2.85717434028225,2.90832322356675,FALSE,0.09748525027314
"CAN","cpi",0.2,2011,3,2011,NA,0.5,3.1151188953838,3.33098513273489,2.85717434028225,2.81495035644064,FALSE,0.860727625104966
"CAN","cpi",0.2,2011,3,2010,NA,1,1.92451419914196,2.17935419570503,2.85717434028225,2.24995624930718,FALSE,1.9493903580061
"CAN","cpi",0.2,2011,3,2010,NA,1.5,1.72824545796301,1.98308545452608,2.85717434028225,1.69121218305118,FALSE,2.44006221095348
"CAN","cpi",0.2,2012,3,2012,NA,0,1.44754911959778,1.48920570529745,1.50118536134935,1.50859370689259,FALSE,0.0716057258294194
"CAN","cpi",0.2,2012,3,2012,NA,0.5,2.13826661827832,2.38871437718754,1.50118536134935,1.75125264874692,FALSE,1.84315090123166
"CAN","cpi",0.2,2012,3,2011,NA,1,2.16737154820263,2.41781930711186,1.50118536134935,1.8474445607568,FALSE,1.91591322604244
"CAN","cpi",0.2,2012,3,2011,NA,1.5,2.57159610982211,2.85036807145403,1.50118536134935,3.06926058053075,FALSE,2.95479883281383
"CAN","cpi",0.2,2013,3,2013,NA,0,0.980723311935268,1.03005027715846,0.931270594714462,1.05615594966199,FALSE,0.172958758275207
"CAN","cpi",0.2,2013,3,2013,NA,0.5,1.43999908993209,1.66402777943674,0.931270594714462,1.02417936454929,FALSE,1.49584992754871
"CAN","cpi",0.2,2013,3,2012,NA,1,0.779694356821867,1.00372304632652,0.931270594714462,0.0685845185761151,TRUE,0.224028689504652
"CAN","cpi",0.2,2013,3,2012,NA,1.5,1.40917331198552,1.63320200149017,0.931270594714462,1.71916958716775,FALSE,1.4187854826823
"CAN","cpi",0.2,2014,3,2014,NA,0,1.94637920350647,2.00216395759363,1.87639912240215,2.06386975595087,FALSE,0.230734956847955
"CAN","cpi",0.2,2014,3,2014,NA,0.5,2.21942012725323,2.44178301311547,1.87639912240215,1.92715211220712,FALSE,1.07991539798994
"CAN","cpi",0.2,2014,3,2013,NA,1,1.11864825294705,1.34101113880929,1.87639912240215,1.11372323439473,FALSE,1.56083284484439
"CAN","cpi",0.2,2014,3,2013,NA,1.5,0.795330681259536,1.01769356712178,1.87639912240215,1.40040388240124,FALSE,2.36912677406317
"CAN","cpi",0.2,2015,3,2015,NA,0,1.2314898909479,1.27655549066791,1.11090953952792,1.30732778141228,FALSE,0.34651647826997
"CAN","cpi",0.2,2015,3,2015,NA,0.5,0.62271413981252,0.838410785675968,1.11090953952792,0.0832530397055839,FALSE,0.896943530493319
"CAN","cpi",0.2,2015,3,2014,NA,1,1.62461453028544,1.84031117614889,1.11090953952792,1.43393836679687,FALSE,1.49995912275726
"CAN","cpi",0.2,2015,3,2014,NA,1.5,1.49304476925326,1.70874141511671,1.11090953952792,2.67552344749624,FALSE,1.17103472017682
"CAN","cpi",0.2,2016,3,2016,NA,0,1.40857813965143,1.46172453714369,1.41168586698797,1.50891536161516,TRUE,0.0531463974922524
"CAN","cpi",0.2,2016,3,2016,NA,0.5,1.1665579375235,1.47812012166855,1.41168586698797,0.786851742019216,TRUE,0.311562184145046
"CAN","cpi",0.2,2016,3,2015,NA,1,1.60510463995226,1.94238614246515,1.41168586698797,2.15660249634191,FALSE,0.820828434923635
"CAN","cpi",0.2,2016,3,2015,NA,1.5,1.65385059629868,1.99113209881157,1.41168586698797,-0.117220285505753,FALSE,0.942693325789667
"CAN","cpi",0.2,2017,3,2017,NA,0,1.45611402000991,1.49815140781936,1.57888581671161,1.54881337220766,FALSE,0.243873410040078
"CAN","cpi",0.2,2017,3,2017,NA,0.5,2.1776230790938,2.50355249033063,1.57888581671161,1.91336997918348,FALSE,1.82277256719231
"CAN","cpi",0.2,2017,3,2016,NA,1,1.20809585717776,1.53402526841459,1.57888581671161,1.18768855671255,FALSE,0.438080781979381
"CAN","cpi",0.2,2017,3,2016,NA,1.5,1.66209653636756,1.98802594760439,1.57888581671161,0.6644917028394,FALSE,0.533956210376694
"CAN","cpi",0.2,2018,3,2018,NA,0,2.32908337501489,2.38582350494188,2.23316270166586,2.44523056077762,FALSE,0.296541813299565
"CAN","cpi",0.2,2018,3,2018,NA,0.5,2.90092599962182,3.14497997440143,2.23316270166586,2.80156516368753,FALSE,1.91346221966951
"CAN","cpi",0.2,2018,3,2017,NA,1,1.21292796556588,1.45698194034549,2.23316270166586,0.82019125662587,FALSE,2.18450587808054
"CAN","cpi",0.2,2018,3,2017,NA,1.5,1.11777239248989,1.3618263672695,2.23316270166586,2.43256495233066,FALSE,2.42239481077052
"CAN","cpi",0.2,2019,3,2019,NA,0,1.99002547252801,2.04346911709197,1.91921619871868,2.08489368525497,FALSE,0.23046682908728
"CAN","cpi",0.2,2019,3,2019,NA,0.5,1.81909697679882,2.04246954137276,1.91921619871868,1.47181960590434,TRUE,0.223372564573937
"CAN","cpi",0.2,2019,3,2018,NA,1,2.09245080131338,2.31582336588732,1.91921619871868,2.1812391651413,FALSE,0.656459071060686
"CAN","cpi",0.2,2019,3,2018,NA,1.5,1.54310693268592,1.76647949725985,1.91921619871868,3.59347997035086,FALSE,0.605214318221008
"CAN","cpi",0.2,2020,3,2020,NA,0,0.634821728951615,0.667871263517361,0.71139989671781,0.692133240684643,FALSE,0.14187111756687
"CAN","cpi",0.2,2020,3,2020,NA,0.5,1.39241471212383,1.69491011996048,0.71139989671781,1.05558053361148,FALSE,2.00503244635169
"CAN","cpi",0.2,2020,3,2019,NA,1,1.85733844645103,2.15983385428768,0.71139989671781,2.01486975979332,FALSE,3.16734178216969
"CAN","cpi",0.2,2020,3,2019,NA,1.5,1.86753084854961,2.17002625638626,0.71139989671781,1.77269016603738,FALSE,3.19282278741616
"CAN","cpi",0.2,2021,3,2021,NA,0,3.20612459343336,3.28138472321128,3.31148121717802,3.37410895790077,FALSE,0.150501364694781
"CAN","cpi",0.2,2021,3,2021,NA,0.5,2.64969616981633,3.03809548130914,3.31148121717802,2.68190793980083,FALSE,1.07186365116503
"CAN","cpi",0.2,2021,3,2020,NA,1,0.915906446175246,1.30430575766806,3.31148121717802,1.19247466620579,FALSE,5.40633796026773
"CAN","cpi",0.2,2021,3,2020,NA,1.5,0.590782814315366,0.979182125808177,3.31148121717802,0.994097524483704,FALSE,6.21914703991743
"CAN","cpi",0.2,2022,3,2022,NA,0,6.49325492338545,6.59070803419405,6.50977236228281,6.71215382839029,TRUE,0.0974531108086012
"CAN","cpi",0.2,2022,3,2022,NA,0.5,6.07699911246033,6.52113361578186,6.50977236228281,6.42154306210558,TRUE,0.444134503321532
"CAN","cpi",0.2,2022,3,2021,NA,1,3.6349419014296,4.1153550297964,6.50977236228281,4.97199453293936,FALSE,6.46645645958283
"CAN","cpi",0.2,2022,3,2021,NA,1.5,2.83928127496083,3.31969440332763,6.50977236228281,3.45701838810354,FALSE,8.45560802575474
"CAN","cpi",0.2,2023,3,2023,NA,0,3.98004381164226,4.02766273597058,3.78831288758619,4.042121841464,FALSE,0.526946234468487
"CAN","cpi",0.2,2023,3,2023,NA,0.5,3.46828153954789,3.70722158763617,3.78831288758619,3.05997192794191,FALSE,0.441668297963333
"CAN","cpi",0.2,2023,3,2022,NA,1,5.11801132675701,5.3569513748453,3.78831288758619,5.28351765661874,FALSE,3.56318614601534
"CAN","cpi",0.2,2023,3,2022,NA,1.5,5.28614577689233,5.83661182667641,3.78831288758619,7.28752716372712,FALSE,4.29504827304942
"CAN","cpi",0.2,2024,3,2023,NA,1,3.5205489889588,4.00091855905914,NA,4.37793695924716,NA,NA
"CAN","cpi",0.2,2024,3,2023,NA,1.5,3.3216654052922,4.35491885609459,NA,2.36897983740768,NA,NA
"CAN","cpi",0.3,1952,3,1952,NA,0,2.66039440148687,2.66039440148687,2.55562336095485,2.46502621244774,FALSE,0.299345830091496
"CAN","cpi",0.3,1952,3,1952,NA,0.5,4.68439190678894,4.68439190678893,2.55562336095485,4.32129924776399,FALSE,6.08219584524025
"CAN","cpi",0.3,1952,3,1951,NA,1,6.26117213572233,6.26117213572233,2.55562336095485,9.65785623271456,FALSE,10.5872822136214
"CAN","cpi",0.3,1952,3,1951,NA,1.5,7.31905103975628,7.31905103975628,2.55562336095485,10.2729097180516,FALSE,13.6097933680041
"CAN","cpi",0.3,1953,3,1953,NA,0,-0.135073854663306,-0.847437329690408,-1.01492775838436,-1.00749856253296,FALSE,1.80150482131877
"CAN","cpi",0.3,1953,3,1953,NA,0.5,1.77768303460695,1.06531955957985,-1.01492775838436,-2.06778904141071,FALSE,7.26652450494807
"CAN","cpi",0.3,1953,3,1952,NA,1,-0.144629790677893,-0.856993265704994,-1.01492775838436,-1.55171650633025,FALSE,1.77420214699138
"CAN","cpi",0.3,1953,3,1952,NA,1.5,-12.5063610433675,-13.2187245183946,-1.01492775838436,1.96017794195978,FALSE,34.1556272678592
"CAN","cpi",0.3,1954,3,1954,NA,0,0.994391851404439,0.654613819730987,0.644425455961438,0.844896913757956,FALSE,0.660125955306551
"CAN","cpi",0.3,1954,3,1954,NA,0.5,2.78235967803749,2.44258164636403,0.644425455961438,-0.153040348587994,FALSE,5.7686054599724
"CAN","cpi",0.3,1954,3,1953,NA,1,9.70997061746865,9.3701925857952,0.644425455961438,2.75483618067449,FALSE,25.5617795726329
"CAN","cpi",0.3,1954,3,1953,NA,1.5,-2.38097981717785,-2.7207578488513,0.644425455961438,-2.52548049332379,FALSE,9.27503141064866
"CAN","cpi",0.3,1955,3,1955,NA,0,-0.0563721525467359,0.0505896959435689,0.173649026558865,0.10765252516202,FALSE,0.458559935962579
"CAN","cpi",0.3,1955,3,1955,NA,0.5,0.062008198681786,0.385566426194479,0.173649026558865,-0.685764272176465,TRUE,0.323558227512693
"CAN","cpi",0.3,1955,3,1954,NA,1,1.43978427214254,6.46484308008204,0.173649026558865,3.05598167297881,FALSE,8.64258808103571
"CAN","cpi",0.3,1955,3,1954,NA,1.5,-0.718718554010913,4.30634025392859,0.173649026558865,-1.37299158518014,TRUE,5.0250588079395
"CAN","cpi",0.3,1956,3,1956,NA,0,1.44076727279548,1.54406279096196,1.32752769429961,1.5132196707054,FALSE,0.42683717101182
"CAN","cpi",0.3,1956,3,1956,NA,0.5,0.341392520239223,0.555650918527178,1.32752769429961,-0.533297708724126,FALSE,2.41962061478061
"CAN","cpi",0.3,1956,3,1955,NA,1,0.333855555576848,4.2612338019654,1.32752769429961,0.79482048855347,TRUE,3.92737824638855
"CAN","cpi",0.3,1956,3,1955,NA,1.5,-0.846562496014289,3.08081575037426,1.32752769429961,-1.67555014996128,TRUE,3.92737824638855
"CAN","cpi",0.3,1957,3,1957,NA,0,3.25351977777807,3.40647872897908,3.24684755852518,3.4081189986054,FALSE,0.172022434780711
"CAN","cpi",0.3,1957,3,1957,NA,0.5,3.03385076595064,3.71577485219635,3.24684755852518,2.36364513914165,TRUE,0.681924086245711
"CAN","cpi",0.3,1957,3,1956,NA,1,1.81562246176772,4.73538514962548,3.24684755852518,6.42400073504334,TRUE,2.91976268785776
"CAN","cpi",0.3,1957,3,1956,NA,1.5,1.86376300105425,5.45555874891869,3.24684755852518,-1.44175113719435,TRUE,3.59179574786444
"CAN","cpi",0.3,1958,3,1958,NA,0,2.11200776648208,2.19120674139184,2.33186388641149,2.22393716079583,FALSE,0.481076532108755
"CAN","cpi",0.3,1958,3,1958,NA,0.5,2.8118103236556,2.99817454918626,2.33186388641149,2.22874439106395,FALSE,1.55763976051384
"CAN","cpi",0.3,1958,3,1957,NA,1,1.23462411253887,2.30315780408842,2.33186388641149,4.33819969505612,FALSE,1.15055106961546
"CAN","cpi",0.3,1958,3,1957,NA,1.5,2.08723405254468,3.43908314403032,2.33186388641149,1.22685206136826,TRUE,1.35184909148564
"CAN","cpi",0.3,1959,3,1959,NA,0,1.06698972274332,1.25266010646828,1.19382698397654,1.19679708996586,TRUE,0.185670383724954
"CAN","cpi",0.3,1959,3,1959,NA,0.5,1.36343441664236,1.60594823299853,1.19382698397654,0.655175994826909,FALSE,0.72710648111565
"CAN","cpi",0.3,1959,3,1958,NA,1,0.251876040240361,1.46216906360629,1.19382698397654,1.75938857815981,TRUE,1.21029302336593
"CAN","cpi",0.3,1959,3,1958,NA,1.5,-1.26036253248603,0.951773252248111,1.19382698397654,1.7749666101295,FALSE,2.90371787538679
"CAN","cpi",0.3,1960,3,1960,NA,0,0.877537557221892,1.08135652252455,1.34209404870695,1.03130246511349,FALSE,0.948783325823806
"CAN","cpi",0.3,1960,3,1960,NA,0.5,1.47192897456843,1.76302464998321,1.34209404870695,0.745602653132245,FALSE,0.662052606447581
"CAN","cpi",0.3,1960,3,1959,NA,1,1.09666318141839,1.94538878151218,1.34209404870695,3.33587387303437,TRUE,0.848725600093788
"CAN","cpi",0.3,1960,3,1959,NA,1.5,1.08970238269731,1.93842798279109,1.34209404870695,-0.32541909428789,TRUE,0.848725600093788
"CAN","cpi",0.3,1961,3,1961,NA,0,0.959950795303602,1.06099417920926,1.00921348094007,1.00921348094007,TRUE,0.10104338390566
"CAN","cpi",0.3,1961,3,1961,NA,0.5,1.8083461496856,2.20206509356915,1.00921348094007,1.31141131508129,FALSE,2.67695514029934
"CAN","cpi",0.3,1961,3,1960,NA,1,0.0246911655954384,0.818894534406764,1.00921348094007,0.143625905669962,FALSE,1.33797178747792
"CAN","cpi",0.3,1961,3,1960,NA,1.5,1.33757286893826,2.13177623774959,1.00921348094007,-0.34011142415222,FALSE,1.73237304880616
"CAN","cpi",0.3,1962,3,1962,NA,0,1.05595366014056,1.15806714316708,1.04957947883042,1.11132998230876,FALSE,0.120325429626928
"CAN","cpi",0.3,1962,3,1962,NA,0.5,0.714090045756409,1.00178576482059,1.04957947883042,1.64134322488006e-44,FALSE,0.424249187663681
"CAN","cpi",0.3,1962,3,1961,NA,1,0.0224208422559326,0.765412372656894,1.04957947883042,-9.44308782563385e-19,FALSE,1.55489754803959
"CAN","cpi",0.3,1962,3,1961,NA,1.5,-0.808610613365842,-0.0656190829648806,1.04957947883042,0.754384248690751,FALSE,3.92927313553038
"CAN","cpi",0.3,1963,3,1963,NA,0,1.78614367695851,1.83747579323112,1.60677118395228,1.85599510888664,FALSE,0.563824953433266
"CAN","cpi",0.3,1963,3,1963,NA,0.5,1.47919028328657,1.89706823370576,1.60677118395228,0.932300293637426,TRUE,0.417877950419191
"CAN","cpi",0.3,1963,3,1962,NA,1,1.37225766680676,1.79013561722596,1.60677118395228,2.66748522343727,TRUE,0.417877950419191
"CAN","cpi",0.3,1963,3,1962,NA,1.5,0.77411215646444,1.19199010688363,1.60677118395228,4.10321927477868e-44,FALSE,1.60296674204391
"CAN","cpi",0.3,1964,3,1964,NA,0,1.92408580223315,1.97568293301153,1.88764670034376,1.98894154569002,FALSE,0.155708850462347
"CAN","cpi",0.3,1964,3,1964,NA,0.5,1.85237888173069,2.25353343674079,1.88764670034376,1.38377582747094,TRUE,0.401154555010107
"CAN","cpi",0.3,1964,3,1963,NA,1,1.71856385181184,2.48285369434042,1.88764670034376,4.71286552905431,TRUE,0.764289842528576
"CAN","cpi",0.3,1964,3,1963,NA,1.5,1.20688198087565,1.97117182340423,1.88764670034376,0.238779673172327,TRUE,0.764289842528576
"CAN","cpi",0.3,1965,3,1965,NA,0,2.25014300116965,2.3391982650129,2.29538304394236,2.35494510510554,TRUE,0.089055263843254
"CAN","cpi",0.3,1965,3,1965,NA,0.5,1.98307357175643,2.40108716192552,2.29538304394236,1.56044896459738,TRUE,0.418013590169092
"CAN","cpi",0.3,1965,3,1964,NA,1,1.34517538092716,1.76911669535163,2.29538304394236,2.42710731898607,FALSE,1.92755945325513
"CAN","cpi",0.3,1965,3,1964,NA,1.5,1.20176980542286,1.65914808358672,2.29538304394236,0.818315757903116,FALSE,2.27519245060855
"CAN","cpi",0.3,1966,3,1966,NA,0,3.71276282509589,3.81077178960628,3.72486065470629,3.84664136390011,TRUE,0.0980089645103863
"CAN","cpi",0.3,1966,3,1966,NA,0.5,3.99442914354342,4.47614202824793,3.72486065470629,3.84691400230302,FALSE,1.25190856709631
"CAN","cpi",0.3,1966,3,1965,NA,1,1.5645434437719,2.0462563284764,3.72486065470629,3.31367997089714,FALSE,5.27772524536132
"CAN","cpi",0.3,1966,3,1965,NA,1.5,1.18537289449315,1.66708577919765,3.72486065470629,1.48150382413513,FALSE,6.36106967187204
"CAN","cpi",0.3,1967,3,1967,NA,0,3.68281609709988,3.74612075041316,3.49360316391996,3.76862969063141,FALSE,0.603913033827348
"CAN","cpi",0.3,1967,3,1967,NA,0.5,2.49070621498503,2.96761840244056,3.49360316391996,2.36174420726938,FALSE,1.97972579168238
"CAN","cpi",0.3,1967,3,1966,NA,1,1.57170665155453,2.04861883901006,3.49360316391996,3.4823384545504,FALSE,4.60543883005524
"CAN","cpi",0.3,1967,3,1966,NA,1.5,0.821230251634276,1.29814243908981,3.49360316391996,4.29257700443622,FALSE,6.74965711554168
"CAN","cpi",0.3,1968,3,1968,NA,0,3.99689483976797,4.08198695598194,3.95128347779386,4.1134030125927,FALSE,0.215410293282858
"CAN","cpi",0.3,1968,3,1968,NA,0.5,3.78535688673877,4.45510112041571,3.95128347779386,3.89224433743933,TRUE,0.669744233676942
"CAN","cpi",0.3,1968,3,1967,NA,1,2.18709769660778,2.85684193028472,3.95128347779386,5.85596711509228,FALSE,3.79672008370305
"CAN","cpi",0.3,1968,3,1967,NA,1.5,2.02200603769288,2.69175027136982,3.95128347779386,2.14187095150408,FALSE,4.26841053774561
"CAN","cpi",0.3,1969,3,1969,NA,0,4.50251860910321,4.60976668390725,4.42679496126681,4.64263065146317,FALSE,0.323601354336604
"CAN","cpi",0.3,1969,3,1969,NA,0.5,3.18677174053025,3.67453934984637,4.42679496126681,3.06199492877772,FALSE,2.63706935623168
"CAN","cpi",0.3,1969,3,1968,NA,1,2.25922525320916,2.8676591105685,4.42679496126681,6.05582378748629,FALSE,5.06310771649737
"CAN","cpi",0.3,1969,3,1968,NA,1.5,1.44671611512298,2.05514997248232,4.42679496126681,3.87227485119322,FALSE,7.38456239674361
"CAN","cpi",0.3,1970,3,1970,NA,0,3.49048022475359,3.5808277736732,3.28128405769805,3.58996474924422,FALSE,0.68805088336401
"CAN","cpi",0.3,1970,3,1970,NA,0.5,4.16955476464595,4.67868274267725,3.28128405769805,4.17180269652751,FALSE,3.04704428359674
"CAN","cpi",0.3,1970,3,1969,NA,1,2.35614854320861,3.3665975323385,3.28128405769805,5.43865496465038,TRUE,1.01044898912989
"CAN","cpi",0.3,1970,3,1969,NA,1.5,2.77419263242753,3.91161761456117,3.28128405769805,2.31672730979866,TRUE,1.13742498213364
"CAN","cpi",0.3,1971,3,1971,NA,0,2.76921923647835,2.87883293349154,2.64123406634756,2.89424739818036,FALSE,0.475285611672587
"CAN","cpi",0.3,1971,3,1971,NA,0.5,1.48286713307878,1.85275171128772,2.64123406634756,1.07533993963556,FALSE,2.62269130695134
"CAN","cpi",0.3,1971,3,1970,NA,1,1.68525873216337,2.05514331037232,2.64123406634756,2.98160965133743,FALSE,2.04442959528107
"CAN","cpi",0.3,1971,3,1970,NA,1.5,0.769786132812986,1.13967071102194,2.64123406634756,4.15708260691123,FALSE,4.66006559342503
"CAN","cpi",0.3,1972,3,1972,NA,0,4.88640574831661,4.94435799074068,4.83230569625923,5.10321489701878,FALSE,0.212523819730879
"CAN","cpi",0.3,1972,3,1972,NA,0.5,4.34991527209074,5.16112325810315,4.83230569625923,4.57526784474473,TRUE,0.811207986012411
"CAN","cpi",0.3,1972,3,1971,NA,1,3.01761403664191,4.05493892588228,4.83230569625923,6.5673313651466,FALSE,3.25837280460309
"CAN","cpi",0.3,1972,3,1971,NA,1.5,1.70964800483541,2.74697289407578,4.83230569625923,1.20127092516847,FALSE,6.99541860976451
"CAN","cpi",0.3,1973,3,1973,NA,0,7.05398357806819,7.1346675592321,7.12388603531779,7.36268749116872,TRUE,0.080683981163908
"CAN","cpi",0.3,1973,3,1973,NA,0.5,5.60173304608402,6.25714069695378,7.12388603531779,5.89432993074317,FALSE,3.13182290333836
"CAN","cpi",0.3,1973,3,1972,NA,1,3.37203934508434,4.33138352206812,7.12388603531779,7.371399360381,FALSE,8.93792278626855
"CAN","cpi",0.3,1973,3,1972,NA,1.5,1.91535087059022,2.87469504757401,7.12388603531779,4.50324671282129,FALSE,13.0998898562517
"CAN","cpi",0.3,1974,3,1974,NA,0,9.94810610956003,9.98792182521119,10.2717243737774,10.3222881332229,FALSE,0.850680140126108
"CAN","cpi",0.3,1974,3,1974,NA,0.5,8.03292040758786,8.86728116443301,10.2717243737774,8.8471290293637,FALSE,4.84705564068632
"CAN","cpi",0.3,1974,3,1973,NA,1,4.4697539983929,7.2069150945511,10.2717243737774,10.9884402825372,FALSE,11.4937590368048
"CAN","cpi",0.3,1974,3,1973,NA,1.5,3.12436425413621,6.46135198675024,10.2717243737774,6.19554852079723,FALSE,14.2237659812631
"CAN","cpi",0.3,1975,3,1975,NA,0,10.0595617526421,10.2693662300238,10.0232981493341,10.2646941702359,FALSE,0.31341477254723
"CAN","cpi",0.3,1975,3,1975,NA,0.5,8.30156401650514,10.4888574811682,10.0232981493341,9.21855388205318,TRUE,2.18729346466304
"CAN","cpi",0.3,1975,3,1974,NA,1,4.52079187634915,8.09075711852664,10.0232981493341,11.9905143933903,FALSE,9.09151104448457
"CAN","cpi",0.3,1975,3,1974,NA,1.5,4.43725315274675,9.64532418318048,10.0232981493341,8.68009129130424,FALSE,6.28799664801555
"CAN","cpi",0.3,1976,3,1976,NA,0,7.1210358062349,7.14877164247731,7.22784311401172,7.25383067322222,FALSE,0.253654326340704
"CAN","cpi",0.3,1976,3,1976,NA,0.5,7.23417405936473,8.27655939754651,7.22784311401172,7.41547675604771,FALSE,1.0604737534761
"CAN","cpi",0.3,1976,3,1975,NA,1,5.64451405224187,9.90878777996923,7.22784311401172,11.9151510581142,TRUE,4.26427372772736
"CAN","cpi",0.3,1976,3,1975,NA,1.5,5.24763919304522,10.0725157471004,7.22784311401172,8.01331538119686,TRUE,4.82487655405516
"CAN","cpi",0.3,1977,3,1977,NA,0,7.40084205344318,7.53010817498018,7.58101410153764,7.61867129691007,FALSE,0.274711625986888
"CAN","cpi",0.3,1977,3,1977,NA,0.5,6.95099325013079,7.84971678918025,7.58101410153764,7.02287871989832,TRUE,0.898723539049458
"CAN","cpi",0.3,1977,3,1976,NA,1,3.51883685880524,5.79567466712515,7.58101410153764,5.87261903876238,FALSE,7.37780762092703
"CAN","cpi",0.3,1977,3,1976,NA,1.5,3.67917627572064,7.15206845530005,7.58101410153764,6.15322645024094,FALSE,4.69845116882968
"CAN","cpi",0.3,1978,3,1978,NA,0,8.45911042513755,8.63626887726157,8.50208927062595,8.68125407245005,TRUE,0.177158452124019
"CAN","cpi",0.3,1978,3,1978,NA,0.5,7.95744341795721,8.92090176835416,8.50208927062595,8.12508742330222,TRUE,0.963458350396955
"CAN","cpi",0.3,1978,3,1977,NA,1,5.28890802501081,7.42599823307697,8.50208927062595,8.64318766852961,FALSE,5.21163602963466
"CAN","cpi",0.3,1978,3,1977,NA,1.5,2.97593262750921,6.73783553634958,8.50208927062595,7.66028936796504,FALSE,8.80262786391571
"CAN","cpi",0.3,1979,3,1979,NA,0,8.4184641079967,8.5218529328664,8.65147652410481,8.61075946409788,FALSE,0.473741942693735
"CAN","cpi",0.3,1979,3,1979,NA,0.5,7.90670262888969,8.62165588230703,8.65147652410481,8.10062835274572,FALSE,0.800155087125282
"CAN","cpi",0.3,1979,3,1978,NA,1,5.87695082724864,8.20480200506064,8.65147652410481,9.5826348846829,FALSE,3.60406408936676
"CAN","cpi",0.3,1979,3,1978,NA,1.5,3.82829024674998,8.43219362431828,8.65147652410481,7.94183844676527,FALSE,5.23042594838696
"CAN","cpi",0.3,1980,3,1980,NA,0,9.31154424168823,9.49301809345468,9.5171912664748,9.53109046750286,FALSE,0.250540060395353
"CAN","cpi",0.3,1980,3,1980,NA,0.5,8.71835291700395,9.20099265889324,9.5171912664748,8.68563614915422,FALSE,1.38606433497944
"CAN","cpi",0.3,1980,3,1979,NA,1,5.28701734847602,8.05075778990176,9.5171912664748,8.32548734166583,FALSE,6.95355037449156
"CAN","cpi",0.3,1980,3,1979,NA,1.5,5.62756088527333,8.62978364480163,9.5171912664748,7.98047102096121,FALSE,5.53767310716593
"CAN","cpi",0.3,1981,3,1981,NA,0,11.4993937254083,11.6820391321822,11.5813425032741,11.708955977523,TRUE,0.182645406773943
"CAN","cpi",0.3,1981,3,1981,NA,0.5,12.007205632839,12.7473309052477,11.5813425032741,12.1263962907449,FALSE,1.95687707116551
"CAN","cpi",0.3,1981,3,1980,NA,1,6.74132553519906,9.77347767945275,11.5813425032741,10.9849401653028,FALSE,8.19748021231481
"CAN","cpi",0.3,1981,3,1980,NA,1.5,6.44180069439941,9.80140103807435,11.5813425032741,8.62735225265647,FALSE,8.44514738710291
"CAN","cpi",0.3,1982,3,1982,NA,0,10.1918794076318,10.3153369159041,10.1124203763629,10.3109749747662,FALSE,0.350483311897599
"CAN","cpi",0.3,1982,3,1982,NA,0.5,9.6535339498727,10.6173539883202,10.1124203763629,10.0996836619997,TRUE,0.963820038447501
"CAN","cpi",0.3,1982,3,1981,NA,1,9.99920926473287,12.1436852611246,10.1124203763629,11.6194795199153,TRUE,2.14447599639171
"CAN","cpi",0.3,1982,3,1981,NA,1.5,6.81204958822541,11.3095122864421,10.1124203763629,12.7194356761443,TRUE,4.49746269821669
"CAN","cpi",0.3,1983,3,1983,NA,0,5.76739744072777,5.85875091466867,5.67091787896303,5.82764740362034,FALSE,0.367009364697288
"CAN","cpi",0.3,1983,3,1983,NA,0.5,4.98050456392918,5.79848976980115,5.67091787896303,4.97543944794331,TRUE,0.81798520587197
"CAN","cpi",0.3,1983,3,1982,NA,1,8.21733624486288,9.54646714478757,5.67091787896303,9.23778396682256,FALSE,8.60461194535281
"CAN","cpi",0.3,1983,3,1982,NA,1.5,7.97998075860645,10.0415235079261,5.67091787896303,9.78870144173853,FALSE,8.6588652625866
"CAN","cpi",0.3,1984,3,1984,NA,0,4.1005100059076,4.18994394231282,4.19799576814029,4.21357537293321,FALSE,0.112439153055132
"CAN","cpi",0.3,1984,3,1984,NA,0.5,4.93047774965378,5.36643320162863,4.19799576814029,4.64258933063566,FALSE,2.52876111344197
"CAN","cpi",0.3,1984,3,1983,NA,1,4.46746911628429,5.76278708510187,4.19799576814029,6.13137654871218,FALSE,2.06524182065758
"CAN","cpi",0.3,1984,3,1983,NA,1.5,4.69181465965777,7.04474590672272,4.19799576814029,3.46832438596907,FALSE,3.76384236568633
"CAN","cpi",0.3,1985,3,1985,NA,0,3.78044235777287,3.88564361863905,3.86444262005169,3.91909325760218,TRUE,0.105201260866172
"CAN","cpi",0.3,1985,3,1985,NA,0.5,4.15545939665395,4.61069917561276,3.86444262005169,3.89150188195039,FALSE,1.28671628353669
"CAN","cpi",0.3,1985,3,1984,NA,1,2.53167062986704,3.60649295353971,3.86444262005169,3.29397074977035,FALSE,1.81182137084976
"CAN","cpi",0.3,1985,3,1984,NA,1.5,2.972315185234,4.04713750890667,3.86444262005169,4.4666103475984,TRUE,1.07482232367266
"CAN","cpi",0.3,1986,3,1986,NA,0,3.95516231809759,4.05792893340922,4.08685396749431,4.1058885406559,FALSE,0.185409569840466
"CAN","cpi",0.3,1986,3,1986,NA,0.5,4.64367346236944,5.09704279326888,4.08685396749431,4.41001406158749,FALSE,2.0442821733998
"CAN","cpi",0.3,1986,3,1985,NA,1,2.8749003791855,3.76301663257352,4.08685396749431,3.99303879319441,FALSE,1.81336578173314
"CAN","cpi",0.3,1986,3,1985,NA,1.5,2.85781550057191,3.74593175395993,4.08685396749431,4.22326323880904,FALSE,1.86217972062911
"CAN","cpi",0.3,1987,3,1987,NA,0,4.20567039296352,4.3209286584237,4.23980729277887,4.35976718480882,TRUE,0.115258265460181
"CAN","cpi",0.3,1987,3,1987,NA,0.5,4.17184065536144,4.59085633420524,4.23980729277887,3.90936321394769,TRUE,0.419015678843795
"CAN","cpi",0.3,1987,3,1986,NA,1,3.09185213401173,4.04938956298658,4.23980729277887,4.33099659151455,FALSE,1.50158808552425
"CAN","cpi",0.3,1987,3,1986,NA,1.5,3.00060147350711,3.95813890248196,4.23980729277887,4.75247122036215,FALSE,1.7623042583946
"CAN","cpi",0.3,1988,3,1988,NA,0,3.87407554488365,3.97862449159466,3.92899537638065,4.01269560152408,TRUE,0.104548946711011
"CAN","cpi",0.3,1988,3,1988,NA,0.5,3.76331575022963,4.18743578832833,3.92899537638065,3.47075595914335,TRUE,0.4241200380987
"CAN","cpi",0.3,1988,3,1987,NA,1,3.09848377215902,4.40092993331966,3.92899537638065,4.58162438495066,TRUE,1.30244616116064
"CAN","cpi",0.3,1988,3,1987,NA,1.5,3.29828786726664,4.60073402842728,3.92899537638065,3.81364776332008,TRUE,1.30244616116064
"CAN","cpi",0.3,1989,3,1989,NA,0,4.87155158162929,4.96504914294913,4.82821664544208,5.02395320873108,FALSE,0.217311664711877
"CAN","cpi",0.3,1989,3,1989,NA,0.5,4.59886692793423,5.01266732951169,4.82821664544208,4.36789847845152,TRUE,0.413800401577458
"CAN","cpi",0.3,1989,3,1988,NA,1,3.5427846052703,4.2397954138431,4.82821664544208,4.46162561835953,FALSE,2.37821432742703
"CAN","cpi",0.3,1989,3,1988,NA,1.5,3.1278220039729,4.41601354841353,4.82821664544208,3.27838152614011,FALSE,2.46591467880791
"CAN","cpi",0.3,1990,3,1990,NA,0,4.37771301174839,4.47700354853859,4.64347549432717,4.51963128519567,FALSE,0.574924667614721
"CAN","cpi",0.3,1990,3,1990,NA,0.5,5.14501080933528,5.56963650197267,4.64347549432717,4.98434426998405,FALSE,1.8575837355177
"CAN","cpi",0.3,1990,3,1989,NA,1,4.55972110309554,5.34776649459819,4.64347549432717,5.9177493923911,TRUE,0.788045391502651
"CAN","cpi",0.3,1990,3,1989,NA,1.5,4.06803563021348,5.23359377761698,4.64347549432717,4.56185858388509,TRUE,1.1655581474035
"CAN","cpi",0.3,1991,3,1991,NA,0,5.44008189506882,5.57462566136951,5.4258100696218,5.62406762795447,FALSE,0.175320410435041
"CAN","cpi",0.3,1991,3,1991,NA,0.5,8.29109605241315,8.74567188297099,5.4258100696218,8.39172083833767,FALSE,8.64110720996172
"CAN","cpi",0.3,1991,3,1990,NA,1,3.68844218104732,4.14301801160516,5.4258100696218,3.86917616551897,FALSE,4.11969599631966
"CAN","cpi",0.3,1991,3,1990,NA,1.5,4.02593986589721,4.48051569645505,5.4258100696218,5.12288497855213,FALSE,3.15541689674856
"CAN","cpi",0.3,1992,3,1992,NA,0,1.61709083618311,1.32861306689487,1.47496888572843,1.48060592990191,FALSE,0.535744428678163
"CAN","cpi",0.3,1992,3,1992,NA,0.5,1.95827709748778,1.66979932819954,1.47496888572843,1.17198715241532,FALSE,1.09240283573848
"CAN","cpi",0.3,1992,3,1991,NA,1,3.75337948424032,3.46490171495207,1.47496888572843,2.52024528073196,FALSE,6.22126679788857
"CAN","cpi",0.3,1992,3,1991,NA,1.5,4.64571627603002,4.35723850674178,1.47496888572843,10.1533377092026,FALSE,8.77080048871629
"CAN","cpi",0.3,1993,3,1993,NA,0,1.67363430182611,1.74379651543149,1.84351085411351,1.80262144325658,FALSE,0.35506032412544
"CAN","cpi",0.3,1993,3,1993,NA,0.5,2.7751491991219,3.0295907042889,1.84351085411351,2.34241315558581,FALSE,2.91626534804812
"CAN","cpi",0.3,1993,3,1992,NA,1,1.18194190118183,1.86457439906987,1.84351085411351,1.81805946412584,TRUE,0.68263249788804
"CAN","cpi",0.3,1993,3,1992,NA,1.5,1.30303875139798,1.98567124928602,1.84351085411351,1.14026360102641,TRUE,0.68263249788804
"CAN","cpi",0.3,1994,3,1994,NA,0,0.0993030903977526,0.173391400271872,0.161630694655448,0.163616628358327,TRUE,0.0740883098741194
"CAN","cpi",0.3,1994,3,1994,NA,0.5,0.250165061560237,0.486678722161865,0.161630694655448,-0.385140098029379,FALSE,0.489468994615313
"CAN","cpi",0.3,1994,3,1993,NA,1,1.16697797945545,1.55923752302769,0.161630694655448,1.37474728133383,FALSE,3.26468035728653
"CAN","cpi",0.3,1994,3,1993,NA,1.5,1.50612730438477,1.89838684795701,0.161630694655448,2.59685615311524,FALSE,4.23367842851316
"CAN","cpi",0.3,1995,3,1995,NA,0,2.04352768894973,2.13733601262303,2.11688403676572,2.19356448193293,TRUE,0.0938083236732989
"CAN","cpi",0.3,1995,3,1995,NA,0.5,3.1165638548545,3.31569939519098,2.11688403676572,2.67750903542847,FALSE,3.05536359201873
"CAN","cpi",0.3,1995,3,1994,NA,1,0.719211652648712,1.09699064402602,2.11688403676572,1.34092618105198,FALSE,3.29176011349071
"CAN","cpi",0.3,1995,3,1994,NA,1.5,1.01451994564084,1.39229893701815,2.11688403676572,-1.3139842175605,FALSE,2.4480221335132
"CAN","cpi",0.3,1996,3,1996,NA,0,1.4030564642555,1.46284075308407,1.55309584667184,1.48206512402721,FALSE,0.317655984793646
"CAN","cpi",0.3,1996,3,1996,NA,0.5,1.6556678269485,2.00296696552395,1.55309584667184,1.23598680875262,FALSE,0.640361939365907
"CAN","cpi",0.3,1996,3,1995,NA,1,1.02919091553177,1.78686551696567,1.55309584667184,1.32983461361347,TRUE,0.757674601433907
"CAN","cpi",0.3,1996,3,1995,NA,1.5,0.8798484427231,1.63752304415701,1.55309584667184,3.42580605950136,TRUE,0.757674601433907
"CAN","cpi",0.3,1997,3,1997,NA,0,1.59122647611518,1.66055418603898,1.60528783555959,1.69050032419864,TRUE,0.0693277099237921
"CAN","cpi",0.3,1997,3,1997,NA,0.5,2.48440349127187,2.81805152892504,1.60528783555959,2.11979188984917,FALSE,2.84540705397396
"CAN","cpi",0.3,1997,3,1996,NA,1,0.83053593460219,1.54617784437292,1.60528783555959,1.19524084873691,FALSE,0.884527598875513
"CAN","cpi",0.3,1997,3,1996,NA,1.5,1.30415611406585,2.01979802383658,1.60528783555959,1.35560903862103,TRUE,0.715641909770728
"CAN","cpi",0.3,1998,3,1998,NA,0,0.915679555802342,0.962058425623906,0.988908029337191,0.980088020931525,FALSE,0.123092023288092
"CAN","cpi",0.3,1998,3,1998,NA,0.5,1.6251911725764,2.06214994798768,0.988908029337191,1.31078347146242,FALSE,2.2549106132376
"CAN","cpi",0.3,1998,3,1997,NA,1,0.867311826187454,1.38250686214729,0.988908029337191,1.06570792570078,TRUE,0.51519503595984
"CAN","cpi",0.3,1998,3,1997,NA,1.5,1.15048749718073,1.66568253314057,0.988908029337191,2.25360669266494,FALSE,0.976850658369956
"CAN","cpi",0.3,1999,3,1999,NA,0,1.70808784820134,1.78544854393214,1.7107350135213,1.81711295343144,TRUE,0.0773606957307988
"CAN","cpi",0.3,1999,3,1999,NA,0.5,1.16754592532741,1.53841832534619,1.7107350135213,0.788387565724544,FALSE,0.863205794804792
"CAN","cpi",0.3,1999,3,1998,NA,1,0.623578490902623,0.994450890921399,1.7107350135213,0.575366492854125,FALSE,2.41739846458991
"CAN","cpi",0.3,1999,3,1998,NA,1.5,0.570652602593167,0.941525002611943,1.7107350135213,1.68716976710558,FALSE,2.56861528833121
"CAN","cpi",0.3,2000,3,2000,NA,0,2.60236481769368,2.6908026171846,2.6718361971244,2.72999398726497,TRUE,0.0884377994909205
"CAN","cpi",0.3,2000,3,2000,NA,0.5,2.32479281433573,2.77290787184534,2.6718361971244,2.06798867425529,TRUE,0.448115057509615
"CAN","cpi",0.3,2000,3,1999,NA,1,2.02933117145471,2.715875784126,2.6718361971244,3.09152396062306,TRUE,0.686544612671288
"CAN","cpi",0.3,2000,3,1999,NA,1.5,1.79007345012913,2.47661806280042,2.6718361971244,0.842861855264031,FALSE,1.24431071073979
"CAN","cpi",0.3,2001,3,2001,NA,0,2.73173261186121,2.79632854039468,2.47906219852806,2.84208465688611,FALSE,0.786511395199608
"CAN","cpi",0.3,2001,3,2001,NA,0.5,2.17491953416405,2.62327749272013,2.47906219852806,1.88638468602912,TRUE,0.448357958556089
"CAN","cpi",0.3,2001,3,2000,NA,1,2.61776393496607,3.3600974813025,2.47906219852806,3.69789354026514,FALSE,1.13862422187358
"CAN","cpi",0.3,2001,3,2000,NA,1.5,2.33508644799421,3.50393024650998,2.47906219852806,1.8681620253813,TRUE,1.16884379851577
"CAN","cpi",0.3,2002,3,2002,NA,0,2.27818075457017,2.33710893413273,2.20880570551249,2.37599565696257,FALSE,0.257142605441657
"CAN","cpi",0.3,2002,3,2002,NA,0.5,1.35022525757446,1.70893156764454,2.20880570551249,0.913576617687781,FALSE,1.78691813254993
"CAN","cpi",0.3,2002,3,2001,NA,1,1.54751856144857,2.36903943783814,2.20880570551249,1.93734082085477,TRUE,0.821520876389571
"CAN","cpi",0.3,2002,3,2001,NA,1.5,2.5019844085162,3.63787821852043,2.20880570551249,1.22267801456389,FALSE,1.97354724715769
"CAN","cpi",0.3,2003,3,2003,NA,0,2.6155335698636,2.6819599755474,2.71189071546809,2.73251886371656,FALSE,0.151942805457204
"CAN","cpi",0.3,2003,3,2003,NA,0.5,4.50344634586974,4.88764125202561,2.71189071546809,4.31675684669419,FALSE,5.50292527873201
"CAN","cpi",0.3,2003,3,2002,NA,1,2.9358574677759,3.66410774684178,2.71189071546809,4.61862409576541,FALSE,1.36815528565962
"CAN","cpi",0.3,2003,3,2002,NA,1.5,2.07891493870323,2.92091769775313,2.71189071546809,1.3655866266696,TRUE,0.842002759049892
"CAN","cpi",0.3,2004,3,2004,NA,0,1.75754949515215,1.8061232066412,1.83151661303942,1.82990600335775,FALSE,0.121126301198252
"CAN","cpi",0.3,2004,3,2004,NA,0.5,1.74911656222254,2.19228325088314,1.83151661303942,1.43982618755963,TRUE,0.443166688660599
"CAN","cpi",0.3,2004,3,2003,NA,1,1.37849777185728,1.82166446051788,1.83151661303942,1.02946817322814,FALSE,0.471315695865004
"CAN","cpi",0.3,2004,3,2003,NA,1.5,1.4432426648509,1.8864093535115,1.83151661303942,4.64649519124043,TRUE,0.443166688660599
"CAN","cpi",0.3,2005,3,2005,NA,0,2.27244732938228,2.35326646743487,2.18071628336509,2.38454318695835,FALSE,0.342907840958835
"CAN","cpi",0.3,2005,3,2005,NA,0.5,1.99866355064179,2.33664174491812,2.18071628336509,1.60616687455658,TRUE,0.33797819427633
"CAN","cpi",0.3,2005,3,2004,NA,1,1.52853403192457,1.94191678505502,2.18071628336509,1.65181790765431,FALSE,1.09566703401636
"CAN","cpi",0.3,2005,3,2004,NA,1.5,1.71150197463113,2.12488472776158,2.18071628336509,1.76259299547523,FALSE,0.572901483426195
