isdrw/probabilistic-benchmark-forecasts/data/processed/point predictions/archive/rolling window/point_predictions_arima1_1_0.csv
"country","forecast_year","forecast_quarter","target_year","target_quarter","horizon","target","prediction","truth_value"
"CAN",1957,1,1957,2,0,"tv_cpi",0.316666484065763,0.909128943201409
"CAN",1957,1,1957,3,0.25,"tv_cpi",0.305421811919652,1.12484646221676
"CAN",1957,1,1957,4,0.5,"tv_cpi",0.306856181257141,0.446402637773557
"CAN",1957,1,1958,1,0.75,"tv_cpi",0.3066732132373,0.444502928237078
"CAN",1957,1,1958,2,1,"tv_cpi",0.306696552620965,0.442452021284723
"CAN",1957,1,1958,3,1.25,"tv_cpi",0.306693575451346,0.440503003675596
"CAN",1957,1,1958,4,1.5,"tv_cpi",0.306693955218827,0.875309836767935
"CAN",1957,2,1957,3,0,"tv_cpi",0.87299981807624,1.12484646221676
"CAN",1957,2,1957,4,0.25,"tv_cpi",0.874917663776606,0.446402637773557
"CAN",1957,2,1958,1,0.5,"tv_cpi",0.874815858595393,0.444502928237078
"CAN",1957,2,1958,2,0.75,"tv_cpi",0.874821262729271,0.442452021284723
"CAN",1957,2,1958,3,1,"tv_cpi",0.874820975861131,0.440503003675596
"CAN",1957,2,1958,4,1.25,"tv_cpi",0.874820991088979,0.875309836767935
"CAN",1957,2,1959,1,1.5,"tv_cpi",0.874820990280638,-0.218130951759887
"CAN",1957,3,1957,4,0,"tv_cpi",1.10539876644201,0.446402637773557
"CAN",1957,3,1958,1,0.25,"tv_cpi",1.1071520448622,0.444502928237078
"CAN",1957,3,1958,2,0.5,"tv_cpi",1.10699398062393,0.442452021284723
"CAN",1957,3,1958,3,0.75,"tv_cpi",1.10700823067294,0.440503003675596
"CAN",1957,3,1958,4,1,"tv_cpi",1.10700694598073,0.875309836767935
"CAN",1957,3,1959,1,1.25,"tv_cpi",1.10700706180026,-0.218130951759887
"CAN",1957,3,1959,2,1.5,"tv_cpi",1.10700705135872,-0.437611279785477
"CAN",1957,4,1958,1,0,"tv_cpi",0.469170775058648,0.444502928237078
"CAN",1957,4,1958,2,0.25,"tv_cpi",0.468406691052344,0.442452021284723
"CAN",1957,4,1958,3,0.5,"tv_cpi",0.468432333218911,0.440503003675596
"CAN",1957,4,1958,4,0.75,"tv_cpi",0.468431472684335,0.875309836767935
"CAN",1957,4,1959,1,1,"tv_cpi",0.468431501563321,-0.218130951759887
"CAN",1957,4,1959,2,1.25,"tv_cpi",0.468431500594161,-0.437611279785477
"CAN",1957,4,1959,3,1.5,"tv_cpi",0.468431500626685,1.09049950588749
"CAN",1958,1,1958,2,0,"tv_cpi",0.444549969461967,0.442452021284723
"CAN",1958,1,1958,3,0.25,"tv_cpi",0.444548804611869,0.440503003675596
"CAN",1958,1,1958,4,0.5,"tv_cpi",0.444548833456266,0.875309836767935
"CAN",1958,1,1959,1,0.75,"tv_cpi",0.444548832742012,-0.218130951759887
"CAN",1958,1,1959,2,1,"tv_cpi",0.444548832759698,-0.437611279785477
"CAN",1958,1,1959,3,1.25,"tv_cpi",0.44454883275926,1.09049950588749
"CAN",1958,1,1959,4,1.5,"tv_cpi",0.444548832759271,0.863966547929484
"CAN",1958,2,1958,3,0,"tv_cpi",0.442496145198826,0.440503003675596
"CAN",1958,2,1958,4,0.25,"tv_cpi",0.442495195901837,0.875309836767935
"CAN",1958,2,1959,1,0.5,"tv_cpi",0.442495216325337,-0.218130951759887
"CAN",1958,2,1959,2,0.75,"tv_cpi",0.442495215885939,-0.437611279785477
"CAN",1958,2,1959,3,1,"tv_cpi",0.442495215895392,1.09049950588749
"CAN",1958,2,1959,4,1.25,"tv_cpi",0.442495215895189,0.863966547929484
"CAN",1958,2,1960,1,1.5,"tv_cpi",0.442495215895193,-0.215313317344057
"CAN",1958,3,1958,4,0,"tv_cpi",0.440405408959874,0.875309836767935
"CAN",1958,3,1959,1,0.25,"tv_cpi",0.44040052202171,-0.218130951759887
"CAN",1958,3,1959,2,0.5,"tv_cpi",0.440400277314151,-0.437611279785477
"CAN",1958,3,1959,3,0.75,"tv_cpi",0.440400265060714,1.09049950588749
"CAN",1958,3,1959,4,1,"tv_cpi",0.440400264447138,0.863966547929484
"CAN",1958,3,1960,1,1.25,"tv_cpi",0.440400264416414,-0.215313317344057
"CAN",1958,3,1960,2,1.5,"tv_cpi",0.440400264414876,0.215313317344057
"CAN",1958,4,1959,1,0,"tv_cpi",0.879364569291497,-0.218130951759887
"CAN",1958,4,1959,2,0.25,"tv_cpi",0.879402381153193,-0.437611279785477
"CAN",1958,4,1959,3,0.5,"tv_cpi",0.879402733762614,1.09049950588749
"CAN",1958,4,1959,4,0.75,"tv_cpi",0.879402737050826,0.863966547929484
"CAN",1958,4,1960,1,1,"tv_cpi",0.879402737081489,-0.215313317344057
"CAN",1958,4,1960,2,1.25,"tv_cpi",0.879402737081775,0.215313317344057
"CAN",1958,4,1960,3,1.5,"tv_cpi",0.879402737081778,0
"CAN",1959,1,1959,2,0,"tv_cpi",-0.210276322381079,-0.437611279785477
"CAN",1959,1,1959,3,0.25,"tv_cpi",-0.210332745374739,1.09049950588749
"CAN",1959,1,1959,4,0.5,"tv_cpi",-0.210332340065454,0.863966547929484
"CAN",1959,1,1960,1,0.75,"tv_cpi",-0.210332342976956,-0.215313317344057
"CAN",1959,1,1960,2,1,"tv_cpi",-0.210332342956041,0.215313317344057
"CAN",1959,1,1960,3,1.25,"tv_cpi",-0.210332342956191,0
"CAN",1959,1,1960,4,1.5,"tv_cpi",-0.21033234295619,1.28207300371712
"CAN",1959,2,1959,3,0,"tv_cpi",-0.437120527068998,1.09049950588749
"CAN",1959,2,1959,4,0.25,"tv_cpi",-0.437121624380228,0.863966547929484
"CAN",1959,2,1960,1,0.5,"tv_cpi",-0.437121621926666,-0.215313317344057
"CAN",1959,2,1960,2,0.75,"tv_cpi",-0.437121621932152,0.215313317344057
"CAN",1959,2,1960,3,1,"tv_cpi",-0.43712162193214,0
"CAN",1959,2,1960,4,1.25,"tv_cpi",-0.43712162193214,1.28207300371712
"CAN",1959,2,1961,1,1.5,"tv_cpi",-0.43712162193214,0
"CAN",1959,3,1959,4,0,"tv_cpi",0.990652602351216,0.863966547929484
"CAN",1959,3,1960,1,0.25,"tv_cpi",0.997176608489548,-0.215313317344057
"CAN",1959,3,1960,2,0.5,"tv_cpi",0.996750329310269,0.215313317344057
"CAN",1959,3,1960,3,0.75,"tv_cpi",0.996778182432237,0
"CAN",1959,3,1960,4,1,"tv_cpi",0.996776362506608,1.28207300371712
"CAN",1959,3,1961,1,1.25,"tv_cpi",0.996776481420721,0
"CAN",1959,3,1961,2,1.5,"tv_cpi",0.996776473650862,0
"CAN",1959,4,1960,1,0,"tv_cpi",0.880110901364394,-0.215313317344057
"CAN",1959,4,1960,2,0.25,"tv_cpi",0.878960339652841,0.215313317344057
"CAN",1959,4,1960,3,0.5,"tv_cpi",0.87904233688224,0
"CAN",1959,4,1960,4,0.75,"tv_cpi",0.879036493175152,1.28207300371712
"CAN",1959,4,1961,1,1,"tv_cpi",0.879036909639376,0
"CAN",1959,4,1961,2,1.25,"tv_cpi",0.879036879959166,0
"CAN",1959,4,1961,3,1.5,"tv_cpi",0.87903688207439,0
"CAN",1960,1,1960,2,0,"tv_cpi",-0.145889270077796,0.215313317344057
"CAN",1960,1,1960,3,0.25,"tv_cpi",-0.150354931389477,0
"CAN",1960,1,1960,4,0.5,"tv_cpi",-0.150067680332589,1.28207300371712
"CAN",1960,1,1961,1,0.75,"tv_cpi",-0.150086157589131,0
"CAN",1960,1,1961,2,1,"tv_cpi",-0.150084969050391,0
"CAN",1960,1,1961,3,1.25,"tv_cpi",-0.150085045502451,0
"CAN",1960,1,1961,4,1.5,"tv_cpi",-0.150085040584717,0
"CAN",1960,2,1960,3,0,"tv_cpi",0.180744532457116,0
"CAN",1960,2,1960,4,0.25,"tv_cpi",0.18351956027077,1.28207300371712
"CAN",1960,2,1961,1,0.5,"tv_cpi",0.183296793419354,0
"CAN",1960,2,1961,2,0.75,"tv_cpi",0.183314676148257,0
"CAN",1960,2,1961,3,1,"tv_cpi",0.183313240602568,0
"CAN",1960,2,1961,4,1.25,"tv_cpi",0.183313355841771,0
"CAN",1960,2,1962,1,1.5,"tv_cpi",0.183313346590882,0
"CAN",1960,3,1960,4,0,"tv_cpi",0.0163533357550751,1.28207300371712
"CAN",1960,3,1961,1,0.25,"tv_cpi",0.0151112779315412,0
"CAN",1960,3,1961,2,0.5,"tv_cpi",0.0152056138921126,0
"CAN",1960,3,1961,3,0.75,"tv_cpi",0.015198448949154,0
"CAN",1960,3,1961,4,1,"tv_cpi",0.0151989931361988,0
"CAN",1960,3,1962,1,1.25,"tv_cpi",0.0151989518044615,0
"CAN",1960,3,1962,2,1.5,"tv_cpi",0.0151989549436625,0.845700362908408
"CAN",1960,4,1961,1,0,"tv_cpi",1.24527606642769,0
"CAN",1960,4,1961,2,0.25,"tv_cpi",1.24633217991729,0
"CAN",1960,4,1961,3,0.5,"tv_cpi",1.24630186827222,0
"CAN",1960,4,1961,4,0.75,"tv_cpi",1.24630273825053,0
"CAN",1960,4,1962,1,1,"tv_cpi",1.24630271328117,0
"CAN",1960,4,1962,2,1.25,"tv_cpi",1.24630271399782,0.845700362908408
"CAN",1960,4,1962,3,1.5,"tv_cpi",1.24630271397725,0.629594685231627
"CAN",1961,1,1961,2,0,"tv_cpi",0.163855300497374,0
"CAN",1961,1,1961,3,0.25,"tv_cpi",0.142913778896621,0
"CAN",1961,1,1961,4,0.5,"tv_cpi",0.145590209415644,0
"CAN",1961,1,1962,1,0.75,"tv_cpi",0.145248148296126,0
"CAN",1961,1,1962,2,1,"tv_cpi",0.145291865406902,0.845700362908408
"CAN",1961,1,1962,3,1.25,"tv_cpi",0.145286278142915,0.629594685231627
"CAN",1961,1,1962,4,1.5,"tv_cpi",0.145286992223016,0.417511986589947
"CAN",1961,2,1961,3,0,"tv_cpi",3.88889064558926e-23,0
"CAN",1961,2,1961,4,0.25,"tv_cpi",3.88889064558926e-23,0
"CAN",1961,2,1962,1,0.5,"tv_cpi",3.88889064558926e-23,0
"CAN",1961,2,1962,2,0.75,"tv_cpi",3.88889064558926e-23,0.845700362908408
"CAN",1961,2,1962,3,1,"tv_cpi",3.88889064558926e-23,0.629594685231627
"CAN",1961,2,1962,4,1.25,"tv_cpi",3.88889064558926e-23,0.417511986589947
"CAN",1961,2,1963,1,1.5,"tv_cpi",3.88889064558926e-23,0
"CAN",1961,3,1961,4,0,"tv_cpi",1.53056693862912e-19,0
"CAN",1961,3,1962,1,0.25,"tv_cpi",1.30226119254405e-19,0
"CAN",1961,3,1962,2,0.5,"tv_cpi",1.33631622952411e-19,0.845700362908408
"CAN",1961,3,1962,3,0.75,"tv_cpi",1.33123643821968e-19,0.629594685231627
"CAN",1961,3,1962,4,1,"tv_cpi",1.33199416107024e-19,0.417511986589947
"CAN",1961,3,1963,1,1.25,"tv_cpi",1.33188113597062e-19,0
"CAN",1961,3,1963,2,1.5,"tv_cpi",1.33189799526572e-19,0
"CAN",1961,4,1962,1,0,"tv_cpi",9.80686869565688e-45,0
"CAN",1961,4,1962,2,0.25,"tv_cpi",9.80686869565688e-45,0.845700362908408
"CAN",1961,4,1962,3,0.5,"tv_cpi",9.80686869565688e-45,0.629594685231627
"CAN",1961,4,1962,4,0.75,"tv_cpi",9.80686869565688e-45,0.417511986589947
"CAN",1961,4,1963,1,1,"tv_cpi",9.80686869565688e-45,0
"CAN",1961,4,1963,2,1.25,"tv_cpi",9.80686869565688e-45,0
"CAN",1961,4,1963,3,1.5,"tv_cpi",9.80686869565688e-45,1.44783245519062
"CAN",1962,1,1962,2,0,"tv_cpi",7.25598245248956e-47,0.845700362908408
"CAN",1962,1,1962,3,0.25,"tv_cpi",6.4524550474849e-47,0.629594685231627
"CAN",1962,1,1962,4,0.5,"tv_cpi",6.54143766215095e-47,0.417511986589947
"CAN",1962,1,1963,1,0.75,"tv_cpi",6.53158372852841e-47,0
"CAN",1962,1,1963,2,1,"tv_cpi",6.53267495301312e-47,0
"CAN",1962,1,1963,3,1.25,"tv_cpi",6.53255411082749e-47,1.44783245519062
"CAN",1962,1,1963,4,1.5,"tv_cpi",6.5325674928896e-47,0.205076991295838
"CAN",1962,2,1962,3,0,"tv_cpi",0.74109018716426,0.629594685231627
"CAN",1962,2,1962,4,0.25,"tv_cpi",0.754030099867604,0.417511986589947
"CAN",1962,2,1963,1,0.5,"tv_cpi",0.752429477943598,0
"CAN",1962,2,1963,2,0.75,"tv_cpi",0.752627469274942,0
"CAN",1962,2,1963,3,1,"tv_cpi",0.752602978440037,1.44783245519062
"CAN",1962,2,1963,4,1.25,"tv_cpi",0.75260600787062,0.205076991295838
"CAN",1962,2,1964,1,1.5,"tv_cpi",0.752605633140657,0.204734934426165
"CAN",1962,3,1962,4,0,"tv_cpi",0.663523741742592,0.417511986589947
"CAN",1962,3,1963,1,0.25,"tv_cpi",0.658196806846203,0
"CAN",1962,3,1963,2,0.5,"tv_cpi",0.659033147089887,0
"CAN",1962,3,1963,3,0.75,"tv_cpi",0.658901839871607,1.44783245519062
"CAN",1962,3,1963,4,1,"tv_cpi",0.658922455387484,0.205076991295838
"CAN",1962,3,1964,1,1.25,"tv_cpi",0.658919218707121,0.204734934426165
"CAN",1962,3,1964,2,1.5,"tv_cpi",0.658919726872905,0.611624595603377
"CAN",1962,4,1963,1,0,"tv_cpi",0.472920022965752,0
"CAN",1962,4,1963,2,0.25,"tv_cpi",0.458444299511245,0
"CAN",1962,4,1963,3,0.5,"tv_cpi",0.462226179961043,1.44783245519062
"CAN",1962,4,1963,4,0.75,"tv_cpi",0.461238138169453,0.205076991295838
"CAN",1962,4,1964,1,1,"tv_cpi",0.461496270755844,0.204734934426165
"CAN",1962,4,1964,2,1.25,"tv_cpi",0.461428831875501,0.611624595603377
"CAN",1962,4,1964,3,1.5,"tv_cpi",0.461446450738139,0.607906478542075
"CAN",1963,1,1963,2,0,"tv_cpi",0.0886033170159255,0
"CAN",1963,1,1963,3,0.25,"tv_cpi",0.0698001495898969,1.44783245519062
"CAN",1963,1,1963,4,0.5,"tv_cpi",0.0737905092870142,0.205076991295838
"CAN",1963,1,1964,1,0.75,"tv_cpi",0.0729436854433709,0.204734934426165
"CAN",1963,1,1964,2,1,"tv_cpi",0.0731233962154802,0.611624595603377
"CAN",1963,1,1964,3,1.25,"tv_cpi",0.0730852584589036,0.607906478542075
"CAN",1963,1,1964,4,1.5,"tv_cpi",0.0730933519552457,0.20176599927848
"CAN",1963,2,1963,3,0,"tv_cpi",1.0289388590159e-17,1.44783245519062
"CAN",1963,2,1963,4,0.25,"tv_cpi",7.58933112435498e-18,0.205076991295838
"CAN",1963,2,1964,1,0.5,"tv_cpi",8.18481416057693e-18,0.204734934426165
"CAN",1963,2,1964,2,0.75,"tv_cpi",8.05348360523909e-18,0.611624595603377
"CAN",1963,2,1964,3,1,"tv_cpi",8.08244784723458e-18,0.607906478542075
"CAN",1963,2,1964,4,1.25,"tv_cpi",8.07605994068675e-18,0.20176599927848
"CAN",1963,2,1965,1,1.5,"tv_cpi",8.07746875884502e-18,0.402467294680608
"CAN",1963,3,1963,4,0,"tv_cpi",1.13265522828254,0.205076991295838
"CAN",1963,3,1964,1,0.25,"tv_cpi",1.20126584963264,0.204734934426165
"CAN",1963,3,1964,2,0.5,"tv_cpi",1.18633007077505,0.611624595603377
"CAN",1963,3,1964,3,0.75,"tv_cpi",1.18958142582319,0.607906478542075
"CAN",1963,3,1964,4,1,"tv_cpi",1.18887364153221,0.20176599927848
"CAN",1963,3,1965,1,1.25,"tv_cpi",1.1890277184002,0.402467294680608
"CAN",1963,3,1965,2,1.5,"tv_cpi",1.18899417755795,0.998987176760613
"CAN",1963,4,1964,1,0,"tv_cpi",0.540387657514594,0.204734934426165
"CAN",1963,4,1964,2,0.25,"tv_cpi",0.449916727274061,0.611624595603377
"CAN",1963,4,1964,3,0.5,"tv_cpi",0.474326893854469,0.607906478542075
"CAN",1963,4,1964,4,0.75,"tv_cpi",0.467740731526978,0.20176599927848
"CAN",1963,4,1965,1,1,"tv_cpi",0.469517758900436,0.402467294680608
"CAN",1963,4,1965,2,1.25,"tv_cpi",0.469038295120317,0.998987176760613
"CAN",1963,4,1965,3,1.5,"tv_cpi",0.469167660328687,0.792110893736009
"CAN",1964,1,1964,2,0,"tv_cpi",0.20483179996114,0.611624595603377
"CAN",1964,1,1964,3,0.25,"tv_cpi",0.204804369049213,0.607906478542075
"CAN",1964,1,1964,4,0.5,"tv_cpi",0.204812137084865,0.20176599927848
"CAN",1964,1,1965,1,0.75,"tv_cpi",0.204809937290048,0.402467294680608
"CAN",1964,1,1965,2,1,"tv_cpi",0.204810560239974,0.998987176760613
"CAN",1964,1,1965,3,1.25,"tv_cpi",0.204810383829607,0.792110893736009
"CAN",1964,1,1965,4,1.5,"tv_cpi",0.20481043378646,0.589973974871771
"CAN",1964,2,1964,3,0,"tv_cpi",0.502631613804661,0.607906478542075
"CAN",1964,2,1964,4,0.25,"tv_cpi",0.531827416045017,0.20176599927848
"CAN",1964,2,1965,1,0.5,"tv_cpi",0.524006776088289,0.402467294680608
"CAN",1964,2,1965,2,0.75,"tv_cpi",0.52610168030874,0.998987176760613
"CAN",1964,2,1965,3,1,"tv_cpi",0.52554052115589,0.792110893736009
"CAN",1964,2,1965,4,1.25,"tv_cpi",0.525690838097234,0.589973974871771
"CAN",1964,2,1966,1,1.5,"tv_cpi",0.525650572901985,1.16960743915446
"CAN",1964,3,1964,4,0,"tv_cpi",0.60900226804527,0.20176599927848
"CAN",1964,3,1965,1,0.25,"tv_cpi",0.608679321076276,0.402467294680608
"CAN",1964,3,1965,2,0.5,"tv_cpi",0.608774498794696,0.998987176760613
"CAN",1964,3,1965,3,0.75,"tv_cpi",0.608746448374803,0.792110893736009
"CAN",1964,3,1965,4,1,"tv_cpi",0.608754715289258,0.589973974871771
"CAN",1964,3,1966,1,1.25,"tv_cpi",0.608752278895262,1.16960743915446
"CAN",1964,3,1966,2,1.5,"tv_cpi",0.608752996940155,1.34742539763972
"CAN",1964,4,1965,1,0,"tv_cpi",0.316975888498864,0.402467294680608
"CAN",1964,4,1965,2,0.25,"tv_cpi",0.28429429370132,0.998987176760613
"CAN",1964,4,1965,3,0.5,"tv_cpi",0.293565083264078,0.792110893736009
"CAN",1964,4,1965,4,0.75,"tv_cpi",0.29093523794443,0.589973974871771
"CAN",1964,4,1966,1,1,"tv_cpi",0.291681246292312,1.16960743915446
"CAN",1964,4,1966,2,1.25,"tv_cpi",0.29146962606851,1.34742539763972
"CAN",1964,4,1966,3,1.5,"tv_cpi",0.29152965638754,0.761935035640349
"CAN",1965,1,1965,2,0,"tv_cpi",0.33900599745257,0.998987176760613
"CAN",1965,1,1965,3,0.25,"tv_cpi",0.359072316595135,0.792110893736009
"CAN",1965,1,1965,4,0.5,"tv_cpi",0.352727391711479,0.589973974871771
"CAN",1965,1,1966,1,0.75,"tv_cpi",0.354733642658313,1.16960743915446
"CAN",1965,1,1966,2,1,"tv_cpi",0.354099270630987,1.34742539763972
"CAN",1965,1,1966,3,1.25,"tv_cpi",0.354299857636161,0.761935035640349
"CAN",1965,1,1966,4,1.5,"tv_cpi",0.354236432477246,0.378765586440188
"CAN",1965,2,1965,3,0,"tv_cpi",0.8377356628081,0.792110893736009
"CAN",1965,2,1965,4,0.25,"tv_cpi",0.881325242188608,0.589973974871771
"CAN",1965,2,1966,1,0.5,"tv_cpi",0.869542088133204,1.16960743915446
"CAN",1965,2,1966,2,0.75,"tv_cpi",0.872727315461997,1.34742539763972
"CAN",1965,2,1966,3,1,"tv_cpi",0.871866283425211,0.761935035640349
"CAN",1965,2,1966,4,1.25,"tv_cpi",0.872099037979861,0.378765586440188
"CAN",1965,2,1967,1,1.5,"tv_cpi",0.872036119667422,0.56550763720149
"CAN",1965,3,1965,4,0,"tv_cpi",0.85333519310298,0.589973974871771
"CAN",1965,3,1966,1,0.25,"tv_cpi",0.835216079697744,1.16960743915446
"CAN",1965,3,1966,2,0.5,"tv_cpi",0.840578366795943,1.34742539763972
"CAN",1965,3,1966,3,0.75,"tv_cpi",0.838991417021943,0.761935035640349
"CAN",1965,3,1966,4,1,"tv_cpi",0.839461069157138,0.378765586440188
"CAN",1965,3,1967,1,1.25,"tv_cpi",0.839322077279949,0.56550763720149
"CAN",1965,3,1967,2,1.5,"tv_cpi",0.839363211431115,1.4925465177654
"CAN",1965,4,1966,1,0,"tv_cpi",0.647761685441433,1.16960743915446
"CAN",1965,4,1966,2,0.25,"tv_cpi",0.631241103690972,1.34742539763972
"CAN",1965,4,1966,3,0.5,"tv_cpi",0.635964073656094,0.761935035640349
"CAN",1965,4,1966,4,0.75,"tv_cpi",0.634613852118597,0.378765586440188
"CAN",1965,4,1967,1,1,"tv_cpi",0.634999858850332,0.56550763720149
"CAN",1965,4,1967,2,1.25,"tv_cpi",0.634889505702492,1.4925465177654
"CAN",1965,4,1967,3,1.5,"tv_cpi",0.634921053901622,1.4706660636532
"CAN",1966,1,1966,2,0,"tv_cpi",0.997449322224909,1.34742539763972
"CAN",1966,1,1966,3,0.25,"tv_cpi",1.04858235551416,0.761935035640349
"CAN",1966,1,1966,4,0.5,"tv_cpi",1.03339522905163,0.378765586440188
"CAN",1966,1,1967,1,0.75,"tv_cpi",1.03790598844437,0.56550763720149
"CAN",1966,1,1967,2,1,"tv_cpi",1.03656623860102,1.4925465177654
"CAN",1966,1,1967,3,1.25,"tv_cpi",1.03696416043335,1.4706660636532
"CAN",1966,1,1967,4,1.5,"tv_cpi",1.03684597285868,0.364277207547525
"CAN",1966,2,1966,3,0,"tv_cpi",1.29571230181481,0.761935035640349
"CAN",1966,2,1966,4,0.25,"tv_cpi",1.31075152677598,0.378765586440188
"CAN",1966,2,1967,1,0.5,"tv_cpi",1.30637781284869,0.56550763720149
"CAN",1966,2,1967,2,0.75,"tv_cpi",1.30764977823036,1.4925465177654
"CAN",1966,2,1967,3,1,"tv_cpi",1.30727986470628,1.4706660636532
"CAN",1966,2,1967,4,1.25,"tv_cpi",1.30738744311782,0.364277207547525
"CAN",1966,2,1968,1,1.5,"tv_cpi",1.30735615711751,1.08500507905789
"CAN",1966,3,1966,4,0,"tv_cpi",0.93593760832745,0.378765586440188
"CAN",1966,3,1967,1,0.25,"tv_cpi",0.884225578092933,0.56550763720149
"CAN",1966,3,1967,2,0.5,"tv_cpi",0.899593937477965,1.4925465177654
"CAN",1966,3,1967,3,0.75,"tv_cpi",0.89502659658811,1.4706660636532
"CAN",1966,3,1967,4,1,"tv_cpi",0.896383970025411,0.364277207547525
"CAN",1966,3,1968,1,1.25,"tv_cpi",0.895980570609269,1.08500507905789
"CAN",1966,3,1968,2,1.5,"tv_cpi",0.896100457358539,0.538119600789955
"CAN",1966,4,1967,1,0,"tv_cpi",0.476691122472607,0.56550763720149
"CAN",1966,4,1967,2,0.25,"tv_cpi",0.451664569266829,1.4925465177654
"CAN",1966,4,1967,3,0.5,"tv_cpi",0.458060534923369,1.4706660636532
"CAN",1966,4,1967,4,0.75,"tv_cpi",0.456425936009836,0.364277207547525
"CAN",1966,4,1968,1,1,"tv_cpi",0.456843685846468,1.08500507905789
"CAN",1966,4,1968,2,1.25,"tv_cpi",0.456736922698297,0.538119600789955
"CAN",1966,4,1968,3,1.5,"tv_cpi",0.456764207855125,1.77305718058687
"CAN",1967,1,1967,2,0,"tv_cpi",0.49800653780682,1.4925465177654
"CAN",1967,1,1967,3,0.25,"tv_cpi",0.522405961508733,1.4706660636532
"CAN",1967,1,1967,4,0.5,"tv_cpi",0.513586373645362,0.364277207547525
"CAN",1967,1,1968,1,0.75,"tv_cpi",0.51677436410899,1.08500507905789
"CAN",1967,1,1968,2,1,"tv_cpi",0.515622010580273,0.538119600789955
"CAN",1967,1,1968,3,1.25,"tv_cpi",0.51603854841823,1.77305718058687
"CAN",1967,1,1968,4,1.5,"tv_cpi",0.515887983712065,0.874943419379193
"CAN",1967,2,1967,3,0,"tv_cpi",1.23441444344398,1.4706660636532
"CAN",1967,2,1967,4,0.25,"tv_cpi",1.30629078993869,0.364277207547525
"CAN",1967,2,1968,1,0.5,"tv_cpi",1.28627696872329,1.08500507905789
"CAN",1967,2,1968,2,0.75,"tv_cpi",1.2918497761791,0.538119600789955
"CAN",1967,2,1968,3,1,"tv_cpi",1.29029803937655,1.77305718058687
"CAN",1967,2,1968,4,1.25,"tv_cpi",1.29073011730558,0.874943419379193
"CAN",1967,2,1969,1,1.5,"tv_cpi",1.29060980609272,0.521288623874838
"CAN",1967,3,1967,4,0,"tv_cpi",1.47749465024277,0.364277207547525
"CAN",1967,3,1968,1,0.25,"tv_cpi",1.4753635429736,1.08500507905789
"CAN",1967,3,1968,2,0.5,"tv_cpi",1.47602863202726,0.538119600789955
"CAN",1967,3,1968,3,0.75,"tv_cpi",1.47582106694797,1.77305718058687
"CAN",1967,3,1968,4,1,"tv_cpi",1.47588584513354,0.874943419379193
"CAN",1967,3,1969,1,1.25,"tv_cpi",1.47586562875928,0.521288623874838
"CAN",1967,3,1969,2,1.5,"tv_cpi",1.47587193800961,2.0583979709349
"CAN",1967,4,1968,1,0,"tv_cpi",0.68583093090536,1.08500507905789
"CAN",1967,4,1968,2,0.25,"tv_cpi",0.59237663006467,0.538119600789955
"CAN",1967,4,1968,3,0.5,"tv_cpi",0.619537585485805,1.77305718058687
"CAN",1967,4,1968,4,0.75,"tv_cpi",0.611643700530778,0.874943419379193
"CAN",1967,4,1969,1,1,"tv_cpi",0.613937928355868,0.521288623874838
"CAN",1967,4,1969,2,1.25,"tv_cpi",0.61327114877352,2.0583979709349
"CAN",1967,4,1969,3,1.5,"tv_cpi",0.613464937292068,1.18140940266898
"CAN",1968,1,1968,2,0,"tv_cpi",0.851131840047101,0.538119600789955
"CAN",1968,1,1968,3,0.25,"tv_cpi",0.927022747125212,1.77305718058687
"CAN",1968,1,1968,4,0.5,"tv_cpi",0.902396458963731,0.874943419379193
"CAN",1968,1,1969,1,0.75,"tv_cpi",0.910387588493756,0.521288623874838
"CAN",1968,1,1969,2,1,"tv_cpi",0.907794499728332,2.0583979709349
"CAN",1968,1,1969,3,1.25,"tv_cpi",0.908635946399933,1.18140940266898
"CAN",1968,1,1969,4,1.5,"tv_cpi",0.908362900405292,0.502094806727849
"CAN",1968,2,1968,3,0,"tv_cpi",0.722520987348894,1.77305718058687
"CAN",1968,2,1968,4,0.25,"tv_cpi",0.660343671043926,0.874943419379193
"CAN",1968,2,1969,1,0.5,"tv_cpi",0.681308907450391,0.521288623874838
"CAN",1968,2,1969,2,0.75,"tv_cpi",0.674239751627983,2.0583979709349
"CAN",1968,2,1969,3,1,"tv_cpi",0.676623362433634,1.18140940266898
"CAN",1968,2,1969,4,1.25,"tv_cpi",0.675819645467203,0.502094806727849
"CAN",1968,2,1970,1,1.5,"tv_cpi",0.676090646488258,1.16186358612742
"CAN",1968,3,1968,4,0,"tv_cpi",1.31816659736074,0.874943419379193
"CAN",1968,3,1969,1,0.25,"tv_cpi",1.48572603201803,0.521288623874838
"CAN",1968,3,1969,2,0.5,"tv_cpi",1.42400533438663,2.0583979709349
"CAN",1968,3,1969,3,0.75,"tv_cpi",1.44674021961645,1.18140940266898
"CAN",1968,3,1969,4,1,"tv_cpi",1.4383658002361,0.502094806727849
"CAN",1968,3,1970,1,1.25,"tv_cpi",1.44145052660481,1.16186358612742
"CAN",1968,3,1970,2,1.5,"tv_cpi",1.44031426433543,0.493829707328164
"CAN",1968,4,1969,1,0,"tv_cpi",1.23042420726992,0.521288623874838
"CAN",1968,4,1969,2,0.25,"tv_cpi",1.0897219977976,2.0583979709349
"CAN",1968,4,1969,3,0.5,"tv_cpi",1.14541308554347,1.18140940266898
"CAN",1968,4,1969,4,0.75,"tv_cpi",1.12337009655311,0.502094806727849
"CAN",1968,4,1970,1,1,"tv_cpi",1.13209489226632,1.16186358612742
"CAN",1968,4,1970,2,1.25,"tv_cpi",1.12864154661204,0.493829707328164
"CAN",1968,4,1970,3,1.5,"tv_cpi",1.13000840912664,0.817647968865298
"CAN",1969,1,1969,2,0,"tv_cpi",0.650292308790044,2.0583979709349
"CAN",1969,1,1969,3,0.25,"tv_cpi",0.603235260693274,1.18140940266898
"CAN",1969,1,1969,4,0.5,"tv_cpi",0.62040039653445,0.502094806727849
"CAN",1969,1,1970,1,0.75,"tv_cpi",0.614139020176118,1.16186358612742
"CAN",1969,1,1970,2,1,"tv_cpi",0.616423000580551,0.493829707328164
"CAN",1969,1,1970,3,1.25,"tv_cpi",0.615589866427723,0.817647968865298
"CAN",1969,1,1970,4,1.5,"tv_cpi",0.615893771187703,-0.489798516943107
"CAN",1969,2,1969,3,0,"tv_cpi",1.45706496714945,1.18140940266898
"CAN",1969,2,1969,4,0.25,"tv_cpi",1.69231263000001,0.502094806727849
"CAN",1969,2,1970,1,0.5,"tv_cpi",1.60028132200881,1.16186358612742
"CAN",1969,2,1970,2,0.75,"tv_cpi",1.63628491731743,0.493829707328164
"CAN",1969,2,1970,3,1,"tv_cpi",1.62219994011303,0.817647968865298
"CAN",1969,2,1970,4,1.25,"tv_cpi",1.62771012822475,-0.489798516943107
"CAN",1969,2,1971,1,1.5,"tv_cpi",1.62555448589847,0.489798516943107
"CAN",1969,3,1969,4,0,"tv_cpi",1.54112411117337,0.502094806727849
"CAN",1969,3,1970,1,0.25,"tv_cpi",1.39357980307566,1.16186358612742
"CAN",1969,3,1970,2,0.5,"tv_cpi",1.45409810365487,0.493829707328164
"CAN",1969,3,1970,3,0.75,"tv_cpi",1.42927529108951,0.817647968865298
"CAN",1969,3,1970,4,1,"tv_cpi",1.43945687282194,-0.489798516943107
"CAN",1969,3,1971,1,1.25,"tv_cpi",1.43528068987324,0.489798516943107
"CAN",1969,3,1971,2,1.5,"tv_cpi",1.43699363629741,1.29450035286163
"CAN",1969,4,1970,1,0,"tv_cpi",0.761266618743089,1.16186358612742
"CAN",1969,4,1970,2,0.25,"tv_cpi",0.662387500666427,0.493829707328164
"CAN",1969,4,1970,3,0.5,"tv_cpi",0.700111819200896,0.817647968865298
"CAN",1969,4,1970,4,0.75,"tv_cpi",0.685719253444123,-0.489798516943107
"CAN",1969,4,1971,1,1,"tv_cpi",0.691210298931764,0.489798516943107
"CAN",1969,4,1971,2,1.25,"tv_cpi",0.689115357622696,1.29450035286163
"CAN",1969,4,1971,3,1.5,"tv_cpi",0.689914618728494,1.75307894124619
"CAN",1970,1,1970,2,0,"tv_cpi",0.883818561810102,0.493829707328164
"CAN",1970,1,1970,3,0.25,"tv_cpi",1.00099451490381,0.817647968865298
"CAN",1970,1,1970,4,0.5,"tv_cpi",0.951613289625169,-0.489798516943107
"CAN",1970,1,1971,1,0.75,"tv_cpi",0.97242391967031,0.489798516943107
"CAN",1970,1,1971,2,1,"tv_cpi",0.963653737876886,1.29450035286163
"CAN",1970,1,1971,3,1.25,"tv_cpi",0.967349737878946,1.75307894124619
"CAN",1970,1,1971,4,1.5,"tv_cpi",0.965792140062049,0.629885487777981
"CAN",1970,2,1970,3,0,"tv_cpi",0.773945671877569,0.817647968865298
"CAN",1970,2,1970,4,0.25,"tv_cpi",0.656489123511371,-0.489798516943107
"CAN",1970,2,1971,1,0.5,"tv_cpi",0.705740299810064,0.489798516943107
"CAN",1970,2,1971,2,0.75,"tv_cpi",0.685088591577993,1.29450035286163
"CAN",1970,2,1971,3,1,"tv_cpi",0.693748142170572,1.75307894124619
"CAN",1970,2,1971,4,1.25,"tv_cpi",0.690117071286615,0.629885487777981
"CAN",1970,2,1972,1,1.5,"tv_cpi",0.691639630179639,1.24805068908862
"CAN",1970,3,1970,4,0,"tv_cpi",0.669664972700982,-0.489798516943107
"CAN",1970,3,1971,1,0.25,"tv_cpi",0.737292311103133,0.489798516943107
"CAN",1970,3,1971,2,0.5,"tv_cpi",0.706387024564126,1.29450035286163
"CAN",1970,3,1971,3,0.75,"tv_cpi",0.720510554465278,1.75307894124619
"CAN",1970,3,1971,4,1,"tv_cpi",0.71405618632289,0.629885487777981
"CAN",1970,3,1972,1,1.25,"tv_cpi",0.717005793709219,1.24805068908862
"CAN",1970,3,1972,2,1.5,"tv_cpi",0.71565784089005,0.925935796665911
"CAN",1970,4,1971,1,0,"tv_cpi",0.106915645936443,0.489798516943107
"CAN",1970,4,1971,2,0.25,"tv_cpi",-0.16542268381239,1.29450035286163
"CAN",1970,4,1971,3,0.5,"tv_cpi",-0.0411283893842631,1.75307894124619
"CAN",1970,4,1971,4,0.75,"tv_cpi",-0.0978558858098817,0.629885487777981
"CAN",1970,4,1972,1,1,"tv_cpi",-0.0719656479230623,1.24805068908862
"CAN",1970,4,1972,2,1.25,"tv_cpi",-0.0837818651029445,0.925935796665911
"CAN",1970,4,1972,3,1.5,"tv_cpi",-0.0783889834673059,2.12778527734403
"CAN",1971,1,1971,2,0,"tv_cpi",0.0236691512133721,1.29450035286163
"CAN",1971,1,1971,3,0.25,"tv_cpi",0.245471155588207,1.75307894124619
"CAN",1971,1,1971,4,0.5,"tv_cpi",0.139929362340153,0.629885487777981
"CAN",1971,1,1972,1,0.75,"tv_cpi",0.19015014439941,1.24805068908862
"CAN",1971,1,1972,2,1,"tv_cpi",0.166253194451671,0.925935796665911
"CAN",1971,1,1972,3,1.25,"tv_cpi",0.177624268206176,2.12778527734403
"CAN",1971,1,1972,4,1.5,"tv_cpi",0.172213480695085,0.749050554917297
"CAN",1971,2,1971,3,0,"tv_cpi",0.940130554844272,1.75307894124619
"CAN",1971,2,1971,4,0.25,"tv_cpi",1.09618581424793,0.629885487777981
"CAN",1971,2,1972,1,0.5,"tv_cpi",1.02746312929059,1.24805068908862
"CAN",1971,2,1972,2,0.75,"tv_cpi",1.05772681566549,0.925935796665911
"CAN",1971,2,1972,3,1,"tv_cpi",1.04439947384864,2.12778527734403
"CAN",1971,2,1972,4,1.25,"tv_cpi",1.05026848919934,0.749050554917297
"CAN",1971,2,1973,1,1.5,"tv_cpi",1.0476839272019,1.77520019638968
"CAN",1971,3,1971,4,0,"tv_cpi",1.58670451661579,0.629885487777981
"CAN",1971,3,1972,1,0.25,"tv_cpi",1.64706592439239,1.24805068908862
"CAN",1971,3,1972,2,0.5,"tv_cpi",1.6251665275538,0.925935796665911
"CAN",1971,3,1972,3,0.75,"tv_cpi",1.6331117296218,2.12778527734403
"CAN",1971,3,1972,4,1,"tv_cpi",1.63022917370637,0.749050554917297
"CAN",1971,3,1973,1,1.25,"tv_cpi",1.63127497827301,1.77520019638968
"CAN",1971,3,1973,2,1.5,"tv_cpi",1.630895555558,2.17558208127699
"CAN",1971,4,1972,1,0,"tv_cpi",1.06190198120613,1.24805068908862
"CAN",1971,4,1972,2,0.25,"tv_cpi",0.895734479056211,0.925935796665911
"CAN",1971,4,1972,3,0.5,"tv_cpi",0.959647869379898,2.12778527734403
"CAN",1971,4,1972,4,0.75,"tv_cpi",0.935064714371752,0.749050554917297
"CAN",1971,4,1973,1,1,"tv_cpi",0.944520190088091,1.77520019638968
"CAN",1971,4,1973,2,1.25,"tv_cpi",0.940883308614063,2.17558208127699
"CAN",1971,4,1973,3,1.5,"tv_cpi",0.942282170739347,2.96842485757458
"CAN",1972,1,1972,2,0,"tv_cpi",1.00434294422193,0.925935796665911
"CAN",1972,1,1972,3,0.25,"tv_cpi",1.1004231907031,2.12778527734403
"CAN",1972,1,1972,4,0.5,"tv_cpi",1.06254415748266,0.749050554917297
"CAN",1972,1,1973,1,0.75,"tv_cpi",1.07747772822445,1.77520019638968
"CAN",1972,1,1973,2,1,"tv_cpi",1.07159026183105,2.17558208127699
"CAN",1972,1,1973,3,1.25,"tv_cpi",1.07391135844838,2.96842485757458
"CAN",1972,1,1973,4,1.5,"tv_cpi",1.07299628069727,1.79435977109055
"CAN",1972,2,1972,3,0,"tv_cpi",1.05363274827751,2.12778527734403
"CAN",1972,2,1972,4,0.25,"tv_cpi",1.00300947119693,0.749050554917297
"CAN",1972,2,1973,1,0.5,"tv_cpi",1.02307820541521,1.77520019638968
"CAN",1972,2,1973,2,0.75,"tv_cpi",1.01512229824462,2.17558208127699
"CAN",1972,2,1973,3,1,"tv_cpi",1.01827628186006,2.96842485757458
"CAN",1972,2,1973,4,1.25,"tv_cpi",1.01702593888431,1.79435977109055
"CAN",1972,2,1974,1,1.5,"tv_cpi",1.01752161601762,2.29894237836987
"CAN",1972,3,1972,4,0,"tv_cpi",1.63334023968807,0.749050554917297
"CAN",1972,3,1973,1,0.25,"tv_cpi",1.83675664015501,1.77520019638968
"CAN",1972,3,1973,2,0.5,"tv_cpi",1.75307042869036,2.17558208127699
"CAN",1972,3,1973,3,0.75,"tv_cpi",1.78749922584354,2.96842485757458
"CAN",1972,3,1973,4,1,"tv_cpi",1.77333509948784,1.79435977109055
"CAN",1972,3,1974,1,1.25,"tv_cpi",1.7791622701127,2.29894237836987
"CAN",1972,3,1974,2,1.5,"tv_cpi",1.77676495194153,3.41688457713851
"CAN",1972,4,1973,1,0,"tv_cpi",1.39684096604767,1.77520019638968
"CAN",1972,4,1973,2,0.25,"tv_cpi",1.09248044627063,2.17558208127699
"CAN",1972,4,1973,3,0.5,"tv_cpi",1.23548244878145,2.96842485757458
"CAN",1972,4,1973,4,0.75,"tv_cpi",1.1682937978451,1.79435977109055
"CAN",1972,4,1974,1,1,"tv_cpi",1.19986199084509,2.29894237836987
"CAN",1972,4,1974,2,1.25,"tv_cpi",1.18502986078448,3.41688457713851
"CAN",1972,4,1974,3,1.5,"tv_cpi",1.19199864997475,2.92832219067054
"CAN",1973,1,1973,2,0,"tv_cpi",1.27804093345829,2.17558208127699
"CAN",1973,1,1973,3,0.25,"tv_cpi",1.51890963596432,2.96842485757458
"CAN",1973,1,1973,4,0.5,"tv_cpi",1.40221115285682,1.79435977109055
"CAN",1973,1,1974,1,0.75,"tv_cpi",1.45875040356853,2.29894237836987
"CAN",1973,1,1974,2,1,"tv_cpi",1.43135770071654,3.41688457713851
"CAN",1973,1,1974,3,1.25,"tv_cpi",1.44462919193886,2.92832219067054
"CAN",1973,1,1974,4,1.5,"tv_cpi",1.43819928685735,2.84495917493341
"CAN",1973,2,1973,3,0,"tv_cpi",1.99487026704098,2.96842485757458
"CAN",1973,2,1973,4,0.25,"tv_cpi",2.07643429637678,1.79435977109055
"CAN",1973,2,1974,1,0.5,"tv_cpi",2.03962048367938,2.29894237836987
"CAN",1973,2,1974,2,0.75,"tv_cpi",2.05623634751489,3.41688457713851
"CAN",1973,2,1974,3,1,"tv_cpi",2.04873680017733,2.92832219067054
"CAN",1973,2,1974,4,1.25,"tv_cpi",2.05212171057531,2.84495917493341
"CAN",1973,2,1975,1,1.5,"tv_cpi",2.05059393591284,1.81269853169406
"CAN",1973,3,1973,4,0,"tv_cpi",2.61767580371058,1.79435977109055
"CAN",1973,3,1974,1,0.25,"tv_cpi",2.77284515438688,2.29894237836987
"CAN",1973,3,1974,2,0.5,"tv_cpi",2.70419913204112,3.41688457713851
"CAN",1973,3,1974,3,0.75,"tv_cpi",2.73456773488283,2.92832219067054
"CAN",1973,3,1974,4,1,"tv_cpi",2.7211328408126,2.84495917493341
"CAN",1973,3,1975,1,1.25,"tv_cpi",2.72707636016445,1.81269853169406
"CAN",1973,3,1975,2,1.5,"tv_cpi",2.72444698161475,2.3670121698423
"CAN",1973,4,1974,1,0,"tv_cpi",2.34220626264809,2.29894237836987
"CAN",1973,4,1974,2,0.25,"tv_cpi",2.08656815385233,3.41688457713851
"CAN",1973,4,1974,3,0.5,"tv_cpi",2.20585493158249,2.92832219067054
"CAN",1973,4,1974,4,0.75,"tv_cpi",2.15019290447599,2.84495917493341
"CAN",1973,4,1975,1,1,"tv_cpi",2.17616612062416,1.81269853169406
"CAN",1973,4,1975,2,1.25,"tv_cpi",2.16404640468588,2.3670121698423
"CAN",1973,4,1975,3,1.5,"tv_cpi",2.16970175031527,3.22235435686844
"CAN",1974,1,1974,2,0,"tv_cpi",2.0453889702093,3.41688457713851
"CAN",1974,1,1974,3,0.25,"tv_cpi",2.17279988343218,2.92832219067054
"CAN",1974,1,1974,4,0.5,"tv_cpi",2.10877573591211,2.84495917493341
"CAN",1974,1,1975,1,0.75,"tv_cpi",2.14094795226301,1.81269853169406
"CAN",1974,1,1975,2,1,"tv_cpi",2.12478137222999,2.3670121698423
"CAN",1974,1,1975,3,1.25,"tv_cpi",2.13290509945827,3.22235435686844
"CAN",1974,1,1975,4,1.5,"tv_cpi",2.12882291609328,2.01801228662699
"CAN",1974,2,1974,3,0,"tv_cpi",2.93337346308779,2.92832219067054
"CAN",1974,2,1974,4,0.25,"tv_cpi",3.14249250132435,2.84495917493341
"CAN",1974,2,1975,1,0.5,"tv_cpi",3.0520483090769,1.81269853169406
"CAN",1974,2,1975,2,0.75,"tv_cpi",3.09116551227502,2.3670121698423
"CAN",1974,2,1975,3,1,"tv_cpi",3.07424728294464,3.22235435686844
"CAN",1974,2,1975,4,1.25,"tv_cpi",3.08156443397473,2.01801228662699
"CAN",1974,2,1976,1,1.5,"tv_cpi",3.07839975886887,1.43254982749603
"CAN",1974,3,1974,4,0,"tv_cpi",3.14010230516314,2.84495917493341
"CAN",1974,3,1975,1,0.25,"tv_cpi",3.04830068854925,1.81269853169406
"CAN",1974,3,1975,2,0.5,"tv_cpi",3.08809449465382,2.3670121698423
"CAN",1974,3,1975,3,0.75,"tv_cpi",3.07084483105641,3.22235435686844
"CAN",1974,3,1975,4,1,"tv_cpi",3.07832214783888,2.01801228662699
"CAN",1974,3,1976,1,1.25,"tv_cpi",3.07508090977359,1.43254982749603
"CAN",1974,3,1976,2,1.5,"tv_cpi",3.07648590898674,1.41227637672539
"CAN",1974,4,1975,1,0,"tv_cpi",2.88085926436227,1.81269853169406
"CAN",1974,4,1975,2,0.25,"tv_cpi",2.86539897409321,2.3670121698423
"CAN",1974,4,1975,3,0.5,"tv_cpi",2.87205691224897,3.22235435686844
"CAN",1974,4,1975,4,0.75,"tv_cpi",2.86918968662032,2.01801228662699
"CAN",1974,4,1976,1,1,"tv_cpi",2.87042445068891,1.43254982749603
"CAN",1974,4,1976,2,1.25,"tv_cpi",2.86989270240588,1.41227637672539
"CAN",1974,4,1976,3,1.5,"tv_cpi",2.87012169857097,1.49894882688582
"CAN",1975,1,1975,2,0,"tv_cpi",2.25315849965682,2.3670121698423
"CAN",1975,1,1975,3,0.25,"tv_cpi",2.06521664151434,3.22235435686844
"CAN",1975,1,1975,4,0.5,"tv_cpi",2.14541040397003,2.01801228662699
"CAN",1975,1,1976,1,0.75,"tv_cpi",2.11119216434869,1.43254982749603
"CAN",1975,1,1976,2,1,"tv_cpi",2.12579289995366,1.41227637672539
"CAN",1975,1,1976,3,1.25,"tv_cpi",2.11956284596592,1.49894882688582
"CAN",1975,1,1976,4,1.5,"tv_cpi",2.12222117591177,1.3720710353391
"CAN",1975,2,1975,3,0,"tv_cpi",2.12657322814869,3.22235435686844
"CAN",1975,2,1975,4,0.25,"tv_cpi",2.23086596190835,2.01801228662699
"CAN",1975,2,1976,1,0.5,"tv_cpi",2.18562797242775,1.43254982749603
"CAN",1975,2,1976,2,0.75,"tv_cpi",2.20525039115697,1.41227637672539
"CAN",1975,2,1976,3,1,"tv_cpi",2.19673897583534,1.49894882688582
"CAN",1975,2,1976,4,1.25,"tv_cpi",2.20043088516502,1.3720710353391
"CAN",1975,2,1977,1,1.5,"tv_cpi",2.19882948351987,2.07475676302611
"CAN",1975,3,1975,4,0,"tv_cpi",2.87293113590431,2.01801228662699
"CAN",1975,3,1976,1,0.25,"tv_cpi",3.01567703246,1.43254982749603
"CAN",1975,3,1976,2,0.5,"tv_cpi",2.95736267393722,1.41227637672539
"CAN",1975,3,1976,3,0.75,"tv_cpi",2.98118517596337,1.49894882688582
"CAN",1975,3,1976,4,1,"tv_cpi",2.97145324000176,1.3720710353391
"CAN",1975,3,1977,1,1.25,"tv_cpi",2.97542891717693,2.07475676302611
"CAN",1975,3,1977,2,1.5,"tv_cpi",2.97380477897221,2.5343682996434
"CAN",1975,4,1976,1,0,"tv_cpi",2.55332462268291,1.43254982749603
"CAN",1975,4,1976,2,0.25,"tv_cpi",2.31538616299247,1.41227637672539
"CAN",1975,4,1976,3,0.5,"tv_cpi",2.42114630858707,1.49894882688582
"CAN",1975,4,1976,4,0.75,"tv_cpi",2.37413747945225,1.3720710353391
"CAN",1975,4,1977,1,1,"tv_cpi",2.39503221256937,2.07475676302611
"CAN",1975,4,1977,2,1.25,"tv_cpi",2.38574481103074,2.5343682996434
"CAN",1975,4,1977,3,1.5,"tv_cpi",2.38987292441014,2.0802817976298
"CAN",1976,1,1976,2,0,"tv_cpi",1.66315087801453,1.41227637672539
"CAN",1976,1,1976,3,0.25,"tv_cpi",1.57232209186286,1.49894882688582
"CAN",1976,1,1976,4,0.5,"tv_cpi",1.60809759407864,1.3720710353391
"CAN",1976,1,1977,1,0.75,"tv_cpi",1.59400639443788,2.07475676302611
"CAN",1976,1,1977,2,1,"tv_cpi",1.59955661442132,2.5343682996434
"CAN",1976,1,1977,3,1.25,"tv_cpi",1.59737050233364,2.0802817976298
"CAN",1976,1,1977,4,1.5,"tv_cpi",1.59823156479138,2.03792299218417
"CAN",1976,2,1976,3,0,"tv_cpi",1.42020004290579,1.49894882688582
"CAN",1976,2,1976,4,0.25,"tv_cpi",1.417103160858,1.3720710353391
"CAN",1976,2,1977,1,0.5,"tv_cpi",1.41831354481406,2.07475676302611
"CAN",1976,2,1977,2,0.75,"tv_cpi",1.41784047890503,2.5343682996434
"CAN",1976,2,1977,3,1,"tv_cpi",1.41802537176747,2.0802817976298
"CAN",1976,2,1977,4,1.25,"tv_cpi",1.4179531083261,2.03792299218417
"CAN",1976,2,1978,1,1.5,"tv_cpi",1.41798135173631,1.99721980992398
"CAN",1976,3,1976,4,0,"tv_cpi",1.46502672895669,1.3720710353391
"CAN",1976,3,1977,1,0.25,"tv_cpi",1.47830325137856,2.07475676302611
"CAN",1976,3,1977,2,0.5,"tv_cpi",1.47310705012984,2.5343682996434
"CAN",1976,3,1977,3,0.75,"tv_cpi",1.47514075342647,2.0802817976298
"CAN",1976,3,1977,4,1,"tv_cpi",1.47434479713056,2.03792299218417
"CAN",1976,3,1978,1,1.25,"tv_cpi",1.47465632065813,1.99721980992398
"CAN",1976,3,1978,2,1.5,"tv_cpi",1.47453439573747,2.3267526452325
"CAN",1976,4,1977,1,0,"tv_cpi",1.42229185441812,2.07475676302611
"CAN",1976,4,1977,2,0.25,"tv_cpi",1.40241342937445,2.5343682996434
"CAN",1976,4,1977,3,0.5,"tv_cpi",1.41028171566415,2.0802817976298
"CAN",1976,4,1977,4,0.75,"tv_cpi",1.4071672873832,2.03792299218417
"CAN",1976,4,1978,1,1,"tv_cpi",1.40840004165269,1.99721980992398
"CAN",1976,4,1978,2,1.25,"tv_cpi",1.40791209235611,2.3267526452325
"CAN",1976,4,1978,3,1.5,"tv_cpi",1.40810523264524,2.45356152061698
"CAN",1977,1,1977,2,0,"tv_cpi",1.79391694196494,2.5343682996434
"CAN",1977,1,1977,3,0.25,"tv_cpi",1.90615916062119,2.0802817976298
"CAN",1977,1,1977,4,0.5,"tv_cpi",1.86129972579719,2.03792299218417
"CAN",1977,1,1978,1,0.75,"tv_cpi",1.87922853116847,1.99721980992398
"CAN",1977,1,1978,2,1,"tv_cpi",1.87206299144862,2.3267526452325
"CAN",1977,1,1978,3,1.25,"tv_cpi",1.87492681636129,2.45356152061698
"CAN",1977,1,1978,4,1.5,"tv_cpi",1.87378224198852,1.69120075030964
"CAN",1977,2,1977,3,0,"tv_cpi",2.35445394776575,2.0802817976298
"CAN",1977,2,1977,4,0.25,"tv_cpi",2.42488119215085,2.03792299218417
"CAN",1977,2,1978,1,0.5,"tv_cpi",2.39731253684395,1.99721980992398
"CAN",1977,2,1978,2,0.75,"tv_cpi",2.40810425192618,2.3267526452325
"CAN",1977,2,1978,3,1,"tv_cpi",2.40387984877269,2.45356152061698
"CAN",1977,2,1978,4,1.25,"tv_cpi",2.40553348601823,1.69120075030964
"CAN",1977,2,1979,1,1.5,"tv_cpi",2.40488617182011,2.09612028715123
"CAN",1977,3,1977,4,0,"tv_cpi",2.25910164174201,2.03792299218417
"CAN",1977,3,1978,1,0.25,"tv_cpi",2.18868215887582,1.99721980992398
"CAN",1977,3,1978,2,0.5,"tv_cpi",2.21641344111556,2.3267526452325
"CAN",1977,3,1978,3,0.75,"tv_cpi",2.20549282677192,2.45356152061698
"CAN",1977,3,1978,4,1,"tv_cpi",2.20979337864007,1.69120075030964
"CAN",1977,3,1979,1,1.25,"tv_cpi",2.20809981582495,2.09612028715123
"CAN",1977,3,1979,2,1.5,"tv_cpi",2.2087667430233,2.72824736605242
"CAN",1977,4,1978,1,0,"tv_cpi",2.055221351133,1.99721980992398
"CAN",1977,4,1978,2,0.25,"tv_cpi",2.04815710040226,2.3267526452325
"CAN",1977,4,1978,3,0.5,"tv_cpi",2.05104197743218,2.45356152061698
"CAN",1977,4,1978,4,0.75,"tv_cpi",2.04986386020574,1.69120075030964
"CAN",1977,4,1979,1,1,"tv_cpi",2.05034497610248,2.09612028715123
"CAN",1977,4,1979,2,1.25,"tv_cpi",2.05014849946934,2.72824736605242
"CAN",1977,4,1979,3,1.5,"tv_cpi",2.0502287359937,1.91592240920695
"CAN",1978,1,1978,2,0,"tv_cpi",2.0138234461126,2.3267526452325
"CAN",1978,1,1978,3,0.25,"tv_cpi",2.007050493253,2.45356152061698
"CAN",1978,1,1978,4,0.5,"tv_cpi",2.00981331519858,1.69120075030964
"CAN",1978,1,1979,1,0.75,"tv_cpi",2.0086863052723,2.09612028715123
"CAN",1978,1,1979,2,1,"tv_cpi",2.00914603499754,2.72824736605242
"CAN",1978,1,1979,3,1.25,"tv_cpi",2.00895850211488,1.91592240920695
"CAN",1978,1,1979,4,1.5,"tv_cpi",2.0090350005011,2.28393585715518
"CAN",1978,2,1978,3,0,"tv_cpi",2.18580903228755,2.45356152061698
"CAN",1978,2,1978,4,0.25,"tv_cpi",2.24609165028942,1.69120075030964
"CAN",1978,2,1979,1,0.5,"tv_cpi",2.22030833200185,2.09612028715123
"CAN",1978,2,1979,2,0.75,"tv_cpi",2.2313360465231,2.72824736605242
"CAN",1978,2,1979,3,1,"tv_cpi",2.22661941206179,1.91592240920695
"CAN",1978,2,1979,4,1.25,"tv_cpi",2.22863675124832,2.28393585715518
"CAN",1978,2,1980,1,1.5,"tv_cpi",2.22777392046783,2.15405913261506
"CAN",1978,3,1978,4,0,"tv_cpi",2.40243711062786,1.69120075030964
"CAN",1978,3,1979,1,0.25,"tv_cpi",2.42304848572926,2.09612028715123
"CAN",1978,3,1979,2,0.5,"tv_cpi",2.41473878037205,2.72824736605242
"CAN",1978,3,1979,3,0.75,"tv_cpi",2.41808893060627,1.91592240920695
"CAN",1978,3,1979,4,1,"tv_cpi",2.41673828023909,2.28393585715518
"CAN",1978,3,1980,1,1.25,"tv_cpi",2.41728280997263,2.15405913261506
"CAN",1978,3,1980,2,1.5,"tv_cpi",2.41706327674782,2.72496311689348
"CAN",1978,4,1979,1,0,"tv_cpi",1.99318380546097,2.09612028715123
"CAN",1978,4,1979,2,0.25,"tv_cpi",1.87356358213578,2.72824736605242
"CAN",1978,4,1979,3,0.5,"tv_cpi",1.92094702827383,1.91592240920695
"CAN",1978,4,1979,4,0.75,"tv_cpi",1.90217770227271,2.28393585715518
"CAN",1978,4,1980,1,1,"tv_cpi",1.90961252661009,2.15405913261506
"CAN",1978,4,1980,2,1.25,"tv_cpi",1.9066674761099,2.72496311689348
"CAN",1978,4,1980,3,1.5,"tv_cpi",1.90783405679225,2.80214225188988
"CAN",1979,1,1979,2,0,"tv_cpi",1.93561216171535,2.72824736605242
"CAN",1979,1,1979,3,0.25,"tv_cpi",1.99923679818484,1.91592240920695
"CAN",1979,1,1979,4,0.5,"tv_cpi",1.97401630324179,2.28393585715518
"CAN",1979,1,1980,1,0.75,"tv_cpi",1.98401358417678,2.15405913261506
"CAN",1979,1,1980,2,1,"tv_cpi",1.98005071087398,2.72496311689348
"CAN",1979,1,1980,3,1.25,"tv_cpi",1.98162157448341,2.80214225188988
"CAN",1979,1,1980,4,1.5,"tv_cpi",1.98099889182594,2.72578537427455
"CAN",1979,2,1979,3,0,"tv_cpi",2.50593515128794,1.91592240920695
"CAN",1979,2,1979,4,0.25,"tv_cpi",2.58411993799158,2.28393585715518
"CAN",1979,2,1980,1,0.5,"tv_cpi",2.55662319932443,2.15405913261506
"CAN",1979,2,1980,2,0.75,"tv_cpi",2.56629350309076,2.72496311689348
"CAN",1979,2,1980,3,1,"tv_cpi",2.56289256248958,2.80214225188988
"CAN",1979,2,1980,4,1.25,"tv_cpi",2.56408863628956,2.72578537427455
"CAN",1979,2,1981,1,1.5,"tv_cpi",2.56366799014993,3.35865939464655
"CAN",1979,3,1979,4,0,"tv_cpi",2.22567195782722,2.28393585715518
"CAN",1979,3,1980,1,0.25,"tv_cpi",2.10756062558027,2.15405913261506
"CAN",1979,3,1980,2,0.5,"tv_cpi",2.15259793674759,2.72496311689348
"CAN",1979,3,1980,3,0.75,"tv_cpi",2.13542465321421,2.80214225188988
"CAN",1979,3,1980,4,1,"tv_cpi",2.1419730385346,2.72578537427455
"CAN",1979,3,1981,1,1.25,"tv_cpi",2.13947605825585,3.35865939464655
"CAN",1979,3,1981,2,1.5,"tv_cpi",2.14042818770569,2.90877534275418
"CAN",1979,4,1980,1,0,"tv_cpi",2.13722421290816,2.15405913261506
"CAN",1979,4,1980,2,0.25,"tv_cpi",2.1957120390397,2.72496311689348
"CAN",1979,4,1980,3,0.5,"tv_cpi",2.17239537714043,2.80214225188988
"CAN",1979,4,1980,4,0.75,"tv_cpi",2.18169075975394,2.72578537427455
"CAN",1979,4,1981,1,1,"tv_cpi",2.1779850775982,3.35865939464655
"CAN",1979,4,1981,2,1.25,"tv_cpi",2.17946237883585,2.90877534275418
"CAN",1979,4,1981,3,1.5,"tv_cpi",2.17887344032061,2.95919491678953
"CAN",1980,1,1980,2,0,"tv_cpi",2.1999206247565,2.72496311689348
"CAN",1980,1,1980,3,0.25,"tv_cpi",2.18372621833851,2.80214225188988
"CAN",1980,1,1980,4,0.5,"tv_cpi",2.18944471520778,2.72578537427455
"CAN",1980,1,1981,1,0.75,"tv_cpi",2.18742542499116,3.35865939464655
"CAN",1980,1,1981,2,1,"tv_cpi",2.18813846778408,2.90877534275418
"CAN",1980,1,1981,3,1.25,"tv_cpi",2.18788668127992,2.95919491678953
"CAN",1980,1,1981,4,1.5,"tv_cpi",2.18797559101199,2.42236849316555
"CAN",1980,2,1980,3,0,"tv_cpi",2.50182548203439,2.80214225188988
"CAN",1980,2,1980,4,0.25,"tv_cpi",2.58903875337535,2.72578537427455
"CAN",1980,2,1981,1,0.5,"tv_cpi",2.55495147489902,3.35865939464655
"CAN",1980,2,1981,2,0.75,"tv_cpi",2.56827447650253,2.90877534275418
"CAN",1980,2,1981,3,1,"tv_cpi",2.563067185699,2.95919491678953
"CAN",1980,2,1981,4,1.25,"tv_cpi",2.56510245360029,2.42236849316555
"CAN",1980,2,1982,1,1.5,"tv_cpi",2.56430696980914,2.49135397543214
"CAN",1980,3,1980,4,0,"tv_cpi",2.77354553820467,2.72578537427455
"CAN",1980,3,1981,1,0.25,"tv_cpi",2.78414130393374,3.35865939464655
"CAN",1980,3,1981,2,0.5,"tv_cpi",2.78021531954892,2.90877534275418
"CAN",1980,3,1981,3,0.75,"tv_cpi",2.78166999057355,2.95919491678953
"CAN",1980,3,1981,4,1,"tv_cpi",2.78113100020005,2.42236849316555
"CAN",1980,3,1982,1,1.25,"tv_cpi",2.78133070901242,2.49135397543214
"CAN",1980,3,1982,2,1.5,"tv_cpi",2.78125671212547,3.0446532371057
"CAN",1980,4,1981,1,0,"tv_cpi",2.75312253188266,3.35865939464655
"CAN",1980,4,1981,2,0.25,"tv_cpi",2.74333532987244,2.90877534275418
"CAN",1980,4,1981,3,0.5,"tv_cpi",2.7468393270532,2.95919491678953
"CAN",1980,4,1981,4,0.75,"tv_cpi",2.74558483202695,2.42236849316555
"CAN",1980,4,1982,1,1,"tv_cpi",2.74603396417224,2.49135397543214
"CAN",1980,4,1982,2,1.25,"tv_cpi",2.74587316665634,3.0446532371057
"CAN",1980,4,1982,3,1.5,"tv_cpi",2.74593073510561,2.1193642255005
"CAN",1981,1,1981,2,0,"tv_cpi",3.13600053586924,2.90877534275418
"CAN",1981,1,1981,3,0.25,"tv_cpi",3.21433676993186,2.95919491678953
"CAN",1981,1,1981,4,0.5,"tv_cpi",3.18677637731685,2.42236849316555
"CAN",1981,1,1982,1,0.75,"tv_cpi",3.19647272346091,2.49135397543214
"CAN",1981,1,1982,2,1,"tv_cpi",3.19306133778659,3.0446532371057
"CAN",1981,1,1982,3,1.25,"tv_cpi",3.19426153753669,2.1193642255005
"CAN",1981,1,1982,4,1.5,"tv_cpi",3.19383928113485,1.54582966761603
"CAN",1981,2,1981,3,0,"tv_cpi",3.07422336212089,2.95919491678953
"CAN",1981,2,1981,4,0.25,"tv_cpi",3.01337869115017,2.42236849316555
"CAN",1981,2,1982,1,0.5,"tv_cpi",3.03575474617764,2.49135397543214
"CAN",1981,2,1982,2,0.75,"tv_cpi",3.0275257948068,3.0446532371057
"CAN",1981,2,1982,3,1,"tv_cpi",3.03055204946074,2.1193642255005
"CAN",1981,2,1982,4,1.25,"tv_cpi",3.02943912306006,1.54582966761603
"CAN",1981,2,1983,1,1.5,"tv_cpi",3.02984840955937,0.705450258972062
"CAN",1981,3,1981,4,0,"tv_cpi",2.94317875643699,2.42236849316555
"CAN",1981,3,1982,1,0.25,"tv_cpi",2.94826641132789,2.49135397543214
"CAN",1981,3,1982,2,0.5,"tv_cpi",2.94665027913895,3.0446532371057
"CAN",1981,3,1982,3,0.75,"tv_cpi",2.94716365579443,2.1193642255005
"CAN",1981,3,1982,4,1,"tv_cpi",2.94700057780354,1.54582966761603
"CAN",1981,3,1983,1,1.25,"tv_cpi",2.94705238076503,0.705450258972062
"CAN",1981,3,1983,2,1.5,"tv_cpi",2.94703592516115,1.33841553760603
"CAN",1981,4,1982,1,0,"tv_cpi",2.62251876612384,2.49135397543214
"CAN",1981,4,1982,2,0.25,"tv_cpi",2.5478947722175,3.0446532371057
"CAN",1981,4,1982,3,0.5,"tv_cpi",2.57571756947991,2.1193642255005
"CAN",1981,4,1982,4,0.75,"tv_cpi",2.56534412245593,1.54582966761603
"CAN",1981,4,1983,1,1,"tv_cpi",2.56921175668927,0.705450258972062
"CAN",1981,4,1983,2,1.25,"tv_cpi",2.56776974859608,1.33841553760603
"CAN",1981,4,1983,3,1.5,"tv_cpi",2.56830738664957,1.6055296868895
"CAN",1982,1,1982,2,0,"tv_cpi",2.46421341416764,3.0446532371057
"CAN",1982,1,1982,3,0.25,"tv_cpi",2.4748911689872,2.1193642255005
"CAN",1982,1,1982,4,0.5,"tv_cpi",2.47069028136091,1.54582966761603
"CAN",1982,1,1983,1,0.75,"tv_cpi",2.47234301240287,0.705450258972062
"CAN",1982,1,1983,2,1,"tv_cpi",2.47169278794079,1.33841553760603
"CAN",1982,1,1983,3,1.25,"tv_cpi",2.47194860200875,1.6055296868895
"CAN",1982,1,1983,4,1.5,"tv_cpi",2.47184795855225,0.906018518969942
"CAN",1982,2,1982,3,0,"tv_cpi",2.8289406515484,2.1193642255005
"CAN",1982,2,1982,4,0.25,"tv_cpi",2.9130396605134,1.54582966761603
"CAN",1982,2,1983,1,0.5,"tv_cpi",2.88025231391226,0.705450258972062
"CAN",1982,2,1983,2,0.75,"tv_cpi",2.89303498650702,1.33841553760603
"CAN",1982,2,1983,3,1,"tv_cpi",2.88805145671266,1.6055296868895
"CAN",1982,2,1983,4,1.25,"tv_cpi",2.88999436568003,0.906018518969942
"CAN",1982,2,1984,1,1.5,"tv_cpi",2.88923689147776,1.17679632467897
"CAN",1982,3,1982,4,0,"tv_cpi",2.47216013272154,1.54582966761603
"CAN",1982,3,1983,1,0.25,"tv_cpi",2.33764545612769,0.705450258972062
"CAN",1982,3,1983,2,0.5,"tv_cpi",2.38893346103023,1.33841553760603
"CAN",1982,3,1983,3,0.75,"tv_cpi",2.36937827557768,1.6055296868895
"CAN",1982,3,1983,4,1,"tv_cpi",2.37683431288719,0.906018518969942
"CAN",1982,3,1984,1,1.25,"tv_cpi",2.37399146117935,1.17679632467897
"CAN",1982,3,1984,2,1.5,"tv_cpi",2.37507538894115,0.832185080159764
"CAN",1982,4,1983,1,0,"tv_cpi",1.73225234850601,0.705450258972062
"CAN",1982,4,1983,2,0.25,"tv_cpi",1.67165719260399,1.33841553760603
"CAN",1982,4,1983,3,0.5,"tv_cpi",1.69135314859637,1.6055296868895
"CAN",1982,4,1983,4,0.75,"tv_cpi",1.68495114043781,0.906018518969942
"CAN",1982,4,1984,1,1,"tv_cpi",1.68703206042352,1.17679632467897
"CAN",1982,4,1984,2,1.25,"tv_cpi",1.68635567453339,0.832185080159764
"CAN",1982,4,1984,3,1.5,"tv_cpi",1.68657552819211,0.825316876936055
"CAN",1983,1,1983,2,0,"tv_cpi",0.953210466376923,1.33841553760603
"CAN",1983,1,1983,3,0.25,"tv_cpi",0.880165934654816,1.6055296868895
"CAN",1983,1,1983,4,0.5,"tv_cpi",0.901700884396697,0.906018518969942
"CAN",1983,1,1984,1,0.75,"tv_cpi",0.895351962041364,1.17679632467897
"CAN",1983,1,1984,2,1,"tv_cpi",0.897223747931612,0.832185080159764
"CAN",1983,1,1984,3,1.25,"tv_cpi",0.896671909017408,0.825316876936055
"CAN",1983,1,1984,4,1.5,"tv_cpi",0.896834601870697,0.764191457831176
"CAN",1983,2,1983,3,0,"tv_cpi",1.18260174495891,1.6055296868895
"CAN",1983,2,1983,4,0.25,"tv_cpi",1.22095762133727,0.906018518969942
"CAN",1983,2,1984,1,0.5,"tv_cpi",1.21151575340146,1.17679632467897
"CAN",1983,2,1984,2,0.75,"tv_cpi",1.2138400092531,0.832185080159764
"CAN",1983,2,1984,3,1,"tv_cpi",1.21326785919756,0.825316876936055
"CAN",1983,2,1984,4,1.25,"tv_cpi",1.21340870242092,0.764191457831176
"CAN",1983,2,1985,1,1.5,"tv_cpi",1.21337403177224,1.13545794008982
"CAN",1983,3,1983,4,0,"tv_cpi",1.56486396199264,0.906018518969942
"CAN",1983,3,1984,1,0.25,"tv_cpi",1.57105495257035,1.17679632467897
"CAN",1983,3,1984,2,0.5,"tv_cpi",1.57011242998086,0.832185080159764
"CAN",1983,3,1984,3,0.75,"tv_cpi",1.57025592056133,0.825316876936055
"CAN",1983,3,1984,4,1,"tv_cpi",1.57023407541204,0.764191457831176
"CAN",1983,3,1985,1,1.25,"tv_cpi",1.57023740113938,1.13545794008982
"CAN",1983,3,1985,2,1.5,"tv_cpi",1.57023689482733,1.17584571170664
"CAN",1983,4,1984,1,0,"tv_cpi",1.04123733180671,1.17679632467897
"CAN",1983,4,1984,2,0.25,"tv_cpi",1.01509889659149,0.832185080159764
"CAN",1983,4,1984,3,0.5,"tv_cpi",1.02015157958114,0.825316876936055
"CAN",1983,4,1984,4,0.75,"tv_cpi",1.01917487209335,0.764191457831176
"CAN",1983,4,1985,1,1,"tv_cpi",1.01936367426413,1.13545794008982
"CAN",1983,4,1985,2,1.25,"tv_cpi",1.01932717791272,1.17584571170664
"CAN",1983,4,1985,3,1.5,"tv_cpi",1.01933423282984,0.951907670712382
"CAN",1984,1,1984,2,0,"tv_cpi",1.11467649824081,0.832185080159764
"CAN",1984,1,1984,3,0.25,"tv_cpi",1.12892756592563,0.825316876936055
"CAN",1984,1,1984,4,0.5,"tv_cpi",1.12565819217167,0.764191457831176
"CAN",1984,1,1985,1,0.75,"tv_cpi",1.126408227536,1.13545794008982
"CAN",1984,1,1985,2,1,"tv_cpi",1.12623616001174,1.17584571170664
"CAN",1984,1,1985,3,1.25,"tv_cpi",1.12627563446096,0.951907670712382
"CAN",1984,1,1985,4,1.5,"tv_cpi",1.12626657852697,0.786376098391628
"CAN",1984,2,1984,3,0,"tv_cpi",0.897548819113379,0.825316876936055
"CAN",1984,2,1984,4,0.25,"tv_cpi",0.885151027578871,0.764191457831176
"CAN",1984,2,1985,1,0.5,"tv_cpi",0.887502564339065,1.13545794008982
"CAN",1984,2,1985,2,0.75,"tv_cpi",0.887056539325727,1.17584571170664
"CAN",1984,2,1985,3,1,"tv_cpi",0.887141138603905,0.951907670712382
"CAN",1984,2,1985,4,1.25,"tv_cpi",0.887125092333731,0.786376098391628
"CAN",1984,2,1986,1,1.5,"tv_cpi",0.887128135891455,1.29702599916377
"CAN",1984,3,1984,4,0,"tv_cpi",0.826329161981213,0.764191457831176
"CAN",1984,3,1985,1,0.25,"tv_cpi",0.826179964151843,1.13545794008982
"CAN",1984,3,1985,2,0.5,"tv_cpi",0.82620195399788,1.17584571170664
"CAN",1984,3,1985,3,0.75,"tv_cpi",0.826198712976675,0.951907670712382
"CAN",1984,3,1985,4,1,"tv_cpi",0.826199190661623,0.786376098391628
"CAN",1984,3,1986,1,1.25,"tv_cpi",0.826199120256989,1.29702599916377
"CAN",1984,3,1986,2,1.5,"tv_cpi",0.826199130633729,0.821349527320425
"CAN",1984,4,1985,1,0,"tv_cpi",0.776996811437943,1.13545794008982
"CAN",1984,4,1985,2,0.25,"tv_cpi",0.774314178199666,1.17584571170664
"CAN",1984,4,1985,3,0.5,"tv_cpi",0.774876171355974,0.951907670712382
"CAN",1984,4,1985,4,0.75,"tv_cpi",0.774758437666839,0.786376098391628
"CAN",1984,4,1986,1,1,"tv_cpi",0.774783102062485,1.29702599916377
"CAN",1984,4,1986,2,1.25,"tv_cpi",0.774777935041753,0.821349527320425
"CAN",1984,4,1986,3,1.5,"tv_cpi",0.77477901749695,1.16900694062392
"CAN",1985,1,1985,2,0,"tv_cpi",1.07243644657671,1.17584571170664
"CAN",1985,1,1985,3,0.25,"tv_cpi",1.08313417673662,0.951907670712382
"CAN",1985,1,1985,4,0.5,"tv_cpi",1.0813182656213,0.786376098391628
"CAN",1985,1,1986,1,0.75,"tv_cpi",1.08162651168186,1.29702599916377
"CAN",1985,1,1986,2,1,"tv_cpi",1.08157418773657,0.821349527320425
"CAN",1985,1,1986,3,1.25,"tv_cpi",1.0815830695865,1.16900694062392
"CAN",1985,1,1986,4,1.5,"tv_cpi",1.0815815619162,1.00555488009815
"CAN",1985,2,1985,3,0,"tv_cpi",1.16897477630681,0.951907670712382
"CAN",1985,2,1985,4,0.25,"tv_cpi",1.17014368836555,0.786376098391628
"CAN",1985,2,1986,1,0.5,"tv_cpi",1.16994482819273,1.29702599916377
"CAN",1985,2,1986,2,0.75,"tv_cpi",1.16997865911101,0.821349527320425
"CAN",1985,2,1986,3,1,"tv_cpi",1.16997290365472,1.16900694062392
"CAN",1985,2,1986,4,1.25,"tv_cpi",1.16997388279684,1.00555488009815
"CAN",1985,2,1987,1,1.5,"tv_cpi",1.16997371622112,0.945977078179228
"CAN",1985,3,1985,4,0,"tv_cpi",0.995694155632176,0.786376098391628
"CAN",1985,3,1986,1,0.25,"tv_cpi",0.987132607745453,1.29702599916377
"CAN",1985,3,1986,2,0.5,"tv_cpi",0.988806642606916,0.821349527320425
"CAN",1985,3,1986,3,0.75,"tv_cpi",0.988479319469269,1.16900694062392
"CAN",1985,3,1986,4,1,"tv_cpi",0.988543320786628,1.00555488009815
"CAN",1985,3,1987,1,1.25,"tv_cpi",0.988530806643408,0.945977078179228
"CAN",1985,3,1987,2,1.5,"tv_cpi",0.988533253527113,1.42683691216376
"CAN",1985,4,1986,1,0,"tv_cpi",0.810066766845183,1.29702599916377
"CAN",1985,4,1986,2,0.25,"tv_cpi",0.806676188456374,0.821349527320425
"CAN",1985,4,1986,3,0.5,"tv_cpi",0.807161443730331,1.16900694062392
"CAN",1985,4,1986,4,0.75,"tv_cpi",0.807091994611656,1.00555488009815
"CAN",1985,4,1987,1,1,"tv_cpi",0.807101934081341,0.945977078179228
"CAN",1985,4,1987,2,1.25,"tv_cpi",0.80710051155706,1.42683691216376
"CAN",1985,4,1987,3,1.5,"tv_cpi",0.807100715146928,1.06901881020494
"CAN",1986,1,1986,2,0,"tv_cpi",1.18981639528684,0.821349527320425
"CAN",1986,1,1986,3,0.25,"tv_cpi",1.21232476970553,1.16900694062392
"CAN",1986,1,1986,4,0.5,"tv_cpi",1.2075991956837,1.00555488009815
"CAN",1986,1,1987,1,0.75,"tv_cpi",1.20859131752335,0.945977078179228
"CAN",1986,1,1987,2,1,"tv_cpi",1.20838302415197,1.42683691216376
"CAN",1986,1,1987,3,1.25,"tv_cpi",1.20842675479757,1.06901881020494
"CAN",1986,1,1987,4,1.5,"tv_cpi",1.20841757366352,0.674372413337654
"CAN",1986,2,1986,3,0,"tv_cpi",0.891854879340531,1.16900694062392
"CAN",1986,2,1986,4,0.25,"tv_cpi",0.881404489300815,1.00555488009815
"CAN",1986,2,1987,1,0.5,"tv_cpi",0.882953458972664,0.945977078179228
"CAN",1986,2,1987,2,0.75,"tv_cpi",0.882723868781754,1.42683691216376
"CAN",1986,2,1987,3,1,"tv_cpi",0.882757898922382,1.06901881020494
"CAN",1986,2,1987,4,1.25,"tv_cpi",0.882752854933061,0.674372413337654
"CAN",1986,2,1988,1,1.5,"tv_cpi",0.882753602559365,0.860428717407213
"CAN",1986,3,1986,4,0,"tv_cpi",1.08105971854565,1.00555488009815
"CAN",1986,3,1987,1,0.25,"tv_cpi",1.10330780984273,0.945977078179228
"CAN",1986,3,1987,2,0.5,"tv_cpi",1.09767968931014,1.42683691216376
"CAN",1986,3,1987,3,0.75,"tv_cpi",1.09910344024259,1.06901881020494
"CAN",1986,3,1987,4,1,"tv_cpi",1.09874327263319,0.674372413337654
"CAN",1986,3,1988,1,1.25,"tv_cpi",1.09883438457131,0.860428717407213
"CAN",1986,3,1988,2,1.5,"tv_cpi",1.09881133589883,1.2769190126444
"CAN",1986,4,1987,1,0,"tv_cpi",1.04766564458641,0.945977078179228
"CAN",1986,4,1987,2,0.25,"tv_cpi",1.03681649113994,1.42683691216376
"CAN",1986,4,1987,3,0.5,"tv_cpi",1.03961159904015,1.06901881020494
"CAN",1986,4,1987,4,0.75,"tv_cpi",1.03889148495822,0.674372413337654
"CAN",1986,4,1988,1,1,"tv_cpi",1.03907701063719,0.860428717407213
"CAN",1986,4,1988,2,1.25,"tv_cpi",1.03902921296399,1.2769190126444
"CAN",1986,4,1988,3,1.5,"tv_cpi",1.03904152725696,1.07502536716426
"CAN",1987,1,1987,2,0,"tv_cpi",0.961212998848211,1.42683691216376
"CAN",1987,1,1987,3,0.25,"tv_cpi",0.957316693997162,1.06901881020494
"CAN",1987,1,1987,4,0.5,"tv_cpi",0.958313101882326,0.674372413337654
"CAN",1987,1,1988,1,0.75,"tv_cpi",0.958058288998948,0.860428717407213
"CAN",1987,1,1988,2,1,"tv_cpi",0.958123452679908,1.2769190126444
"CAN",1987,1,1988,3,1.25,"tv_cpi",0.958106788274011,1.07502536716426
"CAN",1987,1,1988,4,1.5,"tv_cpi",0.958111049887533,0.787219982743181
"CAN",1987,2,1987,3,0,"tv_cpi",1.30278397561419,1.06901881020494
"CAN",1987,2,1987,4,0.25,"tv_cpi",1.33478733704917,0.674372413337654
"CAN",1987,2,1988,1,0.5,"tv_cpi",1.3265310621747,0.860428717407213
"CAN",1987,2,1988,2,0.75,"tv_cpi",1.32866102827033,1.2769190126444
"CAN",1987,2,1988,3,1,"tv_cpi",1.3281115364429,1.07502536716426
"CAN",1987,2,1988,4,1.25,"tv_cpi",1.3282532951634,0.787219982743181
"CAN",1987,2,1989,1,1.5,"tv_cpi",1.32821672403743,1.23770024456311
"CAN",1987,3,1987,4,0,"tv_cpi",1.16772195136427,0.674372413337654
"CAN",1987,3,1988,1,0.25,"tv_cpi",1.14049496083085,0.860428717407213
"CAN",1987,3,1988,2,0.5,"tv_cpi",1.1480054514272,1.2769190126444
"CAN",1987,3,1988,3,0.75,"tv_cpi",1.14593370321365,1.07502536716426
"CAN",1987,3,1988,4,1,"tv_cpi",1.14650518927109,0.787219982743181
"CAN",1987,3,1989,1,1.25,"tv_cpi",1.14634754641097,1.23770024456311
"CAN",1987,3,1989,2,1.5,"tv_cpi",1.14639103176118,1.71639236195382
"CAN",1987,4,1988,1,0,"tv_cpi",0.793084639988105,0.860428717407213
"CAN",1987,4,1988,2,0.25,"tv_cpi",0.757375222980436,1.2769190126444
"CAN",1987,4,1988,3,0.5,"tv_cpi",0.768116850014207,1.07502536716426
"CAN",1987,4,1988,4,0.75,"tv_cpi",0.764885698094033,0.787219982743181
"CAN",1987,4,1989,1,1,"tv_cpi",0.765857649801015,1.23770024456311
"CAN",1987,4,1989,2,1.25,"tv_cpi",0.76556528034763,1.71639236195382
"CAN",1987,4,1989,3,1.5,"tv_cpi",0.765653226998331,1.42287750412482
"CAN",1988,1,1988,2,0,"tv_cpi",0.807144627593141,1.2769190126444
"CAN",1988,1,1988,3,0.25,"tv_cpi",0.822404493371473,1.07502536716426
"CAN",1988,1,1988,4,0.5,"tv_cpi",0.818034267580148,0.787219982743181
"CAN",1988,1,1989,1,0.75,"tv_cpi",0.819285843035961,1.23770024456311
"CAN",1988,1,1989,2,1,"tv_cpi",0.818927408209847,1.71639236195382
"CAN",1988,1,1989,3,1.25,"tv_cpi",0.81903005925176,1.42287750412482
"CAN",1988,1,1989,4,1.5,"tv_cpi",0.819000661337166,0.703909573446548
"CAN",1988,2,1988,3,0,"tv_cpi",1.16103609420867,1.07502536716426
"CAN",1988,2,1988,4,0.25,"tv_cpi",1.19327898423215,0.787219982743181
"CAN",1988,2,1989,1,0.5,"tv_cpi",1.18430782635056,1.23770024456311
"CAN",1988,2,1989,2,0.75,"tv_cpi",1.18680393242783,1.71639236195382
"CAN",1988,2,1989,3,1,"tv_cpi",1.18610942391163,1.42287750412482
"CAN",1988,2,1989,4,1.25,"tv_cpi",1.18630266172451,0.703909573446548
"CAN",1988,2,1990,1,1.5,"tv_cpi",1.18624889585777,1.43637321563084
"CAN",1988,3,1988,4,0,"tv_cpi",1.13210425321459,0.787219982743181
"CAN",1988,3,1989,1,0.25,"tv_cpi",1.11596704778151,1.23770024456311
"CAN",1988,3,1989,2,0.5,"tv_cpi",1.12052931970391,1.71639236195382
"CAN",1988,3,1989,3,0.75,"tv_cpi",1.11923948515478,1.42287750412482
"CAN",1988,3,1989,4,1,"tv_cpi",1.11960414407745,0.703909573446548
"CAN",1988,3,1990,1,1.25,"tv_cpi",1.11950104858356,1.43637321563084
"CAN",1988,3,1990,2,1.5,"tv_cpi",1.11953019549372,0.946235822452035
"CAN",1988,4,1989,1,0,"tv_cpi",0.866767836016928,1.23770024456311
"CAN",1988,4,1989,2,0.25,"tv_cpi",0.844781239160201,1.71639236195382
"CAN",1988,4,1989,3,0.5,"tv_cpi",0.850858215740281,1.42287750412482
"CAN",1988,4,1989,4,0.75,"tv_cpi",0.84917857224677,0.703909573446548
"CAN",1988,4,1990,1,1,"tv_cpi",0.849642816633451,1.43637321563084
"CAN",1988,4,1990,2,1.25,"tv_cpi",0.849514501993233,0.946235822452035
"CAN",1988,4,1990,3,1.5,"tv_cpi",0.84954996746652,0.979771403063978
"CAN",1989,1,1989,2,0,"tv_cpi",1.10506218478156,1.71639236195382
"CAN",1989,1,1989,3,0.25,"tv_cpi",1.14411573805277,1.42287750412482
"CAN",1989,1,1989,4,0.5,"tv_cpi",1.13261692673407,0.703909573446548
"CAN",1989,1,1990,1,0.75,"tv_cpi",1.13600260231716,1.43637321563084
"CAN",1989,1,1990,2,1,"tv_cpi",1.13500573413346,0.946235822452035
"CAN",1989,1,1990,3,1.25,"tv_cpi",1.13529924901735,0.979771403063978
"CAN",1989,1,1990,4,1.5,"tv_cpi",1.13521282737357,1.47279610793536
"CAN",1989,2,1989,3,0,"tv_cpi",1.58746695465196,1.42287750412482
"CAN",1989,2,1989,4,0.25,"tv_cpi",1.62219023511573,0.703909573446548
"CAN",1989,2,1990,1,0.5,"tv_cpi",1.61283826771537,1.43637321563084
"CAN",1989,2,1990,2,0.75,"tv_cpi",1.61535701862511,0.946235822452035
"CAN",1989,2,1990,3,1,"tv_cpi",1.61467864733982,0.979771403063978
"CAN",1989,2,1990,4,1.25,"tv_cpi",1.61486135202845,1.47279610793536
"CAN",1989,2,1991,1,1.5,"tv_cpi",1.61481214445736,2.84144467061074
"CAN",1989,3,1989,4,0,"tv_cpi",1.49534147533675,0.703909573446548
"CAN",1989,3,1990,1,0.25,"tv_cpi",1.47745131753471,1.43637321563084
"CAN",1989,3,1990,2,0.5,"tv_cpi",1.48186810205299,0.946235822452035
"CAN",1989,3,1990,3,0.75,"tv_cpi",1.48077767089543,0.979771403063978
"CAN",1989,3,1990,4,1,"tv_cpi",1.48104688034055,1.47279610793536
"CAN",1989,3,1991,1,1.25,"tv_cpi",1.48098041697435,2.84144467061074
"CAN",1989,3,1991,2,1.5,"tv_cpi",1.48099682568187,0.728160905900221
"CAN",1989,4,1990,1,0,"tv_cpi",0.892441894508924,1.43637321563084
"CAN",1989,4,1990,2,0.25,"tv_cpi",0.843003756076749,0.946235822452035
"CAN",1989,4,1990,3,0.5,"tv_cpi",0.855967737625728,0.979771403063978
"CAN",1989,4,1990,4,0.75,"tv_cpi",0.852568240336144,1.47279610793536
"CAN",1989,4,1991,1,1,"tv_cpi",0.853459678030515,2.84144467061074
"CAN",1989,4,1991,2,1.25,"tv_cpi",0.853225919596472,0.728160905900221
"CAN",1989,4,1991,3,1.5,"tv_cpi",0.853287217212482,0.602776511185432
"CAN",1990,1,1990,2,0,"tv_cpi",1.23956984157432,0.946235822452035
"CAN",1990,1,1990,3,0.25,"tv_cpi",1.29244832701631,0.979771403063978
"CAN",1990,1,1990,4,0.5,"tv_cpi",1.27824057150377,1.47279610793536
"CAN",1990,1,1991,1,0.75,"tv_cpi",1.28205800906872,2.84144467061074
"CAN",1990,1,1991,2,1,"tv_cpi",1.28103231366247,0.728160905900221
"CAN",1990,1,1991,3,1.25,"tv_cpi",1.28130790456566,0.602776511185432
"CAN",1990,1,1991,4,1.5,"tv_cpi",1.28123385690448,-0.160390549892142
"CAN",1990,2,1990,3,0,"tv_cpi",1.0752159246673,0.979771403063978
"CAN",1990,2,1990,4,0.25,"tv_cpi",1.0412746930882,1.47279610793536
"CAN",1990,2,1991,1,0.5,"tv_cpi",1.05020635914614,2.84144467061074
"CAN",1990,2,1991,2,0.75,"tv_cpi",1.04785598307376,0.728160905900221
"CAN",1990,2,1991,3,1,"tv_cpi",1.04847448668168,0.602776511185432
"CAN",1990,2,1991,4,1.25,"tv_cpi",1.04831172689294,-0.160390549892142
"CAN",1990,2,1992,1,1.5,"tv_cpi",1.04835455727985,0.400487469734934
"CAN",1990,3,1990,4,0,"tv_cpi",0.971307074417232,1.47279610793536
"CAN",1990,3,1991,1,0.25,"tv_cpi",0.973443457868265,2.84144467061074
"CAN",1990,3,1991,2,0.5,"tv_cpi",0.972904237991494,0.728160905900221
"CAN",1990,3,1991,3,0.75,"tv_cpi",0.973040336253894,0.602776511185432
"CAN",1990,3,1991,4,1,"tv_cpi",0.97300598526309,-0.160390549892142
"CAN",1990,3,1992,1,1.25,"tv_cpi",0.973014655400007,0.400487469734934
"CAN",1990,3,1992,2,1.5,"tv_cpi",0.973012467070867,0.518230733074621
"CAN",1990,4,1991,1,0,"tv_cpi",1.34899088039871,2.84144467061074
"CAN",1990,4,1991,2,0.25,"tv_cpi",1.38008006155729,0.728160905900221
"CAN",1990,4,1991,3,0.5,"tv_cpi",1.37227314415693,0.602776511185432
"CAN",1990,4,1991,4,0.75,"tv_cpi",1.37423356759122,-0.160390549892142
"CAN",1990,4,1992,1,1,"tv_cpi",1.37374127852953,0.400487469734934
"CAN",1990,4,1992,2,1.25,"tv_cpi",1.37386489902703,0.518230733074621
"CAN",1990,4,1992,3,1.5,"tv_cpi",1.3738338562341,0.436433483245668
"CAN",1991,1,1991,2,0,"tv_cpi",2.61382532415387,0.728160905900221
"CAN",1991,1,1991,3,0.25,"tv_cpi",2.65168059854233,0.602776511185432
"CAN",1991,1,1991,4,0.5,"tv_cpi",2.64538490434352,-0.160390549892142
"CAN",1991,1,1992,1,0.75,"tv_cpi",2.64643193850415,0.400487469734934
"CAN",1991,1,1992,2,1,"tv_cpi",2.64625780670885,0.518230733074621
"CAN",1991,1,1992,3,1.25,"tv_cpi",2.6462867664919,0.436433483245668
"CAN",1991,1,1992,4,1.5,"tv_cpi",2.64628195020299,0.43452204872283
"CAN",1991,2,1991,3,0,"tv_cpi",1.60725191001826,0.602776511185432
"CAN",1991,2,1991,4,0.25,"tv_cpi",1.24156462919674,-0.160390549892142
"CAN",1991,2,1992,1,0.5,"tv_cpi",1.3936844742733,0.400487469734934
"CAN",1991,2,1992,2,0.75,"tv_cpi",1.3304051411389,0.518230733074621
"CAN",1991,2,1992,3,1,"tv_cpi",1.35672829443898,0.436433483245668
"CAN",1991,2,1992,4,1.25,"tv_cpi",1.34577829915082,0.43452204872283
"CAN",1991,2,1993,1,1.5,"tv_cpi",1.35033331562031,0.706981692162945
"CAN",1991,3,1991,4,0,"tv_cpi",0.637406117706169,-0.160390549892142
"CAN",1991,3,1992,1,0.25,"tv_cpi",0.627841852148968,0.400487469734934
"CAN",1991,3,1992,2,0.5,"tv_cpi",0.630483383048081,0.518230733074621
"CAN",1991,3,1992,3,0.75,"tv_cpi",0.629753825148498,0.436433483245668
"CAN",1991,3,1992,4,1,"tv_cpi",0.629955319944195,0.43452204872283
"CAN",1991,3,1993,1,1.25,"tv_cpi",0.629899669593872,0.706981692162945
"CAN",1991,3,1993,2,1.5,"tv_cpi",0.629915039526779,0.195514019837706
"CAN",1991,4,1992,1,0,"tv_cpi",0.0325165441293121,0.400487469734934
"CAN",1991,4,1992,2,0.25,"tv_cpi",-0.0162449247832194,0.518230733074621
"CAN",1991,4,1992,3,0.5,"tv_cpi",-0.00391940164697156,0.436433483245668
"CAN",1991,4,1992,4,0.75,"tv_cpi",-0.00703494603007235,0.43452204872283
"CAN",1991,4,1993,1,1,"tv_cpi",-0.00624742434066633,0.706981692162945
"CAN",1991,4,1993,2,1.25,"tv_cpi",-0.00644648759736359,0.195514019837706
"CAN",1991,4,1993,3,1.5,"tv_cpi",-0.00639617002427325,0.389855442450138
"CAN",1992,1,1992,2,0,"tv_cpi",0.248845225435006,0.518230733074621
"CAN",1992,1,1992,3,0.25,"tv_cpi",0.289844104784225,0.436433483245668
"CAN",1992,1,1992,4,0.5,"tv_cpi",0.278759409251975,0.43452204872283
"CAN",1992,1,1993,1,0.75,"tv_cpi",0.281756332021402,0.706981692162945
"CAN",1992,1,1993,2,1,"tv_cpi",0.280946066546831,0.195514019837706
"CAN",1992,1,1993,3,1.25,"tv_cpi",0.281165134634264,0.389855442450138
"CAN",1992,1,1993,4,1.5,"tv_cpi",0.281105906111715,0.504568081301926
"CAN",1992,2,1992,3,0,"tv_cpi",0.487199968143501,0.436433483245668
"CAN",1992,2,1992,4,0.25,"tv_cpi",0.495378001815223,0.43452204872283
"CAN",1992,2,1993,1,0.5,"tv_cpi",0.493222713832981,0.706981692162945
"CAN",1992,2,1993,2,0.75,"tv_cpi",0.493790731338517,0.195514019837706
"CAN",1992,2,1993,3,1,"tv_cpi",0.493641032602546,0.389855442450138
"CAN",1992,2,1993,4,1.25,"tv_cpi",0.493680485104155,0.504568081301926
"CAN",1992,2,1994,1,1.5,"tv_cpi",0.493670087555551,-0.543476434298906
"CAN",1992,3,1992,4,0,"tv_cpi",0.457835393696784,0.43452204872283
"CAN",1992,3,1993,1,0.25,"tv_cpi",0.452235672778105,0.706981692162945
"CAN",1992,3,1993,2,0.5,"tv_cpi",0.453700816482856,0.195514019837706
"CAN",1992,3,1993,3,0.75,"tv_cpi",0.453317467721954,0.389855442450138
"CAN",1992,3,1993,4,1,"tv_cpi",0.453417769331966,0.504568081301926
"CAN",1992,3,1994,1,1.25,"tv_cpi",0.453391525832581,-0.543476434298906
"CAN",1992,3,1994,2,1.5,"tv_cpi",0.453398392335121,-0.350947089453157
"CAN",1992,4,1993,1,0,"tv_cpi",0.435037586827683,0.706981692162945
"CAN",1992,4,1993,2,0.25,"tv_cpi",0.43489853966997,0.195514019837706
"CAN",1992,4,1993,3,0.5,"tv_cpi",0.434936042449854,0.389855442450138
"CAN",1992,4,1993,4,0.75,"tv_cpi",0.434925927475034,0.504568081301926
"CAN",1992,4,1994,1,1,"tv_cpi",0.434928655611879,-0.543476434298906
"CAN",1992,4,1994,2,1.25,"tv_cpi",0.434927919798812,-0.350947089453157
"CAN",1992,4,1994,3,1.5,"tv_cpi",0.434928118256918,0.545381899008923
"CAN",1993,1,1993,2,0,"tv_cpi",0.639112016825292,0.195514019837706
"CAN",1993,1,1993,3,0.25,"tv_cpi",0.656018347510742,0.389855442450138
"CAN",1993,1,1993,4,0.5,"tv_cpi",0.651806981892389,0.504568081301926
"CAN",1993,1,1994,1,0.75,"tv_cpi",0.652856032730293,-0.543476434298906
"CAN",1993,1,1994,2,1,"tv_cpi",0.652594714250674,-0.350947089453157
"CAN",1993,1,1994,3,1.25,"tv_cpi",0.652659808662997,0.545381899008923
"CAN",1993,1,1994,4,1.5,"tv_cpi",0.652643593650106,0.31031442868148
"CAN",1993,2,1993,3,0,"tv_cpi",0.351300767301877,0.389855442450138
"CAN",1993,2,1993,4,0.25,"tv_cpi",0.303850044609803,0.504568081301926
"CAN",1993,2,1994,1,0.5,"tv_cpi",0.31830294975514,-0.543476434298906
"CAN",1993,2,1994,2,0.75,"tv_cpi",0.313900773027598,-0.350947089453157
"CAN",1993,2,1994,3,1,"tv_cpi",0.315241621787459,0.545381899008923
"CAN",1993,2,1994,4,1.25,"tv_cpi",0.314833215785589,0.31031442868148
"CAN",1993,2,1995,1,1.5,"tv_cpi",0.314957611218807,1.0019481442165
"CAN",1993,3,1993,4,0,"tv_cpi",0.319776794941213,0.504568081301926
"CAN",1993,3,1994,1,0.25,"tv_cpi",0.345046841700488,-0.543476434298906
"CAN",1993,3,1994,2,0.5,"tv_cpi",0.33593457589749,-0.350947089453157
"CAN",1993,3,1994,3,0.75,"tv_cpi",0.339220418177699,0.545381899008923
"CAN",1993,3,1994,4,1,"tv_cpi",0.338035558152341,0.31031442868148
"CAN",1993,3,1995,1,1.25,"tv_cpi",0.338462813376411,1.0019481442165
"CAN",1993,3,1995,2,1.5,"tv_cpi",0.338308747054155,0.801992688062469
"CAN",1993,4,1994,1,0,"tv_cpi",0.467046795386913,-0.543476434298906
"CAN",1993,4,1994,2,0.25,"tv_cpi",0.479319609531962,-0.350947089453157
"CAN",1993,4,1994,3,0.5,"tv_cpi",0.475305302362957,0.545381899008923
"CAN",1993,4,1994,4,0.75,"tv_cpi",0.476618339605815,0.31031442868148
"CAN",1993,4,1995,1,1,"tv_cpi",0.476188859068191,1.0019481442165
"CAN",1993,4,1995,2,1.25,"tv_cpi",0.476329337590945,0.801992688062469
"CAN",1993,4,1995,3,1.5,"tv_cpi",0.476283388558041,0.189987130897684
"CAN",1994,1,1994,2,0,"tv_cpi",-0.17514934028122,-0.350947089453157
"CAN",1994,1,1994,3,0.25,"tv_cpi",-0.304595032871614,0.545381899008923
"CAN",1994,1,1994,4,0.5,"tv_cpi",-0.259102350952857,0.31031442868148
"CAN",1994,1,1995,1,0.75,"tv_cpi",-0.27509040020151,1.0019481442165
"CAN",1994,1,1995,2,1,"tv_cpi",-0.269471524637439,0.801992688062469
"CAN",1994,1,1995,3,1.25,"tv_cpi",-0.27144623475457,0.189987130897684
"CAN",1994,1,1995,4,1.5,"tv_cpi",-0.270752238241881,0.0379627963394746
"CAN",1994,2,1994,3,0,"tv_cpi",-0.415680108784025,0.545381899008923
"CAN",1994,2,1994,4,0.25,"tv_cpi",-0.393915303034295,0.31031442868148
"CAN",1994,2,1995,1,0.5,"tv_cpi",-0.401233156800736,1.0019481442165
"CAN",1994,2,1995,2,0.75,"tv_cpi",-0.398772717485872,0.801992688062469
"CAN",1994,2,1995,3,1,"tv_cpi",-0.399599976654385,0.189987130897684
"CAN",1994,2,1995,4,1.25,"tv_cpi",-0.399321832126392,0.0379627963394746
"CAN",1994,2,1996,1,1.5,"tv_cpi",-0.399415351039687,0.416584944468834
"CAN",1994,3,1994,4,0,"tv_cpi",0.268337891085422,0.31031442868148
"CAN",1994,3,1995,1,0.25,"tv_cpi",0.353968706683621,1.0019481442165
"CAN",1994,3,1995,2,0.5,"tv_cpi",0.327501299447593,0.801992688062469
"CAN",1994,3,1995,3,0.75,"tv_cpi",0.335682041869629,0.189987130897684
"CAN",1994,3,1995,4,1,"tv_cpi",0.333153477360877,0.0379627963394746
"CAN",1994,3,1996,1,1.25,"tv_cpi",0.333935024822596,0.416584944468834
"CAN",1994,3,1996,2,1.5,"tv_cpi",0.333693458339793,0.79052054952351
"CAN",1994,4,1995,1,0,"tv_cpi",0.381361803971546,1.0019481442165
"CAN",1994,4,1995,2,0.25,"tv_cpi",0.35988826903889,0.801992688062469
"CAN",1994,4,1995,3,0.5,"tv_cpi",0.366378483499613,0.189987130897684
"CAN",1994,4,1995,4,0.75,"tv_cpi",0.36441686498276,0.0379627963394746
"CAN",1994,4,1996,1,1,"tv_cpi",0.365009749428867,0.416584944468834
"CAN",1994,4,1996,2,1.25,"tv_cpi",0.364830554563293,0.79052054952351
"CAN",1994,4,1996,3,1.5,"tv_cpi",0.364884714863936,0.149874121723226
"CAN",1995,1,1995,2,0,"tv_cpi",0.78557993346452,0.801992688062469
"CAN",1995,1,1995,3,0.25,"tv_cpi",0.853267788426592,0.189987130897684
"CAN",1995,1,1995,4,0.5,"tv_cpi",0.832092562669337,0.0379627963394746
"CAN",1995,1,1996,1,0.75,"tv_cpi",0.838716944341971,0.416584944468834
"CAN",1995,1,1996,2,1,"tv_cpi",0.836644596540451,0.79052054952351
"CAN",1995,1,1996,3,1.25,"tv_cpi",0.837292902393389,0.149874121723226
"CAN",1995,1,1996,4,1.5,"tv_cpi",0.83709008871576,0.597246179584676
"CAN",1995,2,1995,3,0,"tv_cpi",0.864409382850509,0.189987130897684
"CAN",1995,2,1995,4,0.25,"tv_cpi",0.844925824546092,0.0379627963394746
"CAN",1995,2,1996,1,0.5,"tv_cpi",0.851007675651645,0.416584944468834
"CAN",1995,2,1996,2,0.75,"tv_cpi",0.849109207605296,0.79052054952351
"CAN",1995,2,1996,3,1,"tv_cpi",0.849701820094562,0.149874121723226
"CAN",1995,2,1996,4,1.25,"tv_cpi",0.849516834330325,0.597246179584676
"CAN",1995,2,1997,1,1.5,"tv_cpi",0.849574578190925,0.556692742458331
"CAN",1995,3,1995,4,0,"tv_cpi",0.375932194732268,0.0379627963394746
"CAN",1995,3,1996,1,0.25,"tv_cpi",0.319436683605499,0.416584944468834
"CAN",1995,3,1996,2,0.5,"tv_cpi",0.33660166078561,0.79052054952351
"CAN",1995,3,1996,3,0.75,"tv_cpi",0.331386442165274,0.149874121723226
"CAN",1995,3,1996,4,1,"tv_cpi",0.332970977057019,0.597246179584676
"CAN",1995,3,1997,1,1.25,"tv_cpi",0.332489549334437,0.556692742458331
"CAN",1995,3,1997,2,1.5,"tv_cpi",0.33263582105952,0.295635791469806
"CAN",1995,4,1996,1,0,"tv_cpi",0.0821567343486218,0.416584944468834
"CAN",1995,4,1996,2,0.25,"tv_cpi",0.0693094216967877,0.79052054952351
"CAN",1995,4,1996,3,0.5,"tv_cpi",0.0730441746925451,0.149874121723226
"CAN",1995,4,1996,4,0.75,"tv_cpi",0.0719584705988312,0.597246179584676
"CAN",1995,4,1997,1,1,"tv_cpi",0.0722740880922628,0.556692742458331
"CAN",1995,4,1997,2,1.25,"tv_cpi",0.0721823371237099,0.295635791469806
"CAN",1995,4,1997,3,1.5,"tv_cpi",0.072209009410277,0.25797503179863
"CAN",1996,1,1996,2,0,"tv_cpi",0.305070513437368,0.79052054952351
"CAN",1996,1,1996,3,0.25,"tv_cpi",0.337914520027344,0.149874121723226
"CAN",1996,1,1996,4,0.5,"tv_cpi",0.328241074546749,0.597246179584676
"CAN",1996,1,1997,1,0.75,"tv_cpi",0.331090165056145,0.556692742458331
"CAN",1996,1,1997,2,1,"tv_cpi",0.330251031083972,0.295635791469806
"CAN",1996,1,1997,3,1.25,"tv_cpi",0.330498178663501,0.25797503179863
"CAN",1996,1,1997,4,1.5,"tv_cpi",0.330425387037738,-0.073647259255516
"CAN",1996,2,1996,3,0,"tv_cpi",0.683956764442868,0.149874121723226
"CAN",1996,2,1996,4,0.25,"tv_cpi",0.714325202583582,0.597246179584676
"CAN",1996,2,1997,1,0.5,"tv_cpi",0.705670836239439,0.556692742458331
"CAN",1996,2,1997,2,0.75,"tv_cpi",0.708137148681047,0.295635791469806
"CAN",1996,2,1997,3,1,"tv_cpi",0.707434301491807,0.25797503179863
"CAN",1996,2,1997,4,1.25,"tv_cpi",0.707634598162695,-0.073647259255516
"CAN",1996,2,1998,1,1.5,"tv_cpi",0.707577517822924,0.550953440040391
"CAN",1996,3,1996,4,0,"tv_cpi",0.340705700120386,0.597246179584676
"CAN",1996,3,1997,1,0.25,"tv_cpi",0.283862034514396,0.556692742458331
"CAN",1996,3,1997,2,0.5,"tv_cpi",0.300794254782473,0.295635791469806
"CAN",1996,3,1997,3,0.75,"tv_cpi",0.295750595473203,0.25797503179863
"CAN",1996,3,1997,4,1,"tv_cpi",0.297252967803898,-0.073647259255516
"CAN",1996,3,1998,1,1.25,"tv_cpi",0.296805450935364,0.550953440040391
"CAN",1996,3,1998,2,1.5,"tv_cpi",0.296938754340605,0.256087564166396
"CAN",1996,4,1997,1,0,"tv_cpi",0.464308659054456,0.556692742458331
"CAN",1996,4,1997,2,0.25,"tv_cpi",0.503811314739304,0.295635791469806
"CAN",1996,4,1997,3,0.5,"tv_cpi",0.492073019937868,0.25797503179863
"CAN",1996,4,1997,4,0.75,"tv_cpi",0.49556107820779,-0.073647259255516
"CAN",1996,4,1998,1,1,"tv_cpi",0.494524594570245,0.550953440040391
"CAN",1996,4,1998,2,1.25,"tv_cpi",0.494832587799648,0.256087564166396
"CAN",1996,4,1998,3,1.5,"tv_cpi",0.494741066982607,0.109549393622732
"CAN",1997,1,1997,2,0,"tv_cpi",0.568277913722909,0.295635791469806
"CAN",1997,1,1997,3,0.25,"tv_cpi",0.56496830046346,0.25797503179863
"CAN",1997,1,1997,4,0.5,"tv_cpi",0.565913779790176,-0.073647259255516
"CAN",1997,1,1998,1,0.75,"tv_cpi",0.56564367839549,0.550953440040391
"CAN",1997,1,1998,2,1,"tv_cpi",0.565720840065079,0.256087564166396
"CAN",1997,1,1998,3,1.25,"tv_cpi",0.565698796775518,0.109549393622732
"CAN",1997,1,1998,4,1.5,"tv_cpi",0.565705094029287,0.182311442729333
"CAN",1997,2,1997,3,0,"tv_cpi",0.369150418265096,0.25797503179863
"CAN",1997,2,1997,4,0.25,"tv_cpi",0.348448420741619,-0.073647259255516
"CAN",1997,2,1998,1,0.5,"tv_cpi",0.354278181704093,0.550953440040391
"CAN",1997,2,1998,2,0.75,"tv_cpi",0.352636498922466,0.256087564166396
"CAN",1997,2,1998,3,1,"tv_cpi",0.353098803015694,0.109549393622732
"CAN",1997,2,1998,4,1.25,"tv_cpi",0.352968616430924,0.182311442729333
"CAN",1997,2,1999,1,1.5,"tv_cpi",0.353005277466598,0.218341422147095
"CAN",1997,3,1997,4,0,"tv_cpi",0.26853437483671,-0.073647259255516
"CAN",1997,3,1998,1,0.25,"tv_cpi",0.265573740840758,0.550953440040391
"CAN",1997,3,1998,2,0.5,"tv_cpi",0.266403844913178,0.256087564166396
"CAN",1997,3,1998,3,0.75,"tv_cpi",0.266171099909239,0.109549393622732
"CAN",1997,3,1998,4,1,"tv_cpi",0.266236357072357,0.182311442729333
"CAN",1997,3,1999,1,1.25,"tv_cpi",0.266218060235621,0.218341422147095
"CAN",1997,3,1999,2,1.5,"tv_cpi",0.266223190312053,1.0846129043383
"CAN",1997,4,1998,1,0,"tv_cpi",0.0198442644576351,0.550953440040391
"CAN",1997,4,1998,2,0.25,"tv_cpi",-0.00651302587535869,0.256087564166396
"CAN",1997,4,1998,3,0.5,"tv_cpi",0.000917666513709801,0.109549393622732
"CAN",1997,4,1998,4,0.75,"tv_cpi",-0.00117720699883191,0.182311442729333
"CAN",1997,4,1999,1,1,"tv_cpi",-0.000586616673762756,0.218341422147095
"CAN",1997,4,1999,2,1.25,"tv_cpi",-0.000753116908730209,1.0846129043383
"CAN",1997,4,1999,3,1.5,"tv_cpi",-0.000706176877599542,0.680890936718725
"CAN",1998,1,1998,2,0,"tv_cpi",0.373187139992919,0.256087564166396
"CAN",1998,1,1998,3,0.25,"tv_cpi",0.423780835242045,0.109549393622732
"CAN",1998,1,1998,4,0.5,"tv_cpi",0.409381469342671,0.182311442729333
"CAN",1998,1,1999,1,0.75,"tv_cpi",0.413479642786676,0.218341422147095
"CAN",1998,1,1999,2,1,"tv_cpi",0.412313270205097,1.0846129043383
"CAN",1998,1,1999,3,1.25,"tv_cpi",0.412645229068636,0.680890936718725
"CAN",1998,1,1999,4,1.5,"tv_cpi",0.412550750950047,0.356498750269996
"CAN",1998,2,1998,3,0,"tv_cpi",0.345185042817694,0.109549393622732
"CAN",1998,2,1998,4,0.25,"tv_cpi",0.318263105246963,0.182311442729333
"CAN",1998,2,1999,1,0.5,"tv_cpi",0.326397911456227,0.218341422147095
"CAN",1998,2,1999,2,0.75,"tv_cpi",0.323939876187093,1.0846129043383
"CAN",1998,2,1999,3,1,"tv_cpi",0.324682602839564,0.680890936718725
"CAN",1998,2,1999,4,1.25,"tv_cpi",0.324458178525065,0.356498750269996
"CAN",1998,2,2000,1,1.5,"tv_cpi",0.324525991189079,0.496980776755063
"CAN",1998,3,1998,4,0,"tv_cpi",0.152527699651918,0.182311442729333
"CAN",1998,3,1999,1,0.25,"tv_cpi",0.139922555324775,0.218341422147095
"CAN",1998,3,1999,2,0.5,"tv_cpi",0.143619528942121,1.0846129043383
"CAN",1998,3,1999,3,0.75,"tv_cpi",0.142535240371309,0.680890936718725
"CAN",1998,3,1999,4,1,"tv_cpi",0.142853252298491,0.356498750269996
"CAN",1998,3,2000,1,1.25,"tv_cpi",0.142759982306948,0.496980776755063
"CAN",1998,3,2000,2,1.5,"tv_cpi",0.142787337542959,0.881380941246768
"CAN",1998,4,1999,1,0,"tv_cpi",0.16031152849636,0.218341422147095
"CAN",1998,4,1999,2,0.25,"tv_cpi",0.166963295897098,1.0846129043383
"CAN",1998,4,1999,3,0.5,"tv_cpi",0.164952105804038,0.680890936718725
"CAN",1998,4,1999,4,0.75,"tv_cpi",0.165560197660944,0.356498750269996
"CAN",1998,4,2000,1,1,"tv_cpi",0.165376338508241,0.496980776755063
"CAN",1998,4,2000,2,1.25,"tv_cpi",0.165431929103064,0.881380941246768
"CAN",1998,4,2000,3,1.5,"tv_cpi",0.165415121050882,0.943241478863577
"CAN",1999,1,1999,2,0,"tv_cpi",0.2076316853577,1.0846129043383
"CAN",1999,1,1999,3,0.25,"tv_cpi",0.210815102721563,0.680890936718725
"CAN",1999,1,1999,4,0.5,"tv_cpi",0.209868847336222,0.356498750269996
"CAN",1999,1,2000,1,0.75,"tv_cpi",0.210150117164191,0.496980776755063
"CAN",1999,1,2000,2,1,"tv_cpi",0.210066511070793,0.881380941246768
"CAN",1999,1,2000,3,1.25,"tv_cpi",0.21009136257692,0.943241478863577
"CAN",1999,1,2000,4,1.5,"tv_cpi",0.210083975587148,0.693001314700403
"CAN",1999,2,1999,3,0,"tv_cpi",0.824397093029722,0.680890936718725
"CAN",1999,2,1999,4,0.25,"tv_cpi",0.902562275477729,0.356498750269996
"CAN",1999,2,2000,1,0.5,"tv_cpi",0.879082550258861,0.496980776755063
"CAN",1999,2,2000,2,0.75,"tv_cpi",0.886135530615176,0.881380941246768
"CAN",1999,2,2000,3,1,"tv_cpi",0.884016914172996,0.943241478863577
"CAN",1999,2,2000,4,1.25,"tv_cpi",0.884653316857012,0.693001314700403
"CAN",1999,2,2001,1,1.5,"tv_cpi",0.88446215041076,0.206968662514129
"CAN",1999,3,1999,4,0,"tv_cpi",0.803644022916726,0.356498750269996
"CAN",1999,3,2000,1,0.25,"tv_cpi",0.766320514711365,0.496980776755063
"CAN",1999,3,2000,2,0.5,"tv_cpi",0.77766885883779,0.881380941246768
"CAN",1999,3,2000,3,0.75,"tv_cpi",0.774218354836313,0.943241478863577
"CAN",1999,3,2000,4,1,"tv_cpi",0.775267492730932,0.693001314700403
"CAN",1999,3,2001,1,1.25,"tv_cpi",0.77494849865892,0.206968662514129
"CAN",1999,3,2001,2,1.5,"tv_cpi",0.775045489930039,1.67439093095751
"CAN",1999,4,2000,1,0,"tv_cpi",0.457407714953476,0.496980776755063
"CAN",1999,4,2000,2,0.25,"tv_cpi",0.426017873955869,0.881380941246768
"CAN",1999,4,2000,3,0.5,"tv_cpi",0.435782339590272,0.943241478863577
"CAN",1999,4,2000,4,0.75,"tv_cpi",0.432744898619077,0.693001314700403
"CAN",1999,4,2001,1,1,"tv_cpi",0.433689758071599,0.206968662514129
"CAN",1999,4,2001,2,1.25,"tv_cpi",0.433395839805043,1.67439093095751
"CAN",1999,4,2001,3,1.5,"tv_cpi",0.433487269220481,0.101609145874004
"CAN",2000,1,2000,2,0,"tv_cpi",0.45420689176751,0.881380941246768
"CAN",2000,1,2000,3,0.25,"tv_cpi",0.467230659168266,0.943241478863577
"CAN",2000,1,2000,4,0.5,"tv_cpi",0.463265190112595,0.693001314700403
"CAN",2000,1,2001,1,0.75,"tv_cpi",0.464472593803678,0.206968662514129
"CAN",2000,1,2001,2,1,"tv_cpi",0.464104964236337,1.67439093095751
"CAN",2000,1,2001,3,1.25,"tv_cpi",0.464216899871271,0.101609145874004
"CAN",2000,1,2001,4,1.5,"tv_cpi",0.464182817774832,-0.918220643692003
"CAN",2000,2,2000,3,0,"tv_cpi",0.756215671116148,0.943241478863577
"CAN",2000,2,2000,4,0.25,"tv_cpi",0.796970973257048,0.693001314700403
"CAN",2000,2,2001,1,0.5,"tv_cpi",0.783700561657547,0.206968662514129
"CAN",2000,2,2001,2,0.75,"tv_cpi",0.788021565668543,1.67439093095751
"CAN",2000,2,2001,3,1,"tv_cpi",0.78661459531777,0.101609145874004
"CAN",2000,2,2001,4,1.25,"tv_cpi",0.787072721615019,-0.918220643692003
"CAN",2000,2,2002,1,1.5,"tv_cpi",0.786923550238298,0.680980424390487
"CAN",2000,3,2000,4,0,"tv_cpi",0.924934041477504,0.693001314700403
"CAN",2000,3,2001,1,0.25,"tv_cpi",0.930352071720324,0.206968662514129
"CAN",2000,3,2001,2,0.5,"tv_cpi",0.928748622199069,1.67439093095751
"CAN",2000,3,2001,3,0.75,"tv_cpi",0.929223158193146,0.101609145874004
"CAN",2000,3,2001,4,1,"tv_cpi",0.929082720713394,-0.918220643692003
"CAN",2000,3,2002,1,1.25,"tv_cpi",0.929124282757085,0.680980424390487
"CAN",2000,3,2002,2,1.5,"tv_cpi",0.929111982597051,1.481995338166
"CAN",2000,4,2001,1,0,"tv_cpi",0.762196892409783,0.206968662514129
"CAN",2000,4,2001,2,0.25,"tv_cpi",0.743063161457574,1.67439093095751
"CAN",2000,4,2001,3,0.5,"tv_cpi",0.74835395708745,0.101609145874004
"CAN",2000,4,2001,4,0.75,"tv_cpi",0.746890963881001,-0.918220643692003
"CAN",2000,4,2002,1,1,"tv_cpi",0.747295505895444,0.680980424390487
"CAN",2000,4,2002,2,1.25,"tv_cpi",0.747183643283418,1.481995338166
"CAN",2000,4,2002,3,1.5,"tv_cpi",0.747214575160757,1.0642054824225
"CAN",2001,1,2001,2,0,"tv_cpi",0.335970418352795,1.67439093095751
"CAN",2001,1,2001,3,0.25,"tv_cpi",0.301731045885529,0.101609145874004
"CAN",2001,1,2001,4,0.5,"tv_cpi",0.310818787516103,-0.918220643692003
"CAN",2001,1,2002,1,0.75,"tv_cpi",0.308406738404425,0.680980424390487
"CAN",2001,1,2002,2,1,"tv_cpi",0.309046939364537,1.481995338166
"CAN",2001,1,2002,3,1.25,"tv_cpi",0.308877018583346,1.0642054824225
"CAN",2001,1,2002,4,1.5,"tv_cpi",0.308922118596747,0.494970408705875
"CAN",2001,2,2001,3,0,"tv_cpi",1.20984444245562,0.101609145874004
"CAN",2001,2,2001,4,0.25,"tv_cpi",1.3569073871991,-0.918220643692003
"CAN",2001,2,2002,1,0.5,"tv_cpi",1.31035120767363,0.680980424390487
"CAN",2001,2,2002,2,0.75,"tv_cpi",1.32508964403357,1.481995338166
"CAN",2001,2,2002,3,1,"tv_cpi",1.32042385082308,1.0642054824225
"CAN",2001,2,2002,4,1.25,"tv_cpi",1.32190091567253,0.494970408705875
"CAN",2001,2,2003,1,1.5,"tv_cpi",1.32143331660179,1.34053425049219
"CAN",2001,3,2001,4,0,"tv_cpi",0.913520319759554,-0.918220643692003
"CAN",2001,3,2002,1,0.25,"tv_cpi",0.494390494800898,0.680980424390487
"CAN",2001,3,2002,2,0.5,"tv_cpi",0.710756294188993,1.481995338166
"CAN",2001,3,2002,3,0.75,"tv_cpi",0.59906259844814,1.0642054824225
"CAN",2001,3,2002,4,1,"tv_cpi",0.656721811242085,0.494970408705875
"CAN",2001,3,2003,1,1.25,"tv_cpi",0.626956614576635,1.34053425049219
"CAN",2001,3,2003,2,1.5,"tv_cpi",0.64232218912409,-0.162518800159273
"CAN",2001,4,2002,1,0,"tv_cpi",-0.676588294916392,0.680980424390487
"CAN",2001,4,2002,2,0.25,"tv_cpi",-0.733839213228618,1.481995338166
"CAN",2001,4,2002,3,0.5,"tv_cpi",-0.720274524294369,1.0642054824225
"CAN",2001,4,2002,4,0.75,"tv_cpi",-0.723488460267928,0.494970408705875
"CAN",2001,4,2003,1,1,"tv_cpi",-0.722726969570117,1.34053425049219
"CAN",2001,4,2003,2,1.25,"tv_cpi",-0.722907392605181,-0.162518800159273
"CAN",2001,4,2003,3,1.5,"tv_cpi",-0.722864644254249,0.389612147274132
"CAN",2002,1,2002,2,0,"tv_cpi",0.102293839011516,1.481995338166
"CAN",2002,1,2002,3,0.25,"tv_cpi",0.311697253492164,1.0642054824225
"CAN",2002,1,2002,4,0.5,"tv_cpi",0.235922574928572,0.494970408705875
"CAN",2002,1,2003,1,0.75,"tv_cpi",0.263342385277206,1.34053425049219
"CAN",2002,1,2003,2,1,"tv_cpi",0.253420258073142,-0.162518800159273
"CAN",2002,1,2003,3,1.25,"tv_cpi",0.25701067708049,0.389612147274132
"CAN",2002,1,2003,4,1.5,"tv_cpi",0.255711448761481,0.161887350326229
"CAN",2002,2,2002,3,0,"tv_cpi",1.29176718703702,1.0642054824225
"CAN",2002,2,2002,4,0.25,"tv_cpi",1.33694331155059,0.494970408705875
"CAN",2002,2,2003,1,0.5,"tv_cpi",1.326214709007,1.34053425049219
"CAN",2002,2,2003,2,0.75,"tv_cpi",1.32876257945356,-0.162518800159273
"CAN",2002,2,2003,3,1,"tv_cpi",1.32815750122589,0.389612147274132
"CAN",2002,2,2003,4,1.25,"tv_cpi",1.32830119756732,0.161887350326229
"CAN",2002,2,2004,1,1.5,"tv_cpi",1.32826707199876,0.516302486589382
"CAN",2002,3,2002,4,0,"tv_cpi",1.15891431992967,0.494970408705875
"CAN",2002,3,2003,1,0.25,"tv_cpi",1.13744476106258,1.34053425049219
"CAN",2002,3,2003,2,0.5,"tv_cpi",1.14231169819411,-0.162518800159273
"CAN",2002,3,2003,3,0.75,"tv_cpi",1.14120841157379,0.389612147274132
"CAN",2002,3,2003,4,1,"tv_cpi",1.14145851576327,0.161887350326229
"CAN",2002,3,2004,1,1.25,"tv_cpi",1.14140181961157,0.516302486589382
"CAN",2002,3,2004,2,1.5,"tv_cpi",1.14141467206968,1.12019049884955
"CAN",2002,4,2003,1,0,"tv_cpi",0.616498685419402,1.34053425049219
"CAN",2002,4,2003,2,0.25,"tv_cpi",0.5905531266812,-0.162518800159273
"CAN",2002,4,2003,3,0.5,"tv_cpi",0.596092347975552,0.389612147274132
"CAN",2002,4,2003,4,0.75,"tv_cpi",0.594909757426726,0.161887350326229
"CAN",2002,4,2004,1,1,"tv_cpi",0.595162233421429,0.516302486589382
"CAN",2002,4,2004,2,1.25,"tv_cpi",0.595108331309693,1.12019049884955
"CAN",2002,4,2004,3,1.5,"tv_cpi",0.595119839087504,0.190779686386655
"CAN",2003,1,2003,2,0,"tv_cpi",1.13900021678062,-0.162518800159273
"CAN",2003,1,2003,3,0.25,"tv_cpi",1.18703439792329,0.389612147274132
"CAN",2003,1,2003,4,0.5,"tv_cpi",1.17558579782556,0.161887350326229
"CAN",2003,1,2004,1,0.75,"tv_cpi",1.17831448895924,0.516302486589382
"CAN",2003,1,2004,2,1,"tv_cpi",1.17766412513838,1.12019049884955
"CAN",2003,1,2004,3,1.25,"tv_cpi",1.17781913465714,0.190779686386655
"CAN",2003,1,2004,4,1.5,"tv_cpi",1.17778218925807,0.443738244572423
"CAN",2003,2,2003,3,0,"tv_cpi",0.292528161202393,0.389612147274132
"CAN",2003,2,2003,4,0.25,"tv_cpi",0.154763405025133,0.161887350326229
"CAN",2003,2,2004,1,0.5,"tv_cpi",0.196471469590134,0.516302486589382
"CAN",2003,2,2004,2,0.75,"tv_cpi",0.183844418245304,1.12019049884955
"CAN",2003,2,2004,3,1,"tv_cpi",0.18766723830008,0.190779686386655
"CAN",2003,2,2004,4,1.25,"tv_cpi",0.186509885504712,0.443738244572423
"CAN",2003,2,2005,1,1.5,"tv_cpi",0.18686027225422,0.347274516510243
"CAN",2003,3,2003,4,0,"tv_cpi",0.217617706010108,0.161887350326229
"CAN",2003,3,2004,1,0.25,"tv_cpi",0.27119573485134,0.516302486589382
"CAN",2003,3,2004,2,0.5,"tv_cpi",0.254505630488576,1.12019049884955
"CAN",2003,3,2004,3,0.75,"tv_cpi",0.259704768823161,0.190779686386655
"CAN",2003,3,2004,4,1,"tv_cpi",0.25808518401802,0.443738244572423
"CAN",2003,3,2005,1,1.25,"tv_cpi",0.258589701261502,0.347274516510243
"CAN",2003,3,2005,2,1.5,"tv_cpi",0.258432538976352,0.909809206981915
"CAN",2003,4,2004,1,0,"tv_cpi",0.2325055299433,0.516302486589382
"CAN",2003,4,2004,2,0.25,"tv_cpi",0.210606609143868,1.12019049884955
"CAN",2003,4,2004,3,0.5,"tv_cpi",0.217397533729863,0.190779686386655
"CAN",2003,4,2004,4,0.75,"tv_cpi",0.215291646542314,0.443738244572423
"CAN",2003,4,2005,1,1,"tv_cpi",0.215944688818152,0.347274516510243
"CAN",2003,4,2005,2,1.25,"tv_cpi",0.215742178343444,0.909809206981915
"CAN",2003,4,2005,3,1.5,"tv_cpi",0.215804977482005,0.870659028490195
"CAN",2004,1,2004,2,0,"tv_cpi",0.406804501557132,1.12019049884955
"CAN",2004,1,2004,3,0.25,"tv_cpi",0.440634345430449,0.190779686386655
"CAN",2004,1,2004,4,0.5,"tv_cpi",0.430182478794219,0.443738244572423
"CAN",2004,1,2005,1,0.75,"tv_cpi",0.433411625124028,0.347274516510243
"CAN",2004,1,2005,2,1,"tv_cpi",0.432413967348413,0.909809206981915
"CAN",2004,1,2005,3,1.25,"tv_cpi",0.43272219773985,0.870659028490195
"CAN",2004,1,2005,4,1.5,"tv_cpi",0.432626968717908,0.0618966252139863
"CAN",2004,2,2004,3,0,"tv_cpi",0.940802849499676,0.190779686386655
"CAN",2004,2,2004,4,0.25,"tv_cpi",0.994090757333504,0.443738244572423
"CAN",2004,2,2005,1,0.5,"tv_cpi",0.978261344708958,0.347274516510243
"CAN",2004,2,2005,2,0.75,"tv_cpi",0.982963542904081,0.909809206981915
"CAN",2004,2,2005,3,1,"tv_cpi",0.981566733787365,0.870659028490195
"CAN",2004,2,2005,4,1.25,"tv_cpi",0.981981662216066,0.0618966252139863
"CAN",2004,2,2006,1,1.5,"tv_cpi",0.981858405860646,0.493821971686703
"CAN",2004,3,2004,4,0,"tv_cpi",0.499553214715845,0.443738244572423
"CAN",2004,3,2005,1,0.25,"tv_cpi",0.396970922237229,0.347274516510243
"CAN",2004,3,2005,2,0.5,"tv_cpi",0.431051326691297,0.909809206981915
"CAN",2004,3,2005,3,0.75,"tv_cpi",0.419728963545679,0.870659028490195
"CAN",2004,3,2005,4,1,"tv_cpi",0.423490535899494,0.0618966252139863
"CAN",2004,3,2006,1,1.25,"tv_cpi",0.422240847438613,0.493821971686703
"CAN",2004,3,2006,2,1.5,"tv_cpi",0.422656025215979,1.10228056003638
"CAN",2004,4,2005,1,0,"tv_cpi",0.362730440031653,0.347274516510243
"CAN",2004,4,2005,2,0.25,"tv_cpi",0.388672493321253,0.909809206981915
"CAN",2004,4,2005,3,0.5,"tv_cpi",0.380364773679971,0.870659028490195
"CAN",2004,4,2005,4,0.75,"tv_cpi",0.383025249505368,0.0618966252139863
"CAN",2004,4,2006,1,1,"tv_cpi",0.38217325498423,0.493821971686703
"CAN",2004,4,2006,2,1.25,"tv_cpi",0.382446098908283,1.10228056003638
"CAN",2004,4,2006,3,1.5,"tv_cpi",0.382358722986202,0.0608907052648711
"CAN",2005,1,2005,2,0,"tv_cpi",0.38041443094764,0.909809206981915
"CAN",2005,1,2005,3,0.25,"tv_cpi",0.369029281824956,0.870659028490195
"CAN",2005,1,2005,4,0.5,"tv_cpi",0.372940626279107,0.0618966252139863
"CAN",2005,1,2006,1,0.75,"tv_cpi",0.371596891974517,0.493821971686703
"CAN",2005,1,2006,2,1,"tv_cpi",0.372058529118087,1.10228056003638
"CAN",2005,1,2006,3,1.25,"tv_cpi",0.371899934631368,0.0608907052648711
"CAN",2005,1,2006,4,1.5,"tv_cpi",0.371954419439551,-0.304790201733152
"CAN",2005,2,2005,3,0,"tv_cpi",0.720689004080433,0.870659028490195
"CAN",2005,2,2005,4,0.25,"tv_cpi",0.78426988495999,0.0618966252139863
"CAN",2005,2,2006,1,0.5,"tv_cpi",0.762894440394047,0.493821971686703
"CAN",2005,2,2006,2,0.75,"tv_cpi",0.770080714381934,1.10228056003638
"CAN",2005,2,2006,3,1,"tv_cpi",0.767664739655904,0.0608907052648711
"CAN",2005,2,2006,4,1.25,"tv_cpi",0.768476973351231,-0.304790201733152
"CAN",2005,2,2007,1,1.5,"tv_cpi",0.768203906100685,0.941833670279557
"CAN",2005,3,2005,4,0,"tv_cpi",0.883638153008755,0.0618966252139863
"CAN",2005,3,2006,1,0.25,"tv_cpi",0.879335294637269,0.493821971686703
"CAN",2005,3,2006,2,0.5,"tv_cpi",0.880761784547169,1.10228056003638
"CAN",2005,3,2006,3,0.75,"tv_cpi",0.880288872522797,0.0608907052648711
"CAN",2005,3,2006,4,1,"tv_cpi",0.880445653009812,-0.304790201733152
"CAN",2005,3,2007,1,1.25,"tv_cpi",0.880393676913113,0.941833670279557
"CAN",2005,3,2007,2,1.5,"tv_cpi",0.880410908104822,1.47083255589164
"CAN",2005,4,2006,1,0,"tv_cpi",0.323017112034838,0.493821971686703
"CAN",2005,4,2006,2,0.25,"tv_cpi",0.238710635421493,1.10228056003638
"CAN",2005,4,2006,3,0.5,"tv_cpi",0.265930184854368,0.0608907052648711
"CAN",2005,4,2006,4,0.75,"tv_cpi",0.257141964766287,-0.304790201733152
"CAN",2005,4,2007,1,1,"tv_cpi",0.259979367071825,0.941833670279557
"CAN",2005,4,2007,2,1.25,"tv_cpi",0.259063271234126,1.47083255589164
"CAN",2005,4,2007,3,1.5,"tv_cpi",0.259359045852414,0
"CAN",2006,1,2006,2,0,"tv_cpi",0.345543232777461,1.10228056003638
"CAN",2006,1,2006,3,0.25,"tv_cpi",0.39644690071931,0.0608907052648711
"CAN",2006,1,2006,4,0.5,"tv_cpi",0.378971816772717,-0.304790201733152
"CAN",2006,1,2007,1,0.75,"tv_cpi",0.384970963224979,0.941833670279557
"CAN",2006,1,2007,2,1,"tv_cpi",0.38291147336698,1.47083255589164
"CAN",2006,1,2007,3,1.25,"tv_cpi",0.383618490358306,0
"CAN",2006,1,2007,4,1.5,"tv_cpi",0.383375773442715,-0.0298056861587348
"CAN",2006,2,2006,3,0,"tv_cpi",0.900709159710372,0.0608907052648711
"CAN",2006,2,2006,4,0.25,"tv_cpi",0.967486143727627,-0.304790201733152
"CAN",2006,2,2007,1,0.5,"tv_cpi",0.945364128465399,0.941833670279557
"CAN",2006,2,2007,2,0.75,"tv_cpi",0.95269275473483,1.47083255589164
"CAN",2006,2,2007,3,1,"tv_cpi",0.950264912498924,0
"CAN",2006,2,2007,4,1.25,"tv_cpi",0.951069213019342,-0.0298056861587348
"CAN",2006,2,2008,1,1.5,"tv_cpi",0.950802762704911,0.327329834585477
"CAN",2006,3,2006,4,0,"tv_cpi",0.43279328546426,-0.304790201733152
"CAN",2006,3,2007,1,0.25,"tv_cpi",0.299978923460215,0.941833670279557
"CAN",2006,3,2007,2,0.5,"tv_cpi",0.34740977146639,1.47083255589164
"CAN",2006,3,2007,3,0.75,"tv_cpi",0.330471201656324,0
"CAN",2006,3,2007,4,1,"tv_cpi",0.336520327051955,-0.0298056861587348
"CAN",2006,3,2008,1,1.25,"tv_cpi",0.334360055053648,0.327329834585477
"CAN",2006,3,2008,2,1.5,"tv_cpi",0.335131534367011,2.02918956180236
"CAN",2006,4,2007,1,0,"tv_cpi",-0.18473043674609,0.941833670279557
"CAN",2006,4,2007,2,0.25,"tv_cpi",-0.22414826494795,1.47083255589164
"CAN",2006,4,2007,3,0.5,"tv_cpi",-0.211206667233522,0
"CAN",2006,4,2007,4,0.75,"tv_cpi",-0.215455631700676,-0.0298056861587348
"CAN",2006,4,2008,1,1,"tv_cpi",-0.214060618546851,0.327329834585477
"CAN",2006,4,2008,2,1.25,"tv_cpi",-0.214518627013241,2.02918956180236
"CAN",2006,4,2008,3,1.5,"tv_cpi",-0.214368254413019,1.04258444528922
"CAN",2007,1,2007,2,0,"tv_cpi",0.513930840801177,1.47083255589164
"CAN",2007,1,2007,3,0.25,"tv_cpi",0.660808207412152,0
"CAN",2007,1,2007,4,0.5,"tv_cpi",0.61039264729802,-0.0298056861587348
"CAN",2007,1,2008,1,0.75,"tv_cpi",0.62769775536381,0.327329834585477
"CAN",2007,1,2008,2,1,"tv_cpi",0.621757788328023,2.02918956180236
"CAN",2007,1,2008,3,1.25,"tv_cpi",0.623796678131664,1.04258444528922
"CAN",2007,1,2008,4,1.5,"tv_cpi",0.62309683053885,-1.50947114900948
"CAN",2007,2,2007,3,0,"tv_cpi",1.32458314770506,0
"CAN",2007,2,2007,4,0.25,"tv_cpi",1.36501591604667,-0.0298056861587348
"CAN",2007,2,2008,1,0.5,"tv_cpi",1.3538376912864,0.327329834585477
"CAN",2007,2,2008,2,0.75,"tv_cpi",1.35692807351637,2.02918956180236
"CAN",2007,2,2008,3,1,"tv_cpi",1.35607369256303,1.04258444528922
"CAN",2007,2,2008,4,1.25,"tv_cpi",1.35630989855928,-1.50947114900948
"CAN",2007,2,2009,1,1.5,"tv_cpi",1.35624459598852,-0.322247506666695
"CAN",2007,3,2007,4,0,"tv_cpi",0.452606872642369,-0.0298056861587348
"CAN",2007,3,2008,1,0.25,"tv_cpi",0.313329984635956,0.327329834585477
"CAN",2007,3,2008,2,0.5,"tv_cpi",0.356188484374378,2.02918956180236
"CAN",2007,3,2008,3,0.75,"tv_cpi",0.343000000440535,1.04258444528922
"CAN",2007,3,2008,4,1,"tv_cpi",0.347058381147625,-1.50947114900948
"CAN",2007,3,2009,1,1.25,"tv_cpi",0.34580952994939,-0.322247506666695
"CAN",2007,3,2009,2,1.5,"tv_cpi",0.346193828374771,0.847337933786196
"CAN",2007,4,2008,1,0,"tv_cpi",-0.0214917078239074,0.327329834585477
"CAN",2007,4,2008,2,0.25,"tv_cpi",-0.0238108034281441,2.02918956180236
"CAN",2007,4,2008,3,0.5,"tv_cpi",-0.0231639164379458,1.04258444528922
"CAN",2007,4,2008,4,0.75,"tv_cpi",-0.0233443586660813,-1.50947114900948
"CAN",2007,4,2009,1,1,"tv_cpi",-0.0232940262306052,-0.322247506666695
"CAN",2007,4,2009,2,1.25,"tv_cpi",-0.0233080659267846,0.847337933786196
"CAN",2007,4,2009,3,1.5,"tv_cpi",-0.0233041497032412,0.116316949660789
"CAN",2008,1,2008,2,0,"tv_cpi",0.227403480850497,2.02918956180236
"CAN",2008,1,2008,3,0.25,"tv_cpi",0.255362828467224,1.04258444528922
"CAN",2008,1,2008,4,0.5,"tv_cpi",0.247539815919141,-1.50947114900948
"CAN",2008,1,2009,1,0.75,"tv_cpi",0.249728691216462,-0.322247506666695
"CAN",2008,1,2009,2,1,"tv_cpi",0.249116244919364,0.847337933786196
"CAN",2008,1,2009,3,1.25,"tv_cpi",0.249287607110389,0.116316949660789
"CAN",2008,1,2009,4,1.5,"tv_cpi",0.249239660048496,0.145197920492812
"CAN",2008,2,2008,3,0,"tv_cpi",1.59775343109391,1.04258444528922
"CAN",2008,2,2008,4,0.25,"tv_cpi",1.70712621423455,-1.50947114900948
"CAN",2008,2,2009,1,0.5,"tv_cpi",1.67939926964072,-0.322247506666695
"CAN",2008,2,2009,2,0.75,"tv_cpi",1.68642828942456,0.847337933786196
"CAN",2008,2,2009,3,1,"tv_cpi",1.68464637223731,0.116316949660789
"CAN",2008,2,2009,4,1.25,"tv_cpi",1.68509810362516,0.145197920492812
"CAN",2008,2,2010,1,1.5,"tv_cpi",1.68498358581916,0.492110663284873
"CAN",2008,3,2008,4,0,"tv_cpi",1.32412951484649,-1.50947114900948
"CAN",2008,3,2009,1,0.25,"tv_cpi",1.24378569251547,-0.322247506666695
"CAN",2008,3,2009,2,0.5,"tv_cpi",1.26671321100091,0.847337933786196
"CAN",2008,3,2009,3,0.75,"tv_cpi",1.26017044158007,0.116316949660789
"CAN",2008,3,2009,4,1,"tv_cpi",1.26203753555805,0.145197920492812
"CAN",2008,3,2010,1,1.25,"tv_cpi",1.261504727553,0.492110663284873
"CAN",2008,3,2010,2,1.5,"tv_cpi",1.26165677365973,0.633283564390474
"CAN",2008,4,2009,1,0,"tv_cpi",-1.06284610390531,-0.322247506666695
"CAN",2008,4,2009,2,0.25,"tv_cpi",-1.14100816720829,0.847337933786196
"CAN",2008,4,2009,3,0.5,"tv_cpi",-1.12732933704248,0.116316949660789
"CAN",2008,4,2009,4,0.75,"tv_cpi",-1.12972321441467,0.145197920492812
"CAN",2008,4,2010,1,1,"tv_cpi",-1.12930427150774,0.492110663284873
"CAN",2008,4,2010,2,1.25,"tv_cpi",-1.12937758903073,0.633283564390474
"CAN",2008,4,2010,3,1.5,"tv_cpi",-1.12936475802419,0.543707395001736
"CAN",2009,1,2009,2,0,"tv_cpi",-0.598151167401602,0.847337933786196
"CAN",2009,1,2009,3,0.25,"tv_cpi",-0.534032809838652,0.116316949660789
"CAN",2009,1,2009,4,0.5,"tv_cpi",-0.548933531944403,0.145197920492812
"CAN",2009,1,2010,1,0.75,"tv_cpi",-0.545470693410917,0.492110663284873
"CAN",2009,1,2010,2,1,"tv_cpi",-0.546275436337058,0.633283564390474
"CAN",2009,1,2010,3,1.25,"tv_cpi",-0.546088418902976,0.543707395001736
"CAN",2009,1,2010,4,1.5,"tv_cpi",-0.546131880634064,0.569151753397001
"CAN",2009,2,2009,3,0,"tv_cpi",0.633263340893959,0.116316949660789
"CAN",2009,2,2009,4,0.25,"tv_cpi",0.672446396476655,0.145197920492812
"CAN",2009,2,2010,1,0.5,"tv_cpi",0.665274541918606,0.492110663284873
"CAN",2009,2,2010,2,0.75,"tv_cpi",0.666587239385327,0.633283564390474
"CAN",2009,2,2010,3,1,"tv_cpi",0.66634697034122,0.543707395001736
"CAN",2009,2,2010,4,1.25,"tv_cpi",0.666390947887471,0.569151753397001
"CAN",2009,2,2011,1,1.5,"tv_cpi",0.666382898475274,0.819570688633764
"CAN",2009,3,2009,4,0,"tv_cpi",0.262248821151498,0.145197920492812
"CAN",2009,3,2010,1,0.25,"tv_cpi",0.233116810471587,0.492110663284873
"CAN",2009,3,2010,2,0.5,"tv_cpi",0.238932360135859,0.633283564390474
"CAN",2009,3,2010,3,0.75,"tv_cpi",0.237771416654504,0.543707395001736
"CAN",2009,3,2010,4,1,"tv_cpi",0.238003172867538,0.569151753397001
"CAN",2009,3,2011,1,1.25,"tv_cpi",0.237956907960466,0.819570688633764
"CAN",2009,3,2011,2,1.5,"tv_cpi",0.237966143706936,1.36967971541564
"CAN",2009,4,2010,1,0,"tv_cpi",0.139356502411703,0.492110663284873
"CAN",2009,4,2010,2,0.25,"tv_cpi",0.14053797811059,0.633283564390474
"CAN",2009,4,2010,3,0.5,"tv_cpi",0.140299014761677,0.543707395001736
"CAN",2009,4,2010,4,0.75,"tv_cpi",0.14034734709909,0.569151753397001
"CAN",2009,4,2011,1,1,"tv_cpi",0.140337571479313,0.819570688633764
