isdrw/probabilistic-benchmark-forecasts/results/gauss_quantiles_prediction/unbiased VAR est/fitted_mean/gauss_prediction_arima_auto_2026-02-15_11-28.csv
"country","target","tau","target_year","target_quarter","forecast_year","forecast_quarter","horizon","lower_bound","upper_bound","truth_value","prediction","covered","IS"
"CAN","cpi",0.1,1959,3,1959,NA,0,1.1695382444406,1.21137037449172,1.19382698397654,1.24991216431293,TRUE,0.0418321300511275
"CAN","cpi",0.1,1959,3,1959,NA,0.5,0.518237322155606,0.998322034583893,1.19382698397654,0.437839731590327,FALSE,0.91454015552306
"CAN","cpi",0.1,1959,3,1958,NA,1,-0.450492279085088,0.386596370599408,1.19382698397654,1.75862762885946,FALSE,2.63093445718924
"CAN","cpi",0.1,1959,3,1958,NA,1.5,1.35907160438363,3.06859443308593,1.19382698397654,1.77407172713766,FALSE,2.07673309627361
"CAN","cpi",0.1,1960,3,1960,NA,0,0.967689379749062,1.00454216180156,1.34209404870695,1.02361304259477,FALSE,0.786968086286706
"CAN","cpi",0.1,1960,3,1960,NA,0.5,0.718685268851799,1.19658029725048,1.34209404870695,0.53898348018166,FALSE,0.801258920524171
"CAN","cpi",0.1,1960,3,1959,NA,1,1.39384664470487,2.08260071180678,1.34209404870695,3.95759373689442,FALSE,0.803759835986178
"CAN","cpi",0.1,1960,3,1959,NA,1.5,-1.97547825306337,-0.3721414412539,1.34209404870695,-0.873476815404885,FALSE,5.41274901172247
"CAN","cpi",0.1,1961,3,1961,NA,0,0.985576054005371,1.03088309981516,1.00921348094007,1.00921348094007,TRUE,0.0453070458097838
"CAN","cpi",0.1,1961,3,1961,NA,0.5,1.64566933028663,1.99389042677751,1.00921348094007,1.00921348094007,FALSE,1.76256742837212
"CAN","cpi",0.1,1961,3,1960,NA,1,-2.069453313298,-1.49450433025971,1.00921348094007,0.0537704626035329,FALSE,6.13876634126003
"CAN","cpi",0.1,1961,3,1960,NA,1.5,-1.09214241402773,0.421012492035167,1.00921348094007,-0.862181798940035,FALSE,2.82026821474046
"CAN","cpi",0.1,1962,3,1962,NA,0,1.05882604865605,1.09926428156725,1.04957947883042,1.10232402731478,FALSE,0.0609861658570508
"CAN","cpi",0.1,1962,3,1962,NA,0.5,0.383295142252296,0.679466739755859,1.04957947883042,0,FALSE,1.11864435100258
"CAN","cpi",0.1,1962,3,1961,NA,1,-1.82489249401155,-1.21660531386089,1.04957947883042,0,FALSE,5.64425338613133
"CAN","cpi",0.1,1962,3,1961,NA,1.5,0.957027960922456,2.20570372936987,1.04957947883042,0,TRUE,1.24867576844741
"CAN","cpi",0.1,1963,3,1963,NA,0,1.86979962990877,1.9102923046239,1.60677118395228,1.91491729531202,FALSE,0.625000332396213
"CAN","cpi",0.1,1963,3,1963,NA,0.5,1.22725611991017,1.52426416776465,1.60677118395228,0.836828714617504,FALSE,0.480356972715887
"CAN","cpi",0.1,1963,3,1962,NA,1,0.620905465372297,1.16676567833357,1.60677118395228,2.56411490415144,FALSE,1.52365022544731
"CAN","cpi",0.1,1963,3,1962,NA,1.5,0.133549352897718,1.02633300623325,1.60677118395228,0,FALSE,2.18264627048894
"CAN","cpi",0.1,1964,3,1964,NA,0,1.90896575581667,1.95413804074386,1.88764670034376,1.98877256446048,FALSE,0.0925479637558807
"CAN","cpi",0.1,1964,3,1964,NA,0.5,2.16678916136269,2.29984489476934,1.88764670034376,1.38369006227607,FALSE,0.75337231344872
"CAN","cpi",0.1,1964,3,1963,NA,1,3.92776960187582,4.3629238911169,1.88764670034376,5.39044290347256,FALSE,4.9687607370901
"CAN","cpi",0.1,1964,3,1963,NA,1.5,0.798994395710851,1.56193305009031,1.88764670034376,0,FALSE,1.48674676605379
"CAN","cpi",0.1,1965,3,1965,NA,0,2.26202260572791,2.30731825744485,2.29538304394236,2.34557047418999,TRUE,0.0452956517169394
"CAN","cpi",0.1,1965,3,1965,NA,0.5,2.35916405799829,2.49472760899962,2.29538304394236,1.61079447956654,FALSE,0.277299137792284
"CAN","cpi",0.1,1965,3,1964,NA,1,0.673053206016288,1.07595250853686,2.29538304394236,2.42518862179847,FALSE,3.11274493675501
"CAN","cpi",0.1,1965,3,1964,NA,1.5,2.60058487986989,3.00348418239046,2.29538304394236,0.818102552316399,FALSE,1.08112560458175
"CAN","cpi",0.1,1966,3,1966,NA,0,3.75458756146135,3.79748998617776,3.72486065470629,3.82010987863709,FALSE,0.108962217505429
"CAN","cpi",0.1,1966,3,1966,NA,0.5,4.71094434983871,4.84587858493749,3.72486065470629,3.99123398895563,FALSE,2.32623133539304
"CAN","cpi",0.1,1966,3,1965,NA,1,1.69176203851475,2.09567767580866,3.72486065470629,3.20722068745854,FALSE,4.02432225706643
"CAN","cpi",0.1,1966,3,1965,NA,1.5,3.34728882907949,3.7512044663734,3.72486065470629,1.60663824631958,TRUE,0.403915637293912
"CAN","cpi",0.1,1967,3,1967,NA,0,3.68857082875113,3.7307287548672,3.49360316391996,3.76768849328632,FALSE,0.475419403518678
"CAN","cpi",0.1,1967,3,1967,NA,0.5,3.00672891119643,3.16235509631283,3.49360316391996,2.4074547441976,FALSE,0.891733002021137
"CAN","cpi",0.1,1967,3,1966,NA,1,2.0156336026538,2.41291973238782,3.49360316391996,3.18103323070284,FALSE,2.79880486647212
"CAN","cpi",0.1,1967,3,1966,NA,1.5,6.39969657597492,6.79698270570893,3.49360316391996,4.65128160487248,FALSE,6.85527148985614
"CAN","cpi",0.1,1968,3,1968,NA,0,4.08944624916851,4.1327779806563,3.95128347779386,4.17287945672396,FALSE,0.350360112320353
"CAN","cpi",0.1,1968,3,1968,NA,0.5,4.60445945910613,4.71883639803518,3.95128347779386,4.07097205779852,FALSE,1.565879119623
"CAN","cpi",0.1,1968,3,1967,NA,1,4.65550475365409,5.07770519262095,3.95128347779386,5.84521682123848,FALSE,1.98713660754515
"CAN","cpi",0.1,1968,3,1967,NA,1.5,3.59373346328096,4.01593390224783,3.95128347779386,2.25565858240226,TRUE,0.422200438966863
"CAN","cpi",0.1,1969,3,1969,NA,0,4.38018694459847,4.42452302130088,4.42679496126681,4.46896837073893,FALSE,0.0493848321822606
"CAN","cpi",0.1,1969,3,1969,NA,0.5,3.39427303806035,3.5144627600451,4.42679496126681,2.96612019395715,FALSE,2.14759461358857
"CAN","cpi",0.1,1969,3,1968,NA,1,5.7488811869943,6.07942325669915,4.42679496126681,6.72487630040807,FALSE,3.26851146021037
"CAN","cpi",0.1,1969,3,1968,NA,1.5,5.38801142256994,5.71855349227479,4.42679496126681,4.31664452944541,FALSE,2.46657865037845
"CAN","cpi",0.1,1970,3,1970,NA,0,3.42571073095964,3.46771011333091,3.28128405769805,3.52697515579364,FALSE,0.362947545174816
"CAN","cpi",0.1,1970,3,1970,NA,0.5,5.19747017182336,5.33321085086011,3.28128405769805,4.65371085276917,FALSE,4.39393204375967
"CAN","cpi",0.1,1970,3,1969,NA,1,3.52828502345528,3.86721282026095,3.28128405769805,4.52747875087707,FALSE,0.887818831821748
"CAN","cpi",0.1,1970,3,1969,NA,1.5,3.02793989717668,3.36686769398235,3.28128405769805,2.07973847283129,TRUE,0.338927796805669
"CAN","cpi",0.1,1971,3,1971,NA,0,2.71995576120107,2.76368748410706,2.64123406634756,2.8393232579169,FALSE,0.218668822580444
"CAN","cpi",0.1,1971,3,1971,NA,0.5,2.38436568744834,2.58575257154196,2.64123406634756,2.06692165705507,FALSE,0.324679094772733
"CAN","cpi",0.1,1971,3,1970,NA,1,1.58906266329313,1.90970774337593,2.64123406634756,2.64105994583495,FALSE,1.94625913113087
"CAN","cpi",0.1,1971,3,1970,NA,1.5,5.75910011062312,6.07974519070592,2.64123406634756,4.63977638900468,FALSE,7.24923628958405
"CAN","cpi",0.1,1972,3,1972,NA,0,4.87250771350279,4.89952922561199,4.83230569625923,5.03048103188219,FALSE,0.116359328206008
"CAN","cpi",0.1,1972,3,1972,NA,0.5,5.3647164790672,5.56407688761734,4.83230569625923,5.06705904355972,FALSE,1.38249548145674
"CAN","cpi",0.1,1972,3,1971,NA,1,5.0864694173153,5.43959020794614,4.83230569625923,5.9169160270675,FALSE,0.917929059644337
"CAN","cpi",0.1,1972,3,1971,NA,1.5,3.81274962195996,4.1658704125908,4.83230569625923,3.09276495441271,FALSE,1.8340880876718
"CAN","cpi",0.1,1973,3,1973,NA,0,6.81798283772804,6.84235528228107,7.12388603531779,6.99264756193144,FALSE,0.649996340190184
"CAN","cpi",0.1,1973,3,1973,NA,0.5,5.74915803391123,5.95223274710905,7.12388603531779,5.47469896411854,FALSE,2.80674868699502
"CAN","cpi",0.1,1973,3,1972,NA,1,5.68147933780163,6.02107511752796,7.12388603531779,6.69062283747837,FALSE,2.79028670814818
"CAN","cpi",0.1,1973,3,1972,NA,1.5,5.44650283267949,5.78609861240582,7.12388603531779,4.73174243586486,FALSE,3.31245671953071
"CAN","cpi",0.1,1974,3,1974,NA,0,9.7824113727564,9.81471349319243,10.2717243737774,9.94431520564033,FALSE,1.04788185506933
"CAN","cpi",0.1,1974,3,1974,NA,0.5,8.65836489350735,8.87837835655292,10.2717243737774,8.3378654175141,FALSE,3.31633794576668
"CAN","cpi",0.1,1974,3,1973,NA,1,6.11016285567521,6.43333687176528,10.2717243737774,7.16712422635118,FALSE,8.85292402056149
"CAN","cpi",0.1,1974,3,1973,NA,1.5,4.88028119345425,5.23643293084834,10.2717243737774,4.05174749178054,FALSE,11.5456882772365
"CAN","cpi",0.1,1975,3,1975,NA,0,9.98251910535536,10.0278955786316,10.0232981493341,10.0931823619779,TRUE,0.0453764732762352
"CAN","cpi",0.1,1975,3,1975,NA,0.5,9.39532305640502,9.64266006001518,10.0232981493341,8.98267476097328,FALSE,1.09319942431892
"CAN","cpi",0.1,1975,3,1974,NA,1,7.03633049945148,7.4790524685566,10.0232981493341,7.7837982223054,FALSE,6.09660125972183
"CAN","cpi",0.1,1975,3,1974,NA,1.5,6.91883983157462,7.45177608770901,10.0232981493341,5.75931605308519,FALSE,6.24742972641241
"CAN","cpi",0.1,1976,3,1976,NA,0,6.96495416024126,7.01033519909214,7.22784311401172,7.07277954951717,FALSE,0.528731960894382
"CAN","cpi",0.1,1976,3,1976,NA,0.5,9.05088533990529,9.30110523611545,7.22784311401172,8.59089060438327,FALSE,4.30142484264032
"CAN","cpi",0.1,1976,3,1975,NA,1,10.2042690419364,10.615866860336,7.22784311401172,10.4141477685142,FALSE,7.02587765823226
"CAN","cpi",0.1,1976,3,1975,NA,1.5,7.78517238360401,8.35989413328014,7.22784311401172,6.43051086134862,FALSE,1.813231237659
"CAN","cpi",0.1,1977,3,1977,NA,0,7.46208201743453,7.51098963884036,7.58101410153764,7.55301151664772,FALSE,0.204517538510909
"CAN","cpi",0.1,1977,3,1977,NA,0.5,8.23560393580069,8.52562496739174,7.58101410153764,7.98165850021887,FALSE,1.74466510773115
"CAN","cpi",0.1,1977,3,1976,NA,1,3.20070299482995,3.67810324844141,7.58101410153764,3.72134649143602,FALSE,9.15053548271421
"CAN","cpi",0.1,1977,3,1976,NA,1.5,9.29380357663994,9.87205515452054,7.58101410153764,8.00272044475614,FALSE,4.38445041144127
"CAN","cpi",0.1,1978,3,1978,NA,0,8.59133768886838,8.64067716107352,8.50208927062595,8.67127840358843,FALSE,0.247669290521657
"CAN","cpi",0.1,1978,3,1978,NA,0.5,8.61950811827643,8.91164550005105,8.50208927062595,8.3788273181893,FALSE,0.55306815433125
"CAN","cpi",0.1,1978,3,1977,NA,1,7.28431999473815,7.85511122359198,8.50208927062595,7.54783828416051,FALSE,2.00852022226265
"CAN","cpi",0.1,1978,3,1977,NA,1.5,10.7773788907318,11.3724888501963,8.50208927062595,9.72562756342223,FALSE,5.65130911525527
"CAN","cpi",0.1,1979,3,1979,NA,0,8.49453633016557,8.54152155295866,8.65147652410481,8.56376390232469,FALSE,0.291329603117876
"CAN","cpi",0.1,1979,3,1979,NA,0.5,8.45188876275043,8.73852565175452,8.65147652410481,8.29599284966764,TRUE,0.286636889004086
"CAN","cpi",0.1,1979,3,1978,NA,1,8.99587117047445,9.57078277212181,8.65147652410481,9.20311500508918,FALSE,1.34023303802434
"CAN","cpi",0.1,1979,3,1978,NA,1.5,9.60134781289721,10.1982284857279,8.65147652410481,8.55646910152924,FALSE,2.70770575903599
"CAN","cpi",0.1,1980,3,1980,NA,0,9.46370362635662,9.50919882165869,9.5171912664748,9.50406722106931,FALSE,0.063256183782304
"CAN","cpi",0.1,1980,3,1980,NA,0.5,8.77814885119269,9.06265310603187,9.5171912664748,8.57798914335092,FALSE,1.29458905582346
"CAN","cpi",0.1,1980,3,1979,NA,1,8.10377508988772,8.6582065281029,9.5171912664748,8.17875203710815,FALSE,2.46328641237496
"CAN","cpi",0.1,1980,3,1979,NA,1.5,9.28825445424526,9.89145760386973,9.5171912664748,8.39204766062112,TRUE,0.60320314962447
"CAN","cpi",0.1,1981,3,1981,NA,0,11.6760491272456,11.721548758176,11.5813425032741,11.7113878984199,FALSE,0.255958795311381
"CAN","cpi",0.1,1981,3,1981,NA,0.5,12.373568794504,12.6476810185384,11.5813425032741,12.2156196752767,FALSE,2.0346150934341
"CAN","cpi",0.1,1981,3,1980,NA,1,11.3234475447899,11.8415862414997,11.5813425032741,11.0496853423024,TRUE,0.518138696709805
"CAN","cpi",0.1,1981,3,1980,NA,1.5,9.32992362309441,9.92643317073665,11.5813425032741,8.33809792174894,FALSE,4.27408584217
"CAN","cpi",0.1,1982,3,1982,NA,0,10.2333398108715,10.2758423993751,10.1124203763629,10.2566668151097,FALSE,0.311212442967016
"CAN","cpi",0.1,1982,3,1982,NA,0.5,10.3454277581455,10.5958629214285,10.1124203763629,10.1085355973545,FALSE,0.768229345022062
"CAN","cpi",0.1,1982,3,1981,NA,1,12.2171177012088,12.7137685583877,10.1124203763629,11.770988683124,FALSE,5.17375602350305
"CAN","cpi",0.1,1982,3,1981,NA,1.5,14.0386190143134,14.6530100056684,10.1124203763629,12.8701250351281,FALSE,9.33927685346716
"CAN","cpi",0.1,1983,3,1983,NA,0,5.71327768054752,5.75438477419969,5.67091787896303,5.7310121416489,FALSE,0.135239986062134
"CAN","cpi",0.1,1983,3,1983,NA,0.5,5.09812703280645,5.34923865765457,5.67091787896303,4.91343016009654,FALSE,0.965954338866934
"CAN","cpi",0.1,1983,3,1982,NA,1,9.46550287593936,9.99181948249881,5.67091787896303,9.18500149866057,FALSE,8.95872771095129
"CAN","cpi",0.1,1983,3,1982,NA,1.5,10.7716430792455,11.4151523862114,5.67091787896303,9.68672301569366,FALSE,11.9784541964825
"CAN","cpi",0.1,1984,3,1984,NA,0,NA,NA,4.19799576814029,NA,NA,NA
"CAN","cpi",0.1,1984,3,1984,NA,0.5,6.13378587541726,6.38254068191564,4.19799576814029,5.85770686024457,FALSE,4.55051060044721
"CAN","cpi",0.1,1984,3,1983,NA,1,5.7879682733185,6.38869583156543,4.19799576814029,5.76553357996429,FALSE,4.13399979197629
"CAN","cpi",0.1,1984,3,1983,NA,1.5,3.42243817143877,4.18408409819659,4.19799576814029,2.9197996794717,FALSE,0.792560748854931
"CAN","cpi",0.1,1985,3,1985,NA,0,NA,NA,3.86444262005169,3.85417990135378,NA,NA
"CAN","cpi",0.1,1985,3,1985,NA,0.5,4.18487137013188,4.45422446649649,3.86444262005169,4.21990042382899,FALSE,0.981416985431686
"CAN","cpi",0.1,1985,3,1984,NA,1,NA,NA,3.86444262005169,NA,NA,NA
"CAN","cpi",0.1,1985,3,1984,NA,1.5,9.03602541786367,9.78835478788369,3.86444262005169,8.62999660305356,FALSE,12.24473558738
"CAN","cpi",0.1,1986,3,1986,NA,0,NA,NA,4.08685396749431,4.03771389199993,NA,NA
"CAN","cpi",0.1,1986,3,1986,NA,0.5,4.16236610602393,4.38507612210056,4.08685396749431,4.38219332503529,FALSE,0.390514768364671
"CAN","cpi",0.1,1986,3,1985,NA,1,NA,NA,4.08685396749431,3.37849976080849,NA,NA
"CAN","cpi",0.1,1986,3,1985,NA,1.5,4.3815254571511,5.09168947232669,4.08685396749431,4.95309858900956,FALSE,1.36498954774623
"CAN","cpi",0.1,1987,3,1987,NA,0,NA,NA,4.23980729277887,NA,NA,NA
"CAN","cpi",0.1,1987,3,1987,NA,0.5,3.80293075297496,4.00406572924396,4.23980729277887,4.13342161080085,FALSE,0.72500511745769
"CAN","cpi",0.1,1987,3,1986,NA,1,NA,NA,4.23980729277887,3.66140988164798,NA,NA
"CAN","cpi",0.1,1987,3,1986,NA,1.5,3.81743927673202,4.42166534345798,4.23980729277887,4.80242768143514,TRUE,0.604226066725966
"CAN","cpi",0.1,1988,3,1988,NA,0,NA,NA,3.92899537638065,3.9438316199536,NA,NA
"CAN","cpi",0.1,1988,3,1988,NA,0.5,3.16866299339866,3.34704424173472,3.92899537638065,3.35419215340812,FALSE,1.47160599199368
"CAN","cpi",0.1,1988,3,1987,NA,1,NA,NA,3.92899537638065,NA,NA,NA
"CAN","cpi",0.1,1988,3,1987,NA,1.5,2.79218984463324,3.38403388661188,3.92899537638065,3.89461929526446,FALSE,1.80286957479814
"CAN","cpi",0.1,1989,3,1989,NA,0,NA,NA,4.82821664544208,4.95130318392835,NA,NA
"CAN","cpi",0.1,1989,3,1989,NA,0.5,4.13102694371784,4.31414895256872,4.82821664544208,4.23024942747073,FALSE,1.32549465968056
"CAN","cpi",0.1,1989,3,1988,NA,1,NA,NA,4.82821664544208,4.05841794603162,NA,NA
"CAN","cpi",0.1,1989,3,1988,NA,1.5,1.53543860969612,2.13015772693783,4.82821664544208,2.597843559383,FALSE,6.5904056028067
"CAN","cpi",0.1,1990,3,1990,NA,0,NA,NA,4.64347549432717,4.4746950192663,NA,NA
"CAN","cpi",0.1,1990,3,1990,NA,0.5,4.90600854102757,5.09472192664614,4.64347549432717,4.96487168902479,FALSE,0.7721201560639
"CAN","cpi",0.1,1990,3,1989,NA,1,NA,NA,4.64347549432717,5.43871373969076,NA,NA
"CAN","cpi",0.1,1990,3,1989,NA,1.5,2.60510975729771,3.23929134811106,4.64347549432717,3.3732540002381,FALSE,3.75459080462693
"CAN","cpi",0.1,1991,3,1991,NA,0,NA,NA,5.4258100696218,5.61053369942382,NA,NA
"CAN","cpi",0.1,1991,3,1991,NA,0.5,7.70173490523229,7.89016902682832,5.4258100696218,7.82199295477594,FALSE,5.24604486739713
"CAN","cpi",0.1,1991,3,1990,NA,1,NA,NA,5.4258100696218,3.66716818384097,NA,NA
"CAN","cpi",0.1,1991,3,1990,NA,1.5,4.15725259471302,4.80395476923256,5.4258100696218,4.82481948664164,FALSE,2.02860284205118
"CAN","cpi",0.1,1992,3,1992,NA,0,NA,NA,1.47496888572843,NA,NA,NA
"CAN","cpi",0.1,1992,3,1992,NA,0.5,NA,NA,1.47496888572843,NA,NA,NA
"CAN","cpi",0.1,1992,3,1991,NA,1,NA,NA,1.47496888572843,2.76780571233213,NA,NA
"CAN","cpi",0.1,1992,3,1991,NA,1.5,6.43733142041568,7.07770007383663,1.47496888572843,7.14938182660169,FALSE,11.667840952726
"CAN","cpi",0.1,1993,3,1993,NA,0,NA,NA,NA,NA,NA,NA
"CAN","cpi",0.1,1993,3,1993,NA,0.5,NA,NA,NA,NA,NA,NA
"CAN","cpi",0.1,1993,3,1992,NA,1,NA,NA,NA,NA,NA,NA
"CAN","cpi",0.1,1993,3,1992,NA,1.5,NA,NA,NA,NA,NA,NA
"CAN","cpi",0.1,1994,3,1994,NA,0,NA,NA,NA,NA,NA,NA
"CAN","cpi",0.1,1994,3,1994,NA,0.5,NA,NA,NA,NA,NA,NA
"CAN","cpi",0.1,1994,3,1993,NA,1,NA,NA,NA,NA,NA,NA
"CAN","cpi",0.1,1994,3,1993,NA,1.5,NA,NA,NA,NA,NA,NA
"CAN","cpi",0.1,1995,3,1995,NA,0,NA,NA,2.11688403676572,NA,NA,NA
"CAN","cpi",0.1,1995,3,1995,NA,0.5,NA,NA,2.11688403676572,2.51937811073084,NA,NA
"CAN","cpi",0.1,1995,3,1994,NA,1,NA,NA,2.11688403676572,0.719396410821945,NA,NA
"CAN","cpi",0.1,1995,3,1994,NA,1.5,NA,NA,2.11688403676572,-1.04654603924828,NA,NA
"CAN","cpi",0.1,1996,3,1996,NA,0,NA,NA,1.55309584667184,1.42780748357026,NA,NA
"CAN","cpi",0.1,1996,3,1996,NA,0.5,NA,NA,1.55309584667184,NA,NA,NA
"CAN","cpi",0.1,1996,3,1995,NA,1,NA,NA,1.55309584667184,NA,NA,NA
"CAN","cpi",0.1,1996,3,1995,NA,1.5,NA,NA,1.55309584667184,2.92232271175447,NA,NA
"CAN","cpi",0.1,1997,3,1997,NA,0,NA,NA,1.60528783555959,1.73535847807117,NA,NA
"CAN","cpi",0.1,1997,3,1997,NA,0.5,NA,NA,1.60528783555959,2.11078363597796,NA,NA
"CAN","cpi",0.1,1997,3,1996,NA,1,NA,NA,1.60528783555959,0.984961337307556,NA,NA
"CAN","cpi",0.1,1997,3,1996,NA,1.5,NA,NA,1.60528783555959,NA,NA,NA
"CAN","cpi",0.1,1998,3,1998,NA,0,NA,NA,0.988908029337191,1.0350847138471,NA,NA
"CAN","cpi",0.1,1998,3,1998,NA,0.5,NA,NA,0.988908029337191,1.68533655437107,NA,NA
"CAN","cpi",0.1,1998,3,1997,NA,1,NA,NA,0.988908029337191,2.25159584334757,NA,NA
"CAN","cpi",0.1,1998,3,1997,NA,1.5,NA,NA,0.988908029337191,2.38987816876076,NA,NA
"CAN","cpi",0.1,1999,3,1999,NA,0,NA,NA,1.7107350135213,1.77618438459462,NA,NA
"CAN","cpi",0.1,1999,3,1999,NA,0.5,NA,NA,1.7107350135213,1.0290924799153,NA,NA
"CAN","cpi",0.1,1999,3,1998,NA,1,NA,NA,1.7107350135213,1.85177544064205,NA,NA
"CAN","cpi",0.1,1999,3,1998,NA,1.5,NA,NA,1.7107350135213,2.94645730787123,NA,NA
"CAN","cpi",0.1,2000,3,2000,NA,0,NA,NA,2.6718361971244,2.7102541785615,NA,NA
"CAN","cpi",0.1,2000,3,2000,NA,0.5,NA,NA,2.6718361971244,2.34405201403356,NA,NA
"CAN","cpi",0.1,2000,3,1999,NA,1,NA,NA,2.6718361971244,3.07542936781209,NA,NA
"CAN","cpi",0.1,2000,3,1999,NA,1.5,NA,NA,2.6718361971244,2.27809035801724,NA,NA
"CAN","cpi",0.1,2001,3,2001,NA,0,NA,NA,2.47906219852806,2.77546584984351,NA,NA
"CAN","cpi",0.1,2001,3,2001,NA,0.5,NA,NA,2.47906219852806,2.43566755503104,NA,NA
"CAN","cpi",0.1,2001,3,2000,NA,1,NA,NA,2.47906219852806,3.68958695319843,NA,NA
"CAN","cpi",0.1,2001,3,2000,NA,1.5,NA,NA,2.47906219852806,3.01270789712173,NA,NA
"CAN","cpi",0.1,2002,3,2002,NA,0,NA,NA,2.20880570551249,2.27196234986351,NA,NA
"CAN","cpi",0.1,2002,3,2002,NA,0.5,NA,NA,2.20880570551249,1.58345411989126,NA,NA
"CAN","cpi",0.1,2002,3,2001,NA,1,NA,NA,2.20880570551249,2.26510423845898,NA,NA
"CAN","cpi",0.1,2002,3,2001,NA,1.5,NA,NA,2.20880570551249,3.02058043279009,NA,NA
"CAN","cpi",0.1,2003,3,2003,NA,0,NA,NA,2.71189071546809,2.71326702620668,NA,NA
"CAN","cpi",0.1,2003,3,2003,NA,0.5,NA,NA,2.71189071546809,4.51432649273496,NA,NA
"CAN","cpi",0.1,2003,3,2002,NA,1,NA,NA,2.71189071546809,3.85618281746238,NA,NA
"CAN","cpi",0.1,2003,3,2002,NA,1.5,NA,NA,2.71189071546809,2.39402389849184,NA,NA
"CAN","cpi",0.1,2004,3,2004,NA,0,NA,NA,1.83151661303942,1.77466852383015,NA,NA
"CAN","cpi",0.1,2004,3,2004,NA,0.5,NA,NA,1.83151661303942,1.55260435151936,NA,NA
"CAN","cpi",0.1,2004,3,2003,NA,1,NA,NA,1.83151661303942,1.79415792598285,NA,NA
"CAN","cpi",0.1,2004,3,2003,NA,1.5,NA,NA,1.83151661303942,4.26699272545716,NA,NA
"CAN","cpi",0.1,2005,3,2005,NA,0,NA,NA,2.18071628336509,2.34345353472953,NA,NA
"CAN","cpi",0.1,2005,3,2005,NA,0.5,NA,NA,2.18071628336509,1.50321338317329,NA,NA
"CAN","cpi",0.1,2005,3,2004,NA,1,NA,NA,2.18071628336509,1.64043962712234,NA,NA
"CAN","cpi",0.1,2005,3,2004,NA,1.5,NA,NA,2.18071628336509,2.03393284113233,NA,NA
"CAN","cpi",0.1,2006,3,2006,NA,0,NA,NA,1.97519342012289,2.09514376892657,NA,NA
"CAN","cpi",0.1,2006,3,2006,NA,0.5,NA,NA,1.97519342012289,2.09436263599022,NA,NA
"CAN","cpi",0.1,2006,3,2005,NA,1,NA,NA,1.97519342012289,2.9582912060806,NA,NA
"CAN","cpi",0.1,2006,3,2005,NA,1.5,NA,NA,1.97519342012289,1.64885961980806,NA,NA
"CAN","cpi",0.1,2007,3,2007,NA,0,2.02528671330315,2.05354892259859,2.10062087284572,2.10683622102307,FALSE,0.132866543177957
"CAN","cpi",0.1,2007,3,2007,NA,0.5,NA,NA,2.10062087284572,2.17629902083353,NA,NA
"CAN","cpi",0.1,2007,3,2006,NA,1,NA,NA,2.10062087284572,1.50861692709856,NA,NA
"CAN","cpi",0.1,2007,3,2006,NA,1.5,NA,NA,2.10062087284572,2.15918616350405,NA,NA
"CAN","cpi",0.1,2008,3,2008,NA,0,2.77940127780862,2.80344125333645,2.31447335265955,2.87079455148828,FALSE,1.05721314252576
"CAN","cpi",0.1,2008,3,2008,NA,0.5,1.16568302839874,1.35176520022526,2.31447335265955,1.31005314695267,FALSE,2.3254336216805
"CAN","cpi",0.1,2008,3,2007,NA,1,1.067042046904,1.25329371636951,2.31447335265955,1.47031049982668,FALSE,2.54442863899894
"CAN","cpi",0.1,2008,3,2007,NA,1.5,NA,NA,2.31447335265955,2.46453195342394,NA,NA
"CAN","cpi",0.1,2009,3,2009,NA,0,0.0472378751750291,0.0907601445443573,0.284533874408197,0.187122346349721,FALSE,0.474130557955639
"CAN","cpi",0.1,2009,3,2009,NA,0.5,-0.0847011506194675,0.111074744176768,0.284533874408197,-0.0727492620466167,FALSE,0.581240628643856
"CAN","cpi",0.1,2009,3,2008,NA,1,3.43011845748882,3.62589435228506,0.284533874408197,3.81780026356951,FALSE,7.18596385719762
"CAN","cpi",0.1,2009,3,2008,NA,1.5,1.07909273110513,1.30504978243885,0.284533874408197,1.68675152630419,FALSE,1.99164339954912
"CAN","cpi",0.1,2010,3,2010,NA,0,1.48077909712717,1.52707250690327,1.75525687020327,1.6089956646354,FALSE,0.553369772664988
"CAN","cpi",0.1,2010,3,2010,NA,0.5,1.99926003690634,2.18638606972034,1.75525687020327,1.91109502526183,FALSE,0.729355292154155
"CAN","cpi",0.1,2010,3,2009,NA,1,0.362485583589681,0.629685807825418,1.75525687020327,0.992295788494754,FALSE,2.76846925174208
"CAN","cpi",0.1,2010,3,2009,NA,1.5,0.256709260941029,0.523909485176767,1.75525687020327,0.885103052815867,FALSE,3.00352774651686
"CAN","cpi",0.1,2011,3,2011,NA,0,2.75579865490313,2.80586273321506,2.85717434028225,2.86665414062098,FALSE,0.164089871794566
"CAN","cpi",0.1,2011,3,2011,NA,0.5,2.77956507566015,2.96328940221747,2.85717434028225,2.76583381894771,TRUE,0.183724326557327
"CAN","cpi",0.1,2011,3,2010,NA,1,0.838752692209152,1.11908391630705,2.85717434028225,1.39294644169719,FALSE,4.14275438848722
"CAN","cpi",0.1,2011,3,2010,NA,1.5,1.19901459700292,1.47934582110082,2.85717434028225,1.64253060592363,FALSE,3.3421723778344
"CAN","cpi",0.1,2012,3,2012,NA,0,1.41989005963253,1.47017475170402,1.50118536134935,1.52822510849394,FALSE,0.119197157949997
"CAN","cpi",0.1,2012,3,2012,NA,0.5,1.91699403844076,2.09978348431426,1.50118536134935,1.92429021972789,FALSE,1.10680872829886
"CAN","cpi",0.1,2012,3,2011,NA,1,1.60198536344125,1.90846704139901,1.50118536134935,1.99945242447079,FALSE,0.530481682606434
"CAN","cpi",0.1,2012,3,2011,NA,1.5,2.09954541951547,2.40602709747324,1.50118536134935,2.48150957397962,FALSE,1.63617069610471
"CAN","cpi",0.1,2013,3,2013,NA,0,0.974043366210617,1.02115675190605,0.931270594714462,1.05630513423211,FALSE,0.142163989020221
"CAN","cpi",0.1,2013,3,2013,NA,0.5,1.11791437922877,1.30473370391899,0.931270594714462,1.16963454554932,FALSE,0.60158329027758
"CAN","cpi",0.1,2013,3,2012,NA,1,0.756679518385932,1.06173121855104,0.931270594714462,1.08868089128742,TRUE,0.305051700165103
"CAN","cpi",0.1,2013,3,2012,NA,1.5,1.72387549209776,2.02892719226287,0.931270594714462,2.14573179530527,FALSE,2.06639591657244
"CAN","cpi",0.1,2014,3,2014,NA,0,1.91060671691978,1.95798958924106,1.87639912240215,1.99862849145116,FALSE,0.123399749027128
"CAN","cpi",0.1,2014,3,2014,NA,0.5,1.66491267675329,1.84606664850302,1.87639912240215,1.79231976082687,FALSE,0.248559469303347
"CAN","cpi",0.1,2014,3,2013,NA,1,1.06378055728596,1.37218423645113,1.87639912240215,1.40664989819898,FALSE,1.42888120350077
"CAN","cpi",0.1,2014,3,2013,NA,1.5,1.05422106386109,1.36262474302627,1.87639912240215,1.51436121777893,FALSE,1.45012452222269
"CAN","cpi",0.1,2015,3,2015,NA,0,1.11136278470308,1.15861626372186,1.11090953952792,1.2103065042478,FALSE,0.048260690519145
"CAN","cpi",0.1,2015,3,2015,NA,0.5,0.540361973581367,0.646075213974072,1.11090953952792,0.458547315718059,FALSE,1.13867840829014
"CAN","cpi",0.1,2015,3,2014,NA,1,1.37590624949923,1.68131643571123,1.11090953952792,1.57054781428135,FALSE,0.894291763926023
"CAN","cpi",0.1,2015,3,2014,NA,1.5,1.42766324139278,1.73307342760478,1.11090953952792,1.88229109541157,FALSE,1.00930730146725
"CAN","cpi",0.1,2016,3,2016,NA,0,1.30380623286511,1.3497649648806,1.41168586698797,1.41630667471992,FALSE,0.18356073669852
"CAN","cpi",0.1,2016,3,2016,NA,0.5,1.29209210411956,1.40459361100187,1.41168586698797,1.17972158292925,FALSE,0.128262075740305
"CAN","cpi",0.1,2016,3,2015,NA,1,1.6385396626566,1.9149556310591,1.41168586698797,1.8638656605167,FALSE,0.780535514332805
"CAN","cpi",0.1,2016,3,2015,NA,1.5,0.781380605358102,1.0577965737606,1.41168586698797,1.07023002715086,FALSE,1.06283662001887
"CAN","cpi",0.1,2017,3,2017,NA,0,1.40681532596711,1.45274481957075,1.57888581671161,1.50492692646759,FALSE,0.326242820583324
"CAN","cpi",0.1,2017,3,2017,NA,0.5,2.16670518901598,2.27126270477466,1.57888581671161,2.09086618282141,FALSE,1.41082278754617
"CAN","cpi",0.1,2017,3,2016,NA,1,0.831240053908995,1.10711829859862,1.57888581671161,1.14652050352824,FALSE,1.32425050716294
"CAN","cpi",0.1,2017,3,2016,NA,1.5,0.996997775985247,1.27287602067487,1.57888581671161,1.26788084523026,FALSE,0.95590001366016
"CAN","cpi",0.1,2018,3,2018,NA,0,2.33212114969871,2.37919211810704,2.23316270166586,2.41317537496083,FALSE,0.266978630703553
"CAN","cpi",0.1,2018,3,2018,NA,0.5,2.56339066735563,2.67760703795109,2.23316270166586,2.52809119314695,FALSE,0.84805629435051
"CAN","cpi",0.1,2018,3,2017,NA,1,0.982538934279413,1.2561373766102,2.23316270166586,1.16800101916097,FALSE,2.44476583134336
"CAN","cpi",0.1,2018,3,2017,NA,1.5,1.80184732464138,2.07544576697217,2.23316270166586,2.07298402260093,FALSE,0.624080519427876
"CAN","cpi",0.1,2019,3,2019,NA,0,NA,NA,1.91921619871868,NA,NA,NA
"CAN","cpi",0.1,2019,3,2019,NA,0.5,1.48705494189649,1.60447280436581,1.91921619871868,1.47328806303322,FALSE,0.816847627697915
"CAN","cpi",0.1,2019,3,2018,NA,1,2.09006618646921,2.36804238643562,1.91921619871868,2.23470281046333,FALSE,0.657642839412033
"CAN","cpi",0.1,2019,3,2018,NA,1.5,2.06686586432714,2.34484206429356,1.91921619871868,2.32030562567512,FALSE,0.606086567985224
"CAN","cpi",0.1,2020,3,2020,NA,0,NA,NA,0.71139989671781,0.673588636713597,NA,NA
"CAN","cpi",0.1,2020,3,2020,NA,0.5,NA,NA,0.71139989671781,NA,NA,NA
"CAN","cpi",0.1,2020,3,2019,NA,1,NA,NA,0.71139989671781,NA,NA,NA
"CAN","cpi",0.1,2020,3,2019,NA,1.5,1.53056992223345,1.74899462539653,0.71139989671781,1.77705491937904,FALSE,2.03880253764229
"CAN","cpi",0.1,2021,3,2021,NA,0,NA,NA,3.31148121717802,3.2525646654712,NA,NA
"CAN","cpi",0.1,2021,3,2021,NA,0.5,NA,NA,3.31148121717802,2.16773480502693,NA,NA
"CAN","cpi",0.1,2021,3,2020,NA,1,NA,NA,3.31148121717802,1.61070774476322,NA,NA
"CAN","cpi",0.1,2021,3,2020,NA,1.5,NA,NA,3.31148121717802,NA,NA,NA
"CAN","cpi",0.1,2022,3,2022,NA,0,NA,NA,6.50977236228281,6.58682891800883,NA,NA
"CAN","cpi",0.1,2022,3,2022,NA,0.5,NA,NA,6.50977236228281,5.58900513180898,NA,NA
"CAN","cpi",0.1,2022,3,2021,NA,1,NA,NA,6.50977236228281,3.35597076522593,NA,NA
"CAN","cpi",0.1,2022,3,2021,NA,1.5,NA,NA,6.50977236228281,1.89458222166426,NA,NA
"CAN","cpi",0.1,2023,3,2023,NA,0,NA,NA,3.78831288758619,3.96221561415741,NA,NA
"CAN","cpi",0.1,2023,3,2023,NA,0.5,NA,NA,3.78831288758619,3.6121970566696,NA,NA
"CAN","cpi",0.1,2023,3,2022,NA,1,NA,NA,3.78831288758619,5.4861852561408,NA,NA
"CAN","cpi",0.1,2023,3,2022,NA,1.5,NA,NA,3.78831288758619,3.85557075258935,NA,NA
"CAN","cpi",0.1,2024,3,2023,NA,1,NA,NA,NA,4.72280809903739,NA,NA
"CAN","cpi",0.1,2024,3,2023,NA,1.5,NA,NA,NA,4.36705509613113,NA,NA
"CAN","cpi",0.2,1959,3,1959,NA,0,1.14828522075396,1.23262339817836,1.19382698397654,1.24991216431293,TRUE,0.0843381774244074
"CAN","cpi",0.2,1959,3,1959,NA,0.5,0.274327873787533,1.24223148295197,1.19382698397654,0.437839731590327,TRUE,0.967903609164433
"CAN","cpi",0.2,1959,3,1958,NA,1,-0.87577937007993,0.811883461594249,1.19382698397654,1.75862762885946,FALSE,2.64252163762991
"CAN","cpi",0.2,1959,3,1958,NA,1.5,0.49053994876735,3.93712608870221,1.19382698397654,1.77407172713766,TRUE,3.44658613993486
"CAN","cpi",0.2,1960,3,1960,NA,0,0.948966138811464,1.02326540273915,1.34209404870695,1.02361304259477,FALSE,0.871370878847183
"CAN","cpi",0.2,1960,3,1960,NA,0.5,0.475888300448062,1.43937726565422,1.34209404870695,0.53898348018166,TRUE,0.963488965206156
"CAN","cpi",0.2,1960,3,1959,NA,1,1.04392168309055,2.4325256734211,1.34209404870695,3.95759373689442,TRUE,1.38860399033055
"CAN","cpi",0.2,1960,3,1959,NA,1.5,-2.79006156970062,0.442441875383349,1.34209404870695,-0.873476815404885,FALSE,5.48163387839298
"CAN","cpi",0.2,1961,3,1961,NA,0,0.962557581922067,1.05390157189846,1.00921348094007,1.00921348094007,TRUE,0.0913439899763917
"CAN","cpi",0.2,1961,3,1961,NA,0.5,1.46875385400409,2.17080590306004,1.00921348094007,1.00921348094007,FALSE,1.850902981716
"CAN","cpi",0.2,1961,3,1960,NA,1,-2.36155903060638,-1.20239861295133,1.00921348094007,0.0537704626035329,FALSE,6.68819065238355
"CAN","cpi",0.2,1961,3,1960,NA,1.5,-1.86090836070089,1.18977843870833,1.00921348094007,-0.862181798940035,TRUE,3.05068679940922
"CAN","cpi",0.2,1962,3,1962,NA,0,1.03828120140928,1.11980912881402,1.04957947883042,1.10232402731478,TRUE,0.0815279274047365
"CAN","cpi",0.2,1962,3,1962,NA,0.5,0.232823675239741,0.829938206768414,1.04957947883042,0,FALSE,1.14621771168368
"CAN","cpi",0.2,1962,3,1961,NA,1,-2.13393584973406,-0.907561958138369,1.04957947883042,0,FALSE,6.11922748401765
"CAN","cpi",0.2,1962,3,1961,NA,1.5,0.32263196790678,2.84009972238554,1.04957947883042,0,TRUE,2.51746775447876
"CAN","cpi",0.2,1963,3,1963,NA,0,1.84922712323019,1.93086481130249,1.60677118395228,1.91491729531202,FALSE,0.687777536267056
"CAN","cpi",0.2,1963,3,1963,NA,0.5,1.07635969009751,1.67516059757731,1.60677118395228,0.836828714617504,TRUE,0.598800907479809
"CAN","cpi",0.2,1963,3,1962,NA,1,0.343578443738899,1.44409269996696,1.60677118395228,2.56411490415144,FALSE,1.50721046619136
"CAN","cpi",0.2,1963,3,1962,NA,1.5,-0.320033864313414,1.47991622344438,1.60677118395228,0,FALSE,2.11708748902755
"CAN","cpi",0.2,1964,3,1964,NA,0,1.88601574967633,1.9770880468842,1.88764670034376,1.98877256446048,TRUE,0.091072297207873
"CAN","cpi",0.2,1964,3,1964,NA,0.5,2.09918952801199,2.36744452812004,1.88764670034376,1.38369006227607,FALSE,0.79711206927863
"CAN","cpi",0.2,1964,3,1963,NA,1,3.70668728057685,4.58400621241587,1.88764670034376,5.39044290347256,FALSE,5.42492038242174
"CAN","cpi",0.2,1964,3,1963,NA,1.5,0.411379582093615,1.94954786370755,1.88764670034376,0,TRUE,1.53816828161393
"CAN","cpi",0.2,1965,3,1965,NA,0,2.23900992247068,2.33033094070208,2.29538304394236,2.34557047418999,TRUE,0.0913210182314019
"CAN","cpi",0.2,1965,3,1965,NA,0.5,2.29029031532836,2.56360135166954,2.29538304394236,1.61079447956654,TRUE,0.273311036341187
"CAN","cpi",0.2,1965,3,1964,NA,1,0.468358192653718,1.28064752189943,2.29538304394236,2.42518862179847,FALSE,3.34912813435303
"CAN","cpi",0.2,1965,3,1964,NA,1.5,2.39588986650732,3.20817919575303,2.29538304394236,0.818102552316399,FALSE,1.06355638565812
"CAN","cpi",0.2,1966,3,1966,NA,0,3.73279076919671,3.8192867784424,3.72486065470629,3.82010987863709,FALSE,0.106321295471735
"CAN","cpi",0.2,1966,3,1966,NA,0.5,4.64239033427249,4.91443260050371,3.72486065470629,3.99123398895563,FALSE,2.56586646514671
"CAN","cpi",0.2,1966,3,1965,NA,1,1.48655067116817,2.30088904315524,3.72486065470629,3.20722068745854,FALSE,4.3742674008647
"CAN","cpi",0.2,1966,3,1965,NA,1.5,3.14207746173291,3.95641583371998,3.72486065470629,1.60663824631958,TRUE,0.814338371987067
"CAN","cpi",0.2,1967,3,1967,NA,0,3.66715228273807,3.75214730088026,3.49360316391996,3.76768849328632,FALSE,0.518867815187475
"CAN","cpi",0.2,1967,3,1967,NA,0.5,2.92766224654182,3.24142176096743,3.49360316391996,2.4074547441976,FALSE,0.944213021806927
"CAN","cpi",0.2,1967,3,1966,NA,1,1.81379038990583,2.61476294513579,3.49360316391996,3.18103323070284,FALSE,2.99807310219039
"CAN","cpi",0.2,1967,3,1966,NA,1.5,6.19785336322694,6.99882591845691,3.49360316391996,4.65128160487248,FALSE,7.56159805349742
"CAN","cpi",0.2,1968,3,1968,NA,0,4.06743134544337,4.15479288438144,3.95128347779386,4.17287945672396,FALSE,0.377731208061851
"CAN","cpi",0.2,1968,3,1968,NA,0.5,4.54634968106486,4.77694617607645,3.95128347779386,4.07097205779852,FALSE,1.71826200318911
"CAN","cpi",0.2,1968,3,1967,NA,1,4.44100370102049,5.29220624525455,3.95128347779386,5.84521682123848,FALSE,2.07550310230064
"CAN","cpi",0.2,1968,3,1967,NA,1.5,3.37923241064737,4.23043495488142,3.95128347779386,2.25565858240226,TRUE,0.851202544234058
"CAN","cpi",0.2,1969,3,1969,NA,0,4.35766177824483,4.44704818765453,4.42679496126681,4.46896837073893,TRUE,0.0893864094096983
"CAN","cpi",0.2,1969,3,1969,NA,0.5,3.33321004640511,3.57552575170033,4.42679496126681,2.96612019395715,FALSE,2.37048872921143
"CAN","cpi",0.2,1969,3,1968,NA,1,5.58094762902624,6.2473568146672,4.42679496126681,6.72487630040807,FALSE,3.55179085503953
"CAN","cpi",0.2,1969,3,1968,NA,1.5,5.22007786460188,5.88648705024284,4.42679496126681,4.31664452944541,FALSE,2.64961644397862
"CAN","cpi",0.2,1970,3,1970,NA,0,3.40437273389208,3.48904811039848,3.28128405769805,3.52697515579364,FALSE,0.392397066991476
"CAN","cpi",0.2,1970,3,1970,NA,0.5,5.12850643836579,5.40217458431768,3.28128405769805,4.65371085276917,FALSE,4.89172409762125
"CAN","cpi",0.2,1970,3,1969,NA,1,3.35609105473393,4.03940678898231,3.28128405769805,4.52747875087707,FALSE,0.870333226838081
"CAN","cpi",0.2,1970,3,1969,NA,1.5,2.85574592845532,3.53906166270371,3.28128405769805,2.07973847283129,TRUE,0.683315734248381
"CAN","cpi",0.2,1971,3,1971,NA,0,2.69773763982779,2.78590560548033,2.64123406634756,2.8393232579169,FALSE,0.229426899353111
"CAN","cpi",0.2,1971,3,1971,NA,0.5,2.2820500699412,2.6880681890491,2.64123406634756,2.06692165705507,TRUE,0.4060181191079
"CAN","cpi",0.2,1971,3,1970,NA,1,1.42615732058944,2.07261308607962,2.64123406634756,2.64105994583495,FALSE,2.06800821616004
"CAN","cpi",0.2,1971,3,1970,NA,1.5,5.59619476791944,6.24265053340961,2.64123406634756,4.63977638900468,FALSE,8.03385751941986
"CAN","cpi",0.2,1972,3,1972,NA,0,4.85877929861683,4.91325764049796,4.83230569625923,5.03048103188219,FALSE,0.120662347775125
"CAN","cpi",0.2,1972,3,1972,NA,0.5,5.26343042263364,5.66536294405089,4.83230569625923,5.06705904355972,FALSE,1.47974433735328
"CAN","cpi",0.2,1972,3,1971,NA,1,4.90706462682652,5.61899499843493,4.83230569625923,5.9169160270675,FALSE,0.89882769802663
"CAN","cpi",0.2,1972,3,1971,NA,1.5,3.63334483147117,4.34527520307959,4.83230569625923,3.09276495441271,FALSE,1.92950660455752
"CAN","cpi",0.2,1973,3,1973,NA,0,6.80560029491336,6.85473782509575,7.12388603531779,6.99264756193144,FALSE,0.72200805573749
"CAN","cpi",0.2,1973,3,1973,NA,0.5,5.64598490635411,6.05540587466617,7.12388603531779,5.47469896411854,FALSE,3.08062136994111
"CAN","cpi",0.2,1973,3,1972,NA,1,5.50894599700389,6.1936084583257,7.12388603531779,6.69062283747837,FALSE,3.01035640380204
"CAN","cpi",0.2,1973,3,1972,NA,1.5,5.27396949188175,5.95863195320356,7.12388603531779,4.73174243586486,FALSE,3.59779766660739
"CAN","cpi",0.2,1974,3,1974,NA,0,9.76600011829921,9.83112474764963,10.2717243737774,9.94431520564033,FALSE,1.1666236946699
"CAN","cpi",0.2,1974,3,1974,NA,0.5,8.54658594905073,8.99015730100955,10.2717243737774,8.3378654175141,FALSE,3.6474890338785
"CAN","cpi",0.2,1974,3,1973,NA,1,5.94597267433675,6.59752705310374,10.2717243737774,7.16712422635118,FALSE,9.83704768045119
"CAN","cpi",0.2,1974,3,1973,NA,1.5,4.69933651524582,5.41737760905677,10.2717243737774,4.05174749178054,FALSE,12.8539080056126
"CAN","cpi",0.2,1975,3,1975,NA,0,9.95946536029917,10.0509493236878,10.0232981493341,10.0931823619779,TRUE,0.0914839633886153
"CAN","cpi",0.2,1975,3,1975,NA,0.5,9.26966224998936,9.76832086643084,10.0232981493341,8.98267476097328,FALSE,1.13610182369969
"CAN","cpi",0.2,1975,3,1974,NA,1,6.81140338040478,7.7039795876033,10.0232981493341,7.7837982223054,FALSE,6.69087261152557
"CAN","cpi",0.2,1975,3,1974,NA,1.5,6.64807889109059,7.72253702819304,10.0232981493341,5.75931605308519,FALSE,6.82636093995515
"CAN","cpi",0.2,1976,3,1976,NA,0,6.94189809562194,7.03339126371145,7.22784311401172,7.07277954951717,FALSE,0.577622793840166
"CAN","cpi",0.2,1976,3,1976,NA,0.5,8.92375986543091,9.42823071058983,7.22784311401172,8.59089060438327,FALSE,4.74426272370691
"CAN","cpi",0.2,1976,3,1975,NA,1,9.99515470391138,10.8249811983611,7.22784311401172,10.4141477685142,FALSE,7.74810546919884
"CAN","cpi",0.2,1976,3,1975,NA,1.5,7.49318211334607,8.65188440353808,7.22784311401172,6.43051086134862,FALSE,1.8220497885279
"CAN","cpi",0.2,1977,3,1977,NA,0,7.43723425484331,7.53583740143158,7.58101410153764,7.55301151664772,FALSE,0.211544896853435
"CAN","cpi",0.2,1977,3,1977,NA,0.5,8.08825729467831,8.67297160851411,7.58101410153764,7.98165850021887,FALSE,1.85282229668747
"CAN","cpi",0.2,1977,3,1976,NA,1,2.95815739924082,3.92064884403053,7.58101410153764,3.72134649143602,FALSE,10.1134045885575
"CAN","cpi",0.2,1977,3,1976,NA,1.5,9.00001995944156,10.1658387717189,7.58101410153764,8.00272044475614,FALSE,4.71333345703716
"CAN","cpi",0.2,1978,3,1978,NA,0,8.56627052231051,8.66574432763138,8.50208927062595,8.67127840358843,FALSE,0.259926934532289
"CAN","cpi",0.2,1978,3,1978,NA,0.5,8.47108625481836,9.06006736350912,8.50208927062595,8.3788273181893,TRUE,0.58898110869076
"CAN","cpi",0.2,1978,3,1977,NA,1,6.99432664531678,8.14510457301335,8.50208927062595,7.54783828416051,FALSE,2.04323967172807
"CAN","cpi",0.2,1978,3,1977,NA,1.5,10.4750302881338,11.6748374527943,8.50208927062595,9.72562756342223,FALSE,6.13215970843012
"CAN","cpi",0.2,1979,3,1979,NA,0,8.47066525184077,8.56539263128345,8.65147652410481,8.56376390232469,FALSE,0.309937111496077
"CAN","cpi",0.2,1979,3,1979,NA,0.5,8.30626145225912,8.88415296224583,8.65147652410481,8.29599284966764,TRUE,0.577891509986713
"CAN","cpi",0.2,1979,3,1978,NA,1,8.70378444496939,9.86286949762687,8.65147652410481,9.20311500508918,FALSE,1.28985485481893
"CAN","cpi",0.2,1979,3,1978,NA,1.5,9.29809959048389,10.5014767081412,8.65147652410481,8.55646910152924,FALSE,2.81993478360499
"CAN","cpi",0.2,1980,3,1980,NA,0,9.44058956397917,9.53231288403614,9.5171912664748,9.50406722106931,TRUE,0.0917233200569783
"CAN","cpi",0.2,1980,3,1980,NA,0.5,8.63360503619554,9.20719692102903,9.5171912664748,8.57798914335092,FALSE,1.34857774844791
"CAN","cpi",0.2,1980,3,1979,NA,1,7.82209341423306,8.93988820375755,9.5171912664748,8.17875203710815,FALSE,2.5610524463176
"CAN","cpi",0.2,1980,3,1979,NA,1.5,8.98179406575546,10.1979179923595,9.5171912664748,8.39204766062112,TRUE,1.21612392660408
"CAN","cpi",0.2,1981,3,1981,NA,0,11.6529328113249,11.7446650740966,11.5813425032741,11.7113878984199,FALSE,0.270708032898679
"CAN","cpi",0.2,1981,3,1981,NA,0.5,12.2343047029294,12.786945110113,11.5813425032741,12.2156196752767,FALSE,2.18504590632177
"CAN","cpi",0.2,1981,3,1980,NA,1,11.0602045786612,12.1048292076283,11.5813425032741,11.0496853423024,TRUE,1.0446246289671
"CAN","cpi",0.2,1981,3,1980,NA,1.5,9.02686395269626,10.2294928411348,11.5813425032741,8.33809792174894,FALSE,4.58225304378689
"CAN","cpi",0.2,1982,3,1982,NA,0,10.2117461574021,10.2974360528444,10.1124203763629,10.2566668151097,FALSE,0.334004348040257
"CAN","cpi",0.2,1982,3,1982,NA,0.5,10.2181929161541,10.7230977634199,10.1124203763629,10.1085355973545,FALSE,0.769336196743725
"CAN","cpi",0.2,1982,3,1981,NA,1,11.9647917398314,12.9660945197651,10.1124203763629,11.770988683124,FALSE,5.63223118860488
"CAN","cpi",0.2,1982,3,1981,NA,1.5,13.7264745866649,14.9651544333169,10.1124203763629,12.8701250351281,FALSE,10.2738153724069
"CAN","cpi",0.2,1983,3,1983,NA,0,5.69239301524335,5.77526943950386,5.67091787896303,5.7310121416489,FALSE,0.136564264961293
"CAN","cpi",0.2,1983,3,1983,NA,0.5,4.97054851112073,5.47681717934029,5.67091787896303,4.91343016009654,FALSE,0.991520417276425
"CAN","cpi",0.2,1983,3,1982,NA,1,9.1981050816552,10.259217276783,5.67091787896303,9.18500149866057,FALSE,9.87908020185819
"CAN","cpi",0.2,1983,3,1982,NA,1.5,10.4447049451653,11.7420905202917,5.67091787896303,9.68672301569366,FALSE,13.231853240632
"CAN","cpi",0.2,1984,3,1984,NA,0,NA,NA,4.19799576814029,NA,NA,NA
"CAN","cpi",0.2,1984,3,1984,NA,0.5,6.0074047471263,6.5089218102066,4.19799576814029,5.85770686024457,FALSE,5.02503951054533
"CAN","cpi",0.2,1984,3,1983,NA,1,5.48276562145653,6.6938984834274,4.19799576814029,5.76553357996429,FALSE,4.42305749526147
"CAN","cpi",0.2,1984,3,1983,NA,1.5,3.03548013457972,4.57104213505563,4.19799576814029,2.9197996794717,TRUE,1.53556200047591
"CAN","cpi",0.2,1985,3,1985,NA,0,NA,NA,3.86444262005169,3.85417990135378,NA,NA
"CAN","cpi",0.2,1985,3,1985,NA,0.5,4.04802517726266,4.59107065936571,3.86444262005169,4.21990042382899,FALSE,1.00200187513046
"CAN","cpi",0.2,1985,3,1984,NA,1,NA,NA,3.86444262005169,NA,NA,NA
"CAN","cpi",0.2,1985,3,1984,NA,1.5,8.65380070442814,10.1705795013192,3.86444262005169,8.62999660305356,FALSE,13.4901740078322
"CAN","cpi",0.2,1986,3,1986,NA,0,NA,NA,4.08685396749431,4.03771389199993,NA,NA
"CAN","cpi",0.2,1986,3,1986,NA,0.5,4.0492171642621,4.49822506386239,4.08685396749431,4.38219332503529,TRUE,0.449007899600291
"CAN","cpi",0.2,1986,3,1985,NA,1,NA,NA,4.08685396749431,3.37849976080849,NA,NA
"CAN","cpi",0.2,1986,3,1985,NA,1.5,4.02072306393136,5.45249186554642,4.08685396749431,4.95309858900956,TRUE,1.43176880161506
"CAN","cpi",0.2,1987,3,1987,NA,0,NA,NA,4.23980729277887,NA,NA,NA
"CAN","cpi",0.2,1987,3,1987,NA,0.5,3.70074311850279,4.10625336371613,4.23980729277887,4.13342161080085,FALSE,0.73939506787019
"CAN","cpi",0.2,1987,3,1986,NA,1,NA,NA,4.23980729277887,3.66140988164798,NA,NA
"CAN","cpi",0.2,1987,3,1986,NA,1.5,3.51045919007334,4.72864543011666,4.23980729277887,4.80242768143514,TRUE,1.21818624004332
"CAN","cpi",0.2,1988,3,1988,NA,0,NA,NA,3.92899537638065,3.9438316199536,NA,NA
"CAN","cpi",0.2,1988,3,1988,NA,0.5,3.07803550463572,3.43767173049767,3.92899537638065,3.35419215340812,FALSE,1.58794534056941
"CAN","cpi",0.2,1988,3,1987,NA,1,NA,NA,3.92899537638065,NA,NA,NA
"CAN","cpi",0.2,1988,3,1987,NA,1.5,2.49150050781021,3.68472322343491,3.92899537638065,3.89461929526446,FALSE,1.80390309798906
"CAN","cpi",0.2,1989,3,1989,NA,0,NA,NA,4.82821664544208,4.95130318392835,NA,NA
"CAN","cpi",0.2,1989,3,1989,NA,0.5,4.03799088777482,4.40718500851175,4.82821664544208,4.23024942747073,FALSE,1.42177321306275
"CAN","cpi",0.2,1989,3,1988,NA,1,NA,NA,4.82821664544208,4.05841794603162,NA,NA
"CAN","cpi",0.2,1989,3,1988,NA,1.5,1.23328857645164,2.43230776018232,4.82821664544208,2.597843559383,FALSE,7.18879139688008
"CAN","cpi",0.2,1990,3,1990,NA,0,NA,NA,4.64347549432717,4.4746950192663,NA,NA
"CAN","cpi",0.2,1990,3,1990,NA,0.5,4.81013175804675,5.19059870962696,4.64347549432717,4.96487168902479,FALSE,0.797107610879157
"CAN","cpi",0.2,1990,3,1989,NA,1,NA,NA,4.64347549432717,5.43871373969076,NA,NA
"CAN","cpi",0.2,1990,3,1989,NA,1.5,2.28291061623762,3.56149048917114,4.64347549432717,3.3732540002381,FALSE,3.98354238582359
"CAN","cpi",0.2,1991,3,1991,NA,0,NA,NA,5.4258100696218,5.61053369942382,NA,NA
"CAN","cpi",0.2,1991,3,1991,NA,0.5,7.60600000374014,7.98590392832047,5.4258100696218,7.82199295477594,FALSE,5.83037875987619
"CAN","cpi",0.2,1991,3,1990,NA,1,NA,NA,5.4258100696218,3.66716818384097,NA,NA
"CAN","cpi",0.2,1991,3,1990,NA,1.5,3.82869230824262,5.13251505570295,5.4258100696218,4.82481948664164,FALSE,2.03706028225744
"CAN","cpi",0.2,1992,3,1992,NA,0,NA,NA,1.47496888572843,NA,NA,NA
"CAN","cpi",0.2,1992,3,1992,NA,0.5,NA,NA,1.47496888572843,NA,NA,NA
"CAN","cpi",0.2,1992,3,1991,NA,1,NA,NA,1.47496888572843,2.76780571233213,NA,NA
"CAN","cpi",0.2,1992,3,1991,NA,1.5,6.11198891113626,7.40304258311606,1.47496888572843,7.14938182660169,FALSE,12.8836037354994
"CAN","cpi",0.2,1993,3,1993,NA,0,NA,NA,NA,NA,NA,NA
"CAN","cpi",0.2,1993,3,1993,NA,0.5,NA,NA,NA,NA,NA,NA
"CAN","cpi",0.2,1993,3,1992,NA,1,NA,NA,NA,NA,NA,NA
"CAN","cpi",0.2,1993,3,1992,NA,1.5,NA,NA,NA,NA,NA,NA
"CAN","cpi",0.2,1994,3,1994,NA,0,NA,NA,NA,NA,NA,NA
"CAN","cpi",0.2,1994,3,1994,NA,0.5,NA,NA,NA,NA,NA,NA
"CAN","cpi",0.2,1994,3,1993,NA,1,NA,NA,NA,NA,NA,NA
"CAN","cpi",0.2,1994,3,1993,NA,1.5,NA,NA,NA,NA,NA,NA
"CAN","cpi",0.2,1995,3,1995,NA,0,NA,NA,2.11688403676572,NA,NA,NA
"CAN","cpi",0.2,1995,3,1995,NA,0.5,NA,NA,2.11688403676572,2.51937811073084,NA,NA
"CAN","cpi",0.2,1995,3,1994,NA,1,NA,NA,2.11688403676572,0.719396410821945,NA,NA
"CAN","cpi",0.2,1995,3,1994,NA,1.5,NA,NA,2.11688403676572,-1.04654603924828,NA,NA
"CAN","cpi",0.2,1996,3,1996,NA,0,NA,NA,1.55309584667184,1.42780748357026,NA,NA
"CAN","cpi",0.2,1996,3,1996,NA,0.5,NA,NA,1.55309584667184,NA,NA,NA
"CAN","cpi",0.2,1996,3,1995,NA,1,NA,NA,1.55309584667184,NA,NA,NA
"CAN","cpi",0.2,1996,3,1995,NA,1.5,NA,NA,1.55309584667184,2.92232271175447,NA,NA
"CAN","cpi",0.2,1997,3,1997,NA,0,NA,NA,1.60528783555959,1.73535847807117,NA,NA
"CAN","cpi",0.2,1997,3,1997,NA,0.5,NA,NA,1.60528783555959,2.11078363597796,NA,NA
"CAN","cpi",0.2,1997,3,1996,NA,1,NA,NA,1.60528783555959,0.984961337307556,NA,NA
"CAN","cpi",0.2,1997,3,1996,NA,1.5,NA,NA,1.60528783555959,NA,NA,NA
"CAN","cpi",0.2,1998,3,1998,NA,0,NA,NA,0.988908029337191,1.0350847138471,NA,NA
"CAN","cpi",0.2,1998,3,1998,NA,0.5,NA,NA,0.988908029337191,1.68533655437107,NA,NA
"CAN","cpi",0.2,1998,3,1997,NA,1,NA,NA,0.988908029337191,2.25159584334757,NA,NA
"CAN","cpi",0.2,1998,3,1997,NA,1.5,NA,NA,0.988908029337191,2.38987816876076,NA,NA
"CAN","cpi",0.2,1999,3,1999,NA,0,NA,NA,1.7107350135213,1.77618438459462,NA,NA
"CAN","cpi",0.2,1999,3,1999,NA,0.5,NA,NA,1.7107350135213,1.0290924799153,NA,NA
"CAN","cpi",0.2,1999,3,1998,NA,1,NA,NA,1.7107350135213,1.85177544064205,NA,NA
"CAN","cpi",0.2,1999,3,1998,NA,1.5,NA,NA,1.7107350135213,2.94645730787123,NA,NA
"CAN","cpi",0.2,2000,3,2000,NA,0,NA,NA,2.6718361971244,2.7102541785615,NA,NA
"CAN","cpi",0.2,2000,3,2000,NA,0.5,NA,NA,2.6718361971244,2.34405201403356,NA,NA
"CAN","cpi",0.2,2000,3,1999,NA,1,NA,NA,2.6718361971244,3.07542936781209,NA,NA
"CAN","cpi",0.2,2000,3,1999,NA,1.5,NA,NA,2.6718361971244,2.27809035801724,NA,NA
"CAN","cpi",0.2,2001,3,2001,NA,0,NA,NA,2.47906219852806,2.77546584984351,NA,NA
"CAN","cpi",0.2,2001,3,2001,NA,0.5,NA,NA,2.47906219852806,2.43566755503104,NA,NA
"CAN","cpi",0.2,2001,3,2000,NA,1,NA,NA,2.47906219852806,3.68958695319843,NA,NA
"CAN","cpi",0.2,2001,3,2000,NA,1.5,NA,NA,2.47906219852806,3.01270789712173,NA,NA
"CAN","cpi",0.2,2002,3,2002,NA,0,NA,NA,2.20880570551249,2.27196234986351,NA,NA
"CAN","cpi",0.2,2002,3,2002,NA,0.5,NA,NA,2.20880570551249,1.58345411989126,NA,NA
"CAN","cpi",0.2,2002,3,2001,NA,1,NA,NA,2.20880570551249,2.26510423845898,NA,NA
"CAN","cpi",0.2,2002,3,2001,NA,1.5,NA,NA,2.20880570551249,3.02058043279009,NA,NA
"CAN","cpi",0.2,2003,3,2003,NA,0,NA,NA,2.71189071546809,2.71326702620668,NA,NA
"CAN","cpi",0.2,2003,3,2003,NA,0.5,NA,NA,2.71189071546809,4.51432649273496,NA,NA
"CAN","cpi",0.2,2003,3,2002,NA,1,NA,NA,2.71189071546809,3.85618281746238,NA,NA
"CAN","cpi",0.2,2003,3,2002,NA,1.5,NA,NA,2.71189071546809,2.39402389849184,NA,NA
"CAN","cpi",0.2,2004,3,2004,NA,0,NA,NA,1.83151661303942,1.77466852383015,NA,NA
"CAN","cpi",0.2,2004,3,2004,NA,0.5,NA,NA,1.83151661303942,1.55260435151936,NA,NA
"CAN","cpi",0.2,2004,3,2003,NA,1,NA,NA,1.83151661303942,1.79415792598285,NA,NA
"CAN","cpi",0.2,2004,3,2003,NA,1.5,NA,NA,1.83151661303942,4.26699272545716,NA,NA
"CAN","cpi",0.2,2005,3,2005,NA,0,NA,NA,2.18071628336509,2.34345353472953,NA,NA
"CAN","cpi",0.2,2005,3,2005,NA,0.5,NA,NA,2.18071628336509,1.50321338317329,NA,NA
"CAN","cpi",0.2,2005,3,2004,NA,1,NA,NA,2.18071628336509,1.64043962712234,NA,NA
"CAN","cpi",0.2,2005,3,2004,NA,1.5,NA,NA,2.18071628336509,2.03393284113233,NA,NA
"CAN","cpi",0.2,2006,3,2006,NA,0,NA,NA,1.97519342012289,2.09514376892657,NA,NA
"CAN","cpi",0.2,2006,3,2006,NA,0.5,NA,NA,1.97519342012289,2.09436263599022,NA,NA
"CAN","cpi",0.2,2006,3,2005,NA,1,NA,NA,1.97519342012289,2.9582912060806,NA,NA
"CAN","cpi",0.2,2006,3,2005,NA,1.5,NA,NA,1.97519342012289,1.64885961980806,NA,NA
"CAN","cpi",0.2,2007,3,2007,NA,0,2.01092795598292,2.06790767991882,2.10062087284572,2.10683622102307,FALSE,0.138762706253156
"CAN","cpi",0.2,2007,3,2007,NA,0.5,NA,NA,2.10062087284572,2.17629902083353,NA,NA
"CAN","cpi",0.2,2007,3,2006,NA,1,NA,NA,2.10062087284572,1.50861692709856,NA,NA
"CAN","cpi",0.2,2007,3,2006,NA,1.5,NA,NA,2.10062087284572,2.15918616350405,NA,NA
"CAN","cpi",0.2,2008,3,2008,NA,0,2.76718764755134,2.81565488359374,2.31447335265955,2.87079455148828,FALSE,1.18025297327186
"CAN","cpi",0.2,2008,3,2008,NA,0.5,1.07114304679473,1.44630518182927,2.31447335265955,1.31005314695267,FALSE,2.54558256211024
"CAN","cpi",0.2,2008,3,2007,NA,1,0.972415951173555,1.34791981209995,2.31447335265955,1.47031049982668,FALSE,2.79188771232539
"CAN","cpi",0.2,2008,3,2007,NA,1.5,NA,NA,2.31447335265955,2.46453195342394,NA,NA
"CAN","cpi",0.2,2009,3,2009,NA,0,0.0251261677225964,0.11287185199679,0.284533874408197,0.187122346349721,FALSE,0.516900740302712
"CAN","cpi",0.2,2009,3,2009,NA,0.5,-0.184166076844647,0.210539670401948,0.284533874408197,-0.0727492620466167,FALSE,0.579691257262219
"CAN","cpi",0.2,2009,3,2008,NA,1,3.33065353126364,3.72535927851023,0.284533874408197,3.81780026356951,FALSE,8.0100048893852
"CAN","cpi",0.2,2009,3,2008,NA,1.5,0.964294116779509,1.41984839676447,0.284533874408197,1.68675152630419,FALSE,2.15495488591324
"CAN","cpi",0.2,2010,3,2010,NA,0,1.45725949787883,1.55059210615161,1.75525687020327,1.6089956646354,FALSE,0.604994518401929
"CAN","cpi",0.2,2010,3,2010,NA,0.5,1.90418971648703,2.28145639013966,1.75525687020327,1.91109502526183,FALSE,0.749598789362018
"CAN","cpi",0.2,2010,3,2009,NA,1,0.226733168213822,0.765438223201276,1.75525687020327,0.992295788494754,FALSE,3.01325167249244
"CAN","cpi",0.2,2010,3,2009,NA,1.5,0.120956845565171,0.659661900552625,1.75525687020327,0.885103052815867,FALSE,3.27769247911407
"CAN","cpi",0.2,2011,3,2011,NA,0,2.73036334857488,2.83129803954331,2.85717434028225,2.86665414062098,FALSE,0.165625442815772
"CAN","cpi",0.2,2011,3,2011,NA,0.5,2.68622300918248,3.05663146869514,2.85717434028225,2.76583381894771,TRUE,0.370408459512663
"CAN","cpi",0.2,2011,3,2010,NA,1,0.696329006430408,1.2615076020858,2.85717434028225,1.39294644169719,FALSE,4.55434544114651
"CAN","cpi",0.2,2011,3,2010,NA,1.5,1.05659091122418,1.62176950687956,2.85717434028225,1.64253060592363,FALSE,3.65369067916209
"CAN","cpi",0.2,2012,3,2012,NA,0,1.39434266937617,1.49572214196037,1.50118536134935,1.52822510849394,FALSE,0.115037521056633
"CAN","cpi",0.2,2012,3,2012,NA,0.5,1.82412694278799,2.19265057996703,1.50118536134935,1.92429021972789,FALSE,1.17587759077564
"CAN","cpi",0.2,2012,3,2011,NA,1,1.44627580829317,2.06417659654709,1.50118536134935,1.99945242447079,TRUE,0.617900788253916
"CAN","cpi",0.2,2012,3,2011,NA,1.5,1.9438358643674,2.56173665262131,1.50118536134935,2.48150957397962,FALSE,1.72452704579904
"CAN","cpi",0.2,2013,3,2013,NA,0,0.950107174079856,1.04509294403681,0.931270594714462,1.05630513423211,FALSE,0.142077218370439
"CAN","cpi",0.2,2013,3,2013,NA,0.5,1.02299988341155,1.39964819973622,0.931270594714462,1.16963454554932,FALSE,0.605971538067388
"CAN","cpi",0.2,2013,3,2012,NA,1,0.601696470634484,1.21671426630248,0.931270594714462,1.08868089128742,TRUE,0.615017795667999
"CAN","cpi",0.2,2013,3,2012,NA,1.5,1.56889244434632,2.18391024001432,0.931270594714462,2.14573179530527,FALSE,2.20907241974764
"CAN","cpi",0.2,2014,3,2014,NA,0,1.88653361075583,1.98206269540501,1.87639912240215,1.99862849145116,FALSE,0.120865305533384
"CAN","cpi",0.2,2014,3,2014,NA,0.5,1.57287649193985,1.93810283331647,1.87639912240215,1.79231976082687,TRUE,0.365226341376624
"CAN","cpi",0.2,2014,3,2013,NA,1,0.907094519775234,1.52887027396186,1.87639912240215,1.40664989819898,FALSE,1.49059787528736
"CAN","cpi",0.2,2014,3,2013,NA,1.5,0.897535026350371,1.51931078053699,1.87639912240215,1.51436121777893,FALSE,1.51449660884952
"CAN","cpi",0.2,2015,3,2015,NA,0,1.08735541745607,1.18262363096888,1.11090953952792,1.2103065042478,TRUE,0.0952682135128091
"CAN","cpi",0.2,2015,3,2015,NA,0.5,0.486653831076751,0.699783356478688,1.11090953952792,0.458547315718059,FALSE,1.24094498302501
"CAN","cpi",0.2,2015,3,2014,NA,1,1.22074107111191,1.83648161409854,1.11090953952792,1.57054781428135,FALSE,0.890319371946617
"CAN","cpi",0.2,2015,3,2014,NA,1.5,1.27249806300546,1.8882386059921,1.11090953952792,1.88229109541157,FALSE,1.01971185168049
"CAN","cpi",0.2,2016,3,2016,NA,0,1.28045666833327,1.37311452941244,1.41168586698797,1.41630667471992,FALSE,0.189086205017978
"CAN","cpi",0.2,2016,3,2016,NA,0.5,1.23493514874507,1.46175056637636,1.41168586698797,1.17972158292925,TRUE,0.226815417631289
"CAN","cpi",0.2,2016,3,2015,NA,1,1.49810514219007,2.05539015152563,1.41168586698797,1.8638656605167,FALSE,0.773333197340826
"CAN","cpi",0.2,2016,3,2015,NA,1.5,0.640946084891568,1.19823109422713,1.41168586698797,1.07023002715086,FALSE,1.09092194123765
"CAN","cpi",0.2,2017,3,2017,NA,0,1.3834806161572,1.47607952938066,1.57888581671161,1.50492692646759,FALSE,0.349614631550829
"CAN","cpi",0.2,2017,3,2017,NA,0.5,2.11358421821388,2.32438367557676,1.57888581671161,2.09086618282141,FALSE,1.54754546111855
"CAN","cpi",0.2,2017,3,2016,NA,1,0.691078726674378,1.24727962583324,1.57888581671161,1.14652050352824,FALSE,1.3852163763548
"CAN","cpi",0.2,2017,3,2016,NA,1.5,0.85683644875063,1.41303734790949,1.57888581671161,1.26788084523026,FALSE,0.970822071164168
"CAN","cpi",0.2,2018,3,2018,NA,0,2.30820650788362,2.40310675992213,2.23316270166586,2.41317537496083,FALSE,0.282509767582908
"CAN","cpi",0.2,2018,3,2018,NA,0.5,2.50536246686237,2.73563523844435,2.23316270166586,2.52809119314695,FALSE,0.910772184573258
"CAN","cpi",0.2,2018,3,2017,NA,1,0.843535872078728,1.39514043881089,2.23316270166586,1.16800101916097,FALSE,2.64666022386959
"CAN","cpi",0.2,2018,3,2017,NA,1.5,1.66284426244069,2.21444882917286,2.23316270166586,2.07298402260093,FALSE,0.598389247964669
"CAN","cpi",0.2,2019,3,2019,NA,0,NA,NA,1.91921619871868,NA,NA,NA
"CAN","cpi",0.2,2019,3,2019,NA,0.5,1.42740020738393,1.66412753887838,1.91921619871868,1.47328806303322,FALSE,0.874448981095206
"CAN","cpi",0.2,2019,3,2018,NA,1,1.94883898252363,2.5092695903812,1.91921619871868,2.23470281046333,FALSE,0.634487567369947
"CAN","cpi",0.2,2019,3,2018,NA,1.5,1.92563866038157,2.48606926823913,1.91921619871868,2.32030562567512,FALSE,0.576486762014788
"CAN","cpi",0.2,2020,3,2020,NA,0,NA,NA,0.71139989671781,0.673588636713597,NA,NA
"CAN","cpi",0.2,2020,3,2020,NA,0.5,NA,NA,0.71139989671781,NA,NA,NA
"CAN","cpi",0.2,2020,3,2019,NA,1,NA,NA,0.71139989671781,NA,NA,NA
"CAN","cpi",0.2,2020,3,2019,NA,1.5,1.41959815521135,1.85996639241864,0.71139989671781,1.77705491937904,FALSE,2.21086388344113
"CAN","cpi",0.2,2021,3,2021,NA,0,NA,NA,3.31148121717802,3.2525646654712,NA,NA
"CAN","cpi",0.2,2021,3,2021,NA,0.5,NA,NA,3.31148121717802,2.16773480502693,NA,NA
"CAN","cpi",0.2,2021,3,2020,NA,1,NA,NA,3.31148121717802,1.61070774476322,NA,NA
"CAN","cpi",0.2,2021,3,2020,NA,1.5,NA,NA,3.31148121717802,NA,NA,NA
"CAN","cpi",0.2,2022,3,2022,NA,0,NA,NA,6.50977236228281,6.58682891800883,NA,NA
"CAN","cpi",0.2,2022,3,2022,NA,0.5,NA,NA,6.50977236228281,5.58900513180898,NA,NA
"CAN","cpi",0.2,2022,3,2021,NA,1,NA,NA,6.50977236228281,3.35597076522593,NA,NA
"CAN","cpi",0.2,2022,3,2021,NA,1.5,NA,NA,6.50977236228281,1.89458222166426,NA,NA
"CAN","cpi",0.2,2023,3,2023,NA,0,NA,NA,3.78831288758619,3.96221561415741,NA,NA
"CAN","cpi",0.2,2023,3,2023,NA,0.5,NA,NA,3.78831288758619,3.6121970566696,NA,NA
"CAN","cpi",0.2,2023,3,2022,NA,1,NA,NA,3.78831288758619,5.4861852561408,NA,NA
"CAN","cpi",0.2,2023,3,2022,NA,1.5,NA,NA,3.78831288758619,3.85557075258935,NA,NA
"CAN","cpi",0.2,2024,3,2023,NA,1,NA,NA,NA,4.72280809903739,NA,NA
"CAN","cpi",0.2,2024,3,2023,NA,1.5,NA,NA,NA,4.36705509613113,NA,NA
"CAN","cpi",0.3,1959,3,1959,NA,0,1.12631853396507,1.25459008496725,1.19382698397654,1.24991216431293,TRUE,0.128271551002175
"CAN","cpi",0.3,1959,3,1959,NA,0.5,0.0222281003082945,1.4943312564312,1.19382698397654,0.437839731590327,TRUE,1.47210315612291
"CAN","cpi",0.3,1959,3,1958,NA,1,-1.31534733278407,1.25145142429839,1.19382698397654,1.75862762885946,TRUE,2.56679875708245
"CAN","cpi",0.3,1959,3,1958,NA,1.5,-0.407156450881731,4.83482248835129,1.19382698397654,1.77407172713766,TRUE,5.24197893923302
"CAN","cpi",0.3,1960,3,1960,NA,0,0.929614183277364,1.04261735827325,1.34209404870695,1.02361304259477,FALSE,0.96865086194931
"CAN","cpi",0.3,1960,3,1960,NA,0.5,0.224938363307211,1.69032720279507,1.34209404870695,0.53898348018166,TRUE,1.46538883948786
"CAN","cpi",0.3,1960,3,1959,NA,1,0.682246462438254,2.7942008940734,1.34209404870695,3.95759373689442,TRUE,2.11195443163515
"CAN","cpi",0.3,1960,3,1959,NA,1.5,-3.63199807924626,1.28437838492899,1.34209404870695,-0.873476815404885,FALSE,5.08127836068372
"CAN","cpi",0.3,1961,3,1961,NA,0,0.938766164095227,1.0776929897253,1.00921348094007,1.00921348094007,TRUE,0.138926825630073
"CAN","cpi",0.3,1961,3,1961,NA,0.5,1.28589766784891,2.35366208921522,1.00921348094007,1.00921348094007,FALSE,1.85829066967728
"CAN","cpi",0.3,1961,3,1960,NA,1,-2.66347347327408,-0.900484170283624,1.00921348094007,0.0537704626035329,FALSE,7.21926830648673
"CAN","cpi",0.3,1961,3,1960,NA,1.5,-2.6554889819583,1.98435905996574,1.00921348094007,-0.862181798940035,TRUE,4.63984804192404
"CAN","cpi",0.3,1962,3,1962,NA,0,1.01704647117751,1.14104385904579,1.04957947883042,1.10232402731478,TRUE,0.123997387868283
"CAN","cpi",0.3,1962,3,1962,NA,0.5,0.0772994714716706,0.985462410536484,1.04957947883042,0,FALSE,1.09135456276176
"CAN","cpi",0.3,1962,3,1961,NA,1,-2.45335668600827,-0.588141121864161,1.04957947883042,0,FALSE,6.54441728041433
"CAN","cpi",0.3,1962,3,1961,NA,1.5,-0.333066641578996,3.49579833187132,1.04957947883042,0,TRUE,3.82886497345031
"CAN","cpi",0.3,1963,3,1963,NA,0,1.82796380478036,1.95212812975231,1.60677118395228,1.91491729531202,FALSE,0.756143241623602
"CAN","cpi",0.3,1963,3,1963,NA,0.5,0.920396253547103,1.83112403412772,1.60677118395228,0.836828714617504,TRUE,0.910727780580614
"CAN","cpi",0.3,1963,3,1962,NA,1,0.0569389560059474,1.73073218769992,1.60677118395228,2.56411490415144,TRUE,1.67379323169397
"CAN","cpi",0.3,1963,3,1962,NA,1.5,-0.788848119267378,1.94873047839835,1.60677118395228,0,TRUE,2.73757859766573
"CAN","cpi",0.3,1964,3,1964,NA,0,1.86229509683554,2.00080869972499,1.88764670034376,1.98877256446048,TRUE,0.138513602889456
"CAN","cpi",0.3,1964,3,1964,NA,0.5,2.0293199417003,2.43731411443173,1.88764670034376,1.38369006227607,FALSE,0.812774862321548
"CAN","cpi",0.3,1964,3,1963,NA,1,3.47818115466561,4.8125123383271,1.88764670034376,5.39044290347256,FALSE,5.87871533886678
"CAN","cpi",0.3,1964,3,1963,NA,1.5,0.010748908030342,2.35017853777082,1.88764670034376,0,TRUE,2.33942962974048
"CAN","cpi",0.3,1965,3,1965,NA,0,2.21522448785503,2.35411637531773,2.29538304394236,2.34557047418999,TRUE,0.138891887462696
"CAN","cpi",0.3,1965,3,1965,NA,0.5,2.21910383591181,2.6347878310861,2.29538304394236,1.61079447956654,TRUE,0.415683995174289
"CAN","cpi",0.3,1965,3,1964,NA,1,0.256789650121652,1.49221606443149,2.29538304394236,2.42518862179847,FALSE,3.53018921291231
"CAN","cpi",0.3,1965,3,1964,NA,1.5,2.18432132397525,3.41974773828509,2.29538304394236,0.818102552316399,TRUE,1.23542641430984
"CAN","cpi",0.3,1966,3,1966,NA,0,3.71026205442466,3.84181549321444,3.72486065470629,3.82010987863709,TRUE,0.131553438789782
"CAN","cpi",0.3,1966,3,1966,NA,0.5,4.5715343181937,4.98528861658249,3.72486065470629,3.99123398895563,FALSE,2.83282190835282
"CAN","cpi",0.3,1966,3,1965,NA,1,1.27444843581168,2.51299127851173,3.72486065470629,3.20722068745854,FALSE,4.70102677468451
"CAN","cpi",0.3,1966,3,1965,NA,1.5,2.92997522637642,4.16851806907647,3.72486065470629,1.60663824631958,TRUE,1.23854284270005
"CAN","cpi",0.3,1967,3,1967,NA,0,3.64501451548767,3.77428506813067,3.49360316391996,3.76768849328632,FALSE,0.561874414265025
"CAN","cpi",0.3,1967,3,1967,NA,0.5,2.84594057326287,3.32314343424638,3.49360316391996,2.4074547441976,FALSE,0.964230660050873
"CAN","cpi",0.3,1967,3,1966,NA,1,1.60516940965049,2.82338392539112,3.49360316391996,3.18103323070284,FALSE,3.13312662582302
"CAN","cpi",0.3,1967,3,1966,NA,1.5,5.98923238297161,7.20744689871224,3.49360316391996,4.65128160487248,FALSE,8.34858371303106
"CAN","cpi",0.3,1968,3,1968,NA,0,4.04467719516585,4.17754703465896,3.95128347779386,4.17287945672396,FALSE,0.399709031984516
"CAN","cpi",0.3,1968,3,1968,NA,0.5,4.48628861340575,4.83700724373557,3.95128347779386,4.07097205779852,FALSE,1.87930473207808
"CAN","cpi",0.3,1968,3,1967,NA,1,4.21929983861666,5.51391010765837,3.95128347779386,5.84521682123848,FALSE,2.06037129996402
"CAN","cpi",0.3,1968,3,1967,NA,1.5,3.15752854824354,4.45213881728525,3.95128347779386,2.25565858240226,TRUE,1.29461026904171
"CAN","cpi",0.3,1969,3,1969,NA,0,4.33438023104225,4.4703297348571,4.42679496126681,4.46896837073893,TRUE,0.135949503814853
"CAN","cpi",0.3,1969,3,1969,NA,0.5,3.27009659808548,3.63863920001996,4.42679496126681,2.96612019395715,FALSE,2.62041620549691
"CAN","cpi",0.3,1969,3,1968,NA,1,5.40737496832545,6.42092947536799,4.42679496126681,6.72487630040807,FALSE,3.81521167006722
"CAN","cpi",0.3,1969,3,1968,NA,1.5,5.04650520390109,6.06005971094363,4.42679496126681,4.31664452944541,FALSE,2.78415520028333
"CAN","cpi",0.3,1970,3,1970,NA,0,3.38231822036985,3.51110262392071,3.28128405769805,3.52697515579364,FALSE,0.417453439756004
"CAN","cpi",0.3,1970,3,1970,NA,0.5,5.05722694632782,5.47345407635565,3.28128405769805,4.65371085276917,FALSE,5.49034966897004
"CAN","cpi",0.3,1970,3,1969,NA,1,3.17811492137957,4.21738292233667,3.28128405769805,4.52747875087707,TRUE,1.0392680009571
"CAN","cpi",0.3,1970,3,1969,NA,1.5,2.67776979510096,3.71703779605807,3.28128405769805,2.07973847283129,TRUE,1.0392680009571
"CAN","cpi",0.3,1971,3,1971,NA,0,2.67477344798195,2.80886979732617,2.64123406634756,2.8393232579169,FALSE,0.229923154013902
"CAN","cpi",0.3,1971,3,1971,NA,0.5,2.17629875866762,2.79381950032268,2.64123406634756,2.06692165705507,TRUE,0.617520741655058
"CAN","cpi",0.3,1971,3,1970,NA,1,1.25778171944347,2.24098868722559,2.64123406634756,2.64105994583495,FALSE,2.1267651938449
"CAN","cpi",0.3,1971,3,1970,NA,1.5,5.42781916677346,6.41102613455558,2.64123406634756,4.63977638900468,FALSE,8.94487868328469
"CAN","cpi",0.3,1972,3,1972,NA,0,4.84458989223615,4.92744704687864,4.83230569625923,5.03048103188219,FALSE,0.117954857433687
"CAN","cpi",0.3,1972,3,1972,NA,0.5,5.15874324444376,5.77005012224078,4.83230569625923,5.06705904355972,FALSE,1.54398558689567
"CAN","cpi",0.3,1972,3,1971,NA,1,4.72163553686743,5.80442408839401,4.83230569625923,5.9169160270675,TRUE,1.08278855152658
"CAN","cpi",0.3,1972,3,1971,NA,1.5,3.44791574151209,4.53070429303867,4.83230569625923,3.09276495441271,FALSE,1.94450684644247
"CAN","cpi",0.3,1973,3,1973,NA,0,6.79280195413746,6.86753616587165,7.12388603531779,6.99264756193144,FALSE,0.807162410151735
"CAN","cpi",0.3,1973,3,1973,NA,0.5,5.53934729038508,6.1620434906352,7.12388603531779,5.47469896411854,FALSE,3.37081775648609
"CAN","cpi",0.3,1973,3,1972,NA,1,5.33061909567333,6.37193535965626,7.12388603531779,6.69062283747837,FALSE,3.18974676587301
"CAN","cpi",0.3,1973,3,1972,NA,1.5,5.09564259055119,6.13695885453412,7.12388603531779,4.73174243586486,FALSE,3.86110820907913
"CAN","cpi",0.3,1974,3,1974,NA,0,9.74903778429021,9.84808708165862,10.2717243737774,9.94431520564033,FALSE,1.30944156056497
"CAN","cpi",0.3,1974,3,1974,NA,0.5,8.43105353829008,9.10568971177019,10.2717243737774,8.3378654175141,FALSE,4.00616377921504
"CAN","cpi",0.3,1974,3,1973,NA,1,5.77626909048674,6.76723063695375,10.2717243737774,7.16712422635118,FALSE,11.0038007945346
"CAN","cpi",0.3,1974,3,1973,NA,1.5,4.51231582911077,5.60439829519182,10.2717243737774,4.05174749178054,FALSE,14.4272998334685
"CAN","cpi",0.3,1975,3,1975,NA,0,9.93563748505531,10.0747771989316,10.0232981493341,10.0931823619779,TRUE,0.139139713876339
"CAN","cpi",0.3,1975,3,1975,NA,0.5,9.13978183311924,9.89820128330096,10.0232981493341,8.98267476097328,FALSE,1.11583906741932
"CAN","cpi",0.3,1975,3,1974,NA,1,6.57892335086759,7.9364596171405,10.0232981493341,7.7837982223054,FALSE,7.31993207254041
"CAN","cpi",0.3,1975,3,1974,NA,1.5,6.36822596936186,8.00238994992177,10.0232981493341,5.75931605308519,FALSE,7.40818740745234
"CAN","cpi",0.3,1976,3,1976,NA,0,6.9180678229255,7.0572215364079,7.22784311401172,7.07277954951717,FALSE,0.626643935207589
"CAN","cpi",0.3,1976,3,1976,NA,0.5,8.79236559787442,9.55962497814632,7.22784311401172,8.59089060438327,FALSE,5.23732361987962
"CAN","cpi",0.3,1976,3,1975,NA,1,9.77901843858799,11.0411174636844,7.22784311401172,10.4141477685142,FALSE,8.55117138102867
"CAN","cpi",0.3,1976,3,1975,NA,1.5,7.1913869943678,8.95367952251635,7.22784311401172,6.43051086134862,TRUE,1.76229252814855
"CAN","cpi",0.3,1977,3,1977,NA,0,7.41155212008952,7.56151953618537,7.58101410153764,7.55301151664772,FALSE,0.205666174245209
"CAN","cpi",0.3,1977,3,1977,NA,0.5,7.93596284647874,8.82526605671369,7.58101410153764,7.98165850021887,FALSE,1.90344248149522
"CAN","cpi",0.3,1977,3,1976,NA,1,2.70746727585482,4.17133896741653,7.58101410153764,3.72134649143602,FALSE,11.2058006461935
"CAN","cpi",0.3,1977,3,1976,NA,1.5,8.69637127406609,10.4694874570944,7.58101410153764,8.00272044475614,FALSE,4.95985096168101
"CAN","cpi",0.3,1978,3,1978,NA,0,8.54036161614355,8.69165323379835,8.50208927062595,8.67127840358843,FALSE,0.260641176276522
"CAN","cpi",0.3,1978,3,1978,NA,0.5,8.31768047899666,9.21347313933082,8.50208927062595,8.3788273181893,TRUE,0.895792660334159
"CAN","cpi",0.3,1978,3,1977,NA,1,6.69459550251459,8.44483571581553,8.50208927062595,7.54783828416051,FALSE,1.91382179847355
"CAN","cpi",0.3,1978,3,1977,NA,1.5,10.1625290105626,11.9873387303655,8.50208927062595,9.72562756342223,FALSE,6.56892326247902
"CAN","cpi",0.3,1979,3,1979,NA,0,8.44599259779374,8.59006528533048,8.65147652410481,8.56376390232469,FALSE,0.31953336974911
"CAN","cpi",0.3,1979,3,1979,NA,0.5,8.15574406872648,9.03467034577847,8.65147652410481,8.29599284966764,TRUE,0.878926277051981
"CAN","cpi",0.3,1979,3,1978,NA,1,8.40188963183776,10.1647643107585,8.65147652410481,9.20311500508918,TRUE,1.76287467892073
"CAN","cpi",0.3,1979,3,1978,NA,1.5,8.98466848443253,10.8149078141925,8.65147652410481,8.55646910152924,FALSE,2.78221635926778
"CAN","cpi",0.3,1980,3,1980,NA,0,9.41669934599652,9.55620310201879,9.5171912664748,9.50406722106931,TRUE,0.139503756022272
"CAN","cpi",0.3,1980,3,1980,NA,0.5,8.48420753125092,9.35659442597364,9.5171912664748,8.57798914335092,FALSE,1.33123501044031
"CAN","cpi",0.3,1980,3,1979,NA,1,7.53095304594921,9.2310285720414,9.5171912664748,8.17875203710815,FALSE,2.51768322447332
"CAN","cpi",0.3,1980,3,1979,NA,1.5,8.66504293112105,10.5146691269939,9.5171912664748,8.39204766062112,TRUE,1.8496261958729
"CAN","cpi",0.3,1981,3,1981,NA,0,11.6290402641265,11.768557621295,11.5813425032741,11.7113878984199,FALSE,0.275796673889612
"CAN","cpi",0.3,1981,3,1981,NA,0.5,12.0903642111828,12.9308856018596,11.5813425032741,12.2156196752767,FALSE,2.29486912755869
"CAN","cpi",0.3,1981,3,1980,NA,1,10.788122080115,12.3769117061746,11.5813425032741,11.0496853423024,TRUE,1.58878962605969
"CAN","cpi",0.3,1981,3,1980,NA,1.5,8.71362773011758,10.5427290637135,11.5813425032741,8.33809792174894,FALSE,4.79656830376921
"CAN","cpi",0.3,1982,3,1982,NA,0,10.1894274026977,10.3197548075489,10.1124203763629,10.2566668151097,FALSE,0.350347480093308
"CAN","cpi",0.3,1982,3,1982,NA,0.5,10.0866856085884,10.8546050709856,10.1124203763629,10.1085355973545,TRUE,0.767919462397145
"CAN","cpi",0.3,1982,3,1981,NA,1,11.7039928321558,13.2268934274407,10.1124203763629,11.770988683124,FALSE,6.07025046897878
"CAN","cpi",0.3,1982,3,1981,NA,1.5,13.4038485464295,15.2877804735524,10.1124203763629,12.8701250351281,FALSE,11.2880124130273
"CAN","cpi",0.3,1983,3,1983,NA,0,5.67080705607859,5.79685539866862,5.67091787896303,5.7310121416489,TRUE,0.126048342590032
"CAN","cpi",0.3,1983,3,1983,NA,0.5,4.83868598331389,5.60867970714713,5.67091787896303,4.91343016009654,FALSE,0.947817071878684
"CAN","cpi",0.3,1983,3,1982,NA,1,8.92172823845002,10.5355941199882,5.67091787896303,9.18500149866057,FALSE,10.9018954800724
"CAN","cpi",0.3,1983,3,1982,NA,1.5,10.1067884351866,12.0800070302703,5.67091787896303,9.68672301569366,FALSE,14.6471344700082
"CAN","cpi",0.3,1984,3,1984,NA,0,NA,NA,4.19799576814029,NA,NA,NA
"CAN","cpi",0.3,1984,3,1984,NA,0.5,5.87677982042759,6.63954673690531,4.19799576814029,5.85770686024457,FALSE,5.55929278015573
"CAN","cpi",0.3,1984,3,1983,NA,1,5.16731445745095,7.00934964743298,4.19799576814029,5.76553357996429,FALSE,4.61151715944106
"CAN","cpi",0.3,1984,3,1983,NA,1.5,2.63552829142306,4.9709939782123,4.19799576814029,2.9197996794717,TRUE,2.33546568678924
"CAN","cpi",0.3,1985,3,1985,NA,0,NA,NA,3.86444262005169,3.85417990135378,NA,NA
"CAN","cpi",0.3,1985,3,1985,NA,0.5,3.90658377573169,4.73251206089668,3.86444262005169,4.21990042382899,FALSE,0.946331587107829
"CAN","cpi",0.3,1985,3,1984,NA,1,NA,NA,3.86444262005169,NA,NA,NA
"CAN","cpi",0.3,1985,3,1984,NA,1.5,8.25874112670381,10.5656390790435,3.86444262005169,8.62999660305356,FALSE,14.8620365427744
"CAN","cpi",0.3,1986,3,1986,NA,0,NA,NA,4.08685396749431,4.03771389199993,NA,NA
"CAN","cpi",0.3,1986,3,1986,NA,0.5,3.93226875255265,4.61517347557184,4.08685396749431,4.38219332503529,TRUE,0.682904723019185
"CAN","cpi",0.3,1986,3,1985,NA,1,NA,NA,4.08685396749431,3.37849976080849,NA,NA
"CAN","cpi",0.3,1986,3,1985,NA,1.5,3.64780515439552,5.82540977508227,4.08685396749431,4.95309858900956,TRUE,2.17760462068675
"CAN","cpi",0.3,1987,3,1987,NA,0,NA,NA,4.23980729277887,NA,NA,NA
"CAN","cpi",0.3,1987,3,1987,NA,0.5,3.5951240878536,4.21187239436532,4.23980729277887,4.13342161080085,FALSE,0.696562301979009
"CAN","cpi",0.3,1987,3,1986,NA,1,NA,NA,4.23980729277887,3.66140988164798,NA,NA
"CAN","cpi",0.3,1987,3,1986,NA,1.5,3.19317090613403,5.04593371405597,4.23980729277887,4.80242768143514,TRUE,1.85276280792194
"CAN","cpi",0.3,1988,3,1988,NA,0,NA,NA,3.92899537638065,3.9438316199536,NA,NA
"CAN","cpi",0.3,1988,3,1988,NA,0.5,2.98436480208198,3.5313424330514,3.92899537638065,3.35419215340812,FALSE,1.68312889762442
"CAN","cpi",0.3,1988,3,1987,NA,1,NA,NA,3.92899537638065,NA,NA,NA
"CAN","cpi",0.3,1988,3,1987,NA,1.5,2.1807142131099,3.99550951813522,3.92899537638065,3.89461929526446,TRUE,1.81479530502532
"CAN","cpi",0.3,1989,3,1989,NA,0,NA,NA,4.82821664544208,4.95130318392835,NA,NA
"CAN","cpi",0.3,1989,3,1989,NA,0.5,3.94183073987745,4.50334515640911,4.82821664544208,4.23024942747073,FALSE,1.48971867091156
"CAN","cpi",0.3,1989,3,1988,NA,1,NA,NA,4.82821664544208,4.05841794603162,NA,NA
"CAN","cpi",0.3,1989,3,1988,NA,1.5,0.920992536067295,2.74460380056666,4.82821664544208,2.597843559383,FALSE,7.77679082128628
"CAN","cpi",0.3,1990,3,1990,NA,0,NA,NA,4.64347549432717,4.4746950192663,NA,NA
"CAN","cpi",0.3,1990,3,1990,NA,0.5,4.71103549329317,5.28969497438054,4.64347549432717,4.96487168902479,FALSE,0.77168804956165
"CAN","cpi",0.3,1990,3,1989,NA,1,NA,NA,4.64347549432717,5.43871373969076,NA,NA
"CAN","cpi",0.3,1990,3,1989,NA,1.5,1.94989223166944,3.89450887373933,4.64347549432717,3.3732540002381,FALSE,4.08452127232087
"CAN","cpi",0.3,1991,3,1991,NA,0,NA,NA,5.4258100696218,5.61053369942382,NA,NA
"CAN","cpi",0.3,1991,3,1991,NA,0.5,7.50705038476594,8.08485354729467,5.4258100696218,7.82199295477594,FALSE,6.52420406294057
"CAN","cpi",0.3,1991,3,1990,NA,1,NA,NA,5.4258100696218,3.66716818384097,NA,NA
"CAN","cpi",0.3,1991,3,1990,NA,1.5,3.48909917502187,5.47210818892371,5.4258100696218,4.82481948664164,TRUE,1.98300901390184
"CAN","cpi",0.3,1992,3,1992,NA,0,NA,NA,1.47496888572843,NA,NA,NA
"CAN","cpi",0.3,1992,3,1992,NA,0.5,NA,NA,1.47496888572843,NA,NA,NA
"CAN","cpi",0.3,1992,3,1991,NA,1,NA,NA,1.47496888572843,2.76780571233213,NA,NA
"CAN","cpi",0.3,1992,3,1991,NA,1.5,5.77572160603073,7.73930988822159,1.47496888572843,7.14938182660169,FALSE,14.2514531973403
"CAN","cpi",0.3,1993,3,1993,NA,0,NA,NA,NA,NA,NA,NA
"CAN","cpi",0.3,1993,3,1993,NA,0.5,NA,NA,NA,NA,NA,NA
"CAN","cpi",0.3,1993,3,1992,NA,1,NA,NA,NA,NA,NA,NA
"CAN","cpi",0.3,1993,3,1992,NA,1.5,NA,NA,NA,NA,NA,NA
"CAN","cpi",0.3,1994,3,1994,NA,0,NA,NA,NA,NA,NA,NA
"CAN","cpi",0.3,1994,3,1994,NA,0.5,NA,NA,NA,NA,NA,NA
"CAN","cpi",0.3,1994,3,1993,NA,1,NA,NA,NA,NA,NA,NA
"CAN","cpi",0.3,1994,3,1993,NA,1.5,NA,NA,NA,NA,NA,NA
"CAN","cpi",0.3,1995,3,1995,NA,0,NA,NA,2.11688403676572,NA,NA,NA
"CAN","cpi",0.3,1995,3,1995,NA,0.5,NA,NA,2.11688403676572,2.51937811073084,NA,NA
"CAN","cpi",0.3,1995,3,1994,NA,1,NA,NA,2.11688403676572,0.719396410821945,NA,NA
"CAN","cpi",0.3,1995,3,1994,NA,1.5,NA,NA,2.11688403676572,-1.04654603924828,NA,NA
"CAN","cpi",0.3,1996,3,1996,NA,0,NA,NA,1.55309584667184,1.42780748357026,NA,NA
"CAN","cpi",0.3,1996,3,1996,NA,0.5,NA,NA,1.55309584667184,NA,NA,NA
"CAN","cpi",0.3,1996,3,1995,NA,1,NA,NA,1.55309584667184,NA,NA,NA
"CAN","cpi",0.3,1996,3,1995,NA,1.5,NA,NA,1.55309584667184,2.92232271175447,NA,NA
"CAN","cpi",0.3,1997,3,1997,NA,0,NA,NA,1.60528783555959,1.73535847807117,NA,NA
"CAN","cpi",0.3,1997,3,1997,NA,0.5,NA,NA,1.60528783555959,2.11078363597796,NA,NA
"CAN","cpi",0.3,1997,3,1996,NA,1,NA,NA,1.60528783555959,0.984961337307556,NA,NA
"CAN","cpi",0.3,1997,3,1996,NA,1.5,NA,NA,1.60528783555959,NA,NA,NA
"CAN","cpi",0.3,1998,3,1998,NA,0,NA,NA,0.988908029337191,1.0350847138471,NA,NA
"CAN","cpi",0.3,1998,3,1998,NA,0.5,NA,NA,0.988908029337191,1.68533655437107,NA,NA
"CAN","cpi",0.3,1998,3,1997,NA,1,NA,NA,0.988908029337191,2.25159584334757,NA,NA
"CAN","cpi",0.3,1998,3,1997,NA,1.5,NA,NA,0.988908029337191,2.38987816876076,NA,NA
"CAN","cpi",0.3,1999,3,1999,NA,0,NA,NA,1.7107350135213,1.77618438459462,NA,NA
"CAN","cpi",0.3,1999,3,1999,NA,0.5,NA,NA,1.7107350135213,1.0290924799153,NA,NA
"CAN","cpi",0.3,1999,3,1998,NA,1,NA,NA,1.7107350135213,1.85177544064205,NA,NA
"CAN","cpi",0.3,1999,3,1998,NA,1.5,NA,NA,1.7107350135213,2.94645730787123,NA,NA
"CAN","cpi",0.3,2000,3,2000,NA,0,NA,NA,2.6718361971244,2.7102541785615,NA,NA
"CAN","cpi",0.3,2000,3,2000,NA,0.5,NA,NA,2.6718361971244,2.34405201403356,NA,NA
"CAN","cpi",0.3,2000,3,1999,NA,1,NA,NA,2.6718361971244,3.07542936781209,NA,NA
"CAN","cpi",0.3,2000,3,1999,NA,1.5,NA,NA,2.6718361971244,2.27809035801724,NA,NA
"CAN","cpi",0.3,2001,3,2001,NA,0,NA,NA,2.47906219852806,2.77546584984351,NA,NA
"CAN","cpi",0.3,2001,3,2001,NA,0.5,NA,NA,2.47906219852806,2.43566755503104,NA,NA
"CAN","cpi",0.3,2001,3,2000,NA,1,NA,NA,2.47906219852806,3.68958695319843,NA,NA
"CAN","cpi",0.3,2001,3,2000,NA,1.5,NA,NA,2.47906219852806,3.01270789712173,NA,NA
"CAN","cpi",0.3,2002,3,2002,NA,0,NA,NA,2.20880570551249,2.27196234986351,NA,NA
"CAN","cpi",0.3,2002,3,2002,NA,0.5,NA,NA,2.20880570551249,1.58345411989126,NA,NA
"CAN","cpi",0.3,2002,3,2001,NA,1,NA,NA,2.20880570551249,2.26510423845898,NA,NA
"CAN","cpi",0.3,2002,3,2001,NA,1.5,NA,NA,2.20880570551249,3.02058043279009,NA,NA
"CAN","cpi",0.3,2003,3,2003,NA,0,NA,NA,2.71189071546809,2.71326702620668,NA,NA
"CAN","cpi",0.3,2003,3,2003,NA,0.5,NA,NA,2.71189071546809,4.51432649273496,NA,NA
"CAN","cpi",0.3,2003,3,2002,NA,1,NA,NA,2.71189071546809,3.85618281746238,NA,NA
"CAN","cpi",0.3,2003,3,2002,NA,1.5,NA,NA,2.71189071546809,2.39402389849184,NA,NA
"CAN","cpi",0.3,2004,3,2004,NA,0,NA,NA,1.83151661303942,1.77466852383015,NA,NA
"CAN","cpi",0.3,2004,3,2004,NA,0.5,NA,NA,1.83151661303942,1.55260435151936,NA,NA
"CAN","cpi",0.3,2004,3,2003,NA,1,NA,NA,1.83151661303942,1.79415792598285,NA,NA
"CAN","cpi",0.3,2004,3,2003,NA,1.5,NA,NA,1.83151661303942,4.26699272545716,NA,NA
"CAN","cpi",0.3,2005,3,2005,NA,0,NA,NA,2.18071628336509,2.34345353472953,NA,NA
"CAN","cpi",0.3,2005,3,2005,NA,0.5,NA,NA,2.18071628336509,1.50321338317329,NA,NA
"CAN","cpi",0.3,2005,3,2004,NA,1,NA,NA,2.18071628336509,1.64043962712234,NA,NA
"CAN","cpi",0.3,2005,3,2004,NA,1.5,NA,NA,2.18071628336509,2.03393284113233,NA,NA
"CAN","cpi",0.3,2006,3,2006,NA,0,NA,NA,1.97519342012289,2.09514376892657,NA,NA
"CAN","cpi",0.3,2006,3,2006,NA,0.5,NA,NA,1.97519342012289,2.09436263599022,NA,NA
"CAN","cpi",0.3,2006,3,2005,NA,1,NA,NA,1.97519342012289,2.9582912060806,NA,NA
"CAN","cpi",0.3,2006,3,2005,NA,1.5,NA,NA,1.97519342012289,1.64885961980806,NA,NA
"CAN","cpi",0.3,2007,3,2007,NA,0,1.99608704066744,2.0827485952343,2.10062087284572,2.10683622102307,FALSE,0.137725204885214
"CAN","cpi",0.3,2007,3,2007,NA,0.5,NA,NA,2.10062087284572,2.17629902083353,NA,NA
"CAN","cpi",0.3,2007,3,2006,NA,1,NA,NA,2.10062087284572,1.50861692709856,NA,NA
"CAN","cpi",0.3,2007,3,2006,NA,1.5,NA,NA,2.10062087284572,2.15918616350405,NA,NA
"CAN","cpi",0.3,2008,3,2008,NA,0,2.75456389130974,2.82827863983533,2.31447335265955,2.87079455148828,FALSE,1.33111628752613
"CAN","cpi",0.3,2008,3,2008,NA,0.5,0.973428472363245,1.54401975626075,2.31447335265955,1.31005314695267,FALSE,2.77188727360836
"CAN","cpi",0.3,2008,3,2007,NA,1,0.874612370957704,1.44572339231581,2.31447335265955,1.47031049982668,FALSE,3.05325376519738
"CAN","cpi",0.3,2008,3,2007,NA,1.5,NA,NA,2.31447335265955,2.46453195342394,NA,NA
"CAN","cpi",0.3,2009,3,2009,NA,0,0.00227196310980313,0.135726056609583,0.284533874408197,0.187122346349721,FALSE,0.558619287210106
"CAN","cpi",0.3,2009,3,2009,NA,0.5,-0.286970972424818,0.313344565982119,0.284533874408197,-0.0727492620466167,TRUE,0.600315538406937
"CAN","cpi",0.3,2009,3,2008,NA,1,3.22784863568347,3.82816417409041,0.284533874408197,3.81780026356951,FALSE,9.00978628490772
"CAN","cpi",0.3,2009,3,2008,NA,1.5,0.845640637544269,1.53850187599971,0.284533874408197,1.68675152630419,FALSE,2.29602341884422
"CAN","cpi",0.3,2010,3,2010,NA,0,1.4329501253535,1.57490147867695,1.75525687020327,1.6089956646354,FALSE,0.657252471970091
"CAN","cpi",0.3,2010,3,2010,NA,0.5,1.80592699479804,2.37971911182865,1.75525687020327,1.91109502526183,FALSE,0.718563901587083
"CAN","cpi",0.3,2010,3,2009,NA,1,0.0864222725331079,0.905749118881991,1.75525687020327,0.992295788494754,FALSE,3.24649185012397
"CAN","cpi",0.3,2010,3,2009,NA,1.5,-0.0193540501155434,0.799972796233339,1.75525687020327,0.885103052815867,FALSE,3.54870991483441
"CAN","cpi",0.3,2011,3,2011,NA,0,2.70407394073673,2.85758744738145,2.85717434028225,2.86665414062098,TRUE,0.153513506644719
"CAN","cpi",0.3,2011,3,2011,NA,0.5,2.58974657511013,3.15310790276748,2.85717434028225,2.76583381894771,TRUE,0.563361327657351
"CAN","cpi",0.3,2011,3,2010,NA,1,0.549122823303311,1.40871378521289,2.85717434028225,1.39294644169719,FALSE,4.99804969067916
"CAN","cpi",0.3,2011,3,2010,NA,1.5,0.90938472809708,1.76897569000666,2.85717434028225,1.64253060592363,FALSE,3.96872996269697
"CAN","cpi",0.3,2012,3,2012,NA,0,1.36793741390245,1.52212739743409,1.50118536134935,1.52822510849394,TRUE,0.154189983531639
"CAN","cpi",0.3,2012,3,2012,NA,0.5,1.72814142876063,2.28863609399439,1.50118536134935,1.92429021972789,FALSE,1.20894057212314
"CAN","cpi",0.3,2012,3,2011,NA,1,1.28533762470077,2.22511478013949,1.50118536134935,1.99945242447079,TRUE,0.939777155438722
"CAN","cpi",0.3,2012,3,2011,NA,1.5,1.78289768077499,2.72267483621372,1.50118536134935,2.48150957397962,FALSE,1.74466949665486
"CAN","cpi",0.3,2013,3,2013,NA,0,0.925367219746417,1.06983289837025,0.931270594714462,1.05630513423211,TRUE,0.144465678623831
"CAN","cpi",0.3,2013,3,2013,NA,0.5,0.924898218816294,1.49774986433147,0.931270594714462,1.16963454554932,TRUE,0.572851645515179
"CAN","cpi",0.3,2013,3,2012,NA,1,0.441509190097892,1.37690154683908,0.931270594714462,1.08868089128742,TRUE,0.935392356741183
"CAN","cpi",0.3,2013,3,2012,NA,1.5,1.40870516380972,2.34409752055091,0.931270594714462,2.14573179530527,FALSE,2.29949112558479
"CAN","cpi",0.3,2014,3,2014,NA,0,1.8616521449025,2.00694416125834,1.87639912240215,1.99862849145116,TRUE,0.145292016355834
"CAN","cpi",0.3,2014,3,2014,NA,0.5,1.47774979021261,2.0332295350437,1.87639912240215,1.79231976082687,TRUE,0.555479744831091
"CAN","cpi",0.3,2014,3,2013,NA,1,0.74514706415964,1.69081772957745,1.87639912240215,1.40664989819898,FALSE,1.47590321634553
"CAN","cpi",0.3,2014,3,2013,NA,1.5,0.735587570734778,1.68125823615259,1.87639912240215,1.51436121777893,FALSE,1.50321605470228
"CAN","cpi",0.3,2015,3,2015,NA,0,1.06254189799096,1.20743715043398,1.11090953952792,1.2103065042478,TRUE,0.144895252443027
"CAN","cpi",0.3,2015,3,2015,NA,0.5,0.431142203093516,0.755294984461923,1.11090953952792,0.458547315718059,FALSE,1.34019436727125
"CAN","cpi",0.3,2015,3,2014,NA,1,1.06036554410781,1.99685714110264,1.11090953952792,1.57054781428135,TRUE,0.936491596994829
"CAN","cpi",0.3,2015,3,2014,NA,1.5,1.11212253600136,2.04861413299619,1.11090953952792,1.88229109541157,FALSE,0.939957301204676
"CAN","cpi",0.3,2016,3,2016,NA,0,1.25632304018274,1.39724815756297,1.41168586698797,1.41630667471992,FALSE,0.182175715737354
"CAN","cpi",0.3,2016,3,2016,NA,0.5,1.17585889893564,1.52082681618579,1.41168586698797,1.17972158292925,TRUE,0.344967917250149
"CAN","cpi",0.3,2016,3,2015,NA,1,1.3529549192891,2.20054037442661,1.41168586698797,1.8638656605167,TRUE,0.847585455137506
"CAN","cpi",0.3,2016,3,2015,NA,1.5,0.495795861990598,1.3433813171281,1.41168586698797,1.07023002715086,FALSE,1.04274131187997
"CAN","cpi",0.3,2017,3,2017,NA,0,1.35936234154078,1.50019780399709,1.57888581671161,1.50492692646759,FALSE,0.365658355926374
"CAN","cpi",0.3,2017,3,2017,NA,0.5,2.05867947878781,2.37928841500283,1.57888581671161,2.09086618282141,FALSE,1.69144797071845
"CAN","cpi",0.3,2017,3,2016,NA,1,0.546210870661378,1.39214748184624,1.57888581671161,1.14652050352824,FALSE,1.37947471080022
"CAN","cpi",0.3,2017,3,2016,NA,1.5,0.71196859273763,1.55790520392249,1.57888581671161,1.26788084523026,FALSE,0.905881219153784
"CAN","cpi",0.3,2018,3,2018,NA,0,2.28348882751182,2.42782444029393,2.23316270166586,2.41317537496083,FALSE,0.288124543770569
"CAN","cpi",0.3,2018,3,2018,NA,0.5,2.44538571607375,2.79561198923297,2.23316270166586,2.52809119314695,FALSE,0.956577742896058
"CAN","cpi",0.3,2018,3,2017,NA,1,0.699865174907407,1.53881113598221,2.23316270166586,1.16800101916097,FALSE,2.8228075773138
"CAN","cpi",0.3,2018,3,2017,NA,1.5,1.51917356526937,2.35811952634418,2.23316270166586,2.07298402260093,TRUE,0.838945961074801
"CAN","cpi",0.3,2019,3,2019,NA,0,NA,NA,1.91921619871868,NA,NA,NA
"CAN","cpi",0.3,2019,3,2019,NA,0.5,1.36574230459171,1.7257854416706,1.91921619871868,1.47328806303322,FALSE,0.912702442930556
"CAN","cpi",0.3,2019,3,2018,NA,1,1.80286945833342,2.65523911457141,1.91921619871868,2.23470281046333,TRUE,0.852369656237991
"CAN","cpi",0.3,2019,3,2018,NA,1.5,1.77966913619136,2.63203879242935,1.91921619871868,2.32030562567512,TRUE,0.852369656237991
"CAN","cpi",0.3,2020,3,2020,NA,0,NA,NA,0.71139989671781,0.673588636713597,NA,NA
"CAN","cpi",0.3,2020,3,2020,NA,0.5,NA,NA,0.71139989671781,NA,NA,NA
"CAN","cpi",0.3,2020,3,2019,NA,1,NA,NA,0.71139989671781,NA,NA,NA
"CAN","cpi",0.3,2020,3,2019,NA,1.5,1.30490002639328,1.9746645212367,0.71139989671781,1.77705491937904,FALSE,2.36547915105905
"CAN","cpi",0.3,2021,3,2021,NA,0,NA,NA,3.31148121717802,3.2525646654712,NA,NA
"CAN","cpi",0.3,2021,3,2021,NA,0.5,NA,NA,3.31148121717802,2.16773480502693,NA,NA
"CAN","cpi",0.3,2021,3,2020,NA,1,NA,NA,3.31148121717802,1.61070774476322,NA,NA
"CAN","cpi",0.3,2021,3,2020,NA,1.5,NA,NA,3.31148121717802,NA,NA,NA
"CAN","cpi",0.3,2022,3,2022,NA,0,NA,NA,6.50977236228281,6.58682891800883,NA,NA
"CAN","cpi",0.3,2022,3,2022,NA,0.5,NA,NA,6.50977236228281,5.58900513180898,NA,NA
"CAN","cpi",0.3,2022,3,2021,NA,1,NA,NA,6.50977236228281,3.35597076522593,NA,NA
"CAN","cpi",0.3,2022,3,2021,NA,1.5,NA,NA,6.50977236228281,1.89458222166426,NA,NA
"CAN","cpi",0.3,2023,3,2023,NA,0,NA,NA,3.78831288758619,3.96221561415741,NA,NA
"CAN","cpi",0.3,2023,3,2023,NA,0.5,NA,NA,3.78831288758619,3.6121970566696,NA,NA
"CAN","cpi",0.3,2023,3,2022,NA,1,NA,NA,3.78831288758619,5.4861852561408,NA,NA
"CAN","cpi",0.3,2023,3,2022,NA,1.5,NA,NA,3.78831288758619,3.85557075258935,NA,NA
"CAN","cpi",0.3,2024,3,2023,NA,1,NA,NA,NA,4.72280809903739,NA,NA
"CAN","cpi",0.3,2024,3,2023,NA,1.5,NA,NA,NA,4.36705509613113,NA,NA
"CAN","cpi",0.4,1959,3,1959,NA,0,1.10316895483845,1.27773966409387,1.19382698397654,1.24991216431293,TRUE,0.174570709255415
"CAN","cpi",0.4,1959,3,1959,NA,0.5,-0.243447088219176,1.76000644495867,1.19382698397654,0.437839731590327,TRUE,2.00345353317785
"CAN","cpi",0.4,1959,3,1958,NA,1,-1.77858575521635,1.71468984673067,1.19382698397654,1.75862762885946,TRUE,3.49327560194701
"CAN","cpi",0.4,1959,3,1958,NA,1.5,-1.35319323991059,5.78085927738015,1.19382698397654,1.77407172713766,TRUE,7.13405251729074
"CAN","cpi",0.4,1960,3,1960,NA,0,0.909220137047407,1.06301140450321,1.34209404870695,1.02361304259477,FALSE,1.08406674813494
"CAN","cpi",0.4,1960,3,1960,NA,0.5,-0.0395250709145709,1.95479063701685,1.34209404870695,0.53898348018166,TRUE,1.99431570793142
"CAN","cpi",0.4,1960,3,1959,NA,1,0.301095257475246,3.17535209903641,1.34209404870695,3.95759373689442,TRUE,2.87425684156116
"CAN","cpi",0.4,1960,3,1959,NA,1.5,-4.51927234298184,2.17165264866457,1.34209404870695,-0.873476815404885,TRUE,6.6909249916464
"CAN","cpi",0.4,1961,3,1961,NA,0,0.913693593306097,1.10276556051443,1.00921348094007,1.00921348094007,TRUE,0.189071967208332
"CAN","cpi",0.4,1961,3,1961,NA,0.5,1.09319479049313,2.54636496657101,1.00921348094007,1.00921348094007,FALSE,1.73310787458807
"CAN","cpi",0.4,1961,3,1960,NA,1,-2.98164581975386,-0.582311823803852,1.00921348094007,0.0537704626035329,FALSE,7.70441834509642
"CAN","cpi",0.4,1961,3,1960,NA,1.5,-3.49285727245469,2.82172735046213,1.00921348094007,-0.862181798940035,TRUE,6.31458462291682
"CAN","cpi",0.4,1962,3,1962,NA,0,0.99466826401057,1.16342206621273,1.04957947883042,1.10232402731478,TRUE,0.168753802202156
"CAN","cpi",0.4,1962,3,1962,NA,0.5,-0.0865996133486877,1.14936149535684,1.04957947883042,0,TRUE,1.23596110870553
"CAN","cpi",0.4,1962,3,1961,NA,1,-2.78997813443548,-0.251519673436952,1.04957947883042,0,FALSE,6.87545563522309
"CAN","cpi",0.4,1962,3,1961,NA,1.5,-1.02407421087648,4.1868059011688,1.04957947883042,0,TRUE,5.21088011204527
"CAN","cpi",0.4,1963,3,1963,NA,0,1.80555546993773,1.97453646459495,1.60677118395228,1.91491729531202,FALSE,0.831595281275362
"CAN","cpi",0.4,1963,3,1963,NA,0.5,0.756034283533938,1.99548600414088,1.60677118395228,0.836828714617504,TRUE,1.23945172060694
"CAN","cpi",0.4,1963,3,1962,NA,1,-0.245135888774272,2.03280703248014,1.60677118395228,2.56411490415144,TRUE,2.27794292125441
"CAN","cpi",0.4,1963,3,1962,NA,1.5,-1.28290772848602,2.44279008761699,1.60677118395228,0,TRUE,3.72569781610301
"CAN","cpi",0.4,1964,3,1964,NA,0,1.83729710168267,2.02580669487786,1.88764670034376,1.98877256446048,TRUE,0.188509593195183
"CAN","cpi",0.4,1964,3,1964,NA,0.5,1.95568792188722,2.51094613424481,1.88764670034376,1.38369006227607,FALSE,0.782062284169134
"CAN","cpi",0.4,1964,3,1963,NA,1,3.23737011686375,5.05332337612896,1.88764670034376,5.39044290347256,FALSE,6.31503131433186
"CAN","cpi",0.4,1964,3,1963,NA,1.5,-0.411455477133111,2.77238292293427,1.88764670034376,0,TRUE,3.18383840006738
"CAN","cpi",0.4,1965,3,1965,NA,0,2.19015822246927,2.37918264070348,2.29538304394236,2.34557047418999,TRUE,0.189024418234212
"CAN","cpi",0.4,1965,3,1965,NA,0.5,2.14408400912423,2.70980765787367,2.29538304394236,1.61079447956654,TRUE,0.565723648749437
"CAN","cpi",0.4,1965,3,1964,NA,1,0.0338282739650893,1.71517744058805,2.29538304394236,2.42518862179847,FALSE,3.61536784447064
"CAN","cpi",0.4,1965,3,1964,NA,1.5,1.96135994781869,3.64270911444166,2.29538304394236,0.818102552316399,TRUE,1.68134916662297
"CAN","cpi",0.4,1966,3,1966,NA,0,3.68652018245968,3.86555736517942,3.72486065470629,3.82010987863709,TRUE,0.17903718271974
"CAN","cpi",0.4,1966,3,1966,NA,0.5,4.49686274998784,5.05996018478835,3.72486065470629,3.99123398895563,FALSE,3.13643775240568
"CAN","cpi",0.4,1966,3,1965,NA,1,1.05092462780606,2.73651508651735,3.72486065470629,3.20722068745854,FALSE,4.98007568600776
"CAN","cpi",0.4,1966,3,1965,NA,1.5,2.7064514183708,4.39204187708209,3.72486065470629,1.60663824631958,TRUE,1.68559045871129
"CAN","cpi",0.4,1967,3,1967,NA,0,3.62168464332373,3.79761494029461,3.49360316391996,3.76768849328632,FALSE,0.602868561650112
"CAN","cpi",0.4,1967,3,1967,NA,0.5,2.7598182390159,3.40926576849336,3.49360316391996,2.4074547441976,FALSE,0.930572180899467
"CAN","cpi",0.4,1967,3,1966,NA,1,1.3853143201548,3.04323901488681,3.49360316391996,3.18103323070284,FALSE,3.1591385248425
"CAN","cpi",0.4,1967,3,1966,NA,1.5,5.76937729347592,7.42730198820793,3.49360316391996,4.65128160487248,FALSE,9.24383845991854
"CAN","cpi",0.4,1968,3,1968,NA,0,4.02069774813448,4.20152648169033,3.95128347779386,4.17287945672396,FALSE,0.412209634691266
"CAN","cpi",0.4,1968,3,1968,NA,0.5,4.42299329483692,4.90030256230439,3.95128347779386,4.07097205779852,FALSE,2.04967532427769
"CAN","cpi",0.4,1968,3,1967,NA,1,3.98565736195551,5.74755258431953,3.95128347779386,5.84521682123848,FALSE,1.8764748362362
"CAN","cpi",0.4,1968,3,1967,NA,1.5,2.92388607158239,4.6857812939464,3.95128347779386,2.25565858240226,TRUE,1.76189522236401
"CAN","cpi",0.4,1969,3,1969,NA,0,4.30984498709145,4.49486497880791,4.42679496126681,4.46896837073893,TRUE,0.185019991716464
"CAN","cpi",0.4,1969,3,1969,NA,0.5,3.20358453006763,3.70515126803782,4.42679496126681,2.96612019395715,FALSE,2.90704571540018
"CAN","cpi",0.4,1969,3,1968,NA,1,5.22445552846053,6.60384891523292,4.42679496126681,6.72487630040807,FALSE,4.03826194408476
"CAN","cpi",0.4,1969,3,1968,NA,1.5,4.86358576403616,6.24297915080856,4.42679496126681,4.31664452944541,FALSE,2.83536272933689
"CAN","cpi",0.4,1970,3,1970,NA,0,3.35907608509525,3.53434475919531,3.28128405769805,3.52697515579364,FALSE,0.434575432090728
"CAN","cpi",0.4,1970,3,1970,NA,0.5,4.98210909824737,5.5485719244361,3.28128405769805,4.65371085276917,FALSE,6.23587962801981
"CAN","cpi",0.4,1970,3,1969,NA,1,2.99055488461418,4.40494295910205,3.28128405769805,4.52747875087707,TRUE,1.41438807448786
"CAN","cpi",0.4,1970,3,1969,NA,1.5,2.49020975833558,3.90459783282345,3.28128405769805,2.07973847283129,TRUE,1.41438807448786
"CAN","cpi",0.4,1971,3,1971,NA,0,2.65057264877526,2.83307059653287,2.64123406634756,2.8393232579169,FALSE,0.213626555849922
"CAN","cpi",0.4,1971,3,1971,NA,0.5,2.06485280545676,2.90526545353354,2.64123406634756,2.06692165705507,TRUE,0.840412648076775
"CAN","cpi",0.4,1971,3,1970,NA,1,1.08033919753828,2.41843120913078,2.64123406634756,2.64105994583495,FALSE,2.08076820231511
"CAN","cpi",0.4,1971,3,1970,NA,1.5,5.25037664486827,6.58846865646077,2.64123406634756,4.63977638900468,FALSE,10.0352339399949
"CAN","cpi",0.4,1972,3,1972,NA,0,4.82963639520102,4.94240054391377,4.83230569625923,5.03048103188219,TRUE,0.112764148712747
"CAN","cpi",0.4,1972,3,1972,NA,0.5,5.04841872721726,5.88037463946727,4.83230569625923,5.06705904355972,FALSE,1.55233268211012
"CAN","cpi",0.4,1972,3,1971,NA,1,4.52622120644792,5.99983841881352,4.83230569625923,5.9169160270675,TRUE,1.4736172123656
"CAN","cpi",0.4,1972,3,1971,NA,1.5,3.25250141109258,4.72611862345818,4.83230569625923,3.09276495441271,FALSE,1.82757412170243
"CAN","cpi",0.4,1973,3,1973,NA,0,6.77931443071946,6.88102368928965,7.12388603531779,6.99264756193144,FALSE,0.911250411997318
"CAN","cpi",0.4,1973,3,1973,NA,0.5,5.42696730552552,6.27442347549475,7.12388603531779,5.47469896411854,FALSE,3.67899803604602
"CAN","cpi",0.4,1973,3,1972,NA,1,5.14268940229572,6.55986505303387,7.12388603531779,6.69062283747837,FALSE,3.29724559168455
"CAN","cpi",0.4,1973,3,1972,NA,1.5,4.90771289717358,6.32488854791173,7.12388603531779,4.73174243586486,FALSE,4.08050060875835
"CAN","cpi",0.4,1974,3,1974,NA,0,9.73116203920916,9.86596282673968,10.2717243737774,9.94431520564033,FALSE,1.48733927765632
"CAN","cpi",0.4,1974,3,1974,NA,0.5,8.30929977950538,9.22744347055489,10.2717243737774,8.3378654175141,FALSE,4.3990800351246
"CAN","cpi",0.4,1974,3,1973,NA,1,5.5974270748399,6.94607265260059,10.2717243737774,7.16712422635118,FALSE,12.4341513150168
"CAN","cpi",0.4,1974,3,1973,NA,1.5,4.31522419605717,5.80148992824543,10.2717243737774,4.05174749178054,FALSE,16.3870472172949
"CAN","cpi",0.4,1975,3,1975,NA,0,9.91052649364006,10.0998881903469,10.0232981493341,10.0931823619779,TRUE,0.189361696706825
"CAN","cpi",0.4,1975,3,1975,NA,0.5,9.00290743707447,10.0350756793457,10.0232981493341,8.98267476097328,TRUE,1.03216824227125
"CAN","cpi",0.4,1975,3,1974,NA,1,6.33392441721622,8.18145855079187,10.0232981493341,7.7837982223054,FALSE,7.98699946204982
"CAN","cpi",0.4,1975,3,1974,NA,1.5,6.07330314291844,8.29731277636519,10.0232981493341,5.75931605308519,FALSE,7.97729421000985
"CAN","cpi",0.4,1976,3,1976,NA,0,6.89295430495635,7.08233505437705,7.22784311401172,7.07277954951717,FALSE,0.674407614869588
"CAN","cpi",0.4,1976,3,1976,NA,0.5,8.65389583123112,9.69809474478962,7.22784311401172,8.59089060438327,FALSE,5.79770797095651
"CAN","cpi",0.4,1976,3,1975,NA,1,9.55124337062608,11.2688925316464,7.22784311401172,10.4141477685142,FALSE,9.46231668306816
"CAN","cpi",0.4,1976,3,1975,NA,1.5,6.87334039708346,9.27172611980068,7.22784311401172,6.43051086134862,TRUE,2.39838572271722
"CAN","cpi",0.4,1977,3,1977,NA,0,7.38448701845005,7.58858463782483,7.58101410153764,7.55301151664772,TRUE,0.204097619374778
"CAN","cpi",0.4,1977,3,1977,NA,0.5,7.77546743754319,8.98576146564924,7.58101410153764,7.98165850021887,FALSE,1.8584718147912
"CAN","cpi",0.4,1977,3,1976,NA,1,2.44327764619601,4.43552859707535,7.58101410153764,3.72134649143602,FALSE,12.4772026324203
"CAN","cpi",0.4,1977,3,1976,NA,1.5,8.37637129699395,10.7894874341665,7.58101410153764,8.00272044475614,FALSE,5.06430678869361
"CAN","cpi",0.4,1978,3,1978,NA,0,8.51305753159222,8.71895731834968,8.50208927062595,8.67127840358843,FALSE,0.242460656645031
"CAN","cpi",0.4,1978,3,1978,NA,0.5,8.15601389814196,9.37513972018552,8.50208927062595,8.3788273181893,TRUE,1.21912582204356
"CAN","cpi",0.4,1978,3,1977,NA,1,6.37872402523188,8.76070719309824,8.50208927062595,7.54783828416051,TRUE,2.38198316786636
"CAN","cpi",0.4,1978,3,1977,NA,1.5,9.83319973474452,12.3166680061836,8.50208927062595,9.72562756342223,FALSE,6.9205031518343
"CAN","cpi",0.4,1979,3,1979,NA,0,8.41999133676541,8.61606654635881,8.65147652410481,8.56376390232469,FALSE,0.314108468746732
"CAN","cpi",0.4,1979,3,1979,NA,0.5,7.99712141827818,9.19329299622677,8.65147652410481,8.29599284966764,TRUE,1.1961715779486
"CAN","cpi",0.4,1979,3,1978,NA,1,8.0837379719323,10.482915970664,8.65147652410481,9.20311500508918,TRUE,2.39917799873165
"CAN","cpi",0.4,1979,3,1978,NA,1.5,8.65435930945256,11.1452169891725,8.65147652410481,8.55646910152924,FALSE,2.50046696421244
"CAN","cpi",0.4,1980,3,1980,NA,0,9.39152265472502,9.58137979329029,9.5171912664748,9.50406722106931,TRUE,0.189857138565269
"CAN","cpi",0.4,1980,3,1980,NA,0.5,8.32676506415183,9.51403689307273,9.5171912664748,8.57798914335092,FALSE,1.19778640692778
"CAN","cpi",0.4,1980,3,1979,NA,1,7.22413495101689,9.53784666697372,9.5171912664748,8.17875203710815,TRUE,2.31371171595682
"CAN","cpi",0.4,1980,3,1979,NA,1.5,8.33123494609636,10.8484771120186,9.5171912664748,8.39204766062112,TRUE,2.51724216592228
"CAN","cpi",0.4,1981,3,1981,NA,0,11.6038611182125,11.7937367672091,11.5813425032741,11.7113878984199,FALSE,0.264937698791027
"CAN","cpi",0.4,1981,3,1981,NA,0.5,11.9386726140276,13.0825771990148,11.5813425032741,12.2156196752767,FALSE,2.33500495416547
"CAN","cpi",0.4,1981,3,1980,NA,1,10.5013881092799,12.6636456770097,11.5813425032741,11.0496853423024,TRUE,2.16225756772975
"CAN","cpi",0.4,1981,3,1980,NA,1.5,8.38352393296332,10.8728328608677,11.5813425032741,8.33809792174894,FALSE,4.85100773592576
"CAN","cpi",0.4,1982,3,1982,NA,0,10.1659067970186,10.343275413228,10.1124203763629,10.2566668151097,FALSE,0.35565668506152
"CAN","cpi",0.4,1982,3,1982,NA,0.5,9.94809671480223,10.9931939647718,10.1124203763629,10.1085355973545,TRUE,1.04509724996958
"CAN","cpi",0.4,1982,3,1981,NA,1,11.429150066499,13.5017361930975,10.1124203763629,11.770988683124,FALSE,6.46168509371869
"CAN","cpi",0.4,1982,3,1981,NA,1.5,13.0638492958135,15.6277797241684,10.1124203763629,12.8701250351281,FALSE,12.4020268265233
"CAN","cpi",0.4,1983,3,1983,NA,0,5.64805870652041,5.8196037482268,5.67091787896303,5.7310121416489,TRUE,0.171545041706388
"CAN","cpi",0.4,1983,3,1983,NA,0.5,4.69972274089877,5.74764294956225,5.67091787896303,4.91343016009654,TRUE,1.04792020866348
"CAN","cpi",0.4,1983,3,1982,NA,1,8.63046867518345,10.8268536832547,5.67091787896303,9.18500149866057,FALSE,12.061554328806
"CAN","cpi",0.4,1983,3,1982,NA,1.5,9.75067533259977,12.4361201328572,5.67091787896303,9.68672301569366,FALSE,16.2846363123799
"CAN","cpi",0.4,1984,3,1984,NA,0,NA,NA,4.19799576814029,NA,NA,NA
"CAN","cpi",0.4,1984,3,1984,NA,0.5,5.73912082316584,6.77720573416706,4.19799576814029,5.85770686024457,FALSE,6.17516842775306
"CAN","cpi",0.4,1984,3,1983,NA,1,4.83487644565998,7.34178765922395,4.19799576814029,5.76553357996429,FALSE,4.62984680529627
"CAN","cpi",0.4,1984,3,1983,NA,1.5,2.21403929178575,5.39248297784961,4.19799576814029,2.9197996794717,TRUE,3.17844368606386
"CAN","cpi",0.4,1985,3,1985,NA,0,NA,NA,3.86444262005169,3.85417990135378,NA,NA
"CAN","cpi",0.4,1985,3,1985,NA,0.5,3.75752584323646,4.88156999339191,3.86444262005169,4.21990042382899,TRUE,1.12404415015545
"CAN","cpi",0.4,1985,3,1984,NA,1,NA,NA,3.86444262005169,NA,NA,NA
"CAN","cpi",0.4,1985,3,1984,NA,1.5,7.84240783793099,10.9819723678164,3.86444262005169,8.62999660305356,FALSE,16.399448589483
"CAN","cpi",0.4,1986,3,1986,NA,0,NA,NA,4.08685396749431,4.03771389199993,NA,NA
"CAN","cpi",0.4,1986,3,1986,NA,0.5,3.80902274205414,4.73841948607035,4.08685396749431,4.38219332503529,TRUE,0.929396744016216
"CAN","cpi",0.4,1986,3,1985,NA,1,NA,NA,4.08685396749431,3.37849976080849,NA,NA
"CAN","cpi",0.4,1986,3,1985,NA,1.5,3.25480584878779,6.21840908068999,4.08685396749431,4.95309858900956,TRUE,2.9636032319022
"CAN","cpi",0.4,1987,3,1987,NA,0,NA,NA,4.23980729277887,NA,NA,NA
"CAN","cpi",0.4,1987,3,1987,NA,0.5,3.48381753849598,4.32317894372294,4.23980729277887,4.13342161080085,TRUE,0.839361405226953
"CAN","cpi",0.4,1987,3,1986,NA,1,NA,NA,4.23980729277887,3.66140988164798,NA,NA
"CAN","cpi",0.4,1987,3,1986,NA,1.5,2.85879684665049,5.3803077735395,4.23980729277887,4.80242768143514,TRUE,2.52151092688901
"CAN","cpi",0.4,1988,3,1988,NA,0,NA,NA,3.92899537638065,3.9438316199536,NA,NA
"CAN","cpi",0.4,1988,3,1988,NA,0.5,2.88564999081099,3.6300572443224,3.92899537638065,3.35419215340812,FALSE,1.74086769370559
"CAN","cpi",0.4,1988,3,1987,NA,1,NA,NA,3.92899537638065,NA,NA,NA
"CAN","cpi",0.4,1988,3,1987,NA,1.5,1.85319227091721,4.32303146032792,3.92899537638065,3.89461929526446,TRUE,2.46983918941071
"CAN","cpi",0.4,1989,3,1989,NA,0,NA,NA,4.82821664544208,4.95130318392835,NA,NA
"CAN","cpi",0.4,1989,3,1989,NA,0.5,3.84049242818886,4.6046834680977,4.82821664544208,4.23024942747073,FALSE,1.50930163105675
"CAN","cpi",0.4,1989,3,1988,NA,1,NA,NA,4.82821664544208,4.05841794603162,NA,NA
"CAN","cpi",0.4,1989,3,1988,NA,1.5,0.591879549330219,3.07371678730373,4.82821664544208,2.597843559383,FALSE,8.33017009843466
"CAN","cpi",0.4,1990,3,1990,NA,0,NA,NA,4.64347549432717,4.4746950192663,NA,NA
"CAN","cpi",0.4,1990,3,1990,NA,0.5,4.60660295669295,5.39412751098076,4.64347549432717,4.96487168902479,TRUE,0.787524554287803
"CAN","cpi",0.4,1990,3,1989,NA,1,NA,NA,4.64347549432717,5.43871373969076,NA,NA
"CAN","cpi",0.4,1990,3,1989,NA,1.5,1.5989410154814,4.24546008992736,4.64347549432717,3.3732540002381,FALSE,3.97323708911199
"CAN","cpi",0.4,1991,3,1991,NA,0,NA,NA,5.4258100696218,5.61053369942382,NA,NA
"CAN","cpi",0.4,1991,3,1991,NA,0.5,7.40277239072856,8.18913154133205,5.4258100696218,7.82199295477594,FALSE,7.37623355429271
"CAN","cpi",0.4,1991,3,1990,NA,1,NA,NA,5.4258100696218,3.66716818384097,NA,NA
"CAN","cpi",0.4,1991,3,1990,NA,1.5,3.13121916408053,5.82998819986505,5.4258100696218,4.82481948664164,TRUE,2.69876903578452
"CAN","cpi",0.4,1992,3,1992,NA,0,NA,NA,1.47496888572843,NA,NA,NA
"CAN","cpi",0.4,1992,3,1992,NA,0.5,NA,NA,1.47496888572843,NA,NA,NA
"CAN","cpi",0.4,1992,3,1991,NA,1,NA,NA,1.47496888572843,2.76780571233213,NA,NA
"CAN","cpi",0.4,1992,3,1991,NA,1.5,5.42134651696744,8.09368497728487,1.47496888572843,7.14938182660169,FALSE,15.8269305644475
