isdrw/probabilistic-benchmark-forecasts/results/skewed_t_quantiles_prediction/fitted_mean/skewed_t_prediction_arima_auto_2026-02-18_11-00-04.csv
"country","target","tau","target_year","target_quarter","forecast_year","forecast_quarter","horizon","lower_bound","upper_bound","truth_value","prediction","covered","IS"
"CAN","cpi",0.1,1959,3,1959,NA,0,1.12075145585004,1.16595136518354,1.19382698397654,1.24991216431293,FALSE,0.107145728873507
"CAN","cpi",0.1,1959,3,1959,NA,0.5,0.90961133167066,1.19096253186879,1.19382698397654,0.437839731590327,FALSE,0.287716649326461
"CAN","cpi",0.1,1959,3,1958,NA,1,-0.670481132830359,0.139636725884194,1.19382698397654,1.75862762885946,FALSE,3.15276287669755
"CAN","cpi",0.1,1959,3,1958,NA,1.5,1.64119183262164,3.27937498098813,1.19382698397654,1.77407172713766,FALSE,2.63232725646671
"CAN","cpi",0.1,1960,3,1960,NA,0,0.932770750374098,0.971069040735171,1.34209404870695,1.02361304259477,FALSE,0.862798308076141
"CAN","cpi",0.1,1960,3,1960,NA,0.5,1.19886565771196,1.41621818279556,1.34209404870695,0.53898348018166,TRUE,0.217352525083604
"CAN","cpi",0.1,1960,3,1959,NA,1,1.37611365358743,2.03322658167803,1.34209404870695,3.95759373689442,FALSE,0.732712050047218
"CAN","cpi",0.1,1960,3,1959,NA,1.5,-3.89958528625107,-2.12779452733467,1.34209404870695,-0.873476815404885,FALSE,9.48265426123111
"CAN","cpi",0.1,1961,3,1961,NA,0,0.948722750484622,0.995195937161344,1.00921348094007,1.00921348094007,FALSE,0.0776232839627836
"CAN","cpi",0.1,1961,3,1961,NA,0.5,1.86954787653714,1.97358674995446,1.00921348094007,1.00921348094007,FALSE,2.01589308585525
"CAN","cpi",0.1,1961,3,1960,NA,1,-2.16688686072002,-1.61474985006049,1.00921348094007,0.0537704626035329,FALSE,6.38316663510522
"CAN","cpi",0.1,1961,3,1960,NA,1.5,-0.959471680849054,0.485311118055047,1.00921348094007,-0.862181798940035,FALSE,2.60901027198193
"CAN","cpi",0.1,1962,3,1962,NA,0,1.02494746630194,1.06679383564183,1.04957947883042,1.10232402731478,TRUE,0.0418463693398889
"CAN","cpi",0.1,1962,3,1962,NA,0.5,0.729778031946601,0.820635351198325,1.04957947883042,0,FALSE,0.599622047323036
"CAN","cpi",0.1,1962,3,1961,NA,1,-1.99008224782277,-1.40067932914978,1.04957947883042,0,FALSE,6.03442249196231
"CAN","cpi",0.1,1962,3,1961,NA,1.5,1.35378582722105,2.00298969141864,1.04957947883042,0,FALSE,1.32521797173234
"CAN","cpi",0.1,1963,3,1963,NA,0,1.83548762742096,1.8767951988704,1.60677118395228,1.91491729531202,FALSE,0.549566334713166
"CAN","cpi",0.1,1963,3,1963,NA,0.5,1.57832814612381,1.6744422456382,1.60677118395228,0.836828714617504,TRUE,0.0961140995143905
"CAN","cpi",0.1,1963,3,1962,NA,1,1.18033180871371,1.67282805414545,1.60677118395228,2.56411490415144,TRUE,0.492496245431741
"CAN","cpi",0.1,1963,3,1962,NA,1.5,1.13617094433282,1.62866718976456,1.60677118395228,0,TRUE,0.492496245431741
"CAN","cpi",0.1,1964,3,1964,NA,0,1.87422973573129,1.92048812126445,1.88764670034376,1.98877256446048,TRUE,0.0462583855331529
"CAN","cpi",0.1,1964,3,1964,NA,0.5,2.21974586017803,2.27930874534212,1.88764670034376,1.38369006227607,FALSE,0.797561018129134
"CAN","cpi",0.1,1964,3,1963,NA,1,4.29988270032844,4.67248195474792,1.88764670034376,5.39044290347256,FALSE,5.73312369882987
"CAN","cpi",0.1,1964,3,1963,NA,1.5,1.5358982987314,1.90849755315088,1.88764670034376,0,TRUE,0.372599254419481
"CAN","cpi",0.1,1965,3,1965,NA,0,2.22959512694838,2.27549858852746,2.29538304394236,2.34557047418999,FALSE,0.0900911402788518
"CAN","cpi",0.1,1965,3,1965,NA,0.5,2.39705289697841,2.47302318309562,2.29538304394236,1.61079447956654,FALSE,0.301903292863994
"CAN","cpi",0.1,1965,3,1964,NA,1,0.375297884295395,0.677818428270825,2.29538304394236,2.42518862179847,FALSE,3.89710857880106
"CAN","cpi",0.1,1965,3,1964,NA,1.5,2.53171678505734,2.83423732903277,2.29538304394236,0.818102552316399,FALSE,0.827706635342054
"CAN","cpi",0.1,1966,3,1966,NA,0,3.74516229611583,3.78655003076355,3.72486065470629,3.82010987863709,FALSE,0.0865024933355857
"CAN","cpi",0.1,1966,3,1966,NA,0.5,4.72538924077947,4.80142276454396,3.72486065470629,3.99123398895563,FALSE,2.2994303817049
"CAN","cpi",0.1,1966,3,1965,NA,1,2.19290740350886,2.51390446282172,3.72486065470629,3.20722068745854,FALSE,3.01201081905634
"CAN","cpi",0.1,1966,3,1965,NA,1.5,3.24486640718959,3.56586346650245,3.72486065470629,1.60663824631958,FALSE,0.67432414421028
"CAN","cpi",0.1,1967,3,1967,NA,0,3.67790760997487,3.70949786005388,3.49360316391996,3.76768849328632,FALSE,0.441155685756584
"CAN","cpi",0.1,1967,3,1967,NA,0.5,3.01333423357763,3.12492309911549,3.49360316391996,2.4074547441976,FALSE,0.930877898436684
"CAN","cpi",0.1,1967,3,1966,NA,1,2.40492219902257,2.69953748386057,3.49360316391996,3.18103323070284,FALSE,2.05920568496998
"CAN","cpi",0.1,1967,3,1966,NA,1.5,6.30847055135903,6.60308583619703,3.49360316391996,4.65128160487248,FALSE,6.54987614581371
"CAN","cpi",0.1,1968,3,1968,NA,0,4.0809947175524,4.11586401797857,3.95128347779386,4.17287945672396,FALSE,0.323116499889601
"CAN","cpi",0.1,1968,3,1968,NA,0.5,4.71527850269272,4.81266888806274,3.95128347779386,4.07097205779852,FALSE,1.79515710736749
"CAN","cpi",0.1,1968,3,1967,NA,1,5.11981467869024,5.41503975012886,3.95128347779386,5.84521682123848,FALSE,2.89196107343058
"CAN","cpi",0.1,1968,3,1967,NA,1.5,3.70543505436617,4.00066012580479,3.95128347779386,2.25565858240226,TRUE,0.295225071438621
"CAN","cpi",0.1,1969,3,1969,NA,0,4.33673437462428,4.38335907400208,4.42679496126681,4.46896837073893,FALSE,0.143148893299431
"CAN","cpi",0.1,1969,3,1969,NA,0.5,3.50392897327821,3.62466018925091,4.42679496126681,2.96612019395715,FALSE,1.9032529315636
"CAN","cpi",0.1,1969,3,1968,NA,1,6.26908249062135,6.53163703317983,4.42679496126681,6.72487630040807,FALSE,4.356526830013
"CAN","cpi",0.1,1969,3,1968,NA,1.5,5.73646804118477,5.99902258374325,4.42679496126681,4.31664452944541,FALSE,3.17293916459839
"CAN","cpi",0.1,1970,3,1970,NA,0,3.42972072105457,3.45205918123855,3.28128405769805,3.52697515579364,FALSE,0.352197712087361
"CAN","cpi",0.1,1970,3,1970,NA,0.5,5.24281317214125,5.37459001684263,3.28128405769805,4.65371085276917,FALSE,4.49073043235294
"CAN","cpi",0.1,1970,3,1969,NA,1,3.94421386524232,4.23324010571458,3.28128405769805,4.52747875087707,FALSE,1.76220359057064
"CAN","cpi",0.1,1970,3,1969,NA,1.5,3.30299284894456,3.59201908941683,3.28128405769805,2.07973847283129,FALSE,0.337267998797864
"CAN","cpi",0.1,1971,3,1971,NA,0,2.67449365200672,2.71492971471504,2.64123406634756,2.8393232579169,FALSE,0.114346253062006
"CAN","cpi",0.1,1971,3,1971,NA,0.5,2.4761792121284,2.67033170463441,2.64123406634756,2.06692165705507,TRUE,0.194152492506013
"CAN","cpi",0.1,1971,3,1970,NA,1,1.98563323203638,2.26609392590422,2.64123406634756,2.64105994583495,FALSE,1.1141054504086
"CAN","cpi",0.1,1971,3,1970,NA,1.5,6.01223453522799,6.29269522909584,2.64123406634756,4.63977638900468,FALSE,7.77157284693546
"CAN","cpi",0.1,1972,3,1972,NA,0,4.88936240580587,4.91628392866782,4.83230569625923,5.03048103188219,FALSE,0.153714210743368
"CAN","cpi",0.1,1972,3,1972,NA,0.5,5.46865799422985,5.6637154933076,4.83230569625923,5.06705904355972,FALSE,1.60917371679024
"CAN","cpi",0.1,1972,3,1971,NA,1,5.5364878199976,5.80825169179005,4.83230569625923,5.9169160270675,FALSE,1.83661303565549
"CAN","cpi",0.1,1972,3,1971,NA,1.5,4.17747833168772,4.44924220348017,4.83230569625923,3.09276495441271,FALSE,1.12301607796813
"CAN","cpi",0.1,1973,3,1973,NA,0,6.79933204495793,6.82446117863678,7.12388603531779,6.99264756193144,FALSE,0.690517704081095
"CAN","cpi",0.1,1973,3,1973,NA,0.5,5.85858201750206,6.05788500366999,7.12388603531779,5.47469896411854,FALSE,2.56819416760748
"CAN","cpi",0.1,1973,3,1972,NA,1,6.25562880826826,6.53160530827697,7.12388603531779,6.69062283747837,FALSE,1.59215589343276
"CAN","cpi",0.1,1973,3,1972,NA,1.5,5.83014992315482,6.10612642316353,7.12388603531779,4.73174243586486,FALSE,2.53766452701818
"CAN","cpi",0.1,1974,3,1974,NA,0,9.75681344634646,9.7888084050471,10.2717243737774,9.94431520564033,FALSE,1.10514155587912
"CAN","cpi",0.1,1974,3,1974,NA,0.5,8.89939683461133,9.13348438008792,10.2717243737774,8.3378654175141,FALSE,2.76350975367548
"CAN","cpi",0.1,1974,3,1973,NA,1,6.38687595725283,6.65637121110619,10.2717243737774,7.16712422635118,FALSE,8.30361339312276
"CAN","cpi",0.1,1974,3,1973,NA,1.5,5.29982910318295,5.56932435703632,10.2717243737774,4.05174749178054,FALSE,10.7192730688336
"CAN","cpi",0.1,1975,3,1975,NA,0,9.94256857863457,9.9777665033326,10.0232981493341,10.0931823619779,FALSE,0.136379360256968
"CAN","cpi",0.1,1975,3,1975,NA,0.5,9.58150446959127,9.87309210363059,10.0232981493341,8.98267476097328,FALSE,0.625378846713828
"CAN","cpi",0.1,1975,3,1974,NA,1,7.00363211048583,7.35199950716259,10.0232981493341,7.7837982223054,FALSE,6.28458660150238
"CAN","cpi",0.1,1975,3,1974,NA,1.5,7.02976829381444,7.3781356904912,10.0232981493341,5.75931605308519,FALSE,6.22650619410547
"CAN","cpi",0.1,1976,3,1976,NA,0,6.92566871367267,6.96175290142521,7.22784311401172,7.07277954951717,FALSE,0.627395771278102
"CAN","cpi",0.1,1976,3,1976,NA,0.5,9.27894405233194,9.55360193179491,7.22784311401172,8.59089060438327,FALSE,4.83265996461903
"CAN","cpi",0.1,1976,3,1975,NA,1,9.780859386889,10.2211317791811,7.22784311401172,10.4141477685142,FALSE,6.11364188757495
"CAN","cpi",0.1,1976,3,1975,NA,1.5,7.74389765164117,8.29333814268308,7.22784311401172,6.43051086134862,FALSE,1.6962283524407
"CAN","cpi",0.1,1977,3,1977,NA,0,7.4226201116777,7.46313844195201,7.58101410153764,7.55301151664772,FALSE,0.302464240464611
"CAN","cpi",0.1,1977,3,1977,NA,0.5,8.38101365255072,8.7191912912519,7.58101410153764,7.98165850021887,FALSE,2.11595441873024
"CAN","cpi",0.1,1977,3,1976,NA,1,2.93944400121043,3.41629873975595,7.58101410153764,3.72134649143602,FALSE,9.73177776472706
"CAN","cpi",0.1,1977,3,1976,NA,1.5,9.19597326327068,9.75185594005108,7.58101410153764,8.00272044475614,FALSE,4.14468081396493
"CAN","cpi",0.1,1978,3,1978,NA,0,8.55491068535985,8.59877277683986,8.50208927062595,8.67127840358843,FALSE,0.16124301311091
"CAN","cpi",0.1,1978,3,1978,NA,0.5,8.88380146913959,9.19759639133396,8.50208927062595,8.3788273181893,FALSE,1.16204425222469
"CAN","cpi",0.1,1978,3,1977,NA,1,6.8976334221388,7.47481903585673,8.50208927062595,7.54783828416051,FALSE,2.86000835764952
"CAN","cpi",0.1,1978,3,1977,NA,1.5,10.2726193542804,10.8910550509906,8.50208927062595,9.72562756342223,FALSE,4.55294699372006
"CAN","cpi",0.1,1979,3,1979,NA,0,8.46271901113619,8.5029215413034,8.65147652410481,8.56376390232469,FALSE,0.370324714170338
"CAN","cpi",0.1,1979,3,1979,NA,0.5,8.74900270669903,9.05976668705537,8.65147652410481,8.29599284966764,FALSE,0.527488830565722
"CAN","cpi",0.1,1979,3,1978,NA,1,8.58360005076078,9.16918446716655,8.65147652410481,9.20311500508918,TRUE,0.585584416405773
"CAN","cpi",0.1,1979,3,1978,NA,1.5,9.0654575039411,9.69071135935791,8.65147652410481,8.55646910152924,FALSE,1.54521158838634
"CAN","cpi",0.1,1980,3,1980,NA,0,9.42190398152888,9.466750319512,9.5171912664748,9.50406722106931,FALSE,0.156937331233779
"CAN","cpi",0.1,1980,3,1980,NA,0.5,9.02133401622672,9.3471396498511,9.5171912664748,8.57798914335092,FALSE,0.703698115010374
"CAN","cpi",0.1,1980,3,1979,NA,1,7.88667977235553,8.43027108698275,9.5171912664748,8.17875203710815,FALSE,2.95896949127621
"CAN","cpi",0.1,1980,3,1979,NA,1.5,8.72552251737498,9.34544147377974,9.5171912664748,8.39204766062112,FALSE,1.00158516239377
"CAN","cpi",0.1,1981,3,1981,NA,0,11.6360393110498,11.6818843898385,11.5813425032741,11.7113878984199,FALSE,0.167393540512427
"CAN","cpi",0.1,1981,3,1981,NA,0.5,12.4847477924908,12.753383063652,11.5813425032741,12.2156196752767,FALSE,2.27620258053153
"CAN","cpi",0.1,1981,3,1980,NA,1,11.3191431525777,11.8132829539632,11.5813425032741,11.0496853423024,TRUE,0.494139801385483
"CAN","cpi",0.1,1981,3,1980,NA,1.5,8.74028666692922,9.37461001799039,11.5813425032741,8.33809792174894,FALSE,5.53817331835839
"CAN","cpi",0.1,1982,3,1982,NA,0,10.2028097241375,10.2423180578964,10.1124203763629,10.2566668151097,FALSE,0.240373551035675
"CAN","cpi",0.1,1982,3,1982,NA,0.5,10.351049232312,10.5898271485352,10.1124203763629,10.1085355973545,FALSE,0.76906426277664
"CAN","cpi",0.1,1982,3,1981,NA,1,12.2709342446312,12.7454169564224,10.1124203763629,11.770988683124,FALSE,5.27118019683173
"CAN","cpi",0.1,1982,3,1981,NA,1.5,13.363621536833,14.0233780826639,10.1124203763629,12.8701250351281,FALSE,7.88464801354211
"CAN","cpi",0.1,1983,3,1983,NA,0,5.67673168739745,5.7162605075857,5.67091787896303,5.7310121416489,FALSE,0.0524483944869573
"CAN","cpi",0.1,1983,3,1983,NA,0.5,5.03963733455499,5.28218967510983,5.67091787896303,4.91343016009654,FALSE,1.10639279356195
"CAN","cpi",0.1,1983,3,1982,NA,1,9.5320102690774,10.0351652140101,5.67091787896303,9.18500149866057,FALSE,9.08336025629799
"CAN","cpi",0.1,1983,3,1982,NA,1.5,10.60054494733,11.2238461526578,5.67091787896303,9.68672301569366,FALSE,11.5780280239211
"CAN","cpi",0.1,1984,3,1984,NA,0,NA,NA,4.19799576814029,NA,NA,NA
"CAN","cpi",0.1,1984,3,1984,NA,0.5,6.20218342178211,6.44249852815935,4.19799576814029,5.85770686024457,FALSE,4.69406544780351
"CAN","cpi",0.1,1984,3,1983,NA,1,6.17687188671421,6.78639945493514,4.19799576814029,5.76553357996429,FALSE,5.00703005394076
"CAN","cpi",0.1,1984,3,1983,NA,1.5,3.3278150898094,4.05760724107885,4.19799576814029,2.9197996794717,FALSE,1.04176665585042
"CAN","cpi",0.1,1985,3,1985,NA,0,3.80160871466097,3.83438417482108,3.86444262005169,3.85417990135378,FALSE,0.0995720051170202
"CAN","cpi",0.1,1985,3,1985,NA,0.5,4.24249057867039,4.50145216756844,3.86444262005169,4.21990042382899,FALSE,1.09906816360627
"CAN","cpi",0.1,1985,3,1984,NA,1,NA,NA,3.86444262005169,NA,NA,NA
"CAN","cpi",0.1,1985,3,1984,NA,1.5,8.92443956711298,9.64660953936967,3.86444262005169,8.62999660305356,FALSE,11.9666076323929
"CAN","cpi",0.1,1986,3,1986,NA,0,3.96819437145234,3.99524590773322,4.08685396749431,4.03771389199993,FALSE,0.230625002416628
"CAN","cpi",0.1,1986,3,1986,NA,0.5,4.36567827667835,4.59762973046588,4.08685396749431,4.38219332503529,FALSE,0.851561029752067
"CAN","cpi",0.1,1986,3,1985,NA,1,2.63206461070266,3.22103272599428,4.08685396749431,3.37849976080849,FALSE,2.51301531862503
"CAN","cpi",0.1,1986,3,1985,NA,1.5,4.54769982429674,5.23170053277522,4.08685396749431,4.95309858900956,FALSE,1.70810261248387
"CAN","cpi",0.1,1987,3,1987,NA,0,NA,NA,4.23980729277887,NA,NA,NA
"CAN","cpi",0.1,1987,3,1987,NA,0.5,3.87569494027665,4.07178800627528,4.23980729277887,4.13342161080085,FALSE,0.569469258228837
"CAN","cpi",0.1,1987,3,1986,NA,1,2.85210590692073,3.40299321709304,4.23980729277887,3.66140988164798,FALSE,2.41047414502971
"CAN","cpi",0.1,1987,3,1986,NA,1.5,4.04150632268414,4.63096142162571,4.23980729277887,4.80242768143514,TRUE,0.589455098941567
"CAN","cpi",0.1,1988,3,1988,NA,0,3.70757689688387,3.91266939692424,3.92899537638065,3.9438316199536,FALSE,0.241372454387959
"CAN","cpi",0.1,1988,3,1988,NA,0.5,3.20692989418068,3.41202239422105,3.92899537638065,3.35419215340812,FALSE,1.35392134928394
"CAN","cpi",0.1,1988,3,1987,NA,1,NA,NA,3.92899537638065,NA,NA,NA
"CAN","cpi",0.1,1988,3,1987,NA,1.5,2.88648777645054,3.45358205586126,3.92899537638065,3.89461929526446,FALSE,1.62356832500937
"CAN","cpi",0.1,1989,3,1989,NA,0,4.91783411386547,4.94128113153329,4.82821664544208,4.95130318392835,FALSE,0.222596947497577
"CAN","cpi",0.1,1989,3,1989,NA,0.5,4.32533098247375,4.51106222034433,4.82821664544208,4.23024942747073,FALSE,0.890518849198901
"CAN","cpi",0.1,1989,3,1988,NA,1,3.90016043338153,4.22945271042261,4.82821664544208,4.05841794603162,FALSE,1.65987879930657
"CAN","cpi",0.1,1989,3,1988,NA,1.5,1.66736423232461,2.23969420515032,4.82821664544208,2.597843559383,FALSE,6.32460206236294
"CAN","cpi",0.1,1990,3,1990,NA,0,4.43922325185344,4.45978763620393,4.64347549432717,4.4746950192663,FALSE,0.428759624624364
"CAN","cpi",0.1,1990,3,1990,NA,0.5,5.11026184634804,5.28515878914773,4.64347549432717,4.96487168902479,FALSE,1.21219994729052
"CAN","cpi",0.1,1990,3,1989,NA,1,5.26833881811494,5.60054624840553,4.64347549432717,5.43871373969076,FALSE,1.72079259426341
"CAN","cpi",0.1,1990,3,1989,NA,1.5,2.91164608944043,3.53742973274711,4.64347549432717,3.3732540002381,FALSE,3.08366311348459
"CAN","cpi",0.1,1991,3,1991,NA,0,5.55125037328035,5.57459485547045,5.4258100696218,5.61053369942382,FALSE,0.302100712542449
"CAN","cpi",0.1,1991,3,1991,NA,0.5,7.56957566717861,7.8069932962742,5.4258100696218,7.82199295477594,FALSE,5.00134117922184
"CAN","cpi",0.1,1991,3,1990,NA,1,3.45373543338211,3.79506403088823,5.4258100696218,3.66716818384097,FALSE,3.96520868358071
"CAN","cpi",0.1,1991,3,1990,NA,1.5,4.42900995793152,5.05818296989078,5.4258100696218,4.82481948664164,FALSE,1.44612212247263
"CAN","cpi",0.1,1992,3,1992,NA,0,NA,NA,1.47496888572843,NA,NA,NA
"CAN","cpi",0.1,1992,3,1992,NA,0.5,NA,NA,1.47496888572843,NA,NA,NA
"CAN","cpi",0.1,1992,3,1991,NA,1,2.34007359786732,2.73085994271007,1.47496888572843,2.76780571233213,FALSE,2.31324126070694
"CAN","cpi",0.1,1992,3,1991,NA,1.5,6.73672553665795,7.3654833661747,1.47496888572843,7.14938182660169,FALSE,12.3215503871379
"CAN","cpi",0.1,1993,3,1993,NA,0,NA,NA,NA,NA,NA,NA
"CAN","cpi",0.1,1993,3,1993,NA,0.5,NA,NA,NA,NA,NA,NA
"CAN","cpi",0.1,1993,3,1992,NA,1,NA,NA,NA,NA,NA,NA
"CAN","cpi",0.1,1993,3,1992,NA,1.5,NA,NA,NA,NA,NA,NA
"CAN","cpi",0.1,1994,3,1994,NA,0,NA,NA,NA,NA,NA,NA
"CAN","cpi",0.1,1994,3,1994,NA,0.5,NA,NA,NA,NA,NA,NA
"CAN","cpi",0.1,1994,3,1993,NA,1,NA,NA,NA,NA,NA,NA
"CAN","cpi",0.1,1994,3,1993,NA,1.5,NA,NA,NA,NA,NA,NA
"CAN","cpi",0.1,1995,3,1995,NA,0,NA,NA,2.11688403676572,NA,NA,NA
"CAN","cpi",0.1,1995,3,1995,NA,0.5,2.27310216260741,2.46060041836807,2.11688403676572,2.51937811073084,FALSE,0.534649646519988
"CAN","cpi",0.1,1995,3,1994,NA,1,0.990444141353958,1.3176712694146,2.11688403676572,0.719396410821945,FALSE,2.10325549995201
"CAN","cpi",0.1,1995,3,1994,NA,1.5,-1.37270458792485,-0.810300503646483,2.11688403676572,-1.04654603924828,FALSE,7.0672586185277
"CAN","cpi",0.1,1996,3,1996,NA,0,1.3988918295347,1.42774498484112,1.55309584667184,1.42780748357026,FALSE,0.307410626041366
"CAN","cpi",0.1,1996,3,1996,NA,0.5,NA,NA,1.55309584667184,NA,NA,NA
"CAN","cpi",0.1,1996,3,1995,NA,1,NA,NA,1.55309584667184,NA,NA,NA
"CAN","cpi",0.1,1996,3,1995,NA,1.5,2.91247250450861,3.60829735277288,1.55309584667184,2.92232271175447,FALSE,3.71666186567931
"CAN","cpi",0.1,1997,3,1997,NA,0,1.75274511936754,1.78606521724605,1.60528783555959,1.73535847807117,FALSE,0.361002950785067
"CAN","cpi",0.1,1997,3,1997,NA,0.5,1.91762760533201,2.09216586116327,1.60528783555959,2.11078363597796,FALSE,0.868626633103292
"CAN","cpi",0.1,1997,3,1996,NA,1,1.60185751090491,1.85403043233012,1.60528783555959,0.984961337307556,TRUE,0.252172921425209
"CAN","cpi",0.1,1997,3,1996,NA,1.5,NA,NA,1.60528783555959,NA,NA,NA
"CAN","cpi",0.1,1998,3,1998,NA,0,0.963503526550739,0.994992053383912,0.988908029337191,1.0350847138471,TRUE,0.031488526833173
"CAN","cpi",0.1,1998,3,1998,NA,0.5,1.4698576833238,1.64937006520223,0.988908029337191,1.68533655437107,FALSE,1.24828939073757
"CAN","cpi",0.1,1998,3,1997,NA,1,2.89871768692036,3.15479806977319,0.988908029337191,2.25159584334757,FALSE,4.50010184414877
"CAN","cpi",0.1,1998,3,1997,NA,1.5,2.59897888305067,3.22506766989438,0.988908029337191,2.38987816876076,FALSE,4.20402401731811
"CAN","cpi",0.1,1999,3,1999,NA,0,1.70193888140683,1.73276274027164,1.7107350135213,1.77618438459462,TRUE,0.0308238588648093
"CAN","cpi",0.1,1999,3,1999,NA,0.5,0.679024387007629,0.887818761711655,1.7107350135213,1.0290924799153,FALSE,2.03749715650323
"CAN","cpi",0.1,1999,3,1998,NA,1,2.13486090631001,2.45894716969788,1.7107350135213,1.85177544064205,FALSE,1.26658824736279
"CAN","cpi",0.1,1999,3,1998,NA,1.5,3.12523769268887,3.78026148926035,1.7107350135213,2.94645730787123,FALSE,3.79836308361054
"CAN","cpi",0.1,2000,3,2000,NA,0,2.63003202139284,2.65945387363487,2.6718361971244,2.7102541785615,FALSE,0.0569381266632022
"CAN","cpi",0.1,2000,3,2000,NA,0.5,2.09163472643622,2.32905235553181,2.6718361971244,2.34405201403356,FALSE,0.999159499301344
"CAN","cpi",0.1,2000,3,1999,NA,1,2.82301208021476,3.06042970931034,2.6718361971244,3.07542936781209,FALSE,0.573364035963049
"CAN","cpi",0.1,2000,3,1999,NA,1.5,2.3252044803517,3.00409358896418,2.6718361971244,2.27809035801724,TRUE,0.678889108612477
"CAN","cpi",0.1,2001,3,2001,NA,0,2.69946682063621,2.72999807197771,2.47906219852806,2.77546584984351,FALSE,0.520319300470714
"CAN","cpi",0.1,2001,3,2001,NA,0.5,2.10113242880784,2.32461603651901,2.47906219852806,2.43566755503104,FALSE,0.566697301064619
"CAN","cpi",0.1,2001,3,2000,NA,1,3.33798930704593,3.59594053159112,2.47906219852806,3.68958695319843,FALSE,2.16667813236267
"CAN","cpi",0.1,2001,3,2000,NA,1.5,2.33136372238562,2.9492410989554,2.47906219852806,3.01270789712173,TRUE,0.617877376569775
"CAN","cpi",0.1,2002,3,2002,NA,0,2.16612726124328,2.19686536627454,2.20880570551249,2.27196234986351,FALSE,0.0572721922267066
"CAN","cpi",0.1,2002,3,2002,NA,0.5,1.29320094663796,1.50730004618824,2.20880570551249,1.58345411989126,FALSE,1.77300056471527
"CAN","cpi",0.1,2002,3,2001,NA,1,1.90607107312507,2.16415078262124,2.20880570551249,2.26510423845898,FALSE,0.357312871476721
"CAN","cpi",0.1,2002,3,2001,NA,1.5,2.213647959548,2.5704263979223,2.20880570551249,3.02058043279009,FALSE,0.36753900289767
"CAN","cpi",0.1,2003,3,2003,NA,0,2.63802619530528,2.65318735095558,2.71189071546809,2.71326702620668,FALSE,0.145613076789205
"CAN","cpi",0.1,2003,3,2003,NA,0.5,4.57148479760673,4.70653050674599,2.71189071546809,4.51432649273496,FALSE,4.26747700278068
"CAN","cpi",0.1,2003,3,2002,NA,1,3.32018991193862,3.52967811933041,2.71189071546809,3.85618281746238,FALSE,1.56126419954851
"CAN","cpi",0.1,2003,3,2002,NA,1.5,1.40117772292318,1.66490673505247,2.71189071546809,2.39402389849184,FALSE,2.59036007971956
"CAN","cpi",0.1,2004,3,2004,NA,0,1.71143434627769,1.72684088616869,1.83151661303942,1.77466852383015,FALSE,0.248019266270411
"CAN","cpi",0.1,2004,3,2004,NA,0.5,1.49941090083592,1.66702526591138,1.83151661303942,1.55260435151936,FALSE,0.533150692026661
"CAN","cpi",0.1,2004,3,2003,NA,1,1.25647591188928,1.45751269806862,1.83151661303942,1.79415792598285,FALSE,1.03215659722557
"CAN","cpi",0.1,2004,3,2003,NA,1.5,3.60326379509989,3.81751286417494,1.83151661303942,4.26699272545716,FALSE,4.15146502920942
"CAN","cpi",0.1,2005,3,2005,NA,0,2.29225349101261,2.31097387012717,2.18071628336509,2.34345353472953,FALSE,0.266580840553481
"CAN","cpi",0.1,2005,3,2005,NA,0.5,1.42122248194202,1.59115787297661,2.18071628336509,1.50321338317329,FALSE,1.48006519189789
"CAN","cpi",0.1,2005,3,2004,NA,1,1.13287151132805,1.33590871361696,2.18071628336509,1.64043962712234,FALSE,2.08038735728476
"CAN","cpi",0.1,2005,3,2004,NA,1.5,1.00319135217668,1.38551764254723,2.18071628336509,2.03393284113233,FALSE,2.14943438107691
"CAN","cpi",0.1,2006,3,2006,NA,0,2.02289604771737,2.05094940889529,1.97519342012289,2.09514376892657,FALSE,0.134059200276778
"CAN","cpi",0.1,2006,3,2006,NA,0.5,2.09980662054184,2.24877085225137,1.97519342012289,2.09436263599022,FALSE,0.425882454862769
"CAN","cpi",0.1,2006,3,2005,NA,1,2.52095703066006,2.7391366691926,1.97519342012289,2.9582912060806,FALSE,1.43098766194848
"CAN","cpi",0.1,2006,3,2005,NA,1.5,0.875865944545779,1.16773043023678,1.97519342012289,1.64885961980806,FALSE,2.0862266854379
"CAN","cpi",0.1,2007,3,2007,NA,0,2.02869380049975,2.05530793650743,2.10062087284572,2.10683622102307,FALSE,0.127309550092775
"CAN","cpi",0.1,2007,3,2007,NA,0.5,2.17800283646758,2.32795514876254,2.10062087284572,2.17629902083353,FALSE,0.321912231454643
"CAN","cpi",0.1,2007,3,2006,NA,1,1.07599713801832,1.2493181554159,2.10062087284572,1.50861692709856,FALSE,2.0651048339083
"CAN","cpi",0.1,2007,3,2006,NA,1.5,1.55199299114106,1.77225300795536,2.10062087284572,2.15918616350405,FALSE,0.949966383237327
"CAN","cpi",0.1,2008,3,2008,NA,0,2.79358533958655,2.8154985726568,2.31447335265955,2.87079455148828,FALSE,1.08660653735246
"CAN","cpi",0.1,2008,3,2008,NA,0.5,1.34211015800337,1.48537177705392,2.31447335265955,1.31005314695267,FALSE,1.98570956484085
"CAN","cpi",0.1,2008,3,2007,NA,1,1.23305492536497,1.42032353843494,2.31447335265955,1.47031049982668,FALSE,2.17426820023577
"CAN","cpi",0.1,2008,3,2007,NA,1.5,2.01141600765234,2.19868462072232,2.31447335265955,2.46453195342394,FALSE,0.444576906263823
"CAN","cpi",0.1,2009,3,2009,NA,0,0.105525041883263,0.12940730314989,0.284533874408197,0.187122346349721,FALSE,0.368607975173976
"CAN","cpi",0.1,2009,3,2009,NA,0.5,0.0843505190263098,0.240341672447197,0.284533874408197,-0.0727492620466167,FALSE,0.254196046667555
"CAN","cpi",0.1,2009,3,2008,NA,1,3.67764669918563,3.87396726721382,0.284533874408197,3.81780026356951,FALSE,7.73657128975582
"CAN","cpi",0.1,2009,3,2008,NA,1.5,1.27265789075051,1.4689784587787,0.284533874408197,1.68675152630419,FALSE,2.39215171545555
"CAN","cpi",0.1,2010,3,2010,NA,0,1.536113252235,1.57370470580565,1.75525687020327,1.6089956646354,FALSE,0.441040707787585
"CAN","cpi",0.1,2010,3,2010,NA,0.5,2.20881425207819,2.32443361330773,1.75525687020327,1.91109502526183,FALSE,1.12352465428492
"CAN","cpi",0.1,2010,3,2009,NA,1,0.697966099647418,0.913539314557693,1.75525687020327,0.992295788494754,FALSE,2.08605667190045
"CAN","cpi",0.1,2010,3,2009,NA,1.5,0.459435206838978,0.675008421749253,1.75525687020327,0.885103052815867,FALSE,2.61612532258587
"CAN","cpi",0.1,2011,3,2011,NA,0,2.79620715761665,2.84210113553943,2.85717434028225,2.86665414062098,FALSE,0.0793899884623704
"CAN","cpi",0.1,2011,3,2011,NA,0.5,2.9702626357715,3.10019425484449,2.85717434028225,2.76583381894771,FALSE,0.381238942382436
"CAN","cpi",0.1,2011,3,2010,NA,1,1.13725367794143,1.35480969492766,2.85717434028225,1.39294644169719,FALSE,3.5561441177742
"CAN","cpi",0.1,2011,3,2010,NA,1.5,1.38037243628473,1.59792845327096,2.85717434028225,1.64253060592363,FALSE,3.01588021034465
"CAN","cpi",0.1,2012,3,2012,NA,0,1.47912463780315,1.52224345100736,1.50118536134935,1.52822510849394,TRUE,0.0431188132042126
"CAN","cpi",0.1,2012,3,2012,NA,0.5,2.10107339566532,2.23740184439781,1.50118536134935,1.92429021972789,FALSE,1.46941296943466
"CAN","cpi",0.1,2012,3,2011,NA,1,1.82344655149051,2.09859562671783,1.50118536134935,1.99945242447079,FALSE,0.991285053318786
"CAN","cpi",0.1,2012,3,2011,NA,1.5,2.19589403288509,2.47104310811241,1.50118536134935,2.48150957397962,FALSE,1.81894612308453
"CAN","cpi",0.1,2013,3,2013,NA,0,1.02941346441783,1.06359216382095,0.931270594714462,1.05630513423211,FALSE,0.252273965410605
"CAN","cpi",0.1,2013,3,2013,NA,0.5,1.36180970249223,1.54075876851067,0.931270594714462,1.16963454554932,FALSE,1.13570263885793
"CAN","cpi",0.1,2013,3,2012,NA,1,1.0402979327509,1.29906549750416,0.931270594714462,1.08868089128742,FALSE,0.501050538167569
"CAN","cpi",0.1,2013,3,2012,NA,1.5,1.83957636778711,2.09834393254036,0.931270594714462,2.14573179530527,FALSE,2.27722483824803
"CAN","cpi",0.1,2014,3,2014,NA,0,1.96261985048442,1.99944278940462,1.87639912240215,1.99862849145116,FALSE,0.228424556880791
"CAN","cpi",0.1,2014,3,2014,NA,0.5,1.76027181380271,1.86266705742752,1.87639912240215,1.79231976082687,FALSE,0.132910943568428
"CAN","cpi",0.1,2014,3,2013,NA,1,1.33965903079803,1.60429126947286,1.87639912240215,1.40664989819898,FALSE,0.869316356295473
"CAN","cpi",0.1,2014,3,2013,NA,1.5,1.17830321849484,1.44364642308363,1.87639912240215,1.51436121777893,FALSE,1.22701586974106
"CAN","cpi",0.1,2015,3,2015,NA,0,1.16763560545024,1.20932809167008,1.11090953952792,1.2103065042478,FALSE,0.167750410491672
"CAN","cpi",0.1,2015,3,2015,NA,0.5,0.491375998508904,0.594198290661813,1.11090953952792,0.458547315718059,FALSE,1.25106951185536
"CAN","cpi",0.1,2015,3,2014,NA,1,1.75746485088081,1.94831437670097,1.11090953952792,1.57054781428135,FALSE,1.62763910660437
"CAN","cpi",0.1,2015,3,2014,NA,1.5,1.55853832405905,1.82536327135471,1.11090953952792,1.88229109541157,FALSE,1.26155557958707
"CAN","cpi",0.1,2016,3,2016,NA,0,1.33152304376328,1.35618257733277,1.41168586698797,1.41630667471992,FALSE,0.148000177247698
"CAN","cpi",0.1,2016,3,2016,NA,0.5,1.23253632148472,1.34291337162625,1.41168586698797,1.17972158292925,FALSE,0.263204817612015
"CAN","cpi",0.1,2016,3,2015,NA,1,1.96625428235739,2.17797043764223,1.41168586698797,1.8638656605167,FALSE,1.44409041166134
"CAN","cpi",0.1,2016,3,2015,NA,1.5,0.863394537776225,1.07511069306106,1.41168586698797,1.07023002715086,FALSE,0.959660986233511
"CAN","cpi",0.1,2017,3,2017,NA,0,1.44641918730547,1.47068137445316,1.57888581671161,1.50492692646759,FALSE,0.264716503277592
"CAN","cpi",0.1,2017,3,2017,NA,0.5,2.11979587249588,2.22128165593579,1.57888581671161,2.09086618282141,FALSE,1.30350812962717
"CAN","cpi",0.1,2017,3,2016,NA,1,1.11367966579536,1.34690228663657,1.57888581671161,1.14652050352824,FALSE,0.748741576563519
"CAN","cpi",0.1,2017,3,2016,NA,1.5,1.09978733605751,1.33300995689872,1.57888581671161,1.26788084523026,FALSE,0.779613420425414
"CAN","cpi",0.1,2018,3,2018,NA,0,2.38581461159241,2.4202693075228,2.23316270166586,2.41317537496083,FALSE,0.373681162433843
"CAN","cpi",0.1,2018,3,2018,NA,0.5,2.46269156632351,2.58114627236371,2.23316270166586,2.52809119314695,FALSE,0.62851884972386
"CAN","cpi",0.1,2018,3,2017,NA,1,1.31508887888692,1.51468880224025,2.23316270166586,1.16800101916097,FALSE,1.79620858874358
"CAN","cpi",0.1,2018,3,2017,NA,1.5,1.91262726559978,2.12387654079025,2.23316270166586,2.07298402260093,FALSE,0.454107410469606
"CAN","cpi",0.1,2019,3,2019,NA,0,NA,NA,1.91921619871868,NA,NA,NA
"CAN","cpi",0.1,2019,3,2019,NA,0.5,1.36362628597517,1.4752041840264,1.91921619871868,1.47328806303322,FALSE,1.09827126403408
"CAN","cpi",0.1,2019,3,2018,NA,1,2.4303077762198,2.6583926271399,1.91921619871868,2.23470281046333,FALSE,1.3638439120337
"CAN","cpi",0.1,2019,3,2018,NA,1.5,2.16676994007312,2.39485479099322,1.91921619871868,2.32030562567512,FALSE,0.778204276152178
"CAN","cpi",0.1,2020,3,2020,NA,0,0.61547292179849,0.642936091608471,0.71139989671781,0.673588636713597,FALSE,0.179604958941847
"CAN","cpi",0.1,2020,3,2020,NA,0.5,NA,NA,0.71139989671781,NA,NA,NA
"CAN","cpi",0.1,2020,3,2019,NA,1,NA,NA,0.71139989671781,NA,NA,NA
"CAN","cpi",0.1,2020,3,2019,NA,1.5,1.61442413015304,1.82792103680924,0.71139989671781,1.77705491937904,FALSE,2.22021742540116
"CAN","cpi",0.1,2021,3,2021,NA,0,3.19046455242212,3.216393629551,3.31148121717802,3.2525646654712,FALSE,0.237234827411152
"CAN","cpi",0.1,2021,3,2021,NA,0.5,2.02001449284115,2.11989087325505,3.31148121717802,2.16773480502693,FALSE,2.74785492246496
"CAN","cpi",0.1,2021,3,2020,NA,1,1.66637690153134,1.81938459079159,3.31148121717802,1.61070774476322,FALSE,3.468777970119
"CAN","cpi",0.1,2021,3,2020,NA,1.5,NA,NA,3.31148121717802,NA,NA,NA
"CAN","cpi",0.1,2022,3,2022,NA,0,6.55560605788884,6.57901374291411,6.50977236228281,6.58682891800883,FALSE,0.125260341927558
"CAN","cpi",0.1,2022,3,2022,NA,0.5,5.5168781730789,5.63844952349722,6.50977236228281,5.58900513180898,FALSE,2.05784432549741
"CAN","cpi",0.1,2022,3,2021,NA,1,3.47719147489813,3.64947255688149,6.50977236228281,3.35597076522593,FALSE,6.52850287176407
"CAN","cpi",0.1,2022,3,2021,NA,1.5,1.4350713840273,1.63708031841593,6.50977236228281,1.89458222166426,FALSE,11.030213476315
"CAN","cpi",0.1,2023,3,2023,NA,0,3.89207957078378,3.91395510235385,3.78831288758619,3.96221561415741,FALSE,0.252468160898053
"CAN","cpi",0.1,2023,3,2023,NA,0.5,3.62254897487339,3.76539827026171,3.78831288758619,3.6121970566696,FALSE,0.1937706672205
"CAN","cpi",0.1,2023,3,2022,NA,1,5.63218884416646,5.81752102779391,3.78831288758619,5.4861852561408,FALSE,4.28283430936139
"CAN","cpi",0.1,2023,3,2022,NA,1.5,3.41419347242754,3.64217848858631,3.78831288758619,3.85557075258935,FALSE,0.5527281250474
"CAN","cpi",0.1,2024,3,2023,NA,1,4.82453734836824,5.09024825537347,NA,4.72280809903739,NA,NA
"CAN","cpi",0.1,2024,3,2023,NA,1.5,3.99268908526983,4.25839999227506,NA,4.36705509613113,NA,NA
"CAN","cpi",0.2,1959,3,1959,NA,0,1.09984392210788,1.19084956040485,1.19382698397654,1.24991216431293,FALSE,0.0984491972262009
"CAN","cpi",0.2,1959,3,1959,NA,0.5,0.754359176486919,1.32405518879058,1.19382698397654,0.437839731590327,TRUE,0.569696012303664
"CAN","cpi",0.2,1959,3,1958,NA,1,-1.06342871287752,0.566764426985334,1.19382698397654,1.75862762885946,FALSE,3.19784953234087
"CAN","cpi",0.2,1959,3,1958,NA,1.5,0.79219126145678,4.09140498452389,1.19382698397654,1.77407172713766,TRUE,3.29921372306711
"CAN","cpi",0.2,1960,3,1960,NA,0,0.914950069258421,0.992011983974475,1.34209404870695,1.02361304259477,FALSE,0.952267076547245
"CAN","cpi",0.2,1960,3,1960,NA,0.5,1.08024812747559,1.5204434792088,1.34209404870695,0.53898348018166,TRUE,0.44019535173321
"CAN","cpi",0.2,1960,3,1959,NA,1,1.04512807362848,2.36970801479009,1.34209404870695,3.95759373689442,TRUE,1.32457994116161
"CAN","cpi",0.2,1960,3,1959,NA,1.5,-4.72395654039433,-1.158849890805,1.34209404870695,-0.873476815404885,FALSE,9.81746649836921
"CAN","cpi",0.2,1961,3,1961,NA,0,0.92713584360291,1.02066360471517,1.00921348094007,1.00921348094007,TRUE,0.0935277611122582
"CAN","cpi",0.2,1961,3,1961,NA,0.5,1.8161638147133,2.02746171667145,1.00921348094007,1.00921348094007,FALSE,2.22867373639123
"CAN","cpi",0.2,1961,3,1960,NA,1,-2.43557257718852,-1.32442981715019,1.00921348094007,0.0537704626035329,FALSE,6.94525100526398
"CAN","cpi",0.2,1961,3,1960,NA,1.5,-1.70461763745324,1.20632038525496,1.00921348094007,-0.862181798940035,TRUE,2.91093802270819
"CAN","cpi",0.2,1962,3,1962,NA,0,1.00547352947653,1.08967361448702,1.04957947883042,1.10232402731478,TRUE,0.0842000850104898
"CAN","cpi",0.2,1962,3,1962,NA,0.5,0.678387136084969,0.862361921847162,1.04957947883042,0,FALSE,0.652018678220326
"CAN","cpi",0.2,1962,3,1961,NA,1,-2.27814390875366,-1.09187212768761,1.04957947883042,0,FALSE,6.53990079736112
"CAN","cpi",0.2,1962,3,1961,NA,1.5,1.0060576957824,2.3220505746264,1.04957947883042,0,TRUE,1.31599287884401
"CAN","cpi",0.2,1963,3,1963,NA,0,1.81626658141391,1.89938347962577,1.60677118395228,1.91491729531202,FALSE,0.606855391865928
"CAN","cpi",0.2,1963,3,1963,NA,0.5,1.52399331322704,1.71861139986137,1.60677118395228,0.836828714617504,TRUE,0.19461808663433
"CAN","cpi",0.2,1963,3,1962,NA,1,0.906186963534226,1.90049827606314,1.60677118395228,2.56411490415144,TRUE,0.994311312528916
"CAN","cpi",0.2,1963,3,1962,NA,1.5,0.863002284353468,1.85731359688238,1.60677118395228,0,TRUE,0.994311312528916
"CAN","cpi",0.2,1964,3,1964,NA,0,1.8524121089138,1.94547523916014,1.88764670034376,1.98877256446048,TRUE,0.0930631302463327
"CAN","cpi",0.2,1964,3,1964,NA,0.5,2.18685181341185,2.30745871375355,1.88764670034376,1.38369006227607,FALSE,0.86861968301193
"CAN","cpi",0.2,1964,3,1963,NA,1,4.08431938022965,4.83704816545642,1.88764670034376,5.39044290347256,FALSE,6.2444104849415
"CAN","cpi",0.2,1964,3,1963,NA,1.5,1.33830029615891,2.09102908138568,1.88764670034376,0,TRUE,0.752728785226769
"CAN","cpi",0.2,1965,3,1965,NA,0,2.20794503346544,2.30029412574894,2.29538304394236,2.34557047418999,TRUE,0.0923490922835031
"CAN","cpi",0.2,1965,3,1965,NA,0.5,2.35493647575861,2.50875987786405,2.29538304394236,1.61079447956654,FALSE,0.302706981646077
"CAN","cpi",0.2,1965,3,1964,NA,1,0.242637289610491,0.85336742478472,2.29538304394236,2.42518862179847,FALSE,4.21576918306832
"CAN","cpi",0.2,1965,3,1964,NA,1.5,2.38005135631409,2.99078149148832,2.29538304394236,0.818102552316399,FALSE,0.822400916103559
"CAN","cpi",0.2,1966,3,1966,NA,0,3.72499802601722,3.80829080896665,3.72486065470629,3.82010987863709,FALSE,0.0836362112267466
"CAN","cpi",0.2,1966,3,1966,NA,0.5,4.68491694993535,4.83911560094229,3.72486065470629,3.99123398895563,FALSE,2.5543393890796
"CAN","cpi",0.2,1966,3,1965,NA,1,2.0029169429249,2.65135044987892,3.72486065470629,3.20722068745854,FALSE,3.33220901902244
"CAN","cpi",0.2,1966,3,1965,NA,1.5,3.08650507095492,3.73493857790895,3.72486065470629,1.60663824631958,TRUE,0.648433506954024
"CAN","cpi",0.2,1967,3,1967,NA,0,3.66238135459531,3.72619360224879,3.49360316391996,3.76768849328632,FALSE,0.485757724341856
"CAN","cpi",0.2,1967,3,1967,NA,0.5,2.95416508831969,3.1798501372667,3.49360316391996,2.4074547441976,FALSE,1.01006761558017
"CAN","cpi",0.2,1967,3,1966,NA,1,2.23136521889804,2.82658096211975,3.49360316391996,3.18103323070284,FALSE,2.26277124772224
"CAN","cpi",0.2,1967,3,1966,NA,1.5,6.1636749625529,6.75889070577461,3.49360316391996,4.65128160487248,FALSE,7.27039523980406
"CAN","cpi",0.2,1968,3,1968,NA,0,4.06376526439532,4.13415081330692,3.95128347779386,4.17287945672396,FALSE,0.351590015415263
"CAN","cpi",0.2,1968,3,1968,NA,0.5,4.6600819831166,4.85668103816211,3.95128347779386,4.07097205779852,FALSE,1.96859531835237
"CAN","cpi",0.2,1968,3,1967,NA,1,4.94624508410405,5.54276415303482,3.95128347779386,5.84521682123848,FALSE,3.08392308470625
"CAN","cpi",0.2,1968,3,1967,NA,1.5,3.54778122647933,4.14430029541011,3.95128347779386,2.25565858240226,TRUE,0.596519068930778
"CAN","cpi",0.2,1969,3,1969,NA,0,4.31504070295546,4.40885713472995,4.42679496126681,4.46896837073893,FALSE,0.13866099811666
"CAN","cpi",0.2,1969,3,1969,NA,0.5,3.43553601042588,3.67924113442693,4.42679496126681,2.96612019395715,FALSE,2.11258969110077
"CAN","cpi",0.2,1969,3,1968,NA,1,6.11478784546313,6.64478680755007,4.42679496126681,6.72487630040807,FALSE,4.74998117257773
"CAN","cpi",0.2,1969,3,1968,NA,1.5,5.59321953211356,6.12321849420051,4.42679496126681,4.31664452944541,FALSE,3.44606038920382
"CAN","cpi",0.2,1970,3,1970,NA,0,3.41742284624081,3.46265668694141,3.28128405769805,3.52697515579364,FALSE,0.385580812057507
"CAN","cpi",0.2,1970,3,1970,NA,0.5,5.17309830302937,5.43825081549713,3.28128405769805,4.65371085276917,FALSE,4.99468812579607
"CAN","cpi",0.2,1970,3,1969,NA,1,3.77662587721657,4.35996110726758,3.28128405769805,4.52747875087707,FALSE,1.82168977884732
"CAN","cpi",0.2,1970,3,1969,NA,1.5,3.14362344148425,3.72695867153526,3.28128405769805,2.07973847283129,TRUE,0.58333523005101
"CAN","cpi",0.2,1971,3,1971,NA,0,2.6561780473353,2.73778421716481,2.64123406634756,2.8393232579169,FALSE,0.118966122298859
"CAN","cpi",0.2,1971,3,1971,NA,0.5,2.37158262576862,2.76217694017781,2.64123406634756,2.06692165705507,TRUE,0.390594314409192
"CAN","cpi",0.2,1971,3,1970,NA,1,1.82101097806128,2.38710525123793,2.64123406634756,2.64105994583495,FALSE,1.20141631095073
"CAN","cpi",0.2,1971,3,1970,NA,1.5,5.8593253183621,6.42541959153874,2.64123406634756,4.63977638900468,FALSE,8.61132240321299
"CAN","cpi",0.2,1972,3,1972,NA,0,4.87483191348788,4.92899272286714,4.83230569625923,5.03048103188219,FALSE,0.160476352450896
"CAN","cpi",0.2,1972,3,1972,NA,0.5,5.36359806978028,5.75601290336379,4.83230569625923,5.06705904355972,FALSE,1.72064576738613
"CAN","cpi",0.2,1972,3,1971,NA,1,5.3796824157465,5.92830347057673,4.83230569625923,5.9169160270675,FALSE,1.91706285354841
"CAN","cpi",0.2,1972,3,1971,NA,1.5,4.02611822941985,4.57473928425008,4.83230569625923,3.09276495441271,FALSE,1.1925370848531
"CAN","cpi",0.2,1973,3,1973,NA,0,6.78737637875719,6.83793122386139,7.12388603531779,6.99264756193144,FALSE,0.765441873745205
"CAN","cpi",0.2,1973,3,1973,NA,0.5,5.751202758552,6.15215886470871,7.12388603531779,5.47469896411854,FALSE,2.83027403267941
"CAN","cpi",0.2,1973,3,1972,NA,1,6.09607151776689,6.65317971772139,7.12388603531779,6.69062283747837,FALSE,1.7338739939455
"CAN","cpi",0.2,1973,3,1972,NA,1.5,5.67686763675474,6.23397583670925,7.12388603531779,4.73174243586486,FALSE,2.78188369647585
"CAN","cpi",0.2,1974,3,1974,NA,0,9.74193098976802,9.80631189495068,10.2717243737774,9.94431520564033,FALSE,1.22791210224951
"CAN","cpi",0.2,1974,3,1974,NA,0.5,8.76878192865843,9.24063293861466,10.2717243737774,8.3378654175141,FALSE,3.04957959786312
"CAN","cpi",0.2,1974,3,1973,NA,1,6.23283642265014,6.77691712808598,10.2717243737774,7.16712422635118,FALSE,9.28109881966443
"CAN","cpi",0.2,1974,3,1973,NA,1.5,5.14804942708098,5.69213013251682,10.2717243737774,4.05174749178054,FALSE,11.9930663085873
"CAN","cpi",0.2,1975,3,1975,NA,0,9.9267068226601,9.99778397590091,10.0232981493341,10.0931823619779,FALSE,0.134862586823829
"CAN","cpi",0.2,1975,3,1975,NA,0.5,9.41718737771586,10.0054832349065,10.0232981493341,8.98267476097328,FALSE,0.632833143259761
"CAN","cpi",0.2,1975,3,1974,NA,1,6.8318333045075,7.53482085542333,10.0232981493341,7.7837982223054,FALSE,6.92418078569281
"CAN","cpi",0.2,1975,3,1974,NA,1.5,6.84198569369185,7.54497324460768,10.0232981493341,5.75931605308519,FALSE,6.89879981273193
"CAN","cpi",0.2,1976,3,1976,NA,0,6.90938608810757,6.98224145873564,7.22784311401172,7.07277954951717,FALSE,0.686859508818268
"CAN","cpi",0.2,1976,3,1976,NA,0.5,9.1236150933933,9.67794251851609,7.22784311401172,8.59089060438327,FALSE,5.29375737357675
"CAN","cpi",0.2,1976,3,1975,NA,1,9.5760766809434,10.4619995363147,7.22784311401172,10.4141477685142,FALSE,6.75650677270048
"CAN","cpi",0.2,1976,3,1975,NA,1.5,7.47145866332008,8.57802422859321,7.22784311401172,6.43051086134862,FALSE,1.71560443854403
"CAN","cpi",0.2,1977,3,1977,NA,0,7.4042516170053,7.48601609456427,7.58101410153764,7.55301151664772,FALSE,0.319259494992406
"CAN","cpi",0.2,1977,3,1977,NA,0.5,8.19007068200979,8.87249108375289,7.58101410153764,7.98165850021887,FALSE,2.20506185292346
"CAN","cpi",0.2,1977,3,1976,NA,1,2.71076152329911,3.67015509476877,7.58101410153764,3.72134649143602,FALSE,10.7365410883918
"CAN","cpi",0.2,1977,3,1976,NA,1.5,8.92365557503886,10.042539791993,7.58101410153764,8.00272044475614,FALSE,4.47548790070721
"CAN","cpi",0.2,1978,3,1978,NA,0,8.53492474731986,8.62338412267941,8.50208927062595,8.67127840358843,FALSE,0.170548067094331
"CAN","cpi",0.2,1978,3,1978,NA,0.5,8.7064743609679,9.33974634165784,8.50208927062595,8.3788273181893,FALSE,1.14423470654482
"CAN","cpi",0.2,1978,3,1977,NA,1,6.62436748398634,7.78554318654281,8.50208927062595,7.54783828416051,FALSE,2.95254091276431
"CAN","cpi",0.2,1978,3,1977,NA,1.5,9.98117816210671,11.225359107182,8.50208927062595,9.72562756342223,FALSE,4.94190317377724
"CAN","cpi",0.2,1979,3,1979,NA,0,8.44440538825943,8.52548634277565,8.65147652410481,8.56376390232469,FALSE,0.396056407839115
"CAN","cpi",0.2,1979,3,1979,NA,0.5,8.57847243479855,9.20395579091373,8.65147652410481,8.29599284966764,TRUE,0.625483356115183
"CAN","cpi",0.2,1979,3,1978,NA,1,8.30638744450288,9.48445987025425,8.65147652410481,9.20311500508918,TRUE,1.17807242575137
"CAN","cpi",0.2,1979,3,1978,NA,1.5,8.77129239792036,10.0292035225666,8.65147652410481,8.55646910152924,FALSE,1.55745080918506
"CAN","cpi",0.2,1980,3,1980,NA,0,9.40134752790775,9.49173119829019,9.5171912664748,9.50406722106931,FALSE,0.154033840843953
"CAN","cpi",0.2,1980,3,1980,NA,0.5,8.83770447302898,9.4950485993515,9.5171912664748,8.57798914335092,FALSE,0.712700794130766
"CAN","cpi",0.2,1980,3,1979,NA,1,7.62403811342732,8.71781859343458,9.5171912664748,8.17875203710815,FALSE,3.0922121626078
"CAN","cpi",0.2,1980,3,1979,NA,1.5,8.4378675901819,9.68558874893404,9.5171912664748,8.39204766062112,TRUE,1.24772115875214
"CAN","cpi",0.2,1981,3,1981,NA,0,11.6148576191623,11.707173663124,11.5813425032741,11.7113878984199,FALSE,0.176103833682001
"CAN","cpi",0.2,1981,3,1981,NA,0.5,12.3430820231595,12.8836515887534,11.5813425032741,12.2156196752767,FALSE,2.44491836530734
"CAN","cpi",0.2,1981,3,1980,NA,1,11.0692915992632,12.0654753388784,11.5813425032741,11.0496853423024,TRUE,0.996183739615219
"CAN","cpi",0.2,1981,3,1980,NA,1.5,8.44512117256591,9.72146066030924,11.5813425032741,8.33809792174894,FALSE,5.92604409515558
"CAN","cpi",0.2,1982,3,1982,NA,0,10.1846840355139,10.2643016688605,10.1124203763629,10.2566668151097,FALSE,0.260276781224016
"CAN","cpi",0.2,1982,3,1982,NA,0.5,10.2297499904544,10.7111526906108,10.1124203763629,10.1085355973545,FALSE,0.774726735385038
"CAN","cpi",0.2,1982,3,1981,NA,1,12.0265054355816,12.9825812797711,10.1124203763629,11.770988683124,FALSE,5.74128849223608
"CAN","cpi",0.2,1982,3,1981,NA,1.5,13.0569651483749,14.3846327150464,10.1124203763629,12.8701250351281,FALSE,8.68902949670148
"CAN","cpi",0.2,1983,3,1983,NA,0,5.65862719093687,5.73830092461784,5.67091787896303,5.7310121416489,TRUE,0.0796737336809716
"CAN","cpi",0.2,1983,3,1983,NA,0.5,4.92103121000444,5.40921555157608,5.67091787896303,4.91343016009654,FALSE,1.14244016003902
"CAN","cpi",0.2,1983,3,1982,NA,1,9.27268001877388,10.2864886653462,5.67091787896303,9.18500149866057,FALSE,10.0182139960994
"CAN","cpi",0.2,1983,3,1982,NA,1.5,10.2966345260702,11.5510524636082,5.67091787896303,9.68672301569366,FALSE,12.818709555306
"CAN","cpi",0.2,1984,3,1984,NA,0,NA,NA,4.19799576814029,NA,NA,NA
"CAN","cpi",0.2,1984,3,1984,NA,0.5,6.07677151234527,6.56052257410261,4.19799576814029,5.85770686024457,FALSE,5.1806904222698
"CAN","cpi",0.2,1984,3,1983,NA,1,5.85096922138411,7.07723588138379,4.19799576814029,5.76553357996429,FALSE,5.35870029310923
"CAN","cpi",0.2,1984,3,1983,NA,1.5,2.96553656251181,4.43543081855686,4.19799576814029,2.9197996794717,TRUE,1.46989425604505
"CAN","cpi",0.2,1985,3,1985,NA,0,3.78673581094782,3.85286767495273,3.86444262005169,3.85417990135378,FALSE,0.0950692267523219
"CAN","cpi",0.2,1985,3,1985,NA,0.5,4.10777953854166,4.62916445581189,3.86444262005169,4.21990042382899,FALSE,1.12972721349516
"CAN","cpi",0.2,1985,3,1984,NA,1,NA,NA,3.86444262005169,NA,NA,NA
"CAN","cpi",0.2,1985,3,1984,NA,1.5,8.56834147037891,10.0223236340973,3.86444262005169,8.62999660305356,FALSE,13.2137292895364
"CAN","cpi",0.2,1986,3,1986,NA,0,3.95573000221248,4.01021894383486,4.08685396749431,4.03771389199993,FALSE,0.246076500771006
"CAN","cpi",0.2,1986,3,1986,NA,0.5,4.23461485642745,4.70271218833691,4.08685396749431,4.38219332503529,FALSE,0.837499554242304
"CAN","cpi",0.2,1986,3,1985,NA,1,2.34766474237654,3.53273740046944,4.08685396749431,3.37849976080849,FALSE,2.57036407565508
"CAN","cpi",0.2,1986,3,1985,NA,1.5,4.19068919615072,5.56756284277887,4.08685396749431,4.95309858900956,FALSE,1.63646171826917
"CAN","cpi",0.2,1987,3,1987,NA,0,NA,NA,4.23980729277887,NA,NA,NA
"CAN","cpi",0.2,1987,3,1987,NA,0.5,3.77222161088229,4.16680995703824,4.23980729277887,4.13342161080085,FALSE,0.57708168550754
"CAN","cpi",0.2,1987,3,1986,NA,1,2.58438721938636,3.69297999138053,4.23980729277887,3.66140988164798,FALSE,2.47566102549002
"CAN","cpi",0.2,1987,3,1986,NA,1.5,3.72981363820333,4.91588775649145,4.23980729277887,4.80242768143514,TRUE,1.18607411828812
"CAN","cpi",0.2,1988,3,1988,NA,0,3.61094467933767,4.02385048497176,3.92899537638065,3.9438316199536,TRUE,0.412905805634094
"CAN","cpi",0.2,1988,3,1988,NA,0.5,3.09927768991698,3.51218349555107,3.92899537638065,3.35419215340812,FALSE,1.45493550770805
"CAN","cpi",0.2,1988,3,1987,NA,1,NA,NA,3.92899537638065,NA,NA,NA
"CAN","cpi",0.2,1988,3,1987,NA,1.5,2.59194539019468,3.73384318254566,3.92899537638065,3.89461929526446,FALSE,1.62977827693846
"CAN","cpi",0.2,1989,3,1989,NA,0,4.90519655757397,4.95236711772017,4.82821664544208,4.95130318392835,FALSE,0.239620340475943
"CAN","cpi",0.2,1989,3,1989,NA,0.5,4.22017246723317,4.59506587254976,4.82821664544208,4.23024942747073,FALSE,0.957770337547389
"CAN","cpi",0.2,1989,3,1988,NA,1,3.71375680815163,4.37841194513909,4.82821664544208,4.05841794603162,FALSE,1.78916688774493
"CAN","cpi",0.2,1989,3,1988,NA,1.5,1.36812752719192,2.52012422867352,4.82821664544208,2.597843559383,FALSE,6.922227743403
"CAN","cpi",0.2,1990,3,1990,NA,0,4.42831631687577,4.46969256388409,4.64347549432717,4.4746950192663,FALSE,0.47583357311602
"CAN","cpi",0.2,1990,3,1990,NA,0.5,5.01114547514477,5.364201785712,4.64347549432717,4.96487168902479,FALSE,1.27223126261122
"CAN","cpi",0.2,1990,3,1989,NA,1,5.0801245644361,5.75071774297932,4.64347549432717,5.43871373969076,FALSE,1.76221585381554
"CAN","cpi",0.2,1990,3,1989,NA,1.5,2.57780446791992,3.83680048491624,4.64347549432717,3.3732540002381,FALSE,3.27568354052364
"CAN","cpi",0.2,1991,3,1991,NA,0,5.54054574160106,5.58759280981336,5.4258100696218,5.61053369942382,FALSE,0.333886248160451
"CAN","cpi",0.2,1991,3,1991,NA,0.5,7.45647772200059,7.93464011195354,5.4258100696218,7.82199295477594,FALSE,5.55483152089993
"CAN","cpi",0.2,1991,3,1990,NA,1,3.26057680518283,3.94950671849978,5.4258100696218,3.66716818384097,FALSE,4.37968829112198
"CAN","cpi",0.2,1991,3,1990,NA,1.5,4.09249713815129,5.35828426880514,5.4258100696218,4.82481948664164,FALSE,1.43460163269548
"CAN","cpi",0.2,1992,3,1992,NA,0,NA,NA,1.47496888572843,NA,NA,NA
"CAN","cpi",0.2,1992,3,1992,NA,0.5,NA,NA,1.47496888572843,NA,NA,NA
"CAN","cpi",0.2,1992,3,1991,NA,1,2.13056274345722,2.91674698330293,1.47496888572843,2.76780571233213,FALSE,2.42516888416768
"CAN","cpi",0.2,1992,3,1991,NA,1.5,6.40062213712798,7.6655791434898,1.47496888572843,7.14938182660169,FALSE,13.5790901348607
"CAN","cpi",0.2,1993,3,1993,NA,0,NA,NA,NA,NA,NA,NA
"CAN","cpi",0.2,1993,3,1993,NA,0.5,NA,NA,NA,NA,NA,NA
"CAN","cpi",0.2,1993,3,1992,NA,1,NA,NA,NA,NA,NA,NA
"CAN","cpi",0.2,1993,3,1992,NA,1.5,NA,NA,NA,NA,NA,NA
"CAN","cpi",0.2,1994,3,1994,NA,0,NA,NA,NA,NA,NA,NA
"CAN","cpi",0.2,1994,3,1994,NA,0.5,NA,NA,NA,NA,NA,NA
"CAN","cpi",0.2,1994,3,1993,NA,1,NA,NA,NA,NA,NA,NA
"CAN","cpi",0.2,1994,3,1993,NA,1.5,NA,NA,NA,NA,NA,NA
"CAN","cpi",0.2,1995,3,1995,NA,0,NA,NA,2.11688403676572,NA,NA,NA
"CAN","cpi",0.2,1995,3,1995,NA,0.5,2.16678274998697,2.54529764844948,2.11688403676572,2.51937811073084,FALSE,0.503261681515637
"CAN","cpi",0.2,1995,3,1994,NA,1,0.805204185451845,1.46569224330068,2.11688403676572,0.719396410821945,FALSE,2.28846754151142
"CAN","cpi",0.2,1995,3,1994,NA,1.5,-1.69114908578001,-0.555946440362482,2.11688403676572,-1.04654603924828,FALSE,7.81727883823802
"CAN","cpi",0.2,1996,3,1996,NA,0,1.38413882234148,1.44230329135099,1.55309584667184,1.42780748357026,FALSE,0.335145857311644
"CAN","cpi",0.2,1996,3,1996,NA,0.5,NA,NA,1.55309584667184,NA,NA,NA
"CAN","cpi",0.2,1996,3,1995,NA,1,NA,NA,1.55309584667184,NA,NA,NA
"CAN","cpi",0.2,1996,3,1995,NA,1.5,2.51948645020727,3.92365525233895,1.55309584667184,2.92232271175447,FALSE,3.82014531097025
"CAN","cpi",0.2,1997,3,1997,NA,0,1.73388395662917,1.80113833681966,1.60528783555959,1.73535847807117,FALSE,0.388744682864429
"CAN","cpi",0.2,1997,3,1997,NA,0.5,1.81862023719759,2.17098489453619,1.60528783555959,2.11078363597796,FALSE,0.885695661433594
"CAN","cpi",0.2,1997,3,1996,NA,1,1.45898216655976,1.96801956039191,1.60528783555959,0.984961337307556,TRUE,0.509037393832149
"CAN","cpi",0.2,1997,3,1996,NA,1.5,NA,NA,1.60528783555959,NA,NA,NA
"CAN","cpi",0.2,1998,3,1998,NA,0,0.949148484919075,1.01265015820189,0.988908029337191,1.0350847138471,TRUE,0.063501673282814
"CAN","cpi",0.2,1998,3,1998,NA,0.5,1.36801969558492,1.73042960920138,0.988908029337191,1.68533655437107,FALSE,1.31018907923579
"CAN","cpi",0.2,1998,3,1997,NA,1,2.75363875783765,3.27056022657727,0.988908029337191,2.25159584334757,FALSE,4.92874828999077
"CAN","cpi",0.2,1998,3,1997,NA,1.5,2.25319216188646,3.51404419682198,0.988908029337191,2.38987816876076,FALSE,4.4215623663087
"CAN","cpi",0.2,1999,3,1999,NA,0,1.68790659355861,1.75007768448796,1.7107350135213,1.77618438459462,TRUE,0.0621710909293487
"CAN","cpi",0.2,1999,3,1999,NA,0.5,0.560733784295602,0.982204976449611,1.7107350135213,1.0290924799153,FALSE,2.24279628483322
"CAN","cpi",0.2,1999,3,1998,NA,1,1.95170932650859,2.60575347317984,1.7107350135213,1.85177544064205,FALSE,1.25647992913949
"CAN","cpi",0.2,1999,3,1998,NA,1.5,2.75498341597131,4.07692081985016,1.7107350135213,2.94645730787123,FALSE,3.93255841000388
"CAN","cpi",0.2,2000,3,2000,NA,0,2.61668531503721,2.67605298822793,2.6718361971244,2.7102541785615,TRUE,0.0593676731907227
"CAN","cpi",0.2,2000,3,2000,NA,0.5,1.9785367812582,2.45669917121115,2.6718361971244,2.34405201403356,FALSE,1.01600495473607
"CAN","cpi",0.2,2000,3,1999,NA,1,2.70991413503673,3.18807652498969,2.6718361971244,3.07542936781209,FALSE,0.573357234733789
"CAN","cpi",0.2,2000,3,1999,NA,1.5,1.94365176009008,3.3130135203935,2.6718361971244,2.27809035801724,TRUE,1.36936176030342
"CAN","cpi",0.2,2001,3,2001,NA,0,2.6855969639382,2.74719310296529,2.47906219852806,2.77546584984351,FALSE,0.577933052552428
"CAN","cpi",0.2,2001,3,2001,NA,0.5,1.97465225479573,2.42572972683075,2.47906219852806,2.43566755503104,FALSE,0.584408651278292
"CAN","cpi",0.2,2001,3,2000,NA,1,3.21982454051659,3.73973379755002,2.47906219852806,3.68958695319843,FALSE,2.37181511200475
"CAN","cpi",0.2,2001,3,2000,NA,1.5,2.00433203402686,3.24757155820986,2.47906219852806,3.01270789712173,TRUE,1.24323952418299
"CAN","cpi",0.2,2002,3,2002,NA,0,2.15047995445333,2.2124507370669,2.20880570551249,2.27196234986351,TRUE,0.0619707826135727
"CAN","cpi",0.2,2002,3,2002,NA,0.5,1.17190299608046,1.60408313921496,2.20880570551249,1.58345411989126,FALSE,1.94398655887831
"CAN","cpi",0.2,2002,3,2001,NA,1,1.78823013786133,2.30858924827595,2.20880570551249,2.26510423845898,TRUE,0.52035911041462
"CAN","cpi",0.2,2002,3,2001,NA,1.5,2.0357348538696,2.75953978599288,2.20880570551249,3.02058043279009,TRUE,0.723804932123278
"CAN","cpi",0.2,2003,3,2003,NA,0,2.62984714733239,2.66056567505542,2.71189071546809,2.71326702620668,FALSE,0.159031128754696
"CAN","cpi",0.2,2003,3,2003,NA,0.5,4.49589061089242,4.76818297763941,2.71189071546809,4.51432649273496,FALSE,4.73229210530782
"CAN","cpi",0.2,2003,3,2002,NA,1,3.22457053414778,3.64697423504134,2.71189071546809,3.85618281746238,FALSE,1.70410324759279
"CAN","cpi",0.2,2003,3,2002,NA,1.5,1.27227299939581,1.80672832762184,2.71189071546809,2.39402389849184,FALSE,2.79736129784164
"CAN","cpi",0.2,2004,3,2004,NA,0,1.70322143265358,1.73446331029081,1.83151661303942,1.77466852383015,FALSE,0.273875134508758
"CAN","cpi",0.2,2004,3,2004,NA,0.5,1.4044018885073,1.742763676131,1.83151661303942,1.55260435151936,FALSE,0.560244129894755
"CAN","cpi",0.2,2004,3,2003,NA,1,1.1647910503982,1.57019200034102,1.83151661303942,1.79415792598285,FALSE,1.05871248168883
"CAN","cpi",0.2,2004,3,2003,NA,1.5,3.50745443364897,3.94050390184415,1.83151661303942,4.26699272545716,FALSE,4.62289401971905
"CAN","cpi",0.2,2005,3,2005,NA,0,2.28256927355207,2.32055674920425,2.18071628336509,2.34345353472953,FALSE,0.292619951119628
"CAN","cpi",0.2,2005,3,2005,NA,0.5,1.32489833056313,1.66794538579655,2.18071628336509,1.50321338317329,FALSE,1.62497429915477
"CAN","cpi",0.2,2005,3,2004,NA,1,1.03908932243655,1.44794640287671,2.18071628336509,1.64043962712234,FALSE,2.24078178166111
"CAN","cpi",0.2,2005,3,2004,NA,1.5,0.827478144055853,1.59779173558829,2.18071628336509,2.03393284113233,FALSE,2.22762496097443
"CAN","cpi",0.2,2006,3,2006,NA,0,2.00826912689189,2.06474281870037,1.97519342012289,2.09514376892657,FALSE,0.139162958730991
"CAN","cpi",0.2,2006,3,2006,NA,0.5,2.01540085942802,2.31610323484577,1.97519342012289,2.09436263599022,FALSE,0.401220973680582
"CAN","cpi",0.2,2006,3,2005,NA,1,2.41943494903667,2.85844162232353,1.97519342012289,2.9582912060806,FALSE,1.54961049557132
"CAN","cpi",0.2,2006,3,2005,NA,1.5,0.739202782818894,1.32827197121107,1.97519342012289,1.64885961980806,FALSE,2.20637281067172
"CAN","cpi",0.2,2007,3,2007,NA,0,2.01492920239584,2.06855381974106,2.10062087284572,2.10683622102307,FALSE,0.133792250106879
"CAN","cpi",0.2,2007,3,2007,NA,0.5,2.09295807079786,2.39568199791202,2.10062087284572,2.17629902083353,TRUE,0.302723927114157
"CAN","cpi",0.2,2007,3,2006,NA,1,0.985435815924775,1.33430887534802,2.10062087284572,1.50861692709856,FALSE,2.2646530531675
"CAN","cpi",0.2,2007,3,2006,NA,1.5,1.42727996066417,1.87187046213193,2.10062087284572,2.15918616350405,FALSE,1.01646652825224
"CAN","cpi",0.2,2008,3,2008,NA,0,2.78175842876089,2.82588478337546,2.31447335265955,2.87079455148828,FALSE,1.21233904486792
"CAN","cpi",0.2,2008,3,2008,NA,0.5,1.26087609461787,1.55008759987782,2.31447335265955,1.31005314695267,FALSE,2.20017588721428
"CAN","cpi",0.2,2008,3,2007,NA,1,1.12717559988664,1.50514675136071,2.31447335265955,1.47031049982668,FALSE,2.40128765472118
"CAN","cpi",0.2,2008,3,2007,NA,1.5,1.90538397130247,2.28335512277653,2.31447335265955,2.46453195342394,FALSE,0.455766726181609
"CAN","cpi",0.2,2009,3,2009,NA,0,0.0917951586751737,0.140165424274873,0.284533874408197,0.187122346349721,FALSE,0.40929139093301
"CAN","cpi",0.2,2009,3,2009,NA,0.5,-0.00200811617042229,0.312628661612328,0.284533874408197,-0.0727492620466167,TRUE,0.314636777782751
"CAN","cpi",0.2,2009,3,2008,NA,1,3.56894430805007,3.96457666645764,0.284533874408197,3.81780026356951,FALSE,8.60665844251225
"CAN","cpi",0.2,2009,3,2008,NA,1.5,1.16292238622761,1.55855474463518,0.284533874408197,1.68675152630419,FALSE,2.5916036379561
"CAN","cpi",0.2,2010,3,2010,NA,0,1.51478683381712,1.59067890616096,1.75525687020327,1.6089956646354,FALSE,0.487336982449625
"CAN","cpi",0.2,2010,3,2010,NA,0.5,2.14346572525981,2.37728633235524,1.75525687020327,1.91109502526183,FALSE,1.20434274473678
"CAN","cpi",0.2,2010,3,2009,NA,1,0.573644428660762,1.00878757309251,1.75525687020327,0.992295788494754,FALSE,2.30131638720865
"CAN","cpi",0.2,2010,3,2009,NA,1.5,0.339565105107142,0.77470824953889,1.75525687020327,0.885103052815867,FALSE,2.8865146960927
"CAN","cpi",0.2,2011,3,2011,NA,0,2.77089511108671,2.86330805200918,2.85717434028225,2.86665414062098,TRUE,0.0924129409224719
"CAN","cpi",0.2,2011,3,2011,NA,0.5,2.89819782701136,3.16054984851062,2.85717434028225,2.76583381894771,FALSE,0.364910738322036
"CAN","cpi",0.2,2011,3,2010,NA,1,1.01256773697419,1.45155942675437,2.85717434028225,1.39294644169719,FALSE,3.95302897359987
"CAN","cpi",0.2,2011,3,2010,NA,1.5,1.26149396887019,1.70048565865037,2.85717434028225,1.64253060592363,FALSE,3.33071339385988
"CAN","cpi",0.2,2012,3,2012,NA,0,1.45466796936838,1.5417171809452,1.50118536134935,1.52822510849394,TRUE,0.0870492115768218
"CAN","cpi",0.2,2012,3,2012,NA,0.5,2.02586227018605,2.30097883885982,1.50118536134935,1.92429021972789,FALSE,1.58680884076554
"CAN","cpi",0.2,2012,3,2011,NA,1,1.67211526666546,2.22614333807897,1.50118536134935,1.99945242447079,FALSE,0.981352834703792
"CAN","cpi",0.2,2012,3,2011,NA,1.5,2.04974797081672,2.60377604223024,1.50118536134935,2.48150957397962,FALSE,1.92543459508195
"CAN","cpi",0.2,2013,3,2013,NA,0,1.01027832675245,1.07927747699392,0.931270594714462,1.05630513423211,FALSE,0.266518480336442
"CAN","cpi",0.2,2013,3,2013,NA,0.5,1.26040042843472,1.62163536215462,0.931270594714462,1.16963454554932,FALSE,1.18405951802055
"CAN","cpi",0.2,2013,3,2012,NA,1,0.897075709551889,1.41850455271487,0.931270594714462,1.08868089128742,TRUE,0.521428843162977
"CAN","cpi",0.2,2013,3,2012,NA,1.5,1.70132746990295,2.22275631306593,0.931270594714462,2.14573179530527,FALSE,2.4465710311342
"CAN","cpi",0.2,2014,3,2014,NA,0,1.94210582007526,2.01639366886437,1.87639912240215,1.99862849145116,FALSE,0.238554592971886
"CAN","cpi",0.2,2014,3,2014,NA,0.5,1.70959596641678,1.91723645150598,1.87639912240215,1.79231976082687,TRUE,0.207640485089199
"CAN","cpi",0.2,2014,3,2013,NA,1,1.19319523115028,1.7270813945304,1.87639912240215,1.40664989819898,FALSE,0.907180483059494
"CAN","cpi",0.2,2014,3,2013,NA,1.5,1.03680937128896,1.57069553466908,1.87639912240215,1.51436121777893,FALSE,1.2981451327128
"CAN","cpi",0.2,2015,3,2015,NA,0,1.14398048700112,1.2281525918699,1.11090953952792,1.2103065042478,FALSE,0.166849473551791
"CAN","cpi",0.2,2015,3,2015,NA,0.5,0.442706803155267,0.649563625297761,1.11090953952792,0.458547315718059,FALSE,1.36022160771788
"CAN","cpi",0.2,2015,3,2014,NA,1,1.64851341935601,2.03499453151239,1.11090953952792,1.57054781428135,FALSE,1.73049081172661
"CAN","cpi",0.2,2015,3,2014,NA,1.5,1.41607375618322,1.95288681799969,1.11090953952792,1.88229109541157,FALSE,1.29972360345472
"CAN","cpi",0.2,2016,3,2016,NA,0,1.31953728764006,1.36949704944052,1.41168586698797,1.41630667471992,FALSE,0.155431805669063
"CAN","cpi",0.2,2016,3,2016,NA,0.5,1.18038230163598,1.40243851964502,1.41168586698797,1.17972158292925,FALSE,0.245174586366404
"CAN","cpi",0.2,2016,3,2015,NA,1,1.84680131422656,2.27402741263061,1.41168586698797,1.8638656605167,FALSE,1.51501471650054
"CAN","cpi",0.2,2016,3,2015,NA,1.5,0.752610442534447,1.1798365409385,1.41168586698797,1.07023002715086,FALSE,1.00684941352771
"CAN","cpi",0.2,2017,3,2017,NA,0,1.43320282508254,1.48233908189934,1.57888581671161,1.50492692646759,FALSE,0.290503093847479
"CAN","cpi",0.2,2017,3,2017,NA,0.5,2.07174625896423,2.27591424587618,1.57888581671161,2.09086618282141,FALSE,1.43631909254351
"CAN","cpi",0.2,2017,3,2016,NA,1,0.983995281449316,1.45401211731237,1.57888581671161,1.14652050352824,FALSE,0.782201084361165
"CAN","cpi",0.2,2017,3,2016,NA,1.5,0.976927196480014,1.44694403234306,1.57888581671161,1.26788084523026,FALSE,0.799871296784419
"CAN","cpi",0.2,2018,3,2018,NA,0,2.36654794861466,2.43609269511448,2.23316270166586,2.41317537496083,FALSE,0.40300786387183
"CAN","cpi",0.2,2018,3,2018,NA,0.5,2.40764711788712,2.64602757065949,2.23316270166586,2.52809119314695,FALSE,0.674591493325521
"CAN","cpi",0.2,2018,3,2017,NA,1,1.20221628569576,1.60604398351664,2.23316270166586,1.16800101916097,FALSE,1.97162449319393
"CAN","cpi",0.2,2018,3,2017,NA,1.5,1.80132072543382,2.22642304030143,2.23316270166586,2.07298402260093,FALSE,0.441951468278682
"CAN","cpi",0.2,2019,3,2019,NA,0,NA,NA,1.91921619871868,NA,NA,NA
"CAN","cpi",0.2,2019,3,2019,NA,0.5,1.31273344555739,1.53773300653148,1.91921619871868,1.47328806303322,FALSE,1.1787075414421
"CAN","cpi",0.2,2019,3,2018,NA,1,2.30237423744945,2.76211985411431,1.91921619871868,2.23470281046333,FALSE,1.41764071349178
"CAN","cpi",0.2,2019,3,2018,NA,1.5,2.04626196766667,2.50600758433153,1.91921619871868,2.32030562567512,FALSE,0.777360039034832
"CAN","cpi",0.2,2020,3,2020,NA,0,0.602455338953282,0.657705414773054,0.71139989671781,0.673588636713597,FALSE,0.189486280681663
"CAN","cpi",0.2,2020,3,2020,NA,0.5,NA,NA,0.71139989671781,NA,NA,NA
"CAN","cpi",0.2,2020,3,2019,NA,1,NA,NA,0.71139989671781,NA,NA,NA
"CAN","cpi",0.2,2020,3,2019,NA,1.5,1.50177891398042,1.931389226377,0.71139989671781,1.77705491937904,FALSE,2.40555785555309
"CAN","cpi",0.2,2021,3,2021,NA,0,3.17815251602452,3.23031641055488,3.31148121717802,3.2525646654712,FALSE,0.255075911088217
"CAN","cpi",0.2,2021,3,2021,NA,0.5,1.97424895188288,2.17554736309011,3.31148121717802,2.16773480502693,FALSE,3.04113304642702
"CAN","cpi",0.2,2021,3,2020,NA,1,1.59649827704566,1.90499636590391,3.31148121717802,1.61070774476322,FALSE,3.82471021704353
"CAN","cpi",0.2,2021,3,2020,NA,1.5,NA,NA,3.31148121717802,NA,NA,NA
"CAN","cpi",0.2,2022,3,2022,NA,0,6.54235058050662,6.5895991069498,6.50977236228281,6.58682891800883,FALSE,0.128694072002712
"CAN","cpi",0.2,2022,3,2022,NA,0.5,5.46135060264467,5.7064637326802,6.50977236228281,5.58900513180898,FALSE,2.25338470404205
"CAN","cpi",0.2,2022,3,2021,NA,1,3.39872335140874,3.74618852842007,6.50977236228281,3.35597076522593,FALSE,7.25642476166817
"CAN","cpi",0.2,2022,3,2021,NA,1.5,1.34157815750906,1.74827741071081,6.50977236228281,1.89458222166426,FALSE,12.3104366321318
"CAN","cpi",0.2,2023,3,2023,NA,0,3.88159940674833,3.925610758004,3.78831288758619,3.96221561415741,FALSE,0.277227649161021
"CAN","cpi",0.2,2023,3,2023,NA,0.5,3.55701472142645,3.84488625990016,3.78831288758619,3.6121970566696,TRUE,0.287871538473712
"CAN","cpi",0.2,2023,3,2022,NA,1,5.54902583805575,5.92346777448219,3.78831288758619,5.4861852561408,FALSE,4.77622431260035
"CAN","cpi",0.2,2023,3,2022,NA,1.5,3.31286514770707,3.77402860495164,3.78831288758619,3.85557075258935,FALSE,0.496874163830949
"CAN","cpi",0.2,2024,3,2023,NA,1,4.69821086540466,5.23475547154216,NA,4.72280809903739,NA,NA
"CAN","cpi",0.2,2024,3,2023,NA,1.5,3.87387598077329,4.4104205869108,NA,4.36705509613113,NA,NA
"CAN","cpi",0.3,1959,3,1959,NA,0,1.0797741415427,1.21786938418294,1.19382698397654,1.24991216431293,TRUE,0.138095242640238
"CAN","cpi",0.3,1959,3,1959,NA,0.5,0.582755623093962,1.45587900215266,1.19382698397654,0.437839731590327,TRUE,0.873123379058699
"CAN","cpi",0.3,1959,3,1958,NA,1,-1.4539115253073,1.01734488114034,1.19382698397654,1.75862762885946,FALSE,2.97549098597964
"CAN","cpi",0.3,1959,3,1958,NA,1.5,-0.0947747434150497,4.91758768088668,1.19382698397654,1.77407172713766,TRUE,5.01236242430173
"CAN","cpi",0.3,1960,3,1960,NA,0,0.897790033525163,1.0145995438076,1.34209404870695,1.02361304259477,FALSE,1.05250809570915
"CAN","cpi",0.3,1960,3,1960,NA,0.5,0.949950166013238,1.62526304195252,1.34209404870695,0.53898348018166,TRUE,0.67531287593928
"CAN","cpi",0.3,1960,3,1959,NA,1,0.704663693362653,2.71895021630265,1.34209404870695,3.95759373689442,TRUE,2.01428652294
"CAN","cpi",0.3,1960,3,1959,NA,1.5,-5.51771800758218,-0.113779356343068,1.34209404870695,-0.873476815404885,FALSE,9.56357695138203
"CAN","cpi",0.3,1961,3,1961,NA,0,0.906368302170285,1.04818080529961,1.00921348094007,1.00921348094007,TRUE,0.141812503129327
"CAN","cpi",0.3,1961,3,1961,NA,0.5,1.7594495123983,2.08497953083065,1.00921348094007,1.00921348094007,FALSE,2.46906153688444
"CAN","cpi",0.3,1961,3,1960,NA,1,-2.70342030075075,-1.01864688313092,1.00921348094007,0.0537704626035329,FALSE,7.47866017210838
"CAN","cpi",0.3,1961,3,1960,NA,1.5,-2.48101468829542,1.9436826630638,1.00921348094007,-0.862181798940035,TRUE,4.42469735135922
"CAN","cpi",0.3,1962,3,1962,NA,0,0.986720407114817,1.1143469660835,1.04957947883042,1.10232402731478,TRUE,0.127626558968686
"CAN","cpi",0.3,1962,3,1962,NA,0.5,0.620762274541736,0.902717654355347,1.04957947883042,0,FALSE,0.70156059259952
"CAN","cpi",0.3,1962,3,1961,NA,1,-2.56672764624679,-0.767281223662678,1.04957947883042,0,FALSE,6.99047700113581
"CAN","cpi",0.3,1962,3,1961,NA,1.5,0.628042841572212,2.65163902614452,1.04957947883042,0,TRUE,2.0235961845723
"CAN","cpi",0.3,1963,3,1963,NA,0,1.79775808659538,1.92374529172089,1.60677118395228,1.91491729531202,FALSE,0.671664069820063
"CAN","cpi",0.3,1963,3,1963,NA,0.5,1.46308669777071,1.76135068996982,1.60677118395228,0.836828714617504,TRUE,0.298263992199112
"CAN","cpi",0.3,1963,3,1962,NA,1,0.604832820598485,2.12088257643869,1.60677118395228,2.56411490415144,TRUE,1.51604975584021
"CAN","cpi",0.3,1963,3,1962,NA,1.5,0.562257968115919,2.07830772395612,1.60677118395228,0,TRUE,1.5160497558402
"CAN","cpi",0.3,1964,3,1964,NA,0,1.8311964952794,1.97221735864935,1.88764670034376,1.98877256446048,TRUE,0.141020863369945
"CAN","cpi",0.3,1964,3,1964,NA,0.5,2.15047503205156,2.33531682107204,1.88764670034376,1.38369006227607,FALSE,0.935779879614194
"CAN","cpi",0.3,1964,3,1963,NA,1,3.84128211757421,4.99081138724971,1.88764670034376,5.39044290347256,FALSE,6.73134474747678
"CAN","cpi",0.3,1964,3,1963,NA,1.5,1.12685732048938,2.27638659016488,1.88764670034376,0,TRUE,1.1495292696755
"CAN","cpi",0.3,1965,3,1965,NA,0,2.18689242765018,2.32683129781832,2.29538304394236,2.34557047418999,TRUE,0.139938870168143
"CAN","cpi",0.3,1965,3,1965,NA,0.5,2.30825949055487,2.54397920318841,2.29538304394236,1.61079447956654,FALSE,0.272509560097873
"CAN","cpi",0.3,1965,3,1964,NA,1,0.119769674682245,1.05110882787907,2.29538304394236,2.42518862179847,FALSE,4.48640834194908
"CAN","cpi",0.3,1965,3,1964,NA,1.5,2.2237904294071,3.15512958260392,2.29538304394236,0.818102552316399,TRUE,0.931339153196822
"CAN","cpi",0.3,1966,3,1966,NA,0,3.70487099205065,3.83117666351227,3.72486065470629,3.82010987863709,TRUE,0.126305671461617
"CAN","cpi",0.3,1966,3,1966,NA,0.5,4.64107137483473,4.8783199805618,3.72486065470629,3.99123398895563,FALSE,2.85499352037976
"CAN","cpi",0.3,1966,3,1965,NA,1,1.78611732794404,2.77603705445487,3.72486065470629,3.20722068745854,FALSE,3.70084429865774
"CAN","cpi",0.3,1966,3,1965,NA,1.5,2.92516180554333,3.91508153205416,3.72486065470629,1.60663824631958,TRUE,0.989919726510823
"CAN","cpi",0.3,1967,3,1967,NA,0,3.64652536238331,3.74401826096974,3.49360316391996,3.76768849328632,FALSE,0.534413465624577
"CAN","cpi",0.3,1967,3,1967,NA,0.5,2.89065789925063,3.23623450194517,3.49360316391996,2.4074547441976,FALSE,1.08091563690823
"CAN","cpi",0.3,1967,3,1966,NA,1,2.03375516247208,2.94264221007242,3.49360316391996,3.18103323070284,FALSE,2.48306120145046
"CAN","cpi",0.3,1967,3,1966,NA,1.5,6.01651491203793,6.92540195963827,3.49360316391996,4.65128160487248,FALSE,8.11720632793739
"CAN","cpi",0.3,1968,3,1968,NA,0,4.04614267664253,4.15353021876015,3.95128347779386,4.17287945672396,FALSE,0.378413824542405
"CAN","cpi",0.3,1968,3,1968,NA,0.5,4.59872352235885,4.89841737711457,3.95128347779386,4.07097205779852,FALSE,2.14952255351284
"CAN","cpi",0.3,1968,3,1967,NA,1,4.74886308714213,5.65973459070068,3.95128347779386,5.84521682123848,FALSE,3.18967038741076
"CAN","cpi",0.3,1968,3,1967,NA,1.5,3.37805809484647,4.28892959840501,3.95128347779386,2.25565858240226,TRUE,0.910871503558545
"CAN","cpi",0.3,1969,3,1969,NA,0,4.29415200501164,4.43635921337271,4.42679496126681,4.46896837073893,TRUE,0.142207208361068
"CAN","cpi",0.3,1969,3,1969,NA,0.5,3.35953830229129,3.73100985640654,4.42679496126681,2.96612019395715,FALSE,2.35942899657318
"CAN","cpi",0.3,1969,3,1968,NA,1,5.93975473241974,6.74764830801251,4.42679496126681,6.72487630040807,FALSE,5.13063577888684
"CAN","cpi",0.3,1969,3,1968,NA,1.5,5.43755557830327,6.24544915389605,4.42679496126681,4.31664452944541,FALSE,3.6957810528398
"CAN","cpi",0.3,1970,3,1970,NA,0,3.40384746706171,3.47318351126012,3.28128405769805,3.52697515579364,FALSE,0.419517213808869
"CAN","cpi",0.3,1970,3,1970,NA,0.5,5.09941037561384,5.5013010930926,3.28128405769805,4.65371085276917,FALSE,5.59653734009532
"CAN","cpi",0.3,1970,3,1969,NA,1,3.58801328220738,4.47694152512908,3.28128405769805,4.52747875087707,FALSE,1.76529745580551
"CAN","cpi",0.3,1970,3,1969,NA,1.5,2.96939367837833,3.85832192130003,3.28128405769805,2.07973847283129,TRUE,0.888928242921703
"CAN","cpi",0.3,1971,3,1971,NA,0,2.63878814799667,2.76313204056112,2.64123406634756,2.8393232579169,TRUE,0.124343892564446
"CAN","cpi",0.3,1971,3,1971,NA,0.5,2.25982123297034,2.85168628976081,2.64123406634756,2.06692165705507,TRUE,0.591865056790469
"CAN","cpi",0.3,1971,3,1970,NA,1,1.6344327822823,2.49721270005099,2.64123406634756,2.64105994583495,FALSE,1.27426953575888
"CAN","cpi",0.3,1971,3,1970,NA,1.5,5.69327173937243,6.55605165714112,2.64123406634756,4.63977638900468,FALSE,9.5828875549826
"CAN","cpi",0.3,1972,3,1972,NA,0,4.85928844001652,4.9413590221549,4.83230569625923,5.03048103188219,FALSE,0.159164135730638
"CAN","cpi",0.3,1972,3,1972,NA,0.5,5.25135738715272,5.84598043593539,4.83230569625923,5.06705904355972,FALSE,1.79191359419264
"CAN","cpi",0.3,1972,3,1971,NA,1,5.20357245552477,6.03993756094967,4.83230569625923,5.9169160270675,FALSE,1.89712727475501
"CAN","cpi",0.3,1972,3,1971,NA,1.5,3.85955117522927,4.69591628065417,4.83230569625923,3.09276495441271,FALSE,1.22604915001079
"CAN","cpi",0.3,1973,3,1973,NA,0,6.77567457776578,6.85228014739198,7.12388603531779,6.99264756193144,FALSE,0.852622392271375
"CAN","cpi",0.3,1973,3,1973,NA,0.5,5.6364629005603,6.24402936879915,7.12388603531779,5.47469896411854,FALSE,3.12144265829212
"CAN","cpi",0.3,1973,3,1972,NA,1,5.91668491728849,6.76594296676889,7.12388603531779,6.69062283747837,FALSE,1.87195253104869
"CAN","cpi",0.3,1973,3,1972,NA,1.5,5.50847464301562,6.35773269249601,7.12388603531779,4.73174243586486,FALSE,3.03826760039977
"CAN","cpi",0.3,1974,3,1974,NA,0,9.72760292569452,9.82519664499948,10.2717243737774,9.94431520564033,FALSE,1.37338723009907
"CAN","cpi",0.3,1974,3,1974,NA,0.5,8.62548842236381,9.34292311731636,10.2717243737774,8.3378654175141,FALSE,3.37115257055559
"CAN","cpi",0.3,1974,3,1973,NA,1,6.06071192727558,6.89026064724709,10.2717243737774,7.16712422635118,FALSE,10.4908736529153
"CAN","cpi",0.3,1974,3,1973,NA,1.5,4.97989308796786,5.80944180793937,10.2717243737774,4.05174749178054,FALSE,13.5789274795088
"CAN","cpi",0.3,1975,3,1975,NA,0,9.91168721078628,10.0201011897397,10.0232981493341,10.0931823619779,FALSE,0.117548149223122
"CAN","cpi",0.3,1975,3,1975,NA,0.5,9.23540642590169,10.1313361185439,10.0232981493341,8.98267476097328,TRUE,0.895929692642213
"CAN","cpi",0.3,1975,3,1974,NA,1,6.65675857553294,7.72825435709726,10.0232981493341,7.7837982223054,FALSE,7.62876375938391
"CAN","cpi",0.3,1975,3,1974,NA,1.5,6.6389445600618,7.71044034162611,10.0232981493341,5.75931605308519,FALSE,7.67966094644434
"CAN","cpi",0.3,1976,3,1976,NA,0,6.89395729977357,7.00505293844818,7.22784311401172,7.07277954951717,FALSE,0.747638997427568
"CAN","cpi",0.3,1976,3,1976,NA,0.5,8.9512602720827,9.79596163135864,7.22784311401172,8.59089060438327,FALSE,5.7687503823359
"CAN","cpi",0.3,1976,3,1975,NA,1,9.37893077500172,10.7218776900364,7.22784311401172,10.4141477685142,FALSE,7.48891166072037
"CAN","cpi",0.3,1976,3,1975,NA,1.5,7.19419577242411,8.87540315100076,7.22784311401172,6.43051086134862,TRUE,1.68120737857665
"CAN","cpi",0.3,1977,3,1977,NA,0,7.38680353954453,7.51136802998066,7.58101410153764,7.55301151664772,FALSE,0.32355326631322
"CAN","cpi",0.3,1977,3,1977,NA,0.5,7.97848674486652,9.01809824246168,7.58101410153764,7.98165850021887,FALSE,2.17524762139196
"CAN","cpi",0.3,1977,3,1976,NA,1,2.48556822863528,3.93946544836133,7.58101410153764,3.72134649143602,FALSE,11.858321943087
"CAN","cpi",0.3,1977,3,1976,NA,1.5,8.65004762401637,10.3477474010389,7.58101410153764,8.00272044475614,FALSE,4.75208126981885
"CAN","cpi",0.3,1978,3,1978,NA,0,8.5158898723335,8.65051323141989,8.50208927062595,8.67127840358843,FALSE,0.174053649679409
"CAN","cpi",0.3,1978,3,1978,NA,0.5,8.50983393256356,9.47471684857471,8.50208927062595,8.3788273181893,FALSE,0.987010521547196
"CAN","cpi",0.3,1978,3,1977,NA,1,6.35788817687079,8.11740489248203,8.50208927062595,7.54783828416051,FALSE,2.85861493887957
"CAN","cpi",0.3,1978,3,1977,NA,1.5,9.69795271039411,11.583306343813,8.50208927062595,9.72562756342223,FALSE,5.30210631847078
"CAN","cpi",0.3,1979,3,1979,NA,0,8.42696583879075,8.55036566919999,8.65147652410481,8.56376390232469,FALSE,0.412287987280156
"CAN","cpi",0.3,1979,3,1979,NA,0.5,8.39401249670545,9.34258779848726,8.65147652410481,8.29599284966764,TRUE,0.948575301781808
"CAN","cpi",0.3,1979,3,1978,NA,1,8.0360811646763,9.82120181414341,8.65147652410481,9.20311500508918,TRUE,1.78512064946712
"CAN","cpi",0.3,1979,3,1978,NA,1.5,8.48576961581928,10.3919675881243,8.65147652410481,8.55646910152924,TRUE,1.90619797230504
"CAN","cpi",0.3,1980,3,1980,NA,0,9.38170816050068,9.51909848716301,9.5171912664748,9.50406722106931,TRUE,0.137390326662327
"CAN","cpi",0.3,1980,3,1980,NA,0.5,8.63452943375047,9.63564469253071,9.5171912664748,8.57798914335092,TRUE,1.00111525878024
"CAN","cpi",0.3,1980,3,1979,NA,1,7.36388775946608,9.0217333752007,9.5171912664748,8.17875203710815,FALSE,3.07343959080347
"CAN","cpi",0.3,1980,3,1979,NA,1.5,8.16128551679515,10.0534953450434,9.5171912664748,8.39204766062112,TRUE,1.89220982824829
"CAN","cpi",0.3,1981,3,1981,NA,0,11.5945368072697,11.7346507875527,11.5813425032741,11.7113878984199,FALSE,0.177811991698834
"CAN","cpi",0.3,1981,3,1981,NA,0.5,12.1936192714543,13.0130737797129,11.5813425032741,12.2156196752767,FALSE,2.56881670305916
"CAN","cpi",0.3,1981,3,1980,NA,1,10.8117254272817,12.3267706068425,11.5813425032741,11.0496853423024,TRUE,1.51504517956074
"CAN","cpi",0.3,1981,3,1980,NA,1.5,8.16090019763986,10.0955220299514,11.5813425032741,8.33809792174894,FALSE,6.17982318466217
"CAN","cpi",0.3,1982,3,1982,NA,0,10.1673589337225,10.2883633421937,10.1124203763629,10.2566668151097,FALSE,0.27797171521278
"CAN","cpi",0.3,1982,3,1982,NA,0.5,10.1043847629574,10.836559766382,10.1124203763629,10.1085355973545,TRUE,0.732175003424604
"CAN","cpi",0.3,1982,3,1981,NA,1,11.7719867962082,13.2253848665656,10.1124203763629,11.770988683124,FALSE,6.19501641277244
"CAN","cpi",0.3,1982,3,1981,NA,1.5,12.7618533600849,14.7746815891136,10.1124203763629,12.8701250351281,FALSE,9.58263675394845
"CAN","cpi",0.3,1983,3,1983,NA,0,5.64133770582371,5.76246678811378,5.67091787896303,5.7310121416489,TRUE,0.121129082290075
"CAN","cpi",0.3,1983,3,1983,NA,0.5,4.80213331651805,5.54270109263006,5.67091787896303,4.91343016009654,FALSE,1.10690145134908
"CAN","cpi",0.3,1983,3,1982,NA,1,9.002570764694,10.5436704718389,5.67091787896303,9.18500149866057,FALSE,11.0601079520905
"CAN","cpi",0.3,1983,3,1982,NA,1.5,9.99302143016653,11.8953657490614,5.67091787896303,9.68672301569366,FALSE,14.2512116080477
"CAN","cpi",0.3,1984,3,1984,NA,0,NA,NA,4.19799576814029,NA,NA,NA
"CAN","cpi",0.3,1984,3,1984,NA,0.5,5.94524384657938,6.67947307950385,4.19799576814029,5.85770686024457,FALSE,5.7263665998933
"CAN","cpi",0.3,1984,3,1983,NA,1,5.50432869332117,7.36252540539316,4.19799576814029,5.76553357996429,FALSE,5.59057649830308
"CAN","cpi",0.3,1984,3,1983,NA,1.5,2.59649510140623,4.82992148888015,4.19799576814029,2.9197996794717,TRUE,2.23342638747393
"CAN","cpi",0.3,1985,3,1985,NA,0,3.77260104966214,3.87332916394838,3.86444262005169,3.85417990135378,TRUE,0.100728114286238
"CAN","cpi",0.3,1985,3,1985,NA,0.5,3.96675226523036,4.75847927637142,3.86444262005169,4.21990042382899,FALSE,1.0840402830801
"CAN","cpi",0.3,1985,3,1984,NA,1,NA,NA,3.86444262005169,NA,NA,NA
"CAN","cpi",0.3,1985,3,1984,NA,1.5,8.20783314474177,10.4156792230289,3.86444262005169,8.62999660305356,FALSE,14.6175332916873
"CAN","cpi",0.3,1986,3,1986,NA,0,3.94378914864259,4.02653444518121,4.08685396749431,4.03771389199993,FALSE,0.255086788861767
"CAN","cpi",0.3,1986,3,1986,NA,0.5,4.08929063197461,4.80249046532379,4.08685396749431,4.38219332503529,FALSE,0.720161731864329
"CAN","cpi",0.3,1986,3,1985,NA,1,2.06609239762047,3.8622791332359,4.08685396749431,3.37849976080849,FALSE,2.43782911921089
"CAN","cpi",0.3,1986,3,1985,NA,1.5,3.81623645225709,5.90598262014421,4.08685396749431,4.95309858900956,TRUE,2.08974616788712
"CAN","cpi",0.3,1987,3,1987,NA,0,NA,NA,4.23980729277887,NA,NA,NA
"CAN","cpi",0.3,1987,3,1987,NA,0.5,3.66301492050471,4.26115494204633,4.23980729277887,4.13342161080085,TRUE,0.598140021541624
"CAN","cpi",0.3,1987,3,1986,NA,1,2.31786816172746,3.99860791590068,4.23980729277887,3.66140988164798,FALSE,2.36988083096804
"CAN","cpi",0.3,1987,3,1986,NA,1.5,3.40045048158081,5.19820946457865,4.23980729277887,4.80242768143514,TRUE,1.79775898299784
"CAN","cpi",0.3,1988,3,1988,NA,0,3.51696281647146,4.14342208785353,3.92899537638065,3.9438316199536,TRUE,0.626459271382069
"CAN","cpi",0.3,1988,3,1988,NA,0.5,2.98591448297768,3.61237375435975,3.92899537638065,3.35419215340812,FALSE,1.53109247715608
"CAN","cpi",0.3,1988,3,1987,NA,1,NA,NA,3.92899537638065,NA,NA,NA
"CAN","cpi",0.3,1988,3,1987,NA,1.5,2.28385956787236,4.01821522902877,3.92899537638065,3.89461929526446,TRUE,1.73435566115641
"CAN","cpi",0.3,1989,3,1989,NA,0,4.89168951746949,4.96316694681718,4.82821664544208,4.95130318392835,FALSE,0.252828492283144
"CAN","cpi",0.3,1989,3,1989,NA,0.5,4.10337371874715,4.67475988192687,4.82821664544208,4.23024942747073,FALSE,1.00983405893745
"CAN","cpi",0.3,1989,3,1988,NA,1,3.50675407404485,4.51974186720768,4.82821664544208,4.05841794603162,FALSE,1.89434430240397
"CAN","cpi",0.3,1989,3,1988,NA,1.5,1.05396809571703,2.80195194364291,4.82821664544208,2.597843559383,FALSE,7.53731156735208
"CAN","cpi",0.3,1990,3,1990,NA,0,4.41677071200186,4.47947946948101,4.64347549432717,4.4746950192663,FALSE,0.53126882846819
"CAN","cpi",0.3,1990,3,1990,NA,0.5,4.90097142226914,5.43915954946247,4.64347549432717,4.96487168902479,FALSE,1.2738907784561
"CAN","cpi",0.3,1990,3,1989,NA,1,4.87096197158586,5.89314409178807,4.64347549432717,5.43871373969076,FALSE,1.67214348379847
"CAN","cpi",0.3,1990,3,1989,NA,1.5,2.22319684564793,4.13104776935135,4.64347549432717,3.3732540002381,FALSE,3.37193013792006
"CAN","cpi",0.3,1991,3,1991,NA,0,5.53031642817164,5.60182746373577,5.4258100696218,5.61053369942382,FALSE,0.37010063142083
"CAN","cpi",0.3,1991,3,1991,NA,0.5,7.34538483337548,8.07132274059421,5.4258100696218,7.82199295477594,FALSE,6.21043723222926
"CAN","cpi",0.3,1991,3,1990,NA,1,3.04612698446422,4.09605870429365,5.4258100696218,3.66716818384097,FALSE,4.84922133505271
"CAN","cpi",0.3,1991,3,1990,NA,1.5,3.73450370303742,5.65258038147561,5.4258100696218,4.82481948664164,TRUE,1.9180766784382
"CAN","cpi",0.3,1992,3,1992,NA,0,NA,NA,1.47496888572843,NA,NA,NA
"CAN","cpi",0.3,1992,3,1992,NA,0.5,NA,NA,1.47496888572843,NA,NA,NA
"CAN","cpi",0.3,1992,3,1991,NA,1,1.9073585522285,3.09865944833207,1.47496888572843,2.76780571233213,FALSE,2.42669994324661
"CAN","cpi",0.3,1992,3,1991,NA,1.5,6.04318351682718,7.96001412726472,1.47496888572843,7.14938182660169,FALSE,14.9688724135768
"CAN","cpi",0.3,1993,3,1993,NA,0,NA,NA,NA,NA,NA,NA
"CAN","cpi",0.3,1993,3,1993,NA,0.5,NA,NA,NA,NA,NA,NA
"CAN","cpi",0.3,1993,3,1992,NA,1,NA,NA,NA,NA,NA,NA
"CAN","cpi",0.3,1993,3,1992,NA,1.5,NA,NA,NA,NA,NA,NA
"CAN","cpi",0.3,1994,3,1994,NA,0,NA,NA,NA,NA,NA,NA
"CAN","cpi",0.3,1994,3,1994,NA,0.5,NA,NA,NA,NA,NA,NA
"CAN","cpi",0.3,1994,3,1993,NA,1,NA,NA,NA,NA,NA,NA
"CAN","cpi",0.3,1994,3,1993,NA,1.5,NA,NA,NA,NA,NA,NA
"CAN","cpi",0.3,1995,3,1995,NA,0,NA,NA,2.11688403676572,NA,NA,NA
"CAN","cpi",0.3,1995,3,1995,NA,0.5,2.04854458604474,2.62559686957144,2.11688403676572,2.51937811073084,TRUE,0.577052283526697
"CAN","cpi",0.3,1995,3,1994,NA,1,0.599489269911589,1.60612954907378,2.11688403676572,0.719396410821945,FALSE,2.46593881542487
"CAN","cpi",0.3,1995,3,1994,NA,1.5,-2.04485953497392,-0.314648962405308,2.11688403676572,-1.04654603924828,FALSE,8.67744771305725
"CAN","cpi",0.3,1996,3,1996,NA,0,1.36883821225734,1.45729334549397,1.55309584667184,1.42780748357026,FALSE,0.362176565173408
"CAN","cpi",0.3,1996,3,1996,NA,0.5,NA,NA,1.55309584667184,NA,NA,NA
"CAN","cpi",0.3,1996,3,1995,NA,1,NA,NA,1.55309584667184,NA,NA,NA
"CAN","cpi",0.3,1996,3,1995,NA,1.5,2.08391511942411,4.2231570106289,1.55309584667184,2.92232271175447,FALSE,3.6558683847827
"CAN","cpi",0.3,1997,3,1997,NA,0,1.71293883275565,1.81543969489678,1.60528783555959,1.73535847807117,FALSE,0.410075139844153
"CAN","cpi",0.3,1997,3,1997,NA,0.5,1.70847903602191,2.24569945978304,1.60528783555959,2.11078363597796,FALSE,0.832052425082031
"CAN","cpi",0.3,1997,3,1996,NA,1,1.30019997619612,2.0761278851804,1.60528783555959,0.984961337307556,TRUE,0.775927908984271
"CAN","cpi",0.3,1997,3,1996,NA,1.5,NA,NA,1.60528783555959,NA,NA,NA
"CAN","cpi",0.3,1998,3,1998,NA,0,0.93547276664448,1.03210537485846,0.988908029337191,1.0350847138471,TRUE,0.096632608213983
"CAN","cpi",0.3,1998,3,1998,NA,0.5,1.25472090407432,1.8072652860024,0.988908029337191,1.68533655437107,FALSE,1.31200973831989
"CAN","cpi",0.3,1998,3,1997,NA,1,2.59241729500702,3.38035346254916,0.988908029337191,2.25159584334757,FALSE,5.36939121231308
"CAN","cpi",0.3,1998,3,1997,NA,1.5,1.87711029622423,3.79112318940409,0.988908029337191,2.38987816876076,FALSE,4.45173365571426
"CAN","cpi",0.3,1999,3,1999,NA,0,1.67454826707583,1.769182281929,1.7107350135213,1.77618438459462,TRUE,0.0946340148531748
"CAN","cpi",0.3,1999,3,1999,NA,0.5,0.429279920738378,1.07172474985758,1.7107350135213,1.0290924799153,FALSE,2.46818843958697
"CAN","cpi",0.3,1999,3,1998,NA,1,1.74860171466631,2.74514243586065,1.7107350135213,1.85177544064205,FALSE,1.10473129589438
"CAN","cpi",0.3,1999,3,1998,NA,1.5,2.34431724620638,4.35855997465301,1.7107350135213,2.94645730787123,FALSE,3.82447767897543
"CAN","cpi",0.3,2000,3,2000,NA,0,2.60400309760939,2.69443498544623,2.6718361971244,2.7102541785615,TRUE,0.0904318878368393
"CAN","cpi",0.3,2000,3,2000,NA,0.5,1.8674438926331,2.59338179985182,2.6718361971244,2.34405201403356,FALSE,0.95009332799752
"CAN","cpi",0.3,2000,3,1999,NA,1,2.59882124641163,3.32475915363036,2.6718361971244,3.07542936781209,TRUE,0.725937907218723
"CAN","cpi",0.3,2000,3,1999,NA,1.5,1.52249009372196,3.60702078148575,2.6718361971244,2.27809035801724,TRUE,2.08453068776379
"CAN","cpi",0.3,2001,3,2001,NA,0,2.67240766205047,2.76620713928834,2.47906219852806,2.77546584984351,FALSE,0.6462150873019
"CAN","cpi",0.3,2001,3,2001,NA,0.5,1.83422130682142,2.52167362986963,2.47906219852806,2.43566755503104,TRUE,0.687452323048207
"CAN","cpi",0.3,2001,3,2000,NA,1,3.10697014611091,3.89735923402195,2.47906219852806,3.68958695319843,FALSE,2.5844117952906
"CAN","cpi",0.3,2001,3,2000,NA,1.5,1.65856936790134,3.54291338309773,2.47906219852806,3.01270789712173,TRUE,1.88434401519639
"CAN","cpi",0.3,2002,3,2002,NA,0,2.13429015096002,2.22854196850843,2.20880570551249,2.27196234986351,TRUE,0.0942518175484137
"CAN","cpi",0.3,2002,3,2002,NA,0.5,1.03710507322936,1.69587576546789,2.20880570551249,1.58345411989126,FALSE,2.12428480665167
"CAN","cpi",0.3,2002,3,2001,NA,1,1.6758752672976,2.46745644207843,2.20880570551249,2.26510423845898,TRUE,0.79158117478083
"CAN","cpi",0.3,2002,3,2001,NA,1.5,1.84991565307255,2.96395086883634,2.20880570551249,3.02058043279009,TRUE,1.1140352157638
"CAN","cpi",0.3,2003,3,2003,NA,0,2.62092045253267,2.66811633833109,2.71189071546809,2.71326702620668,FALSE,0.172265534761267
"CAN","cpi",0.3,2003,3,2003,NA,0.5,4.41273340333094,4.82695923861524,2.71189071546809,4.51432649273496,FALSE,5.2737763720353
"CAN","cpi",0.3,2003,3,2002,NA,1,3.13341930400114,3.77603744138759,2.71189071546809,3.85618281746238,FALSE,1.84698553319516
"CAN","cpi",0.3,2003,3,2002,NA,1.5,1.13977855888091,1.96124181889453,2.71189071546809,2.39402389849184,FALSE,2.96617439308094
"CAN","cpi",0.3,2004,3,2004,NA,0,1.6943164595058,1.7423799221352,1.83151661303942,1.77466852383015,FALSE,0.302739722355749
"CAN","cpi",0.3,2004,3,2004,NA,0.5,1.29877523781111,1.81458080030916,1.83151661303942,1.55260435151936,FALSE,0.564193598870234
"CAN","cpi",0.3,2004,3,2003,NA,1,1.07742896194395,1.69428239277983,1.83151661303942,1.79415792598285,FALSE,1.00895120300615
"CAN","cpi",0.3,2004,3,2003,NA,1.5,3.41709675222231,4.07871023187332,1.83151661303942,4.26699272545716,FALSE,5.19184244874497
"CAN","cpi",0.3,2005,3,2005,NA,0,2.27226209505122,2.33069853404366,2.18071628336509,2.34345353472953,FALSE,0.319995900952817
"CAN","cpi",0.3,2005,3,2005,NA,0.5,1.21781002841831,1.74075745593921,2.18071628336509,1.50321338317329,FALSE,1.7799726487377
"CAN","cpi",0.3,2005,3,2004,NA,1,0.949132872381787,1.56971006366772,2.18071628336509,1.64043962712234,FALSE,2.36630924756413
"CAN","cpi",0.3,2005,3,2004,NA,1.5,0.65937341962703,1.82969994093226,2.18071628336509,2.03393284113233,FALSE,2.1732303568276
"CAN","cpi",0.3,2006,3,2006,NA,0,1.99293664759791,2.07866318899923,1.97519342012289,2.09514376892657,FALSE,0.136421477044253
"CAN","cpi",0.3,2006,3,2006,NA,0.5,1.92159176486511,2.37996039912847,1.97519342012289,2.09436263599022,TRUE,0.458368634263357
"CAN","cpi",0.3,2006,3,2005,NA,1,2.3216779919308,2.98710961531829,1.97519342012289,2.9582912060806,FALSE,1.65538754283866
"CAN","cpi",0.3,2006,3,2005,NA,1.5,0.606039346393231,1.50368783151398,1.97519342012289,1.64885961980806,FALSE,2.24480730971761
"CAN","cpi",0.3,2007,3,2007,NA,0,2.00055549990187,2.08208338435115,2.10062087284572,2.10683622102307,FALSE,0.134492137290914
"CAN","cpi",0.3,2007,3,2007,NA,0.5,1.99836486728489,2.45988714738188,2.10062087284572,2.17629902083353,TRUE,0.461522280096991
"CAN","cpi",0.3,2007,3,2006,NA,1,0.89039245803351,1.41980670469768,2.10062087284572,1.50861692709856,FALSE,2.47459758423001
"CAN","cpi",0.3,2007,3,2006,NA,1.5,1.28875761837094,1.96637574550599,2.10062087284572,2.15918616350405,FALSE,1.06117563382
"CAN","cpi",0.3,2008,3,2008,NA,0,2.76907067380569,2.83604407238904,2.31447335265955,2.87079455148828,FALSE,1.36582288757231
"CAN","cpi",0.3,2008,3,2008,NA,0.5,1.17053621137888,1.61144391668217,2.31447335265955,1.31005314695267,FALSE,2.44956323666724
"CAN","cpi",0.3,2008,3,2007,NA,1,1.00970101364996,1.58571023504276,2.31447335265955,1.47031049982668,FALSE,2.65818955744079
"CAN","cpi",0.3,2008,3,2007,NA,1.5,1.78762782283928,2.36363704423208,2.31447335265955,2.46453195342394,TRUE,0.576009221392802
"CAN","cpi",0.3,2009,3,2009,NA,0,0.0762526982358662,0.150417024576878,0.284533874408197,0.187122346349721,FALSE,0.457355325859067
"CAN","cpi",0.3,2009,3,2009,NA,0.5,-0.096535329079616,0.382398796803998,0.284533874408197,-0.0727492620466167,TRUE,0.478934125883614
"CAN","cpi",0.3,2009,3,2008,NA,1,3.45037352911417,4.05168150604934,0.284533874408197,3.81780026356951,FALSE,9.64656413323794
"CAN","cpi",0.3,2009,3,2008,NA,1.5,1.04240135079414,1.64370932772931,0.284533874408197,1.68675152630419,FALSE,2.76664362375215
"CAN","cpi",0.3,2010,3,2010,NA,0,1.49105967138331,1.6067684670153,1.75525687020327,1.6089956646354,FALSE,0.539961376169062
"CAN","cpi",0.3,2010,3,2010,NA,0.5,2.07050365528842,2.42806626867568,1.75525687020327,1.91109502526183,FALSE,1.25826771363054
"CAN","cpi",0.3,2010,3,2009,NA,1,0.434091536647717,1.09734493166586,1.75525687020327,0.992295788494754,FALSE,2.54300179083932
"CAN","cpi",0.3,2010,3,2009,NA,1.5,0.207818068425959,0.871071463444101,1.75525687020327,0.885103052815867,FALSE,3.18949741433006
"CAN","cpi",0.3,2011,3,2011,NA,0,2.74339733263929,2.88365422151915,2.85717434028225,2.86665414062098,TRUE,0.140256888879863
"CAN","cpi",0.3,2011,3,2011,NA,0.5,2.81897203146876,3.21905624715527,2.85717434028225,2.76583381894771,TRUE,0.400084215686505
"CAN","cpi",0.3,2011,3,2010,NA,1,0.873212045387314,1.54191489739055,2.85717434028225,1.39294644169719,FALSE,4.42658697455094
"CAN","cpi",0.3,2011,3,2010,NA,1.5,1.13226464221645,1.80096749421969,2.85717434028225,1.64253060592363,FALSE,3.68643669789627
"CAN","cpi",0.3,2012,3,2012,NA,0,1.42746331154693,1.56017787570895,1.50118536134935,1.52822510849394,TRUE,0.132714564162024
"CAN","cpi",0.3,2012,3,2012,NA,0.5,1.9435715827711,2.36271623923087,1.50118536134935,1.92429021972789,FALSE,1.68310528909334
"CAN","cpi",0.3,2012,3,2011,NA,1,1.50786813019536,2.3486631691423,1.50118536134935,1.99945242447079,FALSE,0.859888664221271
"CAN","cpi",0.3,2012,3,2011,NA,1.5,1.89461380417647,2.7354088431234,1.50118536134935,2.48150957397962,FALSE,1.96487630416729
"CAN","cpi",0.3,2013,3,2013,NA,0,0.98914276279073,1.0943330566693,0.931270594714462,1.05630513423211,FALSE,0.270539345525049
"CAN","cpi",0.3,2013,3,2013,NA,0.5,1.14768094745396,1.69833308352982,0.931270594714462,1.16963454554932,FALSE,1.16896742961728
"CAN","cpi",0.3,2013,3,2012,NA,1,0.740635233292381,1.532986378416,0.931270594714462,1.08868089128742,TRUE,0.792351145123615
"CAN","cpi",0.3,2013,3,2012,NA,1.5,1.55374593580187,2.34609708092548,0.931270594714462,2.14573179530527,FALSE,2.57085211965906
"CAN","cpi",0.3,2014,3,2014,NA,0,1.91955704292833,2.03267824992464,1.87639912240215,1.99862849145116,FALSE,0.236429551356831
"CAN","cpi",0.3,2014,3,2014,NA,0.5,1.65695478351303,1.97639193213133,1.87639912240215,1.79231976082687,TRUE,0.319437148618301
"CAN","cpi",0.3,2014,3,2013,NA,1,1.0337346224658,1.84481149366422,1.87639912240215,1.40664989819898,FALSE,0.90132723902108
"CAN","cpi",0.3,2014,3,2013,NA,1.5,0.885564367167673,1.6966412383661,1.87639912240215,1.51436121777893,FALSE,1.32467082558715
"CAN","cpi",0.3,2015,3,2015,NA,0,1.11766064097342,1.24599518933033,1.11090953952792,1.2103065042478,FALSE,0.147623409629777
"CAN","cpi",0.3,2015,3,2015,NA,0.5,0.395254742744848,0.708702851891801,1.11090953952792,0.458547315718059,FALSE,1.46261007382157
"CAN","cpi",0.3,2015,3,2014,NA,1,1.52569396508788,2.11810796372755,1.11090953952792,1.57054781428135,FALSE,1.77751235738243
"CAN","cpi",0.3,2015,3,2014,NA,1.5,1.26467182308013,2.0781345534311,1.11090953952792,1.88229109541157,FALSE,1.25278354050015
"CAN","cpi",0.3,2016,3,2016,NA,0,1.30728896958324,1.38403439094473,1.41168586698797,1.41630667471992,FALSE,0.155749638627884
"CAN","cpi",0.3,2016,3,2016,NA,0.5,1.12959869178406,1.46608116214342,1.41168586698797,1.17972158292925,TRUE,0.336482470359357
"CAN","cpi",0.3,2016,3,2015,NA,1,1.71411420063642,2.3651638001263,1.41168586698797,1.8638656605167,FALSE,1.51513055277118
"CAN","cpi",0.3,2016,3,2015,NA,1.5,0.635575888460399,1.28662548795027,1.41168586698797,1.07023002715086,FALSE,1.00836496816899
"CAN","cpi",0.3,2017,3,2017,NA,0,1.41870266221795,1.494089958886,1.57888581671161,1.50492692646759,FALSE,0.317661176169806
"CAN","cpi",0.3,2017,3,2017,NA,0.5,2.02488878221312,2.33426225939125,1.57888581671161,2.09086618282141,FALSE,1.58366766432531
"CAN","cpi",0.3,2017,3,2016,NA,1,0.841896874305847,1.55628817076118,1.57888581671161,1.14652050352824,FALSE,0.778955999170853
"CAN","cpi",0.3,2017,3,2016,NA,1.5,0.84689281669859,1.56128411315392,1.57888581671161,1.26788084523026,FALSE,0.764681878048728
"CAN","cpi",0.3,2018,3,2018,NA,0,2.34529241022174,2.45128357472887,2.23316270166586,2.41317537496083,FALSE,0.426361760381066
"CAN","cpi",0.3,2018,3,2018,NA,0.5,2.35468134832489,2.71609964612166,2.23316270166586,2.52809119314695,FALSE,0.7086144311083
"CAN","cpi",0.3,2018,3,2017,NA,1,1.07599189854095,1.69398801796006,2.23316270166586,1.16800101916097,FALSE,2.15849521572139
"CAN","cpi",0.3,2018,3,2017,NA,1.5,1.6839468183772,2.32839929180684,2.23316270166586,2.07298402260093,TRUE,0.644452473429635
"CAN","cpi",0.3,2019,3,2019,NA,0,NA,NA,1.91921619871868,NA,NA,NA
"CAN","cpi",0.3,2019,3,2019,NA,0.5,1.26423664491898,1.60658547668239,1.91921619871868,1.47328806303322,FALSE,1.23557946615282
"CAN","cpi",0.3,2019,3,2018,NA,1,2.1614095392408,2.86041006781646,1.91921619871868,2.23470281046333,FALSE,1.390981501496
"CAN","cpi",0.3,2019,3,2018,NA,1.5,1.918410223189,2.61741075176467,1.91921619871868,2.32030562567512,TRUE,0.699000528575666
"CAN","cpi",0.3,2020,3,2020,NA,0,0.589749885473198,0.673469513569911,0.71139989671781,0.673588636713597,FALSE,0.192092151376426
"CAN","cpi",0.3,2020,3,2020,NA,0.5,NA,NA,0.71139989671781,NA,NA,NA
"CAN","cpi",0.3,2020,3,2019,NA,1,NA,NA,0.71139989671781,NA,NA,NA
"CAN","cpi",0.3,2020,3,2019,NA,1.5,1.38289926403722,2.03413115972878,0.71139989671781,1.77705491937904,FALSE,2.56980151660415
"CAN","cpi",0.3,2021,3,2021,NA,0,3.16611979913317,3.24516303138652,3.31148121717802,3.2525646654712,FALSE,0.268523763086211
"CAN","cpi",0.3,2021,3,2021,NA,0.5,1.93053317535802,2.23654064030602,3.31148121717802,2.16773480502693,FALSE,3.37726625601087
"CAN","cpi",0.3,2021,3,2020,NA,1,1.52986572315135,1.9991404064575,3.31148121717802,1.61070774476322,FALSE,4.21881985679337
"CAN","cpi",0.3,2021,3,2020,NA,1.5,NA,NA,3.31148121717802,NA,NA,NA
"CAN","cpi",0.3,2022,3,2022,NA,0,6.52762566866635,6.59964057192614,6.50977236228281,6.58682891800883,FALSE,0.123024350069896
"CAN","cpi",0.3,2022,3,2022,NA,0.5,5.40839913447218,5.78124936376557,6.50977236228281,5.58900513180898,FALSE,2.45434451077122
"CAN","cpi",0.3,2022,3,2021,NA,1,3.32400593894696,3.85284242001365,6.50977236228281,3.35597076522593,FALSE,8.12006488755
"CAN","cpi",0.3,2022,3,2021,NA,1.5,1.25180556445482,1.86887636253482,6.50977236228281,1.89458222166426,FALSE,13.8767736545028
"CAN","cpi",0.3,2023,3,2023,NA,0,3.8712871795029,3.93798232315695,3.78831288758619,3.96221561415741,FALSE,0.303764549130362
"CAN","cpi",0.3,2023,3,2023,NA,0.5,3.49437672247359,3.93188955724018,3.78831288758619,3.6121970566696,TRUE,0.437512834766588
"CAN","cpi",0.3,2023,3,2022,NA,1,5.47045505306059,6.04210059273085,3.78831288758619,5.4861852561408,FALSE,5.37776601245425
"CAN","cpi",0.3,2023,3,2022,NA,1.5,3.21760950719903,3.92311606098418,3.78831288758619,3.85557075258935,TRUE,0.705506553785154
"CAN","cpi",0.3,2024,3,2023,NA,1,4.57339917726849,5.39172032157133,NA,4.72280809903739,NA,NA
"CAN","cpi",0.3,2024,3,2023,NA,1.5,3.7622650507044,4.58058619500724,NA,4.36705509613113,NA,NA
"CAN","cpi",0.4,1959,3,1959,NA,0,1.06037834679108,1.24769394839529,1.19382698397654,1.24991216431293,TRUE,0.18731560160421
"CAN","cpi",0.4,1959,3,1959,NA,0.5,0.386906512542002,1.59125009708481,1.19382698397654,0.437839731590327,TRUE,1.2043435845428
"CAN","cpi",0.4,1959,3,1958,NA,1,-1.8487930376411,1.50084082694731,1.19382698397654,1.75862762885946,TRUE,3.3496338645884
"CAN","cpi",0.4,1959,3,1958,NA,1.5,-1.03828581247722,5.77677864962033,1.19382698397654,1.77407172713766,TRUE,6.81506446209756
"CAN","cpi",0.4,1960,3,1960,NA,0,0.881162847316813,1.03934667907083,1.34209404870695,1.02361304259477,FALSE,1.16734173054109
"CAN","cpi",0.4,1960,3,1960,NA,0.5,0.802055744937068,1.73542414912137,1.34209404870695,0.53898348018166,TRUE,0.933368404184302
"CAN","cpi",0.4,1960,3,1959,NA,1,0.347331805168742,3.08833682859065,1.34209404870695,3.95759373689442,TRUE,2.74100502342191
"CAN","cpi",0.4,1960,3,1959,NA,1.5,-6.28677899699728,1.03124046973871,1.34209404870695,-0.873476815404885,FALSE,8.3541980632968
"CAN","cpi",0.4,1961,3,1961,NA,0,0.88626121016928,1.07839449517588,1.00921348094007,1.00921348094007,TRUE,0.192133285006596
"CAN","cpi",0.4,1961,3,1961,NA,0.5,1.69691362022657,2.14866742130356,1.00921348094007,1.00921348094007,FALSE,2.74408759869866
"CAN","cpi",0.4,1961,3,1960,NA,1,-2.97598365669847,-0.690990483485713,1.00921348094007,0.0537704626035329,FALSE,7.95233972129871
"CAN","cpi",0.4,1961,3,1960,NA,1.5,-3.3049710670479,2.71379605756433,1.00921348094007,-0.862181798940035,TRUE,6.01876712461223
"CAN","cpi",0.4,1962,3,1962,NA,0,0.96854872333309,1.14137512258425,1.04957947883042,1.10232402731478,TRUE,0.172826399251157
"CAN","cpi",0.4,1962,3,1962,NA,0.5,0.554137488864026,0.942363158045907,1.04957947883042,0,FALSE,0.745613405130242
"CAN","cpi",0.4,1962,3,1961,NA,1,-2.86251036744423,-0.420112051957477,1.04957947883042,0,FALSE,7.34137008477973
"CAN","cpi",0.4,1962,3,1961,NA,1.5,0.202893668865564,3.00664050311498,1.04957947883042,0,TRUE,2.80374683424942
"CAN","cpi",0.4,1963,3,1963,NA,0,1.77982434527262,1.95043587963827,1.60677118395228,1.91491729531202,FALSE,0.747455405433433
"CAN","cpi",0.4,1963,3,1963,NA,0.5,1.3926877748273,1.80336151380723,1.60677118395228,0.836828714617504,TRUE,0.410673738979931
"CAN","cpi",0.4,1963,3,1962,NA,1,0.266300469931505,2.33784320006513,1.60677118395228,2.56411490415144,TRUE,2.07154273013363
"CAN","cpi",0.4,1963,3,1962,NA,1.5,0.222151236999323,2.29369396713295,1.60677118395228,0,TRUE,2.07154273013363
"CAN","cpi",0.4,1964,3,1964,NA,0,1.81042114205496,2.00129946378629,1.88764670034376,1.98877256446048,TRUE,0.190878321731331
"CAN","cpi",0.4,1964,3,1964,NA,0.5,2.10893845773435,2.36387632153218,1.88764670034376,1.38369006227607,FALSE,0.992577055099801
"CAN","cpi",0.4,1964,3,1963,NA,1,3.56077100570896,5.1362575550113,1.88764670034376,5.39044290347256,FALSE,7.15256756718634
"CAN","cpi",0.4,1964,3,1963,NA,1.5,0.894811047989185,2.47029759729152,1.88764670034376,0,TRUE,1.57548654930234
"CAN","cpi",0.4,1965,3,1965,NA,0,2.16627680426045,2.35569061332825,2.29538304394236,2.34557047418999,TRUE,0.189413809067802
"CAN","cpi",0.4,1965,3,1965,NA,0.5,2.25485897993815,2.57974704428043,2.29538304394236,1.61079447956654,TRUE,0.324888064342274
"CAN","cpi",0.4,1965,3,1964,NA,1,0.00531903297384961,1.27834357325542,2.29538304394236,2.42518862179847,FALSE,4.66315610923803
"CAN","cpi",0.4,1965,3,1964,NA,1.5,2.05876935064656,3.33179389092813,2.29538304394236,0.818102552316399,TRUE,1.27302454028157
"CAN","cpi",0.4,1966,3,1966,NA,0,3.68434632045653,3.85568714666321,3.72486065470629,3.82010987863709,TRUE,0.171340826206675
"CAN","cpi",0.4,1966,3,1966,NA,0.5,4.59190946367674,4.92078455969557,3.72486065470629,3.99123398895563,FALSE,3.219037792587
"CAN","cpi",0.4,1966,3,1965,NA,1,1.53329386969069,2.88918559540951,3.72486065470629,3.20722068745854,FALSE,4.14147525670808
"CAN","cpi",0.4,1966,3,1965,NA,1.5,2.75601082549746,4.11190255121627,3.72486065470629,1.60663824631958,TRUE,1.35589172571882
"CAN","cpi",0.4,1967,3,1967,NA,0,3.62979710963927,3.76354893780486,3.49360316391996,3.76768849328632,FALSE,0.587731647229953
"CAN","cpi",0.4,1967,3,1967,NA,0.5,2.82050963949729,3.29619745637291,3.49360316391996,2.4074547441976,FALSE,1.13370684203246
"CAN","cpi",0.4,1967,3,1966,NA,1,1.80364752666342,3.04907356347539,3.49360316391996,3.18103323070284,FALSE,2.7271913716272
"CAN","cpi",0.4,1967,3,1966,NA,1.5,5.86250115359926,7.10792719041124,3.49360316391996,4.65128160487248,FALSE,9.14175266907631
"CAN","cpi",0.4,1968,3,1968,NA,0,4.02758695113602,4.17456314686477,3.95128347779386,4.17287945672396,FALSE,0.4013211068693
"CAN","cpi",0.4,1968,3,1968,NA,0.5,4.52900793116988,4.93834185635786,3.95128347779386,4.07097205779852,FALSE,2.33508210310806
"CAN","cpi",0.4,1968,3,1967,NA,1,4.51921041757774,5.76735229116642,3.95128347779386,5.84521682123848,FALSE,3.1412316728683
"CAN","cpi",0.4,1968,3,1967,NA,1.5,3.19053861350349,4.43868048709216,3.95128347779386,2.25565858240226,TRUE,1.24814187358867
"CAN","cpi",0.4,1969,3,1969,NA,0,4.27391258475225,4.46649293294325,4.42679496126681,4.46896837073893,TRUE,0.192580348190994
"CAN","cpi",0.4,1969,3,1969,NA,0.5,3.27323121579041,3.78053910193747,4.42679496126681,2.96612019395715,FALSE,2.66149408391154
"CAN","cpi",0.4,1969,3,1968,NA,1,5.73723787968392,6.84062490643766,4.42679496126681,6.72487630040807,FALSE,5.47153008814409
"CAN","cpi",0.4,1969,3,1968,NA,1.5,5.26442051289159,6.36780753964534,4.42679496126681,4.31664452944541,FALSE,3.89547219883634
"CAN","cpi",0.4,1970,3,1970,NA,0,3.3883717505542,3.4840533891457,3.28128405769805,3.52697515579364,FALSE,0.452640614778664
"CAN","cpi",0.4,1970,3,1970,NA,0.5,5.02019723549036,5.56455697710066,3.28128405769805,4.65371085276917,FALSE,6.34073700091801
"CAN","cpi",0.4,1970,3,1969,NA,1,3.37142584351292,4.58493327221741,3.28128405769805,4.52747875087707,FALSE,1.51398004808741
"CAN","cpi",0.4,1970,3,1969,NA,1.5,2.77455564975782,3.98806307846231,3.28128405769805,2.07973847283129,TRUE,1.21350742870449
"CAN","cpi",0.4,1971,3,1971,NA,0,2.62213562112569,2.79185394845296,2.64123406634756,2.8393232579169,TRUE,0.169718327327269
