isdrw/probabilistic-benchmark-forecasts/results/skewed_t_quantiles_prediction/mean 0 assumption/skewed_t_prediction_ar1_2026-02-26_11-36-46.csv
"country","target","tau","target_year","target_quarter","forecast_year","forecast_quarter","horizon","lower_bound","upper_bound","truth_value","prediction","covered","IS"
"CAN","cpi",0.1,1959,3,1959,NA,0,1.1312802955071,1.17124940416832,1.19382698397654,1.18954599151176,FALSE,0.0901415082350531
"CAN","cpi",0.1,1959,3,1959,NA,0.5,0.441533253790768,0.628684227459296,1.19382698397654,0.545308327160925,FALSE,1.44302376592907
"CAN","cpi",0.1,1959,3,1958,NA,1,-0.0786793194713584,0.693693450621358,1.19382698397654,1.13295114249046,FALSE,1.88378062199312
"CAN","cpi",0.1,1959,3,1958,NA,1.5,-1.07043895580586,-0.00708556910609515,1.19382698397654,0.717422088079289,FALSE,3.73204794910562
"CAN","cpi",0.1,1960,3,1960,NA,0,0.979289263293533,1.01799216024444,1.34209404870695,1.02361304259477,FALSE,0.758929315756488
"CAN","cpi",0.1,1960,3,1960,NA,0.5,0.475830446881011,0.612057793150558,1.34209404870695,0.648611007713657,FALSE,1.75853013639487
"CAN","cpi",0.1,1960,3,1959,NA,1,1.55945784618648,2.2067571535562,1.34209404870695,2.37666873185636,FALSE,1.13032996843534
"CAN","cpi",0.1,1960,3,1959,NA,1.5,-1.56713545983644,-0.734890728738391,1.34209404870695,-0.349092179567277,FALSE,5.44776645875437
"CAN","cpi",0.1,1961,3,1961,NA,0,0.952094833675486,0.996655815441068,1.00921348094007,1.00921348094007,FALSE,0.0724669050967005
"CAN","cpi",0.1,1961,3,1961,NA,0.5,0.843746088484257,0.969547757502063,1.00921348094007,1.00921348094007,FALSE,0.213947721102269
"CAN","cpi",0.1,1961,3,1960,NA,1,-0.456947113471505,-0.0939388786868038,1.00921348094007,0.0537704626035329,FALSE,2.81445792284442
"CAN","cpi",0.1,1961,3,1960,NA,1.5,-0.502467180388449,-0.102794268223696,1.00921348094007,-0.332316386156399,FALSE,2.87080124363979
"CAN","cpi",0.1,1962,3,1962,NA,0,1.02641049015699,1.06219378834162,1.04957947883042,1.0653801125483,TRUE,0.035783298184636
"CAN","cpi",0.1,1962,3,1962,NA,0.5,0.00384198153671247,0.11863547877209,1.04957947883042,0,FALSE,2.18355794180943
"CAN","cpi",0.1,1962,3,1961,NA,1,-0.477337658402684,-0.130047636916759,1.04957947883042,0,FALSE,2.9686836120352
"CAN","cpi",0.1,1962,3,1961,NA,1.5,-0.218012784481764,0.157709011660614,1.04957947883042,0,FALSE,2.35765616763083
"CAN","cpi",0.1,1963,3,1963,NA,0,1.7893903339099,1.82548537228939,1.60677118395228,1.83024954277348,FALSE,0.441915371618635
"CAN","cpi",0.1,1963,3,1963,NA,0.5,0.886360370620643,0.989176685966173,1.60677118395228,0.836828714617504,FALSE,1.47524853309244
"CAN","cpi",0.1,1963,3,1962,NA,1,1.90836303636357,2.20989226685229,1.60677118395228,1.60935100695326,FALSE,0.971733346958244
"CAN","cpi",0.1,1963,3,1962,NA,1.5,0.26210757856918,0.563636809057904,1.60677118395228,0,FALSE,2.6196056191429
"CAN","cpi",0.1,1964,3,1964,NA,0,1.88460397492525,1.92503164218887,1.88764670034376,1.95194648443024,TRUE,0.0404276672636188
"CAN","cpi",0.1,1964,3,1964,NA,0.5,1.22282723945383,1.28798092315372,1.88764670034376,1.27307816843398,FALSE,1.39774429967776
"CAN","cpi",0.1,1964,3,1963,NA,1,3.33599883522731,3.56184276606848,1.88764670034376,3.20172332637508,FALSE,3.44440423058239
"CAN","cpi",0.1,1964,3,1963,NA,1.5,0.052722349294801,0.278566280135971,1.88764670034376,0,FALSE,3.80157819796959
"CAN","cpi",0.1,1965,3,1965,NA,0,2.23127687795949,2.27040778192907,2.29538304394236,2.29800189469823,FALSE,0.0946314862213288
"CAN","cpi",0.1,1965,3,1965,NA,0.5,1.32848135782243,1.39434072863097,2.29538304394236,1.39443218256826,FALSE,2.06817562705606
"CAN","cpi",0.1,1965,3,1964,NA,1,1.24246836351591,1.44084350282948,2.29538304394236,1.48078368039448,FALSE,2.09735189734218
"CAN","cpi",0.1,1965,3,1964,NA,1.5,0.260661643358036,0.459036782671607,2.29538304394236,0.293257399533461,FALSE,4.27914460880413
"CAN","cpi",0.1,1966,3,1966,NA,0,3.74472993805437,3.777193313672,3.72486065470629,3.77511268244847,FALSE,0.0766173386133686
"CAN","cpi",0.1,1966,3,1966,NA,0.5,3.30788046712864,3.37919259647973,3.72486065470629,3.37743719728421,FALSE,0.839463369854556
"CAN","cpi",0.1,1966,3,1965,NA,1,2.23142754603726,2.42382765699528,3.72486065470629,1.98486973144544,FALSE,3.08358455031582
"CAN","cpi",0.1,1966,3,1965,NA,1.5,0.521240316118606,0.713640427076628,3.72486065470629,0.578640834001038,FALSE,6.88400061680171
"CAN","cpi",0.1,1967,3,1967,NA,0,3.65743591069548,3.68136790968411,3.49360316391996,3.68375770714608,FALSE,0.388004769600897
"CAN","cpi",0.1,1967,3,1967,NA,0.5,2.01379586610215,2.12620581286165,3.49360316391996,2.11054708048259,FALSE,3.15107072688908
"CAN","cpi",0.1,1967,3,1966,NA,1,2.03058912144276,2.24327013088404,3.49360316391996,2.02003307533501,FALSE,2.99119886063222
"CAN","cpi",0.1,1967,3,1966,NA,1.5,1.50691343962584,1.71959444906712,3.49360316391996,1.71558536379673,FALSE,4.15492259800314
"CAN","cpi",0.1,1968,3,1968,NA,0,4.04844864405694,4.07528699198952,3.95128347779386,4.07085717819357,FALSE,0.242760939628322
"CAN","cpi",0.1,1968,3,1968,NA,0.5,3.46837691113864,3.56372367747445,3.95128347779386,3.50732233276501,FALSE,0.956590767045606
"CAN","cpi",0.1,1968,3,1967,NA,1,3.89005066128646,4.11216788644316,3.95128347779386,3.66303679301692,TRUE,0.222117225156698
"CAN","cpi",0.1,1968,3,1967,NA,1.5,0.629924735319387,0.852041960476084,3.95128347779386,0.834881519045053,FALSE,7.10932059697397
"CAN","cpi",0.1,1969,3,1969,NA,0,4.47569782966853,4.51481908170259,4.42679496126681,4.52532640008253,FALSE,0.147794292926762
"CAN","cpi",0.1,1969,3,1969,NA,0.5,2.62875819977027,2.72042574907342,4.42679496126681,2.69090620784681,FALSE,3.88359913195514
"CAN","cpi",0.1,1969,3,1968,NA,1,4.09564014536828,4.31561388586002,4.42679496126681,4.0779393276339,FALSE,0.467042796951276
"CAN","cpi",0.1,1969,3,1968,NA,1.5,1.46709681804924,1.68707055854098,4.42679496126681,1.61221871335458,FALSE,6.30825019099359
"CAN","cpi",0.1,1970,3,1970,NA,0,3.56269392824748,3.58201423370486,3.28128405769805,3.55878605435979,FALSE,0.644675573345005
"CAN","cpi",0.1,1970,3,1970,NA,0.5,3.65624422257622,3.77274044127175,3.28128405769805,3.74969277403504,FALSE,0.949741029535913
"CAN","cpi",0.1,1970,3,1969,NA,1,3.20165920244402,3.4315247491025,3.28128405769805,3.11186608282608,TRUE,0.229865546658477
"CAN","cpi",0.1,1970,3,1969,NA,1.5,0.610515673729815,0.840381220388292,3.28128405769805,0.764941977259638,FALSE,5.65409407401349
"CAN","cpi",0.1,1971,3,1971,NA,0,2.80042928709669,2.82666752997489,2.64123406634756,2.81514553288871,FALSE,0.38000540009848
"CAN","cpi",0.1,1971,3,1971,NA,0.5,1.05436310885521,1.20134345892436,2.64123406634756,1.11673730766521,FALSE,3.34673725545404
"CAN","cpi",0.1,1971,3,1970,NA,1,2.0136494810648,2.22837590928547,2.64123406634756,1.92043450460395,FALSE,1.13218899946976
"CAN","cpi",0.1,1971,3,1970,NA,1.5,1.51313438737054,1.72786081559122,2.64123406634756,1.70194075200601,FALSE,2.24444476323477
"CAN","cpi",0.1,1972,3,1972,NA,0,5.06817991103397,5.09121446046448,4.83230569625923,5.04828762155974,FALSE,0.547199471152164
"CAN","cpi",0.1,1972,3,1972,NA,0.5,4.15325823538492,4.33648656224086,4.83230569625923,4.09602385359717,FALSE,1.28504862467455
"CAN","cpi",0.1,1972,3,1971,NA,1,4.15727179707381,4.34972107956848,4.83230569625923,4.16812111633716,FALSE,1.26485954180744
"CAN","cpi",0.1,1972,3,1971,NA,1.5,0.393015983593332,0.605998134576251,4.83230569625923,0.692030005351089,FALSE,9.60477673250065
"CAN","cpi",0.1,1973,3,1973,NA,0,7.27242696119172,7.30129415407796,7.12388603531779,7.25096132226983,FALSE,0.358958139272748
"CAN","cpi",0.1,1973,3,1973,NA,0.5,5.32904551665844,5.49536220678517,7.12388603531779,5.30446017290082,FALSE,3.78525853131034
"CAN","cpi",0.1,1973,3,1972,NA,1,4.88856954315054,5.05697408112012,7.12388603531779,4.92276035792265,FALSE,4.76154221396441
"CAN","cpi",0.1,1973,3,1972,NA,1.5,1.5544520013629,1.79806480004453,7.12388603531779,1.79187879074203,FALSE,12.0787710992889
"CAN","cpi",0.1,1974,3,1974,NA,0,10.1335990066148,10.1540908485999,10.2717243737774,10.148911210151,FALSE,0.281899675712928
"CAN","cpi",0.1,1974,3,1974,NA,0.5,7.96228154106264,8.14076244996433,10.2717243737774,7.90446289245049,FALSE,4.91395185070854
"CAN","cpi",0.1,1974,3,1973,NA,1,7.20735721542339,7.43537900934381,10.2717243737774,7.30476096756609,FALSE,6.53101149266177
"CAN","cpi",0.1,1974,3,1973,NA,1.5,2.2498499752796,2.55367323431918,10.2717243737774,2.5663290958369,FALSE,17.4550480133912
"CAN","cpi",0.1,1975,3,1975,NA,0,10.1490394587173,10.176316568984,10.0232981493341,10.1746571103793,FALSE,0.306702242229377
"CAN","cpi",0.1,1975,3,1975,NA,0.5,8.03310107550199,8.23315916859115,10.0232981493341,8.07152306914465,FALSE,4.17814471696243
"CAN","cpi",0.1,1975,3,1974,NA,1,7.6603575345545,7.93597699439043,10.0232981493341,7.8187778356914,FALSE,4.91411091526635
"CAN","cpi",0.1,1975,3,1974,NA,1.5,3.04920805488507,3.40779813527935,10.0232981493341,3.64914274700436,FALSE,15.0597012227382
"CAN","cpi",0.1,1976,3,1976,NA,0,7.16390790349673,7.19070492176186,7.22784311401172,7.18995143043805,FALSE,0.109326334375922
"CAN","cpi",0.1,1976,3,1976,NA,0.5,6.62254055958078,6.83262601966174,7.22784311401172,6.61333364285308,FALSE,1.08834566974758
"CAN","cpi",0.1,1976,3,1975,NA,1,8.24635043566471,8.45838934387026,7.22784311401172,8.584971075903,FALSE,2.47538851187888
"CAN","cpi",0.1,1976,3,1975,NA,1.5,2.38908063118904,2.89761206663673,7.22784311401172,3.14738569995591,FALSE,10.131267096281
"CAN","cpi",0.1,1977,3,1977,NA,0,7.47390310377228,7.50186456341198,7.58101410153764,7.50176944503946,FALSE,0.203849322141182
"CAN","cpi",0.1,1977,3,1977,NA,0.5,6.41583762664634,6.63034830021539,7.58101410153764,6.40571638826874,FALSE,2.32710134317405
"CAN","cpi",0.1,1977,3,1976,NA,1,4.01371004144915,4.31759401787073,7.58101410153764,4.04909286077014,FALSE,7.5559286067925
"CAN","cpi",0.1,1977,3,1976,NA,1.5,2.11169083199176,2.60378924539853,7.58101410153764,2.59432747727492,FALSE,11.5525980937159
"CAN","cpi",0.1,1978,3,1978,NA,0,8.55861240936114,8.5897608179136,8.50208927062595,8.59104847384149,FALSE,0.156755383519556
"CAN","cpi",0.1,1978,3,1978,NA,0.5,7.34833619549025,7.54966941769871,8.50208927062595,7.34113908733495,FALSE,2.31782178426898
"CAN","cpi",0.1,1978,3,1977,NA,1,5.63391329861656,5.97900711574742,8.50208927062595,5.87902868518151,FALSE,5.95194305019425
"CAN","cpi",0.1,1978,3,1977,NA,1.5,3.4276505907656,3.92902716149914,8.50208927062595,3.89293485842214,FALSE,10.6637368132376
"CAN","cpi",0.1,1979,3,1979,NA,0,8.45830571035653,8.48869590313149,8.65147652410481,8.48651410143776,FALSE,0.392124906049004
"CAN","cpi",0.1,1979,3,1979,NA,0.5,7.46758631136738,7.67008233412914,8.65147652410481,7.46186747064873,FALSE,2.38337200048547
"CAN","cpi",0.1,1979,3,1978,NA,1,6.68589489079776,7.04691506727946,8.65147652410481,6.93686058379669,FALSE,3.92671230276026
"CAN","cpi",0.1,1979,3,1978,NA,1.5,3.64696824813341,4.10033988207387,8.65147652410481,3.9179710204728,FALSE,10.5670086162314
"CAN","cpi",0.1,1980,3,1980,NA,0,9.4002114419638,9.43659985456691,9.5171912664748,9.43711128155219,FALSE,0.215480439065086
"CAN","cpi",0.1,1980,3,1980,NA,0.5,7.89469223304338,8.0852435581315,9.5171912664748,7.89144076485851,FALSE,3.37265734362878
"CAN","cpi",0.1,1980,3,1979,NA,1,5.71715294204954,6.08698764809474,9.5171912664748,5.69387794711803,FALSE,7.99250941355643
"CAN","cpi",0.1,1980,3,1979,NA,1.5,4.08718281156487,4.53208548261334,9.5171912664748,4.27199048256738,FALSE,11.5229155240739
"CAN","cpi",0.1,1981,3,1981,NA,0,11.5790515706846,11.617568502028,11.5813425032741,11.617538759154,TRUE,0.038516931343473
"CAN","cpi",0.1,1981,3,1981,NA,0.5,11.3050506869258,11.4950837040677,11.5813425032741,11.3038259100907,FALSE,0.381719237600681
"CAN","cpi",0.1,1981,3,1980,NA,1,8.57329050029484,8.917211066263,11.5813425032741,8.22922472590444,FALSE,6.26421264821514
"CAN","cpi",0.1,1981,3,1980,NA,1.5,4.51977627165596,4.86369683762413,11.5813425032741,4.54818367546621,FALSE,15.2720220451904
"CAN","cpi",0.1,1982,3,1982,NA,0,10.1379221231752,10.1743156784436,10.1124203763629,10.1863972123348,FALSE,0.0930641037401156
"CAN","cpi",0.1,1982,3,1982,NA,0.5,9.31427542605099,9.4634780498529,10.1124203763629,9.38011590167964,FALSE,1.59129668271312
"CAN","cpi",0.1,1982,3,1981,NA,1,9.23677742738183,9.54700399632769,10.1124203763629,8.92774959502704,FALSE,1.56670741346865
"CAN","cpi",0.1,1982,3,1981,NA,1.5,7.3186073431765,7.62883391212236,10.1124203763629,7.65688060941457,FALSE,5.82930760059161
"CAN","cpi",0.1,1983,3,1983,NA,0,5.77539919547171,5.80450551126436,5.67091787896303,5.79231449937116,FALSE,0.261287019145259
"CAN","cpi",0.1,1983,3,1983,NA,0.5,4.32298904185784,4.48532316919891,5.67091787896303,4.48935486750539,FALSE,2.79698903792801
"CAN","cpi",0.1,1983,3,1982,NA,1,6.96592292690505,7.30076024761738,5.67091787896303,6.68360843662591,FALSE,3.21262631613903
"CAN","cpi",0.1,1983,3,1982,NA,1.5,5.57863085357719,5.93131476664174,5.67091787896303,5.80492936344428,TRUE,0.352683913064549
"CAN","cpi",0.1,1984,3,1984,NA,0,4.14351705420397,4.17134688864746,4.19799576814029,4.1863442377944,FALSE,0.0870495666497827
"CAN","cpi",0.1,1984,3,1984,NA,0.5,4.2785448134839,4.42739995369652,4.19799576814029,4.37368919035215,FALSE,0.32785301875398
"CAN","cpi",0.1,1984,3,1983,NA,1,5.13978688541706,5.50825702215963,4.19799576814029,4.8252398586334,FALSE,2.46133928624651
"CAN","cpi",0.1,1984,3,1983,NA,1.5,1.8180190366456,2.35565451346616,4.19799576814029,1.63651850095104,FALSE,4.63172715387418
"CAN","cpi",0.1,1985,3,1985,NA,0,3.84103751327676,3.86966810519007,3.86444262005169,3.87488963413478,TRUE,0.028630591913311
"CAN","cpi",0.1,1985,3,1985,NA,0.5,3.58521527518793,3.75978297558178,3.86444262005169,3.66954460168274,FALSE,0.407144688104774
"CAN","cpi",0.1,1985,3,1984,NA,1,2.87064340583383,3.29556053993083,3.86444262005169,2.51760914226531,FALSE,1.68909953436558
"CAN","cpi",0.1,1985,3,1984,NA,1.5,2.9363657086538,3.54636808621088,3.86444262005169,2.74468923002786,FALSE,1.3168346749811
"CAN","cpi",0.1,1986,3,1986,NA,0,4.0560093141934,4.08255530154582,4.08685396749431,4.09009381020777,FALSE,0.0360985783490665
"CAN","cpi",0.1,1986,3,1986,NA,0.5,4.14919418696873,4.3044142799279,4.08685396749431,4.18867743652029,FALSE,0.293753914013429
"CAN","cpi",0.1,1986,3,1985,NA,1,3.32393508506411,3.77370746321218,4.08685396749431,2.96346536694636,FALSE,1.14565349877502
"CAN","cpi",0.1,1986,3,1985,NA,1.5,2.6227124490337,3.15962968299194,4.08685396749431,2.65645514502224,FALSE,2.59741564396351
"CAN","cpi",0.1,1987,3,1987,NA,0,4.27978194197686,4.30184266763039,4.23980729277887,4.30382748919395,FALSE,0.110893279426842
"CAN","cpi",0.1,1987,3,1987,NA,0.5,3.60887913793333,3.75901295262342,4.23980729277887,3.60745044359556,FALSE,1.2185656817022
"CAN","cpi",0.1,1987,3,1986,NA,1,3.87505786226939,4.36380105287597,4.23980729277887,3.48954394276064,TRUE,0.488743190606574
"CAN","cpi",0.1,1987,3,1986,NA,1.5,2.9715053338037,3.49811762638094,4.23980729277887,3.05061614822702,FALSE,2.17481155123931
"CAN","cpi",0.1,1988,3,1988,NA,0,3.94202543820386,3.96364289127559,3.92899537638065,3.96651200874969,FALSE,0.0505731460121916
"CAN","cpi",0.1,1988,3,1988,NA,0.5,3.27730097080513,3.42724082254058,3.92899537638065,3.27588434563216,FALSE,1.26494997138006
"CAN","cpi",0.1,1988,3,1987,NA,1,3.49035435898374,3.89613626972961,3.92899537638065,3.36557853238272,FALSE,0.4788021477482
"CAN","cpi",0.1,1988,3,1987,NA,1.5,1.63168163756739,2.20128302379729,3.92899537638065,2.22890665988493,FALSE,4.40896216974848
"CAN","cpi",0.1,1989,3,1989,NA,0,4.93982298142833,4.95973573840059,4.82821664544208,4.96224122245117,FALSE,0.267926836941708
"CAN","cpi",0.1,1989,3,1989,NA,0.5,4.08349023578672,4.22283692285891,4.82821664544208,4.15246181762677,FALSE,1.48463495947922
"CAN","cpi",0.1,1989,3,1988,NA,1,3.12571988217712,3.48553645284657,4.82821664544208,3.35061776773985,FALSE,3.3435503319928
"CAN","cpi",0.1,1989,3,1988,NA,1.5,1.4693666738652,2.00493947845281,4.82821664544208,2.03293210635829,FALSE,6.80952206456375
"CAN","cpi",0.1,1990,3,1990,NA,0,4.46220280924057,4.48494398257439,4.64347549432717,4.49116732458404,FALSE,0.375033421673323
"CAN","cpi",0.1,1990,3,1990,NA,0.5,4.67659642205142,4.81724267076465,4.64347549432717,4.80635133900141,FALSE,0.214248310322677
"CAN","cpi",0.1,1990,3,1989,NA,1,4.22524496741202,4.57113610809682,4.64347549432717,4.45332930526201,FALSE,0.506645332307802
"CAN","cpi",0.1,1990,3,1989,NA,1.5,2.16313438647126,2.71162398148604,4.64347549432717,2.93994143296931,FALSE,4.84149295688397
"CAN","cpi",0.1,1991,3,1991,NA,0,5.56854394727492,5.59067538490456,5.4258100696218,5.5966415351231,FALSE,0.339317832414355
"CAN","cpi",0.1,1991,3,1991,NA,0.5,7.8356535792295,7.97415651958499,5.4258100696218,8.0424604401558,FALSE,5.49371073948372
"CAN","cpi",0.1,1991,3,1990,NA,1,2.69755891021114,3.0544549834907,5.4258100696218,3.00766385389873,FALSE,5.62657404245977
"CAN","cpi",0.1,1991,3,1990,NA,1.5,2.68521983179001,3.17750524196547,5.4258100696218,3.42461322750937,FALSE,5.48851836052284
"CAN","cpi",0.1,1992,3,1992,NA,0,1.43686456118918,1.45926629534802,1.47496888572843,1.46118300949616,FALSE,0.0572963794486436
"CAN","cpi",0.1,1992,3,1992,NA,0.5,1.42750988278152,1.55985213150637,1.47496888572843,1.2379681755847,TRUE,0.132342248724846
"CAN","cpi",0.1,1992,3,1991,NA,1,1.71077487354846,1.96849520868182,1.47496888572843,1.8723365291461,FALSE,0.781733641400087
"CAN","cpi",0.1,1992,3,1991,NA,1.5,6.47113920627634,6.72885954140969,1.47496888572843,6.89933696838937,FALSE,11.360321047462
"CAN","cpi",0.1,1993,3,1993,NA,0,1.77068877315488,1.79545849459086,1.84351085411351,1.80220567555903,FALSE,0.131552742597437
"CAN","cpi",0.1,1993,3,1993,NA,0.5,2.4088172118066,2.54273153937131,1.84351085411351,2.21818498229346,FALSE,1.39015067799378
"CAN","cpi",0.1,1993,3,1992,NA,1,1.29102374055892,1.54051831562721,1.84351085411351,1.3520429918812,FALSE,0.922811327260063
"CAN","cpi",0.1,1993,3,1992,NA,1.5,1.24694838808642,1.58981624757338,1.84351085411351,0.933485487336859,FALSE,0.906633651798364
"CAN","cpi",0.1,1994,3,1994,NA,0,0.189718953653445,0.211610485037913,0.161630694655448,0.202109657487191,FALSE,0.0843098847133513
"CAN","cpi",0.1,1994,3,1994,NA,0.5,-0.420967504948603,-0.262653488186304,0.161630694655448,-0.572639707462777,FALSE,1.10116775641064
"CAN","cpi",0.1,1994,3,1993,NA,1,1.0146935657936,1.25680127363637,0.161630694655448,1.14110533076836,FALSE,2.13780297703867
"CAN","cpi",0.1,1994,3,1993,NA,1.5,1.95701293851556,2.28864827297801,0.161630694655448,1.65023462295923,FALSE,4.32137365415158
"CAN","cpi",0.1,1995,3,1995,NA,0,2.1493859718367,2.16436773462042,2.11688403676572,2.14851249512314,FALSE,0.0872082851636949
"CAN","cpi",0.1,1995,3,1995,NA,0.5,2.72443882016793,2.86052593079705,2.11688403676572,2.60072443309243,FALSE,1.48620885152293
"CAN","cpi",0.1,1995,3,1994,NA,1,1.30376882675656,1.54469796345888,2.11688403676572,1.43373972642191,FALSE,1.51245374405085
"CAN","cpi",0.1,1995,3,1994,NA,1.5,-0.93133483778314,-0.562702860941504,2.11688403676572,-1.26611333424577,FALSE,6.32326952730212
"CAN","cpi",0.1,1996,3,1996,NA,0,1.43267126852154,1.44679171381864,1.55309584667184,1.43665270425039,FALSE,0.250351851637549
"CAN","cpi",0.1,1996,3,1996,NA,0.5,1.36938546115042,1.51385546277573,1.55309584667184,1.23276330365037,FALSE,0.231670854727779
"CAN","cpi",0.1,1996,3,1995,NA,1,0.626200027152547,0.847207825760306,1.55309584667184,0.729753259393914,FALSE,1.78964784507784
"CAN","cpi",0.1,1996,3,1995,NA,1.5,2.72879116384194,3.19110367567093,1.55309584667184,2.31904839186543,FALSE,3.07496877220698
"CAN","cpi",0.1,1997,3,1997,NA,0,1.66484246481173,1.6878555617005,1.60528783555959,1.67949478723595,FALSE,0.155356717449078
"CAN","cpi",0.1,1997,3,1997,NA,0.5,2.0661669753222,2.20852652887716,1.60528783555959,1.93291992098407,FALSE,1.16653541969409
"CAN","cpi",0.1,1997,3,1996,NA,1,0.545754606915791,0.713470909711585,1.60528783555959,0.614630451620954,FALSE,2.14953169356914
"CAN","cpi",0.1,1997,3,1996,NA,1.5,1.26724740717572,1.75795277490785,1.60528783555959,0.962161564198873,TRUE,0.490705367732134
"CAN","cpi",0.1,1998,3,1998,NA,0,0.948412244507074,0.972003230878185,0.988908029337191,0.967063680387792,FALSE,0.0611572051689023
"CAN","cpi",0.1,1998,3,1998,NA,0.5,1.48926730255082,1.63313870488116,0.988908029337191,1.34897459866337,FALSE,1.25578089836063
"CAN","cpi",0.1,1998,3,1997,NA,1,0.760089860848642,0.903961263178988,0.988908029337191,0.792689959246129,FALSE,0.332641993793019
"CAN","cpi",0.1,1998,3,1997,NA,1.5,1.51902951002564,2.05941364023253,0.988908029337191,1.28384000376946,FALSE,1.71843186507012
"CAN","cpi",0.1,1999,3,1999,NA,0,1.75423752557875,1.77753665426681,1.7107350135213,1.76864633894604,FALSE,0.119971377704627
"CAN","cpi",0.1,1999,3,1999,NA,0.5,0.88108145488899,1.04752549486675,1.7107350135213,0.732099710600531,FALSE,1.64024297032119
"CAN","cpi",0.1,1999,3,1998,NA,1,0.253535941632319,0.442817120220009,1.7107350135213,0.369052571959629,FALSE,3.00687649703499
"CAN","cpi",0.1,1999,3,1998,NA,1.5,1.69711202831254,2.24874993484575,1.7107350135213,1.26847007023129,TRUE,0.551637906533215
"CAN","cpi",0.1,2000,3,2000,NA,0,2.68651568445893,2.71007670150001,2.6718361971244,2.70257810674034,FALSE,0.0561821000067027
"CAN","cpi",0.1,2000,3,2000,NA,0.5,2.05696920721068,2.2613379559891,2.6718361971244,1.95948305880876,FALSE,1.11658706241242
"CAN","cpi",0.1,2000,3,1999,NA,1,2.04270832253389,2.26537622016934,2.6718361971244,2.16154661985999,FALSE,1.12591229086892
"CAN","cpi",0.1,2000,3,1999,NA,1.5,0.736250729453878,1.32797872535638,2.6718361971244,0.50278387806376,FALSE,3.57807793316477
"CAN","cpi",0.1,2001,3,2001,NA,0,2.71735636471847,2.73893524121797,2.47906219852806,2.73154549386087,FALSE,0.551121468033741
"CAN","cpi",0.1,2001,3,2001,NA,0.5,1.7647464022644,1.9520859976496,2.47906219852806,1.65861828263926,FALSE,1.35839781955957
"CAN","cpi",0.1,2001,3,2000,NA,1,2.7366018587781,2.9239414541633,2.47906219852806,2.84133895788986,FALSE,0.759649951496399
"CAN","cpi",0.1,2001,3,2000,NA,1.5,1.32683796223953,1.80504460119764,2.47906219852806,1.14191354447969,FALSE,1.97602352191461
"CAN","cpi",0.1,2002,3,2002,NA,0,2.31334991536281,2.3355788521336,2.20880570551249,2.31282527465204,FALSE,0.254549403104838
"CAN","cpi",0.1,2002,3,2002,NA,0.5,1.42523198702209,1.62566409078367,2.20880570551249,1.24731948634093,FALSE,1.49630235871451
"CAN","cpi",0.1,2002,3,2001,NA,1,0.54315012305889,0.766777278050563,2.20880570551249,0.695491540886875,FALSE,3.42813477157373
"CAN","cpi",0.1,2002,3,2001,NA,1.5,0.648432831677352,1.12633403297104,2.20880570551249,0.47606161882134,FALSE,2.88339380694135
"CAN","cpi",0.1,2003,3,2003,NA,0,2.75134644776386,2.76814279196716,2.71189071546809,2.75460397277825,FALSE,0.104475749305018
"CAN","cpi",0.1,2003,3,2003,NA,0.5,4.28246935935162,4.42443748326875,2.71189071546809,4.16096970792426,FALSE,3.63214288810275
"CAN","cpi",0.1,2003,3,2002,NA,1,3.35706360837398,3.56104801882705,2.71189071546809,3.27791908188471,FALSE,1.63770195024394
"CAN","cpi",0.1,2003,3,2002,NA,1.5,1.67304558680453,2.10546199629178,2.71189071546809,1.51830012756901,FALSE,1.78003578543461
"CAN","cpi",0.1,2004,3,2004,NA,0,1.75160643535419,1.76468574740636,1.83151661303942,1.76153103901938,FALSE,0.161592346792304
"CAN","cpi",0.1,2004,3,2004,NA,0.5,1.53495115197838,1.70482529617681,1.83151661303942,1.38945604480572,FALSE,0.451410403893128
"CAN","cpi",0.1,2004,3,2003,NA,1,1.10350769841439,1.31368815139732,1.83151661303942,1.01874619159597,FALSE,1.36091036774315
"CAN","cpi",0.1,2004,3,2003,NA,1.5,2.83176892399232,3.16115988024909,1.83151661303942,2.99105359104411,FALSE,2.55217386948543
"CAN","cpi",0.1,2005,3,2005,NA,0,2.33773374720497,2.35156817692812,2.18071628336509,2.35062481142317,FALSE,0.362762127145095
"CAN","cpi",0.1,2005,3,2005,NA,0.5,1.58812974731542,1.73907437321727,2.18071628336509,1.4552837212303,FALSE,1.13237109289701
"CAN","cpi",0.1,2005,3,2004,NA,1,0.859587664866441,1.05400044576044,2.18071628336509,0.79648671202377,FALSE,2.69822575334877
"CAN","cpi",0.1,2005,3,2004,NA,1.5,0.619197738449404,1.02512413789824,2.18071628336509,1.13680951350797,FALSE,2.97390894493073
"CAN","cpi",0.1,2006,3,2006,NA,0,2.05602098103329,2.08088135186201,1.97519342012289,2.06448042324351,FALSE,0.204477172851844
"CAN","cpi",0.1,2006,3,2006,NA,0.5,1.90453286256454,2.05659348641343,1.97519342012289,1.77073314120205,TRUE,0.152060623848891
"CAN","cpi",0.1,2006,3,2005,NA,1,2.72866276100491,2.89408542276682,1.97519342012289,2.58808204718941,FALSE,1.83979897483308
"CAN","cpi",0.1,2006,3,2005,NA,1.5,0.579295804010118,0.896612805439991,1.97519342012289,0.762075268916728,FALSE,2.71416281183631
"CAN","cpi",0.1,2007,3,2007,NA,0,2.09713218662135,2.12202876228611,2.10062087284572,2.10807340507977,TRUE,0.0248965756647568
"CAN","cpi",0.1,2007,3,2007,NA,0.5,2.21647359169399,2.3506454003123,2.10062087284572,2.09760271424675,FALSE,0.391622294947791
"CAN","cpi",0.1,2007,3,2006,NA,1,0.607805430093514,0.80831805970517,2.10062087284572,0.438862458623872,FALSE,3.07229665881288
"CAN","cpi",0.1,2007,3,2006,NA,1.5,1.07659330629791,1.33189132940235,2.10062087284572,1.08089197775225,FALSE,1.96358589742304
"CAN","cpi",0.1,2008,3,2008,NA,0,2.91178378538707,2.93342170375467,2.31447335265955,2.9146675338117,FALSE,1.34899443553986
"CAN","cpi",0.1,2008,3,2008,NA,0.5,1.16421406123397,1.29854694666352,2.31447335265955,1.04562745221765,FALSE,2.39194712097628
"CAN","cpi",0.1,2008,3,2007,NA,1,0.554011103127977,0.770957762573441,2.31447335265955,0.365030180386173,FALSE,3.64698130408127
"CAN","cpi",0.1,2008,3,2007,NA,1.5,2.03765345112084,2.2546001105663,2.31447335265955,2.04107389452134,FALSE,0.34999830854157
"CAN","cpi",0.1,2009,3,2009,NA,0,0.307335028875638,0.335367034997344,0.284533874408197,0.272618836216429,FALSE,0.0787012382715742
"CAN","cpi",0.1,2009,3,2009,NA,0.5,-0.722797805316318,-0.571275716582595,0.284533874408197,-0.807426338518035,FALSE,2.05332117982437
"CAN","cpi",0.1,2009,3,2008,NA,1,3.47567650323105,3.71433566566313,0.284533874408197,3.28355694764985,FALSE,7.33008722648286
"CAN","cpi",0.1,2009,3,2008,NA,1.5,0.685722146260797,0.924381308692868,0.284533874408197,0.703376955238912,FALSE,1.13018865543785
"CAN","cpi",0.1,2010,3,2010,NA,0,1.76322409353585,1.78810648747015,1.75525687020327,1.72708036400674,FALSE,0.0425873346733612
"CAN","cpi",0.1,2010,3,2010,NA,0.5,1.54544209264705,1.68120501750089,1.75525687020327,1.42243266198166,FALSE,0.300322597525795
"CAN","cpi",0.1,2010,3,2009,NA,1,0.7822625537299,1.04209524140988,1.75525687020327,0.515829437079458,FALSE,1.84463630722085
"CAN","cpi",0.1,2010,3,2009,NA,1.5,-0.690717791649715,-0.430885103969734,1.75525687020327,-0.666399632006793,FALSE,5.11792596361999
"CAN","cpi",0.1,2011,3,2011,NA,0,2.85728749426694,2.88907003912017,2.85717434028225,2.82871118728348,FALSE,0.0320339981525514
"CAN","cpi",0.1,2011,3,2011,NA,0.5,2.72582438233868,2.87598921534851,2.85717434028225,2.59305645945043,TRUE,0.150164833009827
"CAN","cpi",0.1,2011,3,2010,NA,1,1.84308276118457,2.1297814574183,2.85717434028225,1.58194849312145,FALSE,1.90312732482028
"CAN","cpi",0.1,2011,3,2010,NA,1.5,1.09943938806812,1.38613808430184,2.85717434028225,1.00866231757724,FALSE,3.55566815396795
"CAN","cpi",0.1,2012,3,2012,NA,0,1.4943649106072,1.52500761467877,1.50118536134935,1.46681751445377,TRUE,0.0306427040715729
"CAN","cpi",0.1,2012,3,2012,NA,0.5,1.69645016620969,1.86428584782152,1.50118536134935,1.63866597060755,FALSE,0.601757470190366
"CAN","cpi",0.1,2012,3,2011,NA,1,1.10219356720059,1.37011251728828,1.50118536134935,0.848240548987433,FALSE,0.559191936890049
"CAN","cpi",0.1,2012,3,2011,NA,1.5,1.68459356761148,1.95251251769917,1.50118536134935,1.68384299188515,FALSE,0.675492741781311
"CAN","cpi",0.1,2013,3,2013,NA,0,1.05306051390619,1.0775400222313,0.931270594714462,1.03083115414128,FALSE,0.295123773195619
"CAN","cpi",0.1,2013,3,2013,NA,0.5,1.17074315133564,1.36392688157628,0.931270594714462,1.00184063196526,FALSE,0.725344967176592
"CAN","cpi",0.1,2013,3,2012,NA,1,-0.0465248197516155,0.207099402790084,0.931270594714462,-0.272545990872386,FALSE,1.86289353792921
"CAN","cpi",0.1,2013,3,2012,NA,1.5,0.965881469815649,1.23783768057286,0.931270594714462,0.958608804136071,FALSE,0.348869266537623
"CAN","cpi",0.1,2014,3,2014,NA,0,2.00859973187729,2.03331067552088,1.87639912240215,1.98613278510701,FALSE,0.318490075810563
"CAN","cpi",0.1,2014,3,2014,NA,0.5,1.8767165136646,1.99493575890252,1.87639912240215,1.95223885123801,FALSE,0.118924559154478
"CAN","cpi",0.1,2014,3,2013,NA,1,0.917931506284353,1.17520032792485,1.87639912240215,0.688658687283847,FALSE,1.81548836492339
"CAN","cpi",0.1,2014,3,2013,NA,1.5,0.815619725383222,1.07288854702372,1.87639912240215,0.891594199884501,FALSE,2.04284787803701
"CAN","cpi",0.1,2015,3,2015,NA,0,1.27051209921094,1.29709200184869,1.11090953952792,1.24641866377254,FALSE,0.381252257488911
"CAN","cpi",0.1,2015,3,2015,NA,0.5,0.0204416484528955,0.122291815413427,1.11090953952792,0.198117162089698,FALSE,2.29877844277051
"CAN","cpi",0.1,2015,3,2014,NA,1,0.279688784999431,0.517106414095018,1.11090953952792,0.532106072596766,FALSE,1.55698013005758
"CAN","cpi",0.1,2015,3,2014,NA,1.5,1.71579579272725,1.96834413777283,1.11090953952792,1.81035920235268,FALSE,1.59674001882188
"CAN","cpi",0.1,2016,3,2016,NA,0,1.46360099361684,1.48762912863129,1.41168586698797,1.44184957394589,FALSE,0.139395083078619
"CAN","cpi",0.1,2016,3,2016,NA,0.5,0.653716263917268,0.767464640219644,1.41168586698797,0.843100047406122,FALSE,1.5453511024542
"CAN","cpi",0.1,2016,3,2015,NA,1,1.43402425200316,1.65552994337656,1.41168586698797,1.23484853770273,FALSE,0.271146546962722
"CAN","cpi",0.1,2016,3,2015,NA,1.5,-0.232253914890821,0.0312211217860575,1.41168586698797,0.107462752177283,FALSE,3.3311744704589
"CAN","cpi",0.1,2017,3,2017,NA,0,1.53394236678178,1.55213513916203,1.57888581671161,1.51739925639673,FALSE,0.0776387224904253
"CAN","cpi",0.1,2017,3,2017,NA,0.5,1.69731918740094,1.80467251722634,1.57888581671161,1.88170269277887,FALSE,0.370538598023908
"CAN","cpi",0.1,2017,3,2016,NA,1,0.636541218575235,0.868952647485204,1.57888581671161,0.418338346755244,FALSE,1.81004069385754
"CAN","cpi",0.1,2017,3,2016,NA,1.5,0.183867569577954,0.452671931192,1.57888581671161,0.52557608733729,FALSE,2.77150188499096
"CAN","cpi",0.1,2018,3,2018,NA,0,2.42645603568524,2.44892854709988,2.23316270166586,2.40611378585155,FALSE,0.452013253679931
"CAN","cpi",0.1,2018,3,2018,NA,0.5,2.44990173953725,2.58081626491834,2.23316270166586,2.62207020824204,FALSE,0.612556831761957
"CAN","cpi",0.1,2018,3,2017,NA,1,0.522858280605308,0.654886426870966,2.23316270166586,0.40411310060617,FALSE,3.63930875692098
"CAN","cpi",0.1,2018,3,2017,NA,1.5,1.17786200573341,1.44805592237875,2.23316270166586,1.53787524714926,FALSE,2.01487564839447
"CAN","cpi",0.1,2019,3,2019,NA,0,2.03566539837304,2.06255950898679,1.91921619871868,2.01142839895124,FALSE,0.285670109845664
"CAN","cpi",0.1,2019,3,2019,NA,0.5,1.29886567501722,1.44245232827445,1.91921619871868,1.51883708040586,FALSE,1.20306192091108
"CAN","cpi",0.1,2019,3,2018,NA,1,1.61283037735249,1.82248371233598,1.91921619871868,1.41942984101848,FALSE,0.424614415833935
"CAN","cpi",0.1,2019,3,2018,NA,1.5,1.69432734722166,1.95227200444188,1.91921619871868,2.06105171090012,TRUE,0.25794465722022
"CAN","cpi",0.1,2020,3,2020,NA,0,0.743795623048365,0.764791288124549,0.71139989671781,0.726179852791075,FALSE,0.0929861680329714
"CAN","cpi",0.1,2020,3,2020,NA,0.5,0.886556507958919,1.00611759100771,0.71139989671781,1.07225945048052,FALSE,0.508797996917921
"CAN","cpi",0.1,2020,3,2019,NA,1,1.19910534790071,1.32606950930875,0.71139989671781,1.01913964327806,FALSE,1.21075405292559
"CAN","cpi",0.1,2020,3,2019,NA,1.5,0.851290093110212,1.10727569917739,0.71139989671781,1.22761645350518,FALSE,0.566852709161402
"CAN","cpi",0.1,2021,3,2021,NA,0,3.31306048934185,3.33338540068405,3.31148121717802,3.30988753190892,FALSE,0.0238344050395902
"CAN","cpi",0.1,2021,3,2021,NA,0.5,2.33437861514403,2.43302560372683,3.31148121717802,2.4899040786607,FALSE,2.05077057402989
"CAN","cpi",0.1,2021,3,2020,NA,1,1.18302024218639,1.32971857952608,3.31148121717802,1.1979067045331,FALSE,4.55061530989957
"CAN","cpi",0.1,2021,3,2020,NA,1.5,0.298818766262067,0.55444180606141,3.31148121717802,0.670626810990653,FALSE,6.38237728672515
"CAN","cpi",0.1,2022,3,2022,NA,0,6.54856804160567,6.56886769276986,6.50977236228281,6.54555789178856,FALSE,0.106512271881656
"CAN","cpi",0.1,2022,3,2022,NA,0.5,5.78239996980695,5.89394584881757,6.50977236228281,5.96468998606203,FALSE,1.48004924226672
"CAN","cpi",0.1,2022,3,2021,NA,1,3.35576484635206,3.52592002130844,6.50977236228281,3.42105264822981,FALSE,6.80093815489943
"CAN","cpi",0.1,2022,3,2021,NA,1.5,1.57166521003704,1.8338845426168,6.50977236228281,1.93276265883962,FALSE,10.6530811540598
"CAN","cpi",0.1,2023,3,2023,NA,0,3.96668344961808,3.98453326687884,3.78831288758619,3.97188685244318,FALSE,0.414228843998293
"CAN","cpi",0.1,2023,3,2023,NA,0.5,2.65270056526099,2.76961112249904,3.78831288758619,2.8392001035463,FALSE,2.38069225743171
"CAN","cpi",0.1,2023,3,2022,NA,1,2.64721770597535,2.88138124031964,3.78831288758619,2.86884991489758,FALSE,2.24956719493663
"CAN","cpi",0.1,2023,3,2022,NA,1.5,3.45504689678155,3.75870177903168,3.78831288758619,4.03317247515909,FALSE,0.3694573457046
"CAN","cpi",0.1,2024,3,2023,NA,1,2.68224811356106,2.91604028198837,NA,2.89946754179362,NA,NA
"CAN","cpi",0.1,2024,3,2023,NA,1.5,0.605429774544971,0.90708083895109,NA,1.17991651782151,NA,NA
"CAN","cpi",0.2,1959,3,1959,NA,0,1.11287856664141,1.19339350246339,1.19382698397654,1.18954599151176,FALSE,0.081598639604856
"CAN","cpi",0.2,1959,3,1959,NA,0.5,0.346131035694004,0.725188446280034,1.19382698397654,0.545308327160925,FALSE,1.5506537548273
"CAN","cpi",0.2,1959,3,1958,NA,1,-0.432298667902134,1.12454358575127,1.19382698397654,1.13295114249046,FALSE,1.73005074921658
"CAN","cpi",0.2,1959,3,1958,NA,1.5,-1.55478361006669,0.589826605911797,1.19382698397654,0.717422088079289,FALSE,3.65461116114034
"CAN","cpi",0.2,1960,3,1960,NA,0,0.961052446712864,1.03891574076054,1.34209404870695,1.02361304259477,FALSE,0.835809063913708
"CAN","cpi",0.2,1960,3,1960,NA,0.5,0.409897761552756,0.685854794581179,1.34209404870695,0.648611007713657,FALSE,1.91655516834285
"CAN","cpi",0.2,1960,3,1959,NA,1,1.25798566304978,2.5604095378311,1.34209404870695,2.37666873185636,TRUE,1.30242387478132
"CAN","cpi",0.2,1960,3,1959,NA,1.5,-1.95016886983599,-0.273618087198815,1.34209404870695,-0.349092179567277,FALSE,5.7158311224016
"CAN","cpi",0.2,1961,3,1961,NA,0,0.931374622829266,1.02104408352496,1.00921348094007,1.00921348094007,TRUE,0.0896694606956931
"CAN","cpi",0.2,1961,3,1961,NA,0.5,0.783049035010346,1.03786380171786,1.00921348094007,1.00921348094007,TRUE,0.25481476670751
"CAN","cpi",0.2,1961,3,1960,NA,1,-0.629805330722471,0.104595582120813,1.00921348094007,0.0537704626035329,FALSE,2.99594565989143
"CAN","cpi",0.2,1961,3,1960,NA,1.5,-0.709698142318926,0.101999669059282,1.00921348094007,-0.332316386156399,FALSE,3.07973234108018
"CAN","cpi",0.2,1962,3,1962,NA,0,1.00946682524173,1.08145526597737,1.04957947883042,1.0653801125483,TRUE,0.0719884407356308
"CAN","cpi",0.2,1962,3,1962,NA,0.5,-0.0575430817259961,0.175166917944138,1.04957947883042,0,FALSE,2.41874140188583
"CAN","cpi",0.2,1962,3,1961,NA,1,-0.643369139714436,0.0594513668214582,1.04957947883042,0,FALSE,3.17814078655829
"CAN","cpi",0.2,1962,3,1961,NA,1.5,-0.410440300324447,0.352610939602441,1.04957947883042,0,FALSE,2.50547258799682
"CAN","cpi",0.2,1963,3,1963,NA,0,1.7723625506184,1.84497887279824,1.60677118395228,1.83024954277348,FALSE,0.486594738845138
"CAN","cpi",0.2,1963,3,1963,NA,0.5,0.830056951618991,1.03826984968626,1.60677118395228,0.836828714617504,FALSE,1.62946623373233
"CAN","cpi",0.2,1963,3,1962,NA,1,1.73531812043823,2.34474100080206,1.60677118395228,1.60935100695326,FALSE,0.930790221578685
"CAN","cpi",0.2,1963,3,1962,NA,1.5,0.0949968153385568,0.704419695702387,1.60677118395228,0,FALSE,2.86530160098857
"CAN","cpi",0.2,1964,3,1964,NA,0,1.86617598314082,1.94770572996167,1.88764670034376,1.95194648443024,TRUE,0.0815297468208547
"CAN","cpi",0.2,1964,3,1964,NA,0.5,1.1899980251666,1.32224854517279,1.88764670034376,1.27307816843398,FALSE,1.54574590793361
"CAN","cpi",0.2,1964,3,1963,NA,1,3.20864645945551,3.66446372817552,1.88764670034376,3.20172332637508,FALSE,3.75831666649938
"CAN","cpi",0.2,1964,3,1963,NA,1.5,-0.0682501643666035,0.387567104353404,1.88764670034376,0,FALSE,4.2060162586959
"CAN","cpi",0.2,1965,3,1965,NA,0,2.2134709880047,2.29240105748085,2.29538304394236,2.29800189469823,FALSE,0.0863850356299189
"CAN","cpi",0.2,1965,3,1965,NA,0.5,1.29595090822267,1.42948982773553,2.29538304394236,1.39443218256826,FALSE,2.29827196002993
"CAN","cpi",0.2,1965,3,1964,NA,1,1.14953006429485,1.54961858511156,2.29538304394236,1.48078368039448,FALSE,2.26449966789371
"CAN","cpi",0.2,1965,3,1964,NA,1.5,0.157160689944109,0.557249210760818,2.29538304394236,0.293257399533461,FALSE,4.74542310377056
"CAN","cpi",0.2,1966,3,1966,NA,0,3.72909319912354,3.7944813737913,3.72486065470629,3.77511268244847,FALSE,0.0759695357108785
"CAN","cpi",0.2,1966,3,1966,NA,0.5,3.27264108172097,3.41720289718691,3.72486065470629,3.37743719728421,FALSE,0.913706209264389
"CAN","cpi",0.2,1966,3,1965,NA,1,2.11872898702588,2.50775686837646,3.72486065470629,1.98486973144544,FALSE,3.43178734717516
"CAN","cpi",0.2,1966,3,1965,NA,1.5,0.421258195244598,0.810286076595175,3.72486065470629,0.578640834001038,FALSE,7.67546432662836
"CAN","cpi",0.2,1967,3,1967,NA,0,3.64585756372122,3.69424703411898,3.49360316391996,3.68375770714608,FALSE,0.429025469900908
"CAN","cpi",0.2,1967,3,1967,NA,0.5,1.95935921115029,2.18568063393038,3.49360316391996,2.11054708048259,FALSE,3.49612774775404
"CAN","cpi",0.2,1967,3,1966,NA,1,1.91567462170943,2.34438091906442,3.49360316391996,2.02003307533501,FALSE,3.30176190949384
"CAN","cpi",0.2,1967,3,1966,NA,1.5,1.40356466127429,1.83227095862927,3.49360316391996,1.71558536379673,FALSE,4.5820368105817
"CAN","cpi",0.2,1968,3,1968,NA,0,4.03522215565204,4.0894734392363,3.95128347779386,4.07085717819357,FALSE,0.264097978229712
"CAN","cpi",0.2,1968,3,1968,NA,0.5,3.41930854602562,3.61144584592861,3.95128347779386,3.50732233276501,FALSE,1.04173137956612
"CAN","cpi",0.2,1968,3,1967,NA,1,3.76126864644296,4.20977426278045,3.95128347779386,3.66303679301692,TRUE,0.448505616337481
"CAN","cpi",0.2,1968,3,1967,NA,1.5,0.520335351061572,0.968840967399054,3.95128347779386,0.834881519045053,FALSE,7.90461189232449
"CAN","cpi",0.2,1969,3,1969,NA,0,4.45749188071962,4.53620845726246,4.42679496126681,4.52532640008253,FALSE,0.155458875174848
"CAN","cpi",0.2,1969,3,1969,NA,0.5,2.5835031447738,2.76807376812211,4.42679496126681,2.69090620784681,FALSE,4.33137360621007
"CAN","cpi",0.2,1969,3,1968,NA,1,3.97697829142531,4.41967196228746,4.42679496126681,4.0779393276339,FALSE,0.460501168310536
"CAN","cpi",0.2,1969,3,1968,NA,1.5,1.35829758500628,1.80099125586842,4.42679496126681,1.61221871335458,FALSE,7.00720293435813
"CAN","cpi",0.2,1970,3,1970,NA,0,3.55226424703335,3.59140732434072,3.28128405769805,3.55878605435979,FALSE,0.716593550645626
"CAN","cpi",0.2,1970,3,1970,NA,0.5,3.59959001167434,3.83402813033891,3.28128405769805,3.74969277403504,FALSE,1.0302030036053
"CAN","cpi",0.2,1970,3,1969,NA,1,3.07454150313563,3.53721776141917,3.28128405769805,3.11186608282608,TRUE,0.462676258283545
"CAN","cpi",0.2,1970,3,1969,NA,1.5,0.496967467876501,0.959643726160046,3.28128405769805,0.764941977259638,FALSE,6.26677708712855
"CAN","cpi",0.2,1971,3,1971,NA,0,2.78705251751803,2.84021188947073,2.64123406634756,2.81514553288871,FALSE,0.417705499878861
"CAN","cpi",0.2,1971,3,1971,NA,0.5,0.978877273851877,1.27510577261299,2.64123406634756,1.11673730766521,FALSE,3.71154923309754
"CAN","cpi",0.2,1971,3,1970,NA,1,1.89444963640273,2.32651720787852,2.64123406634756,1.92043450460395,FALSE,1.21885971764839
"CAN","cpi",0.2,1971,3,1970,NA,1.5,1.40924239544642,1.84130996692221,2.64123406634756,1.70194075200601,FALSE,2.43187782003917
"CAN","cpi",0.2,1972,3,1972,NA,0,5.05513054358813,5.10162768065445,4.83230569625923,5.04828762155974,FALSE,0.603559255388577
"CAN","cpi",0.2,1972,3,1972,NA,0.5,4.05274595262535,4.42152410744813,4.83230569625923,4.09602385359717,FALSE,1.39573212685052
"CAN","cpi",0.2,1972,3,1971,NA,1,4.05476566779056,4.44217907068593,4.83230569625923,4.16812111633716,FALSE,1.36272996682863
"CAN","cpi",0.2,1972,3,1971,NA,1.5,0.294680659623655,0.723583120629021,4.83230569625923,0.692030005351089,FALSE,10.7007089000809
"CAN","cpi",0.2,1973,3,1973,NA,0,7.25616890994807,7.31440706209199,7.12388603531779,7.25096132226983,FALSE,0.388945338719618
"CAN","cpi",0.2,1973,3,1973,NA,0.5,5.23911292501364,5.57371274065935,7.12388603531779,5.30446017290082,FALSE,4.2100330522918
"CAN","cpi",0.2,1973,3,1972,NA,1,4.79986572785899,5.13954946890494,7.12388603531779,4.92276035792265,FALSE,5.30052515707808
"CAN","cpi",0.2,1973,3,1972,NA,1.5,1.43794268875443,1.92805901248266,7.12388603531779,1.79187879074203,FALSE,13.4796838808161
"CAN","cpi",0.2,1974,3,1974,NA,0,10.1235722988865,10.1648169208283,10.2717243737774,10.148911210151,FALSE,0.308513254314634
"CAN","cpi",0.2,1974,3,1974,NA,0.5,7.86429118755565,8.22354040514247,10.2717243737774,7.90446289245049,FALSE,5.47970913917419
"CAN","cpi",0.2,1974,3,1973,NA,1,7.09029340471883,7.54986582127504,10.2717243737774,7.30476096756609,FALSE,7.26421879781216
"CAN","cpi",0.2,1974,3,1973,NA,1.5,2.10539791418136,2.7166287838592,10.2717243737774,2.5663290958369,FALSE,19.4989698444734
"CAN","cpi",0.2,1975,3,1975,NA,0,10.135952053492,10.1908317159356,10.0232981493341,10.1746571103793,FALSE,0.336514422838407
"CAN","cpi",0.2,1975,3,1975,NA,0.5,7.92779803002171,8.33039107020821,10.0232981493341,8.07152306914465,FALSE,4.63486073800128
"CAN","cpi",0.2,1975,3,1974,NA,1,7.52201775226544,8.07751321858577,10.0232981493341,7.8187778356914,FALSE,5.4199577931912
"CAN","cpi",0.2,1975,3,1974,NA,1.5,2.88370461263829,3.6076913108349,10.0232981493341,3.64914274700436,FALSE,16.7630037944447
"CAN","cpi",0.2,1976,3,1976,NA,0,7.15108893543672,7.20500106416353,7.22784311401172,7.18995143043805,FALSE,0.111017253347271
"CAN","cpi",0.2,1976,3,1976,NA,0.5,6.50984272546757,6.93249191982856,7.22784311401172,6.61333364285308,FALSE,1.16102717981887
"CAN","cpi",0.2,1976,3,1975,NA,1,8.14940166599201,8.57686433736339,7.22784311401172,8.584971075903,FALSE,2.73135905132211
"CAN","cpi",0.2,1976,3,1975,NA,1.5,2.15536180856585,3.17995495262884,7.22784311401172,3.14738569995591,FALSE,11.1443135475202
"CAN","cpi",0.2,1977,3,1977,NA,0,7.46055646264718,7.51681033918412,7.58101410153764,7.50176944503946,FALSE,0.216763282420748
"CAN","cpi",0.2,1977,3,1977,NA,0.5,6.30073665141968,6.73228813179834,7.58101410153764,6.40571638826874,FALSE,2.55336640472692
"CAN","cpi",0.2,1977,3,1976,NA,1,3.85272336668811,4.46416143891444,7.58101410153764,4.04909286077014,FALSE,8.40356972878433
"CAN","cpi",0.2,1977,3,1976,NA,1.5,1.87647128060795,2.86650282487167,7.58101410153764,2.59432747727492,FALSE,12.7763097359287
"CAN","cpi",0.2,1978,3,1978,NA,0,8.54380256322759,8.60646686192818,8.50208927062595,8.59104847384149,FALSE,0.166947530204697
"CAN","cpi",0.2,1978,3,1978,NA,0.5,7.24039951902601,7.6454418873336,8.50208927062595,7.34113908733495,FALSE,2.54666082653846
"CAN","cpi",0.2,1978,3,1977,NA,1,5.46429372382599,6.15898553744586,8.50208927062595,5.87902868518151,FALSE,6.55245114657008
"CAN","cpi",0.2,1978,3,1977,NA,1.5,3.18684536288968,4.19559273528441,8.50208927062595,3.89293485842214,FALSE,11.7749887107486
"CAN","cpi",0.2,1979,3,1979,NA,0,8.44370991854196,8.50485362769552,8.65147652410481,8.48651410143776,FALSE,0.427700950176775
"CAN","cpi",0.2,1979,3,1979,NA,0.5,7.35908806977365,7.76647076696524,8.65147652410481,7.46186747064873,FALSE,2.61989709004051
"CAN","cpi",0.2,1979,3,1978,NA,1,6.50809118039476,7.23490881252793,8.65147652410481,6.93686058379669,FALSE,4.26823691107537
"CAN","cpi",0.2,1979,3,1978,NA,1.5,3.42028697969253,4.33384055830332,8.65147652410481,3.9179710204728,FALSE,11.7076434931145
"CAN","cpi",0.2,1980,3,1980,NA,0,9.38286904728822,9.45607589805965,9.5171912664748,9.43711128155219,FALSE,0.225995271809293
"CAN","cpi",0.2,1980,3,1980,NA,0.5,7.79268074254195,8.17603473382042,9.5171912664748,7.89144076485851,FALSE,3.73624532291442
"CAN","cpi",0.2,1980,3,1979,NA,1,5.51847208366757,6.26250171855613,9.5171912664748,5.69387794711803,FALSE,8.88075350468522
"CAN","cpi",0.2,1980,3,1979,NA,1.5,3.8584242445733,4.7550238149523,9.5171912664748,4.27199048256738,FALSE,12.8020181991852
"CAN","cpi",0.2,1981,3,1981,NA,0,11.560670827534,11.6381604636322,11.5813425032741,11.617538759154,TRUE,0.0774896360982105
"CAN","cpi",0.2,1981,3,1981,NA,0.5,11.2033989810636,11.5857121858101,11.5813425032741,11.3038259100907,TRUE,0.382313204746517
"CAN","cpi",0.2,1981,3,1980,NA,1,8.37539974719035,9.07060529593807,11.5813425032741,8.22922472590444,FALSE,6.97204856708789
"CAN","cpi",0.2,1981,3,1980,NA,1.5,4.3381767311397,5.03338227988741,11.5813425032741,4.54818367546621,FALSE,17.0651061072145
"CAN","cpi",0.2,1982,3,1982,NA,0,10.1210497194691,10.1943071701789,10.1124203763629,10.1863972123348,FALSE,0.0948308084752085
"CAN","cpi",0.2,1982,3,1982,NA,0.5,9.23782148875456,9.53856766656799,10.1124203763629,9.38011590167964,FALSE,1.73537795230081
"CAN","cpi",0.2,1982,3,1981,NA,1,9.05869948701142,9.68592674801443,10.1124203763629,8.92774959502704,FALSE,1.6934613318743
"CAN","cpi",0.2,1982,3,1981,NA,1.5,7.16721141638337,7.79443867738638,10.1124203763629,7.65688060941457,FALSE,6.42218150844442
"CAN","cpi",0.2,1983,3,1983,NA,0,5.76066196922327,5.81952909652978,5.67091787896303,5.79231449937116,FALSE,0.283227352957101
"CAN","cpi",0.2,1983,3,1983,NA,0.5,4.24569482239197,4.57227999270299,5.67091787896303,4.48935486750539,FALSE,3.07317988596114
"CAN","cpi",0.2,1983,3,1982,NA,1,6.77641591334158,7.45224985500305,5.67091787896303,6.68360843662591,FALSE,3.43957902760784
"CAN","cpi",0.2,1983,3,1982,NA,1.5,5.4035576273642,6.11390690908469,5.67091787896303,5.80492936344428,TRUE,0.71034928172049
"CAN","cpi",0.2,1984,3,1984,NA,0,4.13075637397911,4.18684301489139,4.19799576814029,4.1863442377944,FALSE,0.0839685240345207
"CAN","cpi",0.2,1984,3,1984,NA,0.5,4.20462371995433,4.50444384105197,4.19799576814029,4.37368919035215,FALSE,0.316390000632742
"CAN","cpi",0.2,1984,3,1983,NA,1,4.93114406750398,5.67489823620169,4.19799576814029,4.8252398586334,FALSE,2.57662491710694
"CAN","cpi",0.2,1984,3,1983,NA,1.5,1.52255429888464,2.60480700804567,4.19799576814029,1.63651850095104,FALSE,5.06522460939758
"CAN","cpi",0.2,1985,3,1985,NA,0,3.82759177958064,3.88519280360449,3.86444262005169,3.87488963413478,TRUE,0.057601024023854
"CAN","cpi",0.2,1985,3,1985,NA,0.5,3.49629694984734,3.84823844812843,3.86444262005169,3.66954460168274,FALSE,0.392451928089254
"CAN","cpi",0.2,1985,3,1984,NA,1,2.63029622618268,3.48789850176791,3.86444262005169,2.51760914226531,FALSE,1.79896257129469
"CAN","cpi",0.2,1985,3,1984,NA,1.5,2.60169804152855,3.82944648402214,3.86444262005169,2.74468923002786,FALSE,1.31523878256747
"CAN","cpi",0.2,1986,3,1986,NA,0,4.04366708109842,4.09708603768087,4.08685396749431,4.09009381020777,TRUE,0.0534189565824477
"CAN","cpi",0.2,1986,3,1986,NA,0.5,4.06795960530635,4.38037803471309,4.08685396749431,4.18867743652029,TRUE,0.312418429406733
"CAN","cpi",0.2,1986,3,1985,NA,1,3.06988938368311,3.97753272583088,4.08685396749431,2.96346536694636,FALSE,1.18094644630636
"CAN","cpi",0.2,1986,3,1985,NA,1.5,2.33704445042797,3.41728706355926,4.08685396749431,2.65645514502224,FALSE,2.75415987296891
"CAN","cpi",0.2,1987,3,1987,NA,0,4.2693368540379,4.31371837898234,4.23980729277887,4.30382748919395,FALSE,0.118205428092006
"CAN","cpi",0.2,1987,3,1987,NA,0.5,3.52855133244576,3.83059384796982,4.23980729277887,3.60745044359556,FALSE,1.32507612754668
"CAN","cpi",0.2,1987,3,1986,NA,1,3.59917235961467,4.58540047260583,4.23980729277887,3.48954394276064,TRUE,0.986228112991161
"CAN","cpi",0.2,1987,3,1986,NA,1.5,2.69331048665683,3.75295783331368,4.23980729277887,3.05061614822702,FALSE,2.27677099531983
"CAN","cpi",0.2,1988,3,1988,NA,0,3.93182808873463,3.97531828743557,3.92899537638065,3.96651200874969,FALSE,0.0505719795858761
"CAN","cpi",0.2,1988,3,1988,NA,0.5,3.19707736157553,3.49872966553156,3.92899537638065,3.27588434563216,FALSE,1.37731658107876
"CAN","cpi",0.2,1988,3,1987,NA,1,3.2678370134647,4.08451713470086,3.92899537638065,3.36557853238272,TRUE,0.816680121236155
"CAN","cpi",0.2,1988,3,1987,NA,1.5,1.36102628930408,2.50694704994848,3.92899537638065,2.22890665988493,FALSE,4.70104157672484
"CAN","cpi",0.2,1989,3,1989,NA,0,4.93042410824715,4.97048468103412,4.82821664544208,4.96224122245117,FALSE,0.295579229799655
"CAN","cpi",0.2,1989,3,1989,NA,0.5,4.01263963229648,4.29357753587985,4.82821664544208,4.15246181762677,FALSE,1.61753567748894
"CAN","cpi",0.2,1989,3,1988,NA,1,2.94662798931,3.67146483722115,4.82821664544208,3.35061776773985,FALSE,3.61671636846346
"CAN","cpi",0.2,1989,3,1988,NA,1.5,1.21496345832283,2.29242493329381,4.82821664544208,2.03293210635829,FALSE,7.41694075534165
"CAN","cpi",0.2,1990,3,1990,NA,0,4.45162273924744,4.4973822206193,4.64347549432717,4.49116732458404,FALSE,0.410992665641532
"CAN","cpi",0.2,1990,3,1990,NA,0.5,4.6090114430593,4.89198728797832,4.64347549432717,4.80635133900141,TRUE,0.282975844919026
"CAN","cpi",0.2,1990,3,1989,NA,1,4.05401516981177,4.7505670348708,4.64347549432717,4.45332930526201,TRUE,0.69655186505903
"CAN","cpi",0.2,1990,3,1989,NA,1.5,1.91006184461226,3.0146880060201,4.64347549432717,2.93994143296931,FALSE,5.17659488217552
"CAN","cpi",0.2,1991,3,1991,NA,0,5.55824489374211,5.6027763221383,5.4258100696218,5.5966415351231,FALSE,0.375618488696968
"CAN","cpi",0.2,1991,3,1991,NA,0.5,7.77200537987216,8.05106519080217,5.4258100696218,8.0424604401558,FALSE,6.14454808655591
"CAN","cpi",0.2,1991,3,1990,NA,1,2.52517646858732,3.24329635234685,5.4258100696218,3.00766385389873,FALSE,6.1744041769469
"CAN","cpi",0.2,1991,3,1990,NA,1.5,2.45909104077682,3.45101136158917,5.4258100696218,3.42461322750937,FALSE,5.92891709089392
"CAN","cpi",0.2,1992,3,1992,NA,0,1.42625398376829,1.47132153215052,1.47496888572843,1.46118300949616,FALSE,0.0541859323270154
"CAN","cpi",0.2,1992,3,1992,NA,0.5,1.35194533086251,1.61994483617791,1.47496888572843,1.2379681755847,TRUE,0.267999505315395
"CAN","cpi",0.2,1992,3,1991,NA,1,1.58197627215814,2.10230163538705,1.47496888572843,1.8723365291461,FALSE,0.787843829303187
"CAN","cpi",0.2,1992,3,1991,NA,1.5,6.34966703305852,6.86999239628743,1.47496888572843,6.89933696838937,FALSE,12.7070707315541
"CAN","cpi",0.2,1993,3,1993,NA,0,1.75916432087717,1.80900515014345,1.84351085411351,1.80220567555903,FALSE,0.136105089191437
"CAN","cpi",0.2,1993,3,1993,NA,0.5,2.33236737418092,2.60354188369236,1.84351085411351,2.21818498229346,FALSE,1.49331580967996
"CAN","cpi",0.2,1993,3,1992,NA,1,1.1603286257386,1.66248116735449,1.84351085411351,1.3520429918812,FALSE,0.954726758513455
"CAN","cpi",0.2,1993,3,1992,NA,1.5,1.0522567974882,1.74452011736442,1.84351085411351,0.933485487336859,FALSE,0.939740161748944
"CAN","cpi",0.2,1994,3,1994,NA,0,0.178714924444017,0.222839141832965,0.161630694655448,0.202109657487191,FALSE,0.0868347918603718
"CAN","cpi",0.2,1994,3,1994,NA,0.5,-0.510115240819813,-0.190015159332734,0.161630694655448,-0.572639707462777,FALSE,1.19921471645753
"CAN","cpi",0.2,1994,3,1993,NA,1,0.892116437300597,1.3802174495218,0.161630694655448,1.14110533076836,FALSE,2.31431536883408
"CAN","cpi",0.2,1994,3,1993,NA,1.5,1.76860981618099,2.43822611039909,0.161630694655448,1.65023462295923,FALSE,4.68706409803195
"CAN","cpi",0.2,1995,3,1995,NA,0,2.14134754810045,2.17165485016319,2.11688403676572,2.14851249512314,FALSE,0.0914660803995815
"CAN","cpi",0.2,1995,3,1995,NA,0.5,2.64718293251219,2.92194184293589,2.11688403676572,2.60072443309243,FALSE,1.60050614978989
"CAN","cpi",0.2,1995,3,1994,NA,1,1.18212971073381,1.66782280147732,2.11688403676572,1.43373972642191,FALSE,1.60834617896449
"CAN","cpi",0.2,1995,3,1994,NA,1.5,-1.14059864285061,-0.396336491477809,2.11688403676572,-1.26611333424577,FALSE,7.02731347198161
"CAN","cpi",0.2,1996,3,1996,NA,0,1.42527444570121,1.45390396168781,1.55309584667184,1.43665270425039,FALSE,0.27660922844669
"CAN","cpi",0.2,1996,3,1996,NA,0.5,1.28723641900465,1.57896693506115,1.55309584667184,1.23276330365037,TRUE,0.291730516056501
"CAN","cpi",0.2,1996,3,1995,NA,1,0.51338579840425,0.958934594098633,1.55309584667184,0.729753259393914,FALSE,1.93095192712741
"CAN","cpi",0.2,1996,3,1995,NA,1.5,2.4666091725854,3.3999202554085,1.55309584667184,2.31904839186543,FALSE,3.217094397607
"CAN","cpi",0.2,1997,3,1997,NA,0,1.65340970033791,1.69976321970823,1.60528783555959,1.67949478723595,FALSE,0.166658181316112
"CAN","cpi",0.2,1997,3,1997,NA,0.5,1.98525200807657,2.27270873790058,1.60528783555959,1.93291992098407,FALSE,1.23736716111646
"CAN","cpi",0.2,1997,3,1996,NA,1,0.459025437219048,0.79850753871141,1.60528783555959,0.614630451620954,FALSE,2.35643284361282
"CAN","cpi",0.2,1997,3,1996,NA,1.5,0.993774835583761,1.98362655748594,1.60528783555959,0.962161564198873,TRUE,0.989851721902177
"CAN","cpi",0.2,1998,3,1998,NA,0,0.93692523526124,0.984401393410041,0.988908029337191,0.967063680387792,FALSE,0.0587427479666751
"CAN","cpi",0.2,1998,3,1998,NA,0.5,1.40685310737679,1.69806525521105,0.988908029337191,1.34897459866337,FALSE,1.33607484293326
"CAN","cpi",0.2,1998,3,1997,NA,1,0.684813000897811,0.97602514873207,0.988908029337191,0.792689959246129,FALSE,0.323419349347062
"CAN","cpi",0.2,1998,3,1997,NA,1.5,1.22006696737396,2.30848889239559,0.988908029337191,1.28384000376946,FALSE,1.66631927011355
"CAN","cpi",0.2,1999,3,1999,NA,0,1.74262823767873,1.78956665263704,1.7107350135213,1.76864633894604,FALSE,0.126671475351896
"CAN","cpi",0.2,1999,3,1999,NA,0.5,0.786652001828445,1.12268050157312,1.7107350135213,0.732099710600531,FALSE,1.80616477961512
"CAN","cpi",0.2,1999,3,1998,NA,1,0.158429131626424,0.540696226505817,1.7107350135213,0.369052571959629,FALSE,3.30736406241809
"CAN","cpi",0.2,1999,3,1998,NA,1.5,1.38590885208677,2.49898995054686,1.7107350135213,1.26847007023129,TRUE,1.11308109846009
"CAN","cpi",0.2,2000,3,2000,NA,0,2.6748901661434,2.72232841075117,2.6718361971244,2.70257810674034,FALSE,0.0550731671552815
"CAN","cpi",0.2,2000,3,2000,NA,0.5,1.9439603113581,2.3558992444856,2.6718361971244,1.95948305880876,FALSE,1.2017813147245
"CAN","cpi",0.2,2000,3,1999,NA,1,1.93018340684125,2.37907489903499,2.6718361971244,2.16154661985999,FALSE,1.18079473741726
"CAN","cpi",0.2,2000,3,1999,NA,1.5,0.409763243259579,1.60131394110051,2.6718361971244,0.50278387806376,FALSE,3.86785633790065
"CAN","cpi",0.2,2001,3,2001,NA,0,2.70667094422299,2.75012698239393,2.47906219852806,2.73154549386087,FALSE,0.612477902408262
"CAN","cpi",0.2,2001,3,2001,NA,0.5,1.66006228299372,2.03830874805474,2.47906219852806,1.65861828263926,FALSE,1.48013009124433
"CAN","cpi",0.2,2001,3,2000,NA,1,2.64180665905604,3.02005312411707,2.47906219852806,2.84133895788986,FALSE,0.785107616380974
"CAN","cpi",0.2,2001,3,2000,NA,1.5,1.06422689478685,2.02862769906349,2.47906219852806,1.14191354447969,FALSE,2.09048705293808
"CAN","cpi",0.2,2002,3,2002,NA,0,2.30143097871106,2.34622010017837,2.20880570551249,2.31282527465204,FALSE,0.276352304463735
"CAN","cpi",0.2,2002,3,2002,NA,0.5,1.31155787543948,1.7161903049258,2.20880570551249,1.24731948634093,FALSE,1.63617093095304
"CAN","cpi",0.2,2002,3,2001,NA,1,0.432799674324701,0.883056968122428,2.20880570551249,0.695491540886875,FALSE,3.76462913727287
"CAN","cpi",0.2,2002,3,2001,NA,1.5,0.386402293870867,1.35013684115424,2.20880570551249,0.47606161882134,FALSE,3.11040670817899
"CAN","cpi",0.2,2003,3,2003,NA,0,2.74248847598881,2.77644893732882,2.71189071546809,2.75460397277825,FALSE,0.110454862641815
"CAN","cpi",0.2,2003,3,2003,NA,0.5,4.20207243879238,4.48863678193094,2.71189071546809,4.16096970792426,FALSE,4.01201865144929
"CAN","cpi",0.2,2003,3,2002,NA,1,3.24456556527738,3.65530893903641,2.71189071546809,3.27791908188471,FALSE,1.74243049828226
"CAN","cpi",0.2,2003,3,2002,NA,1.5,1.43624785323859,2.3090694368034,2.71189071546809,1.51830012756901,FALSE,1.87987478022653
"CAN","cpi",0.2,2004,3,2004,NA,0,1.74500937811203,1.77155895365215,1.83151661303942,1.76153103901938,FALSE,0.176443724008298
"CAN","cpi",0.2,2004,3,2004,NA,0.5,1.43874757113304,1.781641543291,1.83151661303942,1.38945604480572,FALSE,0.467581646529013
"CAN","cpi",0.2,2004,3,2003,NA,1,0.987472127801073,1.41073030173438,1.83151661303942,1.01874619159597,FALSE,1.47522395219591
"CAN","cpi",0.2,2004,3,2003,NA,1.5,2.66400185500676,3.32807927095667,1.83151661303942,2.99105359104411,FALSE,2.74529052086825
"CAN","cpi",0.2,2005,3,2005,NA,0,2.33086010756307,2.35892058417329,2.18071628336509,2.35062481142317,FALSE,0.403420037105169
"CAN","cpi",0.2,2005,3,2005,NA,0.5,1.50255285801638,1.80726973984809,2.18071628336509,1.4552837212303,FALSE,1.23833324062421
"CAN","cpi",0.2,2005,3,2004,NA,1,0.752845152352661,1.1441637160344,2.18071628336509,0.79648671202377,FALSE,2.98269998200846
"CAN","cpi",0.2,2005,3,2004,NA,1.5,0.430375540048966,1.24717975471444,2.18071628336509,1.13680951350797,FALSE,3.1506455362921
"CAN","cpi",0.2,2006,3,2006,NA,0,2.04312423002592,2.09318764096375,1.97519342012289,2.06448042324351,FALSE,0.219890435695414
"CAN","cpi",0.2,2006,3,2006,NA,0.5,1.81832379712406,2.12529330409368,1.97519342012289,1.77073314120205,TRUE,0.306969506969627
"CAN","cpi",0.2,2006,3,2005,NA,1,2.63501046927357,2.96890902525375,1.97519342012289,2.58808204718941,FALSE,1.98344117885689
"CAN","cpi",0.2,2006,3,2005,NA,1.5,0.420060113821903,1.05958800402876,1.97519342012289,0.762075268916728,FALSE,2.92854143044217
"CAN","cpi",0.2,2007,3,2007,NA,0,2.08437160663166,2.13455474467677,2.10062087284572,2.10807340507977,TRUE,0.0501831380451145
"CAN","cpi",0.2,2007,3,2007,NA,0.5,2.14038551513108,2.41124967260459,2.10062087284572,2.09760271424675,FALSE,0.370275763186905
"CAN","cpi",0.2,2007,3,2006,NA,1,0.494325855044258,0.899038529902395,2.10062087284572,0.438862458623872,FALSE,3.40866853221646
"CAN","cpi",0.2,2007,3,2006,NA,1.5,0.940273802046643,1.45389604749076,2.10062087284572,1.08089197775225,FALSE,2.13043430883152
"CAN","cpi",0.2,2008,3,2008,NA,0,2.9003367646351,2.94387514971403,2.31447335265955,2.9146675338117,FALSE,1.5081969150178
"CAN","cpi",0.2,2008,3,2008,NA,0.5,1.08804486883323,1.35923027410273,2.31447335265955,1.04562745221765,FALSE,2.65929310166157
"CAN","cpi",0.2,2008,3,2007,NA,1,0.43127990166593,0.868611554428107,2.31447335265955,0.365030180386173,FALSE,4.05198614834079
"CAN","cpi",0.2,2008,3,2007,NA,1.5,1.92146200619332,2.3587936589555,2.31447335265955,2.04107389452134,TRUE,0.437331652762178
"CAN","cpi",0.2,2009,3,2009,NA,0,0.291363569061461,0.348073054990017,0.284533874408197,0.272618836216429,FALSE,0.0737837225617159
"CAN","cpi",0.2,2009,3,2009,NA,0.5,-0.806870515260391,-0.501208179739163,0.284533874408197,-0.807426338518035,FALSE,2.27001747088963
"CAN","cpi",0.2,2009,3,2008,NA,1,3.34096271474808,3.82182201829076,0.284533874408197,3.28355694764985,FALSE,8.1219314043924
"CAN","cpi",0.2,2009,3,2008,NA,1.5,0.558588366739163,1.03944767028184,0.284533874408197,0.703376955238912,FALSE,1.16599553437009
"CAN","cpi",0.2,2010,3,2010,NA,0,1.74900118532815,1.79938853905893,1.75525687020327,1.72708036400674,TRUE,0.05038735373078
"CAN","cpi",0.2,2010,3,2010,NA,0.5,1.46838046205719,1.7424811613052,1.75525687020327,1.42243266198166,FALSE,0.306039971493188
"CAN","cpi",0.2,2010,3,2009,NA,1,0.633753163039933,1.15748927957511,1.75525687020327,0.515829437079458,FALSE,2.01815509310559
"CAN","cpi",0.2,2010,3,2009,NA,1.5,-0.828897786975403,-0.30516167044023,1.75525687020327,-0.666399632006793,FALSE,5.67478246814393
"CAN","cpi",0.2,2011,3,2011,NA,0,2.83925270082896,2.90341859165891,2.85717434028225,2.82871118728348,TRUE,0.0641658908299529
"CAN","cpi",0.2,2011,3,2011,NA,0.5,2.64067366515568,2.94382184456703,2.85717434028225,2.59305645945043,TRUE,0.303148179411351
"CAN","cpi",0.2,2011,3,2010,NA,1,1.68048275231846,2.25844741780998,2.85717434028225,1.58194849312145,FALSE,2.07478197167219
"CAN","cpi",0.2,2011,3,2010,NA,1.5,0.94180720546624,1.51977187095776,2.85717434028225,1.00866231757724,FALSE,3.92147083880273
"CAN","cpi",0.2,2012,3,2012,NA,0,1.47697701725782,1.53884164323901,1.50118536134935,1.46681751445377,TRUE,0.0618646259811952
"CAN","cpi",0.2,2012,3,2012,NA,0.5,1.60416983046845,1.94203465977669,1.50118536134935,1.63866597060755,FALSE,0.595326002106007
"CAN","cpi",0.2,2012,3,2011,NA,1,0.949948012018539,1.48991856413235,1.50118536134935,0.848240548987433,FALSE,0.568137545156294
"CAN","cpi",0.2,2012,3,2011,NA,1.5,1.5409549934058,2.08092554551962,1.50118536134935,1.68384299188515,FALSE,0.639394632254952
"CAN","cpi",0.2,2013,3,2013,NA,0,1.03916429733846,1.08858803515306,0.931270594714462,1.03083115414128,FALSE,0.319157994374599
"CAN","cpi",0.2,2013,3,2013,NA,0.5,1.06124739103901,1.45122352247664,0.931270594714462,1.00184063196526,FALSE,0.714918122248998
"CAN","cpi",0.2,2013,3,2012,NA,1,-0.190389652497983,0.321635101856986,0.931270594714462,-0.272545990872386,FALSE,2.03611348649866
"CAN","cpi",0.2,2013,3,2012,NA,1.5,0.82018275734494,1.36730616829079,0.931270594714462,0.958608804136071,TRUE,0.547123410945851
"CAN","cpi",0.2,2014,3,2014,NA,0,1.99457127078622,2.04446250374413,1.87639912240215,1.98613278510701,FALSE,0.345321603918093
"CAN","cpi",0.2,2014,3,2014,NA,0.5,1.81679688477618,2.05644967432342,1.87639912240215,1.95223885123801,TRUE,0.239652789547242
"CAN","cpi",0.2,2014,3,2013,NA,1,0.77234339604129,1.29098601856812,1.87639912240215,0.688658687283847,FALSE,1.98217538211191
"CAN","cpi",0.2,2014,3,2013,NA,1.5,0.681158474577676,1.1998010971045,1.87639912240215,0.891594199884501,FALSE,2.21013768577095
"CAN","cpi",0.2,2015,3,2015,NA,0,1.25542447967427,1.30908847907203,1.11090953952792,1.24641866377254,FALSE,0.414951349763653
"CAN","cpi",0.2,2015,3,2015,NA,0.5,-0.0258251205719795,0.179653819316135,1.11090953952792,0.198117162089698,FALSE,2.53361824041757
"CAN","cpi",0.2,2015,3,2014,NA,1,0.166590839821407,0.644753229774359,1.11090953952792,0.532106072596766,FALSE,1.64355316433685
"CAN","cpi",0.2,2015,3,2014,NA,1.5,1.58528814749049,2.09403446690261,1.11090953952792,1.81035920235268,FALSE,1.69469283931854
"CAN","cpi",0.2,2016,3,2016,NA,0,1.44996291723887,1.49847474621096,1.41168586698797,1.44184957394589,FALSE,0.144204454599351
"CAN","cpi",0.2,2016,3,2016,NA,0.5,0.601867133002191,0.831260203104203,1.41168586698797,0.843100047406122,FALSE,1.68045722981142
"CAN","cpi",0.2,2016,3,2015,NA,1,1.30833353327654,1.75553242297589,1.41168586698797,1.23484853770273,TRUE,0.447198889699352
"CAN","cpi",0.2,2016,3,2015,NA,1.5,-0.35470657440598,0.175505501182751,1.41168586698797,0.107462752177283,FALSE,3.62066299010177
"CAN","cpi",0.2,2017,3,2017,NA,0,1.52361436096809,1.56034548169527,1.57888581671161,1.51739925639673,FALSE,0.0830819582680323
"CAN","cpi",0.2,2017,3,2017,NA,0.5,1.64849533678575,1.86504852878214,1.57888581671161,1.88170269277887,FALSE,0.390576992181731
"CAN","cpi",0.2,2017,3,2016,NA,1,0.504424881915835,0.973722918163346,1.57888581671161,0.418338346755244,FALSE,1.98220528261817
"CAN","cpi",0.2,2017,3,2016,NA,1.5,0.0587981996861783,0.599672412458247,1.57888581671161,0.52557608733729,FALSE,2.98890772340548
"CAN","cpi",0.2,2018,3,2018,NA,0,2.41370089222772,2.4590719681684,2.23316270166586,2.40611378585155,FALSE,0.496716552345333
"CAN","cpi",0.2,2018,3,2018,NA,0.5,2.38915119474512,2.65264393691158,2.23316270166586,2.62207020824204,FALSE,0.653463974864606
"CAN","cpi",0.2,2018,3,2017,NA,1,0.449161516390346,0.716483490378687,2.23316270166586,0.40411310060617,FALSE,4.05902000220627
"CAN","cpi",0.2,2018,3,2017,NA,1.5,1.05260882201561,1.59648838610778,2.23316270166586,1.53787524714926,FALSE,2.13556535298736
"CAN","cpi",0.2,2019,3,2019,NA,0,2.02040318264388,2.0747003068805,1.91921619871868,2.01142839895124,FALSE,0.307264584049626
"CAN","cpi",0.2,2019,3,2019,NA,0.5,1.23300997980212,1.52237457650249,1.91921619871868,1.51883708040586,FALSE,1.28146865224086
"CAN","cpi",0.2,2019,3,2018,NA,1,1.49373952431439,1.91705303075422,1.91921619871868,1.41942984101848,FALSE,0.428721426350987
"CAN","cpi",0.2,2019,3,2018,NA,1.5,1.57534683236789,2.09484899357172,1.91921619871868,2.06105171090012,TRUE,0.519502161203833
"CAN","cpi",0.2,2020,3,2020,NA,0,0.731915233816089,0.774291992603777,0.71139989671781,0.726179852791075,FALSE,0.0936651015333849
"CAN","cpi",0.2,2020,3,2020,NA,0.5,0.83177646269147,1.07275109452852,0.71139989671781,1.07225945048052,FALSE,0.541916046771194
"CAN","cpi",0.2,2020,3,2019,NA,1,1.12667543081473,1.38378997440962,0.71139989671781,1.01913964327806,FALSE,1.29530337883718
"CAN","cpi",0.2,2020,3,2019,NA,1.5,0.733514611954225,1.24921494220841,0.71139989671781,1.22761645350518,FALSE,0.570987118345222
"CAN","cpi",0.2,2021,3,2021,NA,0,3.30206294975755,3.34295327063846,3.31148121717802,3.30988753190892,TRUE,0.0408903208809104
"CAN","cpi",0.2,2021,3,2021,NA,0.5,2.28923188070946,2.48807913688325,3.31148121717802,2.4899040786607,FALSE,2.25735245691072
"CAN","cpi",0.2,2021,3,2020,NA,1,1.10520984345421,1.4003716188192,3.31148121717802,1.1979067045331,FALSE,5.07293577126204
"CAN","cpi",0.2,2021,3,2020,NA,1.5,0.181115606425028,0.696039564692148,3.31148121717802,0.670626810990653,FALSE,7.05352808948181
"CAN","cpi",0.2,2022,3,2022,NA,0,6.5375909890062,6.57843031422,6.50977236228281,6.54555789178856,FALSE,0.110385892022274
"CAN","cpi",0.2,2022,3,2022,NA,0.5,5.73148511918166,5.95640120815899,6.50977236228281,5.96468998606203,FALSE,1.60834397428689
"CAN","cpi",0.2,2022,3,2021,NA,1,3.26793113556089,3.6107331852614,6.50977236228281,3.42105264822981,FALSE,7.59039999225404
"CAN","cpi",0.2,2022,3,2021,NA,1.5,1.45041785631184,1.97838911651375,6.50977236228281,1.93276265883962,FALSE,11.8564293746246
"CAN","cpi",0.2,2023,3,2023,NA,0,3.95737583979288,3.99330880439367,3.78831288758619,3.97188685244318,FALSE,0.458590345117511
"CAN","cpi",0.2,2023,3,2023,NA,0.5,2.59924053282386,2.83492600509922,3.78831288758619,2.8392001035463,FALSE,2.61915267849278
"CAN","cpi",0.2,2023,3,2022,NA,1,2.53494265330815,3.00605997327796,3.78831288758619,2.86884991489758,FALSE,2.4267496057404
"CAN","cpi",0.2,2023,3,2022,NA,1.5,3.31797013102682,3.93103401013057,3.78831288758619,4.03317247515909,TRUE,0.613063879103743
"CAN","cpi",0.2,2024,3,2023,NA,1,2.56997192484995,3.0403508146656,NA,2.89946754179362,NA,NA
"CAN","cpi",0.2,2024,3,2023,NA,1.5,0.46926422784823,1.07828377999682,NA,1.17991651782151,NA,NA
"CAN","cpi",0.3,1959,3,1959,NA,0,1.09525721705168,1.21754232174847,1.19382698397654,1.18954599151176,TRUE,0.122285104696795
"CAN","cpi",0.3,1959,3,1959,NA,0.5,0.245952221074927,0.827154136138778,1.19382698397654,0.545308327160925,FALSE,1.62883862317174
"CAN","cpi",0.3,1959,3,1958,NA,1,-0.769929230789331,1.5971155129445,1.19382698397654,1.13295114249046,TRUE,2.36704474373383
"CAN","cpi",0.3,1959,3,1958,NA,1.5,-2.01598758392758,1.24803636796742,1.19382698397654,0.717422088079289,TRUE,3.264023951895
"CAN","cpi",0.3,1960,3,1960,NA,0,0.943331256636428,1.06132055911412,1.34209404870695,1.02361304259477,FALSE,0.920199272742929
"CAN","cpi",0.3,1960,3,1960,NA,0.5,0.342835321154274,0.766582650625551,1.34209404870695,0.648611007713657,FALSE,2.06806560970385
"CAN","cpi",0.3,1960,3,1959,NA,1,0.967508983820012,2.94160167460597,1.34209404870695,2.37666873185636,TRUE,1.97409269078596
"CAN","cpi",0.3,1960,3,1959,NA,1.5,-2.31688818231228,0.229576966966429,1.34209404870695,-0.349092179567277,FALSE,5.72508538282306
"CAN","cpi",0.3,1961,3,1961,NA,0,0.911430139460422,1.04736607624057,1.00921348094007,1.00921348094007,TRUE,0.135935936780144
"CAN","cpi",0.3,1961,3,1961,NA,0.5,0.721539474729076,1.11269865404774,1.00921348094007,1.00921348094007,TRUE,0.391159179318666
"CAN","cpi",0.3,1961,3,1960,NA,1,-0.801618452284259,0.322303302638002,1.00921348094007,0.0537704626035329,FALSE,3.08652226435675
"CAN","cpi",0.3,1961,3,1960,NA,1.5,-0.93108952558313,0.31940141190454,1.00921348094007,-0.332316386156399,FALSE,3.22138256330348
"CAN","cpi",0.3,1962,3,1962,NA,0,0.992942337771667,1.10202559011601,1.04957947883042,1.0653801125483,TRUE,0.109083252344341
"CAN","cpi",0.3,1962,3,1962,NA,0.5,-0.124204276820696,0.233654594631184,1.04957947883042,0,FALSE,2.68907282630683
"CAN","cpi",0.3,1962,3,1961,NA,1,-0.809273729420704,0.267140577865574,1.04957947883042,0,FALSE,3.31195402432868
"CAN","cpi",0.3,1962,3,1961,NA,1.5,-0.614661130155102,0.560882979339038,1.04957947883042,0,FALSE,2.57181982232665
"CAN","cpi",0.3,1963,3,1963,NA,0,1.75580197389361,1.86583906023171,1.60677118395228,1.83024954277348,FALSE,0.535839343313322
"CAN","cpi",0.3,1963,3,1963,NA,0.5,0.768091853859506,1.08738623410792,1.60677118395228,0.836828714617504,FALSE,1.80325137980374
"CAN","cpi",0.3,1963,3,1962,NA,1,1.54106323651065,2.47201924062664,1.60677118395228,1.60935100695326,TRUE,0.930956004115986
"CAN","cpi",0.3,1963,3,1962,NA,1.5,-0.0893253667772324,0.841630637338754,1.60677118395228,0,FALSE,3.11707185158321
"CAN","cpi",0.3,1964,3,1964,NA,0,1.84862130255898,1.97269012481728,1.88764670034376,1.95194648443024,TRUE,0.1240688222583
"CAN","cpi",0.3,1964,3,1964,NA,0.5,1.15548110525151,1.35913500980746,1.88764670034376,1.27307816843398,FALSE,1.71368730608824
"CAN","cpi",0.3,1964,3,1963,NA,1,3.06761531322348,3.76240003479864,1.88764670034376,3.20172332637508,FALSE,4.06612361551722
"CAN","cpi",0.3,1964,3,1963,NA,1.5,-0.198351602586775,0.496433118988389,1.88764670034376,0,FALSE,4.6696806683048
"CAN","cpi",0.3,1965,3,1965,NA,0,2.1965244738576,2.31667848324507,2.29538304394236,2.29800189469823,TRUE,0.12015400938747
"CAN","cpi",0.3,1965,3,1965,NA,0.5,1.26220827191945,1.46762463510091,2.29538304394236,1.39443218256826,FALSE,2.57044038844274
"CAN","cpi",0.3,1965,3,1964,NA,1,1.05882389286556,1.66801920324888,2.29538304394236,1.48078368039448,FALSE,2.4016634266504
"CAN","cpi",0.3,1965,3,1964,NA,1.5,0.0481616161952968,0.65735692657862,2.29538304394236,0.293257399533461,FALSE,5.28926993142257
"CAN","cpi",0.3,1966,3,1966,NA,0,3.71360087840696,3.81288785993567,3.72486065470629,3.77511268244847,TRUE,0.0992869815287047
"CAN","cpi",0.3,1966,3,1966,NA,0.5,3.23610507745399,3.45838087179306,3.72486065470629,3.37743719728421,FALSE,0.983646602662595
"CAN","cpi",0.3,1966,3,1965,NA,1,1.9905743215336,2.58544430375406,3.72486065470629,1.98486973144544,FALSE,3.8503452706554
"CAN","cpi",0.3,1966,3,1965,NA,1.5,0.315586581328647,0.910456563549103,3.72486065470629,0.578640834001038,FALSE,8.63602452838385
"CAN","cpi",0.3,1967,3,1967,NA,0,3.63417114631865,3.70820469489557,3.49360316391996,3.68375770714608,FALSE,0.475656355430319
"CAN","cpi",0.3,1967,3,1967,NA,0.5,1.90525241187205,2.24866061403032,3.49360316391996,2.11054708048259,FALSE,3.90038691612867
"CAN","cpi",0.3,1967,3,1966,NA,1,1.79192876801817,2.44394306288516,3.49360316391996,2.02003307533501,FALSE,3.65104315496641
"CAN","cpi",0.3,1967,3,1966,NA,1.5,1.3000885566695,1.9521028515365,3.49360316391996,1.71558536379673,FALSE,5.05630090167688
"CAN","cpi",0.3,1968,3,1968,NA,0,4.02165629527469,4.10464620898236,3.95128347779386,4.07085717819357,FALSE,0.28405510651005
"CAN","cpi",0.3,1968,3,1968,NA,0.5,3.36824244823525,3.66034568592275,3.95128347779386,3.50732233276501,FALSE,1.12335407160495
"CAN","cpi",0.3,1968,3,1967,NA,1,3.61610039281588,4.30044080752687,3.95128347779386,3.66303679301692,TRUE,0.684340414710988
"CAN","cpi",0.3,1968,3,1967,NA,1.5,0.408601370349748,1.09294178506074,3.95128347779386,0.834881519045053,FALSE,8.85103096537705
"CAN","cpi",0.3,1969,3,1969,NA,0,4.43995978830579,4.55927408231408,4.42679496126681,4.52532640008253,FALSE,0.156928085548221
"CAN","cpi",0.3,1969,3,1969,NA,0.5,2.53763143419506,2.81793420145816,4.42679496126681,2.69090620784681,FALSE,4.87704779528783
"CAN","cpi",0.3,1969,3,1968,NA,1,3.84983928894127,4.52126654901618,4.42679496126681,4.0779393276339,TRUE,0.671427260074902
"CAN","cpi",0.3,1969,3,1968,NA,1.5,1.24821716873678,1.91964442881168,4.42679496126681,1.61221871335458,FALSE,7.83471449566101
"CAN","cpi",0.3,1970,3,1970,NA,0,3.54087777105802,3.60100896000159,3.28128405769805,3.55878605435979,FALSE,0.801827512829208
"CAN","cpi",0.3,1970,3,1970,NA,0.5,3.54314988681447,3.89859983417614,3.28128405769805,3.74969277403504,FALSE,1.10363803055146
"CAN","cpi",0.3,1970,3,1969,NA,1,2.93627897550869,3.63822019793746,3.28128405769805,3.11186608282608,TRUE,0.701941222428768
"CAN","cpi",0.3,1970,3,1969,NA,1.5,0.38214096627854,1.08408218870731,3.28128405769805,0.764941977259638,FALSE,6.97966084811659
"CAN","cpi",0.3,1971,3,1971,NA,0,2.77299202319028,2.85454446465899,2.64123406634756,2.81514553288871,FALSE,0.458003746733625
"CAN","cpi",0.3,1971,3,1971,NA,0.5,0.900404699619653,1.350815061792,2.64123406634756,1.11673730766521,FALSE,4.13732180375967
"CAN","cpi",0.3,1971,3,1970,NA,1,1.76470959300774,2.41963921114624,2.64123406634756,1.92043450460395,FALSE,1.28805777585657
"CAN","cpi",0.3,1971,3,1970,NA,1.5,1.30618069061816,1.96111030875666,2.64123406634756,1.70194075200601,FALSE,2.5981403541125
"CAN","cpi",0.3,1972,3,1972,NA,0,5.0406297239685,5.11150415421661,4.83230569625923,5.04828762155974,FALSE,0.666085937988879
"CAN","cpi",0.3,1972,3,1972,NA,0.5,3.94405412345472,4.50329563395685,4.83230569625923,4.09602385359717,FALSE,1.49927025993751
"CAN","cpi",0.3,1972,3,1971,NA,1,3.9457977992045,4.53347584341501,4.83230569625923,4.16812111633716,FALSE,1.44147762376543
"CAN","cpi",0.3,1972,3,1971,NA,1.5,0.200376993624056,0.851430635527043,4.83230569625923,0.692030005351089,FALSE,12.0249823868521
"CAN","cpi",0.3,1973,3,1973,NA,0,7.23819165845526,7.32687545572682,7.12388603531779,7.25096132226983,FALSE,0.415271291950057
"CAN","cpi",0.3,1973,3,1973,NA,0.5,5.14280163202031,5.64983512937236,7.12388603531779,5.30446017290082,FALSE,4.71860751433899
"CAN","cpi",0.3,1973,3,1972,NA,1,4.70573231706758,5.22328342731516,7.12388603531779,4.92276035792265,FALSE,5.94784427596938
"CAN","cpi",0.3,1973,3,1972,NA,1.5,1.32345260008013,2.06615964581467,7.12388603531779,1.79187879074203,FALSE,15.1933538728863
"CAN","cpi",0.3,1974,3,1974,NA,0,10.1135129994119,10.1760851078782,10.2717243737774,10.148911210151,FALSE,0.33582715389259
"CAN","cpi",0.3,1974,3,1974,NA,0.5,7.75825083961541,8.30311096246985,10.2717243737774,7.90446289245049,FALSE,6.1694698694475
"CAN","cpi",0.3,1974,3,1973,NA,1,6.96862175597988,7.66740815324803,10.2717243737774,7.30476096756609,FALSE,8.13968988449498
"CAN","cpi",0.3,1974,3,1973,NA,1.5,1.96408549729,2.89027849555502,10.2717243737774,2.5663290958369,FALSE,22.0160383646147
"CAN","cpi",0.3,1975,3,1975,NA,0,10.1230595379004,10.2062267521159,10.0232981493341,10.1746571103793,FALSE,0.368199752976314
"CAN","cpi",0.3,1975,3,1975,NA,0.5,7.81681968931739,8.42719540589087,10.0232981493341,8.07152306914465,FALSE,5.17066926926848
"CAN","cpi",0.3,1975,3,1974,NA,1,7.38001407685708,8.22464079020345,10.0232981493341,7.8187778356914,FALSE,5.983647739434
"CAN","cpi",0.3,1975,3,1974,NA,1.5,2.72410362738184,3.82802090703562,10.0232981493341,3.64914274700436,FALSE,18.8047094005066
"CAN","cpi",0.3,1976,3,1976,NA,0,7.13848976559839,7.22018680952979,7.22784311401172,7.18995143043805,FALSE,0.103572199594043
"CAN","cpi",0.3,1976,3,1976,NA,0.5,6.38973700850825,7.03017339746092,7.22784311401172,6.61333364285308,FALSE,1.20520700766923
"CAN","cpi",0.3,1976,3,1975,NA,1,8.05690152321446,8.70699197457622,7.22784311401172,8.584971075903,FALSE,3.0188287633696
"CAN","cpi",0.3,1976,3,1975,NA,1.5,1.931760647533,3.48841200090995,7.22784311401172,3.14738569995591,FALSE,12.2407402479534
"CAN","cpi",0.3,1977,3,1977,NA,0,7.44746075936845,7.53270417152322,7.58101410153764,7.50176944503946,FALSE,0.223271783624545
"CAN","cpi",0.3,1977,3,1977,NA,0.5,6.17805097919402,6.83197627225882,7.58101410153764,6.40571638826874,FALSE,2.79403337671858
"CAN","cpi",0.3,1977,3,1976,NA,1,3.68242581882864,4.60913803964989,7.58101410153764,4.04909286077014,FALSE,9.41778668335769
"CAN","cpi",0.3,1977,3,1976,NA,1.5,1.64542607129312,3.14567828130836,7.58101410153764,2.59432747727492,FALSE,14.1726402678132
"CAN","cpi",0.3,1978,3,1978,NA,0,8.52931430322717,8.62426900727001,8.50208927062595,8.59104847384149,FALSE,0.172740511474901
"CAN","cpi",0.3,1978,3,1978,NA,0.5,7.1254104133476,7.7391691180461,8.50208927062595,7.34113908733495,FALSE,2.79353056921235
"CAN","cpi",0.3,1978,3,1977,NA,1,5.29318050298543,6.34767365101038,8.50208927062595,5.87902868518151,FALSE,7.20996634692656
"CAN","cpi",0.3,1978,3,1977,NA,1.5,2.94943657026691,4.4781698713944,8.50208927062595,3.89293485842214,FALSE,13.0256458703605
"CAN","cpi",0.3,1979,3,1979,NA,0,8.42932018732708,8.52198204557168,8.65147652410481,8.48651410143776,FALSE,0.462646082624969
"CAN","cpi",0.3,1979,3,1979,NA,0.5,7.24354036341847,7.86084745468982,8.65147652410481,7.46186747064873,FALSE,2.87624728959989
"CAN","cpi",0.3,1979,3,1978,NA,1,6.32831560767849,7.43182948550177,8.65147652410481,6.93686058379669,FALSE,4.58821970240339
"CAN","cpi",0.3,1979,3,1978,NA,1.5,3.18816914698828,4.57695010605013,8.65147652410481,3.9179710204728,FALSE,13.0302850106467
"CAN","cpi",0.3,1980,3,1980,NA,0,9.36587262401738,9.47680391573651,9.5171912664748,9.43711128155219,FALSE,0.226323722399942
"CAN","cpi",0.3,1980,3,1980,NA,0.5,7.68409674386172,8.26499684739892,9.5171912664748,7.89144076485851,FALSE,4.15859844375399
"CAN","cpi",0.3,1980,3,1979,NA,1,5.30654598232021,6.43396297307016,9.5171912664748,5.69387794711803,FALSE,9.93664068619177
"CAN","cpi",0.3,1980,3,1979,NA,1.5,3.62046552480001,4.98363264957193,9.5171912664748,4.27199048256738,FALSE,14.3161917444944
"CAN","cpi",0.3,1981,3,1981,NA,0,11.5426388704216,11.6600612723164,11.5813425032741,11.617538759154,TRUE,0.117422401894807
"CAN","cpi",0.3,1981,3,1981,NA,0.5,11.0952504635799,11.6745778459484,11.5813425032741,11.3038259100907,TRUE,0.579327382368483
"CAN","cpi",0.3,1981,3,1980,NA,1,8.15256459965915,9.21545819742415,11.5813425032741,8.22922472590444,FALSE,7.8225630430507
"CAN","cpi",0.3,1981,3,1980,NA,1.5,4.14430759997921,5.20720119774421,11.5813425032741,4.54818367546621,FALSE,19.2747258992791
"CAN","cpi",0.3,1982,3,1982,NA,0,10.1048339696403,10.2159512424496,10.1124203763629,10.1863972123348,TRUE,0.111117272809306
"CAN","cpi",0.3,1982,3,1982,NA,0.5,9.15843863459618,9.6157698164087,10.1124203763629,9.38011590167964,FALSE,1.87633278168178
"CAN","cpi",0.3,1982,3,1981,NA,1,8.85828854786292,9.8176635509408,10.1124203763629,8.92774959502704,FALSE,1.80153736142687
"CAN","cpi",0.3,1982,3,1981,NA,1.5,7.01331483147031,7.97268983454818,10.1124203763629,7.65688060941457,FALSE,7.07289083683435
"CAN","cpi",0.3,1983,3,1983,NA,0,5.74530631944128,5.83534757702121,5.67091787896303,5.79231449937116,FALSE,0.302579658946344
"CAN","cpi",0.3,1983,3,1983,NA,0.5,4.169996789888,4.66487225414553,5.67091787896303,4.48935486750539,FALSE,3.36929153516469
"CAN","cpi",0.3,1983,3,1982,NA,1,6.56600146029957,7.59599057008415,5.67091787896303,6.68360843662591,FALSE,3.58737077074611
"CAN","cpi",0.3,1983,3,1982,NA,1.5,5.22521932389092,6.30455536119658,5.67091787896303,5.80492936344428,TRUE,1.07933603730565
"CAN","cpi",0.3,1984,3,1984,NA,0,4.11856280015157,4.20381405783437,4.19799576814029,4.1863442377944,TRUE,0.0852512576827955
"CAN","cpi",0.3,1984,3,1984,NA,0.5,4.12930013725294,4.5848746252925,4.19799576814029,4.37368919035215,TRUE,0.455574488039556
"CAN","cpi",0.3,1984,3,1983,NA,1,4.69938690923909,5.83298424224112,4.19799576814029,4.8252398586334,FALSE,2.56614345042717
"CAN","cpi",0.3,1984,3,1983,NA,1.5,1.20255075894561,2.84420601659079,4.19799576814029,1.63651850095104,FALSE,5.50962597635803
"CAN","cpi",0.3,1985,3,1985,NA,0,3.81455826219256,3.90184736287644,3.86444262005169,3.87488963413478,TRUE,0.0872891006838756
"CAN","cpi",0.3,1985,3,1985,NA,0.5,3.40426578790092,3.93953285787786,3.86444262005169,3.66954460168274,TRUE,0.535267069976943
"CAN","cpi",0.3,1985,3,1984,NA,1,2.36356517293544,3.67044508850909,3.86444262005169,2.51760914226531,FALSE,1.86115857712394
"CAN","cpi",0.3,1985,3,1984,NA,1.5,2.23975480482674,4.10163975435396,3.86444262005169,2.74468923002786,TRUE,1.86188494952722
"CAN","cpi",0.3,1986,3,1986,NA,0,4.03178743207908,4.11277098503106,4.08685396749431,4.09009381020777,TRUE,0.0809835529519827
"CAN","cpi",0.3,1986,3,1986,NA,0.5,3.9826267168436,4.45660646008424,4.08685396749431,4.18867743652029,TRUE,0.473979743240644
"CAN","cpi",0.3,1986,3,1985,NA,1,2.78829357740478,4.17109929270894,4.08685396749431,2.96346536694636,TRUE,1.38280571530417
"CAN","cpi",0.3,1986,3,1985,NA,1.5,2.03408809645146,3.67114380568876,4.08685396749431,2.65645514502224,FALSE,2.82479902868172
"CAN","cpi",0.3,1987,3,1987,NA,0,4.25915078093762,4.326401606967,4.23980729277887,4.30382748919395,FALSE,0.122517935054385
"CAN","cpi",0.3,1987,3,1987,NA,0.5,3.44307757195375,3.90076799545603,4.23980729277887,3.60745044359556,FALSE,1.42637413013897
"CAN","cpi",0.3,1987,3,1986,NA,1,3.2935290602555,4.7959032907933,4.23980729277887,3.48954394276064,TRUE,1.5023742305378
"CAN","cpi",0.3,1987,3,1986,NA,1.5,2.39950849442316,4.00569884644115,4.23980729277887,3.05061614822702,FALSE,2.27507162726862
"CAN","cpi",0.3,1988,3,1988,NA,0,3.9219110037464,3.98781268220211,3.92899537638065,3.96651200874969,TRUE,0.0659016784557096
"CAN","cpi",0.3,1988,3,1988,NA,0.5,3.11171474153069,3.56881388612565,3.92899537638065,3.27588434563216,FALSE,1.48618911675212
"CAN","cpi",0.3,1988,3,1987,NA,1,3.02728443853147,4.265690394839,3.92899537638065,3.36557853238272,TRUE,1.23840595630753
"CAN","cpi",0.3,1988,3,1987,NA,1.5,1.09637209364268,2.83277263020426,3.92899537638065,2.22890665988493,FALSE,4.86846552563699
"CAN","cpi",0.3,1989,3,1989,NA,0,4.92127947179454,4.98198384907331,4.82821664544208,4.96224122245117,FALSE,0.326598166857248
"CAN","cpi",0.3,1989,3,1989,NA,0.5,3.93937930148674,4.36666284688257,4.82821664544208,4.15246181762677,FALSE,1.74600868413728
"CAN","cpi",0.3,1989,3,1988,NA,1,2.76381759025729,3.86539243537,4.82821664544208,3.35061776773985,FALSE,3.85250115960435
"CAN","cpi",0.3,1989,3,1988,NA,1.5,0.966262213349437,2.59892583407999,4.82821664544208,2.03293210635829,FALSE,8.00206593890795
"CAN","cpi",0.3,1990,3,1990,NA,0,4.44143571002927,4.51079955174554,4.64347549432717,4.49116732458404,FALSE,0.448437963378064
"CAN","cpi",0.3,1990,3,1990,NA,0.5,4.54235341150972,4.97120130384868,4.64347549432717,4.80635133900141,TRUE,0.428847892338959
"CAN","cpi",0.3,1990,3,1989,NA,1,3.88000142881257,4.93812028010119,4.64347549432717,4.45332930526201,TRUE,1.05811885128862
"CAN","cpi",0.3,1990,3,1989,NA,1.5,1.66744938329607,3.34443288004245,4.64347549432717,2.93994143296931,FALSE,5.38853382327415
"CAN","cpi",0.3,1991,3,1991,NA,0,5.54832708108661,5.6158263516822,5.4258100696218,5.5966415351231,FALSE,0.417547874780784
"CAN","cpi",0.3,1991,3,1991,NA,0.5,7.71111630001935,8.13509628916173,5.4258100696218,8.0424604401558,FALSE,6.95342636170682
"CAN","cpi",0.3,1991,3,1990,NA,1,2.35447260188217,3.44291827288139,5.4258100696218,3.00766385389873,FALSE,6.75385080454324
"CAN","cpi",0.3,1991,3,1990,NA,1.5,2.2428130512513,3.74998391375964,5.4258100696218,3.42461322750937,FALSE,6.29524559354308
"CAN","cpi",0.3,1992,3,1992,NA,0,1.41590358112298,1.48419386159547,1.47496888572843,1.46118300949616,TRUE,0.0682902804724805
"CAN","cpi",0.3,1992,3,1992,NA,0.5,1.26675532044586,1.67755318533235,1.47496888572843,1.2379681755847,TRUE,0.410797864886486
"CAN","cpi",0.3,1992,3,1991,NA,1,1.44938933219433,2.24298773510319,1.47496888572843,1.8723365291461,TRUE,0.793598402908867
"CAN","cpi",0.3,1992,3,1991,NA,1.5,6.23065680278778,7.02425520569665,1.47496888572843,6.89933696838937,FALSE,14.3812781659356
"CAN","cpi",0.3,1993,3,1993,NA,0,1.7480677712345,1.82361702534437,1.84351085411351,1.80220567555903,FALSE,0.132388764878848
"CAN","cpi",0.3,1993,3,1993,NA,0.5,2.24619520417197,2.66183686843402,1.84351085411351,2.21818498229346,FALSE,1.56616837871478
"CAN","cpi",0.3,1993,3,1992,NA,1,1.0229672305821,1.78469720939681,1.84351085411351,1.3520429918812,FALSE,0.929768963719574
"CAN","cpi",0.3,1993,3,1992,NA,1.5,0.835485188600952,1.89110273202729,1.84351085411351,0.933485487336859,TRUE,1.05561754342634
"CAN","cpi",0.3,1994,3,1994,NA,0,0.16740943841042,0.234504105190984,0.161630694655448,0.202109657487191,FALSE,0.0836053632233431
"CAN","cpi",0.3,1994,3,1994,NA,0.5,-0.609384762142177,-0.120053583652307,0.161630694655448,-0.572639707462777,FALSE,1.29414340222631
"CAN","cpi",0.3,1994,3,1993,NA,1,0.765662842304327,1.50800696105254,0.161630694655448,1.14110533076836,FALSE,2.46815025488787
"CAN","cpi",0.3,1994,3,1993,NA,1.5,1.55875480016723,2.57992360218556,0.161630694655448,1.65023462295923,FALSE,5.01295196062343
"CAN","cpi",0.3,1995,3,1995,NA,0,2.13264198023762,2.17906614881251,2.11688403676572,2.14851249512314,FALSE,0.0914468642088957
"CAN","cpi",0.3,1995,3,1995,NA,0.5,2.5611827374804,2.98014023123731,2.11688403676572,2.60072443309243,FALSE,1.68838235294172
"CAN","cpi",0.3,1995,3,1994,NA,1,1.05683967613279,1.79548166532282,2.11688403676572,1.43373972642191,FALSE,1.65693447902688
"CAN","cpi",0.3,1995,3,1994,NA,1.5,-1.37354115854747,-0.238684931463373,2.11688403676572,-1.26611333424577,FALSE,7.86505327916721
"CAN","cpi",0.3,1996,3,1996,NA,0,1.41735735660501,1.46135426988498,1.55309584667184,1.43665270425039,FALSE,0.306115704099579
"CAN","cpi",0.3,1996,3,1996,NA,0.5,1.19566305681036,1.64062381929925,1.55309584667184,1.23276330365037,TRUE,0.444960762488888
"CAN","cpi",0.3,1996,3,1995,NA,1,0.396488909042021,1.07409892516032,1.55309584667184,0.729753259393914,FALSE,2.04617264900837
"CAN","cpi",0.3,1996,3,1995,NA,1.5,2.1750063634726,3.59788358503164,1.55309584667184,2.31904839186543,FALSE,3.19976441241834
"CAN","cpi",0.3,1997,3,1997,NA,0,1.64175636154985,1.71219240654975,1.60528783555959,1.67949478723595,FALSE,0.174631833543487
"CAN","cpi",0.3,1997,3,1997,NA,0.5,1.89508656503191,2.33349632253788,1.60528783555959,1.93291992098407,FALSE,1.26640612742688
"CAN","cpi",0.3,1997,3,1996,NA,1,0.367392142531997,0.887397420925891,1.60528783555959,0.614630451620954,FALSE,2.5711207487759
"CAN","cpi",0.3,1997,3,1996,NA,1.5,0.693226206428812,2.20021340641322,1.60528783555959,0.962161564198873,TRUE,1.50698719998441
"CAN","cpi",0.3,1998,3,1998,NA,0,0.925466648788944,0.997456134067844,0.988908029337191,0.967063680387792,TRUE,0.0719894852788996
"CAN","cpi",0.3,1998,3,1998,NA,0.5,1.31403970465495,1.76018237918039,0.988908029337191,1.34897459866337,FALSE,1.37509031829047
"CAN","cpi",0.3,1998,3,1997,NA,1,0.604699446554046,1.05084212107949,0.988908029337191,0.792689959246129,TRUE,0.446142674525443
"CAN","cpi",0.3,1998,3,1997,NA,1.5,0.894438335173799,2.54713914643981,0.988908029337191,1.28384000376946,TRUE,1.65270081126601
"CAN","cpi",0.3,1999,3,1999,NA,0,1.73076853233037,1.80210886253623,1.7107350135213,1.76864633894604,FALSE,0.128578955374636
"CAN","cpi",0.3,1999,3,1999,NA,0.5,0.681590727204225,1.19391753002597,1.7107350135213,0.732099710600531,FALSE,1.98894818423696
"CAN","cpi",0.3,1999,3,1998,NA,1,0.060125483745773,0.643480952392883,1.7107350135213,0.369052571959629,FALSE,3.63265278615686
"CAN","cpi",0.3,1999,3,1998,NA,1.5,1.04130965742051,2.73676197401426,1.7107350135213,1.26847007023129,TRUE,1.69545231659375
"CAN","cpi",0.3,2000,3,2000,NA,0,2.66311261215904,2.73515184928409,2.6718361971244,2.70257810674034,TRUE,0.072039237125054
"CAN","cpi",0.3,2000,3,2000,NA,0.5,1.8206070214415,2.44692159942196,2.6718361971244,1.95948305880876,FALSE,1.26892771427315
"CAN","cpi",0.3,2000,3,1999,NA,1,1.81422002548139,2.49690869503609,2.6718361971244,2.16154661985999,FALSE,1.18248153266416
"CAN","cpi",0.3,2000,3,1999,NA,1.5,0.0549683617942984,1.86350463073147,2.6718361971244,0.50278387806376,FALSE,4.11805503005984
"CAN","cpi",0.3,2001,3,2001,NA,0,2.69580904326938,2.76182401548095,2.47906219852806,2.73154549386087,FALSE,0.685291671472477
"CAN","cpi",0.3,2001,3,2001,NA,0.5,1.54461373153788,2.12140296124083,2.47906219852806,1.65861828263926,FALSE,1.59867276480933
"CAN","cpi",0.3,2001,3,2000,NA,1,2.54359903446748,3.12038826417043,2.47906219852806,2.84133895788986,FALSE,0.761180189529864
"CAN","cpi",0.3,2001,3,2000,NA,1.5,0.778253107422385,2.24583027074683,2.47906219852806,1.14191354447969,FALSE,2.13395409984225
"CAN","cpi",0.3,2002,3,2002,NA,0,2.2886731496592,2.35672277446972,2.20880570551249,2.31282527465204,FALSE,0.296242322372565
"CAN","cpi",0.3,2002,3,2002,NA,0.5,1.18512114964727,1.8020091099419,2.20880570551249,1.24731948634093,FALSE,1.77916394763916
"CAN","cpi",0.3,2002,3,2001,NA,1,0.320997905241944,1.00475923621394,2.20880570551249,0.695491540886875,FALSE,4.12389410039642
"CAN","cpi",0.3,2002,3,2001,NA,1.5,0.101370267436122,1.56779689707563,2.20880570551249,0.47606161882134,FALSE,3.29788036803054
"CAN","cpi",0.3,2003,3,2003,NA,0,2.73302532827305,2.78499426639733,2.71189071546809,2.75460397277825,FALSE,0.112353546138455
"CAN","cpi",0.3,2003,3,2003,NA,0.5,4.11276084400716,4.54953697714568,2.71189071546809,4.16096970792426,FALSE,4.43926221467872
"CAN","cpi",0.3,2003,3,2002,NA,1,3.12236011002233,3.74574442410529,2.71189071546809,3.27791908188471,FALSE,1.79615401280937
"CAN","cpi",0.3,2003,3,2002,NA,1.5,1.17812414052345,2.50835882200173,2.71189071546809,1.51830012756901,FALSE,1.91175437709645
"CAN","cpi",0.3,2004,3,2004,NA,0,1.73806918003161,1.77895377239953,1.83151661303942,1.76153103901938,FALSE,0.19106413705333
"CAN","cpi",0.3,2004,3,2004,NA,0.5,1.33187361222419,1.85450899757858,1.83151661303942,1.38945604480572,TRUE,0.522635385354392
"CAN","cpi",0.3,2004,3,2003,NA,1,0.861313057913443,1.50379301063182,1.83151661303942,1.01874619159597,FALSE,1.57883310245438
"CAN","cpi",0.3,2004,3,2003,NA,1.5,2.49036853618314,3.50036331536821,1.83151661303942,2.99105359104411,FALSE,2.89242884530997
"CAN","cpi",0.3,2005,3,2005,NA,0,2.32369910861878,2.36687912142257,2.18071628336509,2.35062481142317,FALSE,0.45170237067148
"CAN","cpi",0.3,2005,3,2005,NA,0.5,1.40739626908873,1.87192932956353,2.18071628336509,1.4552837212303,FALSE,1.34678149990783
"CAN","cpi",0.3,2005,3,2004,NA,1,0.637329104963396,1.23083139359005,2.18071628336509,0.79648671202377,FALSE,3.30745911655535
"CAN","cpi",0.3,2005,3,2004,NA,1.5,0.248587732914979,1.48674074017029,2.18071628336509,1.13680951350797,FALSE,3.22094027352617
"CAN","cpi",0.3,2006,3,2006,NA,0,2.02964342399395,2.1056934845403,1.97519342012289,2.06448042324351,FALSE,0.231621500177951
"CAN","cpi",0.3,2006,3,2006,NA,0.5,1.72246485950275,2.19043125007145,1.97519342012289,1.77073314120205,TRUE,0.467966390568702
"CAN","cpi",0.3,2006,3,2005,NA,1,2.53099874985853,3.03989664432442,1.97519342012289,2.58808204718941,FALSE,2.09691312228202
"CAN","cpi",0.3,2006,3,2005,NA,1.5,0.256627851322772,1.22901621902145,1.97519342012289,0.762075268916728,FALSE,3.1043232279885
"CAN","cpi",0.3,2007,3,2007,NA,0,2.07112042467869,2.14743084195272,2.10062087284572,2.10807340507977,TRUE,0.0763104172740352
"CAN","cpi",0.3,2007,3,2007,NA,0.5,2.05576072964482,2.46870519454376,2.10062087284572,2.09760271424675,TRUE,0.412944464898937
"CAN","cpi",0.3,2007,3,2006,NA,1,0.368329974819385,0.985120320661159,2.10062087284572,0.438862458623872,FALSE,3.80393478065481
"CAN","cpi",0.3,2007,3,2006,NA,1.5,0.795396440785639,1.57371608598583,2.10062087284572,1.08089197775225,FALSE,2.28376189337131
"CAN","cpi",0.3,2008,3,2008,NA,0,2.88823752802002,2.9542285524511,2.31447335265955,2.9146675338117,FALSE,1.7053172397467
"CAN","cpi",0.3,2008,3,2008,NA,0.5,1.00333987696384,1.41676359061501,2.31447335265955,1.04562745221765,FALSE,2.97830874806415
"CAN","cpi",0.3,2008,3,2007,NA,1,0.295441409536468,0.96046596320569,2.31447335265955,0.365030180386173,FALSE,4.53361709496597
"CAN","cpi",0.3,2008,3,2007,NA,1.5,1.79707473353016,2.46209928719938,2.31447335265955,2.04107389452134,TRUE,0.665024553669222
"CAN","cpi",0.3,2009,3,2009,NA,0,0.273434579642553,0.360208796638023,0.284533874408197,0.272618836216429,TRUE,0.0867742169954699
"CAN","cpi",0.3,2009,3,2009,NA,0.5,-0.899050523264854,-0.433670455315686,0.284533874408197,-0.807426338518035,FALSE,2.51739243858883
"CAN","cpi",0.3,2009,3,2008,NA,1,3.19225778996656,3.92283316560407,0.284533874408197,3.28355694764985,FALSE,9.03835799151855
"CAN","cpi",0.3,2009,3,2008,NA,1.5,0.423156767275243,1.15373214291276,0.284533874408197,0.703376955238912,FALSE,1.12664078382908
"CAN","cpi",0.3,2010,3,2010,NA,0,1.7329578523806,1.81019137697558,1.75525687020327,1.72708036400674,TRUE,0.0772335245949796
"CAN","cpi",0.3,2010,3,2010,NA,0.5,1.38260625148499,1.80055024789029,1.75525687020327,1.42243266198166,TRUE,0.417943996405294
"CAN","cpi",0.3,2010,3,2009,NA,1,0.468423168942581,1.26471906719449,1.75525687020327,0.515829437079458,FALSE,2.197832478277
"CAN","cpi",0.3,2010,3,2009,NA,1.5,-0.976088883118879,-0.179792984866968,1.75525687020327,-0.666399632006793,FALSE,6.32500976988117
"CAN","cpi",0.3,2011,3,2011,NA,0,2.81918418518785,2.91701793160083,2.85717434028225,2.82871118728348,TRUE,0.0978337464129835
"CAN","cpi",0.3,2011,3,2011,NA,0.5,2.54597602556505,3.00813231608496,2.85717434028225,2.59305645945043,TRUE,0.462156290519908
"CAN","cpi",0.3,2011,3,2010,NA,1,1.50022261899954,2.37917920430371,2.85717434028225,1.58194849312145,FALSE,2.24465697381427
"CAN","cpi",0.3,2011,3,2010,NA,1.5,0.770424141640991,1.64938072694517,2.85717434028225,1.00866231757724,FALSE,4.32979548055297
"CAN","cpi",0.3,2012,3,2012,NA,0,1.45762844894853,1.55195335931764,1.50118536134935,1.46681751445377,TRUE,0.0943249103691053
"CAN","cpi",0.3,2012,3,2012,NA,0.5,1.5041850271437,2.01672479883192,1.50118536134935,1.63866597060755,FALSE,0.521110245386369
"CAN","cpi",0.3,2012,3,2011,NA,1,0.781071949893982,1.60188193489909,1.50118536134935,0.848240548987433,TRUE,0.82080998500511
"CAN","cpi",0.3,2012,3,2011,NA,1.5,1.38722734617373,2.20803733117884,1.50118536134935,1.68384299188515,TRUE,0.820809985005109
"CAN","cpi",0.3,2013,3,2013,NA,0,1.02369582712004,1.09905748438066,0.931270594714462,1.03083115414128,FALSE,0.33943374984798
"CAN","cpi",0.3,2013,3,2013,NA,0.5,0.939521377051507,1.53400266221766,0.931270594714462,1.00184063196526,FALSE,0.618054948986285
"CAN","cpi",0.3,2013,3,2012,NA,1,-0.350428443825971,0.430207484670216,0.931270594714462,-0.272545990872386,FALSE,2.21224481433689
"CAN","cpi",0.3,2013,3,2012,NA,1.5,0.665028188116045,1.49408504583359,0.931270594714462,0.958608804136071,TRUE,0.829056857717543
"CAN","cpi",0.3,2014,3,2014,NA,0,1.97895485275505,2.05502996739005,1.87639912240215,1.98613278510701,FALSE,0.369091487071865
"CAN","cpi",0.3,2014,3,2014,NA,0.5,1.75387873185133,2.12196946425268,1.87639912240215,1.95223885123801,TRUE,0.368090732401351
"CAN","cpi",0.3,2014,3,2013,NA,1,0.611009916596966,1.40002553227472,1.87639912240215,0.688658687283847,FALSE,2.15008301604184
"CAN","cpi",0.3,2014,3,2013,NA,1.5,0.539585177948082,1.32860079362583,1.87639912240215,0.891594199884501,FALSE,2.3541536978958
"CAN","cpi",0.3,2015,3,2015,NA,0,1.23863075907454,1.32045692432306,1.11090953952792,1.24641866377254,FALSE,0.446743935381724
"CAN","cpi",0.3,2015,3,2015,NA,0.5,-0.0698194069040645,0.243082672254756,1.11090953952792,0.198117162089698,FALSE,2.79240741422499
"CAN","cpi",0.3,2015,3,2014,NA,1,0.0554979511963063,0.78143585841503,1.11090953952792,0.532106072596766,FALSE,1.66729128182697
"CAN","cpi",0.3,2015,3,2014,NA,1.5,1.4491610273141,2.22232632516781,1.11090953952792,1.81035920235268,FALSE,1.73959812009995
"CAN","cpi",0.3,2016,3,2016,NA,0,1.43478351535514,1.50875310130951,1.41168586698797,1.44184957394589,FALSE,0.139962867003442
"CAN","cpi",0.3,2016,3,2016,NA,0.5,0.552476003913167,0.901554261049941,1.41168586698797,0.843100047406122,FALSE,1.80659713124542
"CAN","cpi",0.3,2016,3,2015,NA,1,1.16846951106337,1.85031448146028,1.41168586698797,1.23484853770273,TRUE,0.681844970396908
"CAN","cpi",0.3,2016,3,2015,NA,1.5,-0.472543897674081,0.331305775557916,1.41168586698797,0.107462752177283,FALSE,3.89064993446071
"CAN","cpi",0.3,2017,3,2017,NA,0,1.51211728107879,1.56812569009082,1.57888581671161,1.51739925639673,FALSE,0.0867516279285778
"CAN","cpi",0.3,2017,3,2017,NA,0.5,1.60204054916675,1.93173127554956,1.57888581671161,1.88170269277887,FALSE,0.395847104826059
"CAN","cpi",0.3,2017,3,2016,NA,1,0.357188508896682,1.07294603765842,1.57888581671161,0.418338346755244,FALSE,2.161299754628
"CAN","cpi",0.3,2017,3,2016,NA,1.5,-0.0616280184702945,0.758221097110271,1.57888581671161,0.52557608733729,FALSE,3.16460545729868
"CAN","cpi",0.3,2018,3,2018,NA,0,2.39950421024125,2.46868482452903,2.23316270166586,2.40611378585155,FALSE,0.544442067360324
"CAN","cpi",0.3,2018,3,2018,NA,0.5,2.33073710028062,2.73032953828703,2.23316270166586,2.62207020824204,FALSE,0.67837643404858
"CAN","cpi",0.3,2018,3,2017,NA,1,0.367160962484768,0.776791421940671,2.23316270166586,0.40411310060617,FALSE,4.57069125867073
"CAN","cpi",0.3,2018,3,2017,NA,1.5,0.932238676293074,1.75719752661341,2.23316270166586,1.53787524714926,FALSE,2.18485935047019
"CAN","cpi",0.3,2019,3,2019,NA,0,2.00341859735666,2.08620679766326,1.91921619871868,2.01142839895124,FALSE,0.323366482129396
"CAN","cpi",0.3,2019,3,2019,NA,0.5,1.17007368172107,1.60987465170759,1.91921619871868,1.51883708040586,FALSE,1.32363396144679
"CAN","cpi",0.3,2019,3,2018,NA,1,1.36110175276063,2.00664466599229,1.91921619871868,1.41942984101848,TRUE,0.645542913231668
"CAN","cpi",0.3,2019,3,2018,NA,1.5,1.46130149946641,2.25002558094572,1.91921619871868,2.06105171090012,TRUE,0.788724081479311
"CAN","cpi",0.3,2020,3,2020,NA,0,0.718726384576632,0.78330760889988,0.71139989671781,0.726179852791075,FALSE,0.085514046777024
"CAN","cpi",0.3,2020,3,2020,NA,0.5,0.779452891058268,1.14578069666168,0.71139989671781,1.07225945048052,FALSE,0.560764932290439
"CAN","cpi",0.3,2020,3,2019,NA,1,1.04505210158996,1.43918045332297,0.71139989671781,1.01913964327806,FALSE,1.34742036565344
"CAN","cpi",0.3,2020,3,2019,NA,1.5,0.620775169104958,1.4041087956309,0.71139989671781,1.22761645350518,TRUE,0.783333626525941
"CAN","cpi",0.3,2021,3,2021,NA,0,3.2902806000764,3.3522440082573,3.31148121717802,3.30988753190892,TRUE,0.0619634081809073
"CAN","cpi",0.3,2021,3,2021,NA,0.5,2.24613521113611,2.54848743381894,3.31148121717802,2.4899040786607,FALSE,2.48233446085165
"CAN","cpi",0.3,2021,3,2020,NA,1,1.02284033395706,1.47017901665428,3.31148121717802,1.1979067045331,FALSE,5.70820211276506
"CAN","cpi",0.3,2021,3,2020,NA,1.5,0.0683983737356051,0.850430668856532,3.31148121717802,0.670626810990653,FALSE,7.81360529032519
"CAN","cpi",0.3,2022,3,2022,NA,0,6.52583509408484,6.58772071304505,6.50977236228281,6.54555789178856,FALSE,0.107779138394571
"CAN","cpi",0.3,2022,3,2022,NA,0.5,5.68294932362886,6.02512079010416,6.50977236228281,5.96468998606203,FALSE,1.7268902441286
"CAN","cpi",0.3,2022,3,2021,NA,1,3.1763703165594,3.69739746615633,6.50977236228281,3.42105264822981,FALSE,8.5563839956726
"CAN","cpi",0.3,2022,3,2021,NA,1.5,1.33405213771174,2.13526264253083,6.50977236228281,1.93276265883962,FALSE,13.2998097041105
"CAN","cpi",0.3,2023,3,2023,NA,0,3.94761880073268,4.00216401346704,3.78831288758619,3.97188685244318,FALSE,0.509704964581484
"CAN","cpi",0.3,2023,3,2023,NA,0.5,2.54823009260445,2.90665829847935,3.78831288758619,2.8392001035463,FALSE,2.87744131760874
"CAN","cpi",0.3,2023,3,2022,NA,1,2.42439697479217,3.13834161150457,3.78831288758619,2.86884991489758,FALSE,2.57100542551704
"CAN","cpi",0.3,2023,3,2022,NA,1.5,3.18805278346747,4.12282875280017,3.78831288758619,4.03317247515909,TRUE,0.934775969332694
"CAN","cpi",0.3,2024,3,2023,NA,1,2.45928806930625,3.17213502065005,NA,2.89946754179362,NA,NA
"CAN","cpi",0.3,2024,3,2023,NA,1.5,0.340214843829931,1.26882760681842,NA,1.17991651782151,NA,NA
"CAN","cpi",0.4,1959,3,1959,NA,0,1.07826221236739,1.24435564200831,1.19382698397654,1.18954599151176,TRUE,0.166093429640927
"CAN","cpi",0.4,1959,3,1959,NA,0.5,0.137446350720237,0.938182933631539,1.19382698397654,0.545308327160925,FALSE,1.65288341739464
"CAN","cpi",0.4,1959,3,1958,NA,1,-1.09475644260362,2.12548064538091,1.19382698397654,1.13295114249046,TRUE,3.22023708798453
"CAN","cpi",0.4,1959,3,1958,NA,1.5,-2.45870615989395,1.9886850814526,1.19382698397654,0.717422088079289,TRUE,4.44739124134655
"CAN","cpi",0.4,1960,3,1960,NA,0,0.925991132145065,1.08569783684992,1.34209404870695,1.02361304259477,FALSE,1.01436074422829
"CAN","cpi",0.4,1960,3,1960,NA,0.5,0.271552811008135,0.857875462675673,1.34209404870695,0.648611007713657,FALSE,2.20038460510513
"CAN","cpi",0.4,1960,3,1959,NA,1,0.685870868554615,3.35897633389016,1.34209404870695,2.37666873185636,TRUE,2.67310546533554
"CAN","cpi",0.4,1960,3,1959,NA,1.5,-2.67051177356956,0.788505867733684,1.34209404870695,-0.349092179567277,FALSE,5.3043115778808
"CAN","cpi",0.4,1961,3,1961,NA,0,0.892111321122568,1.0762289940383,1.00921348094007,1.00921348094007,TRUE,0.184117672915731
"CAN","cpi",0.4,1961,3,1961,NA,0.5,0.656383821866837,1.19743055662109,1.00921348094007,1.00921348094007,TRUE,0.541046734754249
"CAN","cpi",0.4,1961,3,1960,NA,1,-0.978699675860563,0.568345522378512,1.00921348094007,0.0537704626035329,FALSE,3.01660506011094
