isdrw/probabilistic-benchmark-forecasts/results/linear_quantile_regression_lag/archive/ldr_lag_prediction_ar1_2026-02-18_16-02-44.csv
"country","target","tau","target_year","target_quarter","forecast_year","forecast_quarter","horizon","lower_bound","upper_bound","truth_value","prediction","covered","IS"
"CAN","cpi",0.1,1952,3,1952,NA,0,2.71210197688613,2.71210197688613,2.55562336095485,2.65771800091113,FALSE,0.347730257625086
"CAN","cpi",0.1,1952,3,1952,NA,0.5,4.29591720791355,4.29591720791355,2.55562336095485,5.20333179389047,FALSE,3.86731965990823
"CAN","cpi",0.1,1952,3,1951,NA,1,2.35798777440331,2.35798777440331,2.55562336095485,8.18998200969936,FALSE,0.439190192336749
"CAN","cpi",0.1,1952,3,1951,NA,1.5,7.74297969750751,7.74297969750751,2.55562336095485,7.55460015368862,FALSE,11.5274585256726
"CAN","cpi",0.1,1953,3,1953,NA,0,-0.485686791375653,-0.485686791375653,-1.01492775838436,-0.921435878605124,FALSE,1.17609103779713
"CAN","cpi",0.1,1953,3,1953,NA,0.5,1.01372169723561,1.01372169723561,-1.01492775838436,-0.76897284692861,FALSE,4.50810990137772
"CAN","cpi",0.1,1953,3,1952,NA,1,-5.62257222518426,-5.62257222518426,-1.01492775838436,2.43113434957527,FALSE,10.239209926222
"CAN","cpi",0.1,1953,3,1952,NA,1.5,6.68501684596805,6.68501684596805,-1.01492775838436,5.93557635631702,FALSE,17.110988009672
"CAN","cpi",0.1,1954,3,1954,NA,0,0.823522063546587,0.823522063546587,0.644425455961438,0.902670593188762,FALSE,0.39799246130033
"CAN","cpi",0.1,1954,3,1954,NA,0.5,1.56078268173808,1.56078268173808,0.644425455961438,0.795164313951574,FALSE,2.03634939061476
"CAN","cpi",0.1,1954,3,1953,NA,1,8.50028690385899,8.50028690385899,0.644425455961438,4.14534384936852,FALSE,17.4574698842168
"CAN","cpi",0.1,1954,3,1953,NA,1.5,1.15232760582428,10.6623626372443,0.644425455961438,3.28639485866967,FALSE,10.6387064755597
"CAN","cpi",0.1,1955,3,1955,NA,0,0.0948240941190707,0.0948240941190706,0.173649026558865,0.179965740558204,FALSE,0.175166516532876
"CAN","cpi",0.1,1955,3,1955,NA,0.5,0.592782627708107,0.592782627708107,0.173649026558865,0.271639815719239,FALSE,0.931408002553872
"CAN","cpi",0.1,1955,3,1954,NA,1,2.86582541067226,2.86582541067226,0.173649026558865,4.00726070064464,FALSE,5.98261418691866
"CAN","cpi",0.1,1955,3,1954,NA,1.5,0.77002451913044,1.11096110213868,0.173649026558865,3.09849569962328,FALSE,1.66621545538951
"CAN","cpi",0.1,1956,3,1956,NA,0,1.42200022923151,1.42200022923151,1.32752769429961,1.49944483483663,FALSE,0.209938966515338
"CAN","cpi",0.1,1956,3,1956,NA,0.5,0.266493478360879,0.634004684699705,1.32752769429961,0.239658941687119,FALSE,1.90867344989417
"CAN","cpi",0.1,1956,3,1955,NA,1,-0.653778622232991,-0.286267415894166,1.32752769429961,2.42699902405841,FALSE,3.95372256232499
"CAN","cpi",0.1,1956,3,1955,NA,1.5,0.18986499542391,0.557376201762736,1.32752769429961,2.6723883730094,FALSE,2.07895896753187
"CAN","cpi",0.1,1957,3,1957,NA,0,3.30360388241142,3.3274818856375,3.24684755852518,3.40805864327458,FALSE,0.150003167417731
"CAN","cpi",0.1,1957,3,1957,NA,0.5,3.23981988769456,3.26369789092064,3.24684755852518,2.77134230956367,TRUE,0.0238780032260761
"CAN","cpi",0.1,1957,3,1956,NA,1,2.20278856999344,3.99618391958083,3.24684755852518,5.53767573267731,TRUE,1.79339534958739
"CAN","cpi",0.1,1957,3,1956,NA,1.5,-0.115851201936345,1.67754414765104,3.24684755852518,2.3159105314434,FALSE,5.28073626264102
"CAN","cpi",0.1,1958,3,1958,NA,0,2.14419253458464,2.16794701280313,2.33186388641149,2.2666416787086,FALSE,0.388014197348175
"CAN","cpi",0.1,1958,3,1958,NA,0.5,2.61219895123579,2.63595342945427,2.33186388641149,2.6047181946108,FALSE,0.646721288939148
"CAN","cpi",0.1,1958,3,1957,NA,1,0.846340972312893,0.87009545053138,2.33186388641149,4.25451187896576,FALSE,3.27212878017429
"CAN","cpi",0.1,1958,3,1957,NA,1.5,1.04896214630946,1.53987088427445,2.33186388641149,3.21878619474396,FALSE,2.25089318715842
"CAN","cpi",0.1,1959,3,1959,NA,0,1.11296259041516,1.14196142814369,1.19382698397654,1.23804892137791,FALSE,0.144255628468202
"CAN","cpi",0.1,1959,3,1959,NA,0.5,1.26024990373981,1.28924874146835,1.19382698397654,1.22423653017582,FALSE,0.176605326091361
"CAN","cpi",0.1,1959,3,1958,NA,1,-0.140419775281073,0.635509281622282,1.19382698397654,2.76661875727304,FALSE,2.01663506213504
"CAN","cpi",0.1,1959,3,1958,NA,1.5,1.50036193948933,2.27629099639268,1.19382698397654,3.40313655953963,FALSE,1.45711784693177
"CAN","cpi",0.1,1960,3,1960,NA,0,1.01404768034461,1.01404768034461,1.34209404870695,1.09496250556158,FALSE,0.728991929694089
"CAN","cpi",0.1,1960,3,1960,NA,0.5,1.57596486425169,1.60398320277144,1.34209404870695,1.31117730754252,FALSE,0.547731261952504
"CAN","cpi",0.1,1960,3,1959,NA,1,1.9423278660366,1.97034620455635,1.34209404870695,3.67993081372331,FALSE,1.36187126591896
"CAN","cpi",0.1,1960,3,1959,NA,1.5,1.75241979054808,1.78043812906783,1.34209404870695,2.53752597259669,FALSE,0.939853320388928
"CAN","cpi",0.1,1961,3,1961,NA,0,0.998376700734891,1.03895651910225,1.00921348094007,1.07956241593662,TRUE,0.0405798183673585
"CAN","cpi",0.1,1961,3,1961,NA,0.5,1.67861525789512,1.87510310250435,1.00921348094007,1.62810563897838,FALSE,1.68404734895378
"CAN","cpi",0.1,1961,3,1960,NA,1,-0.433770523162688,0.185204112120119,1.00921348094007,1.72683407115431,FALSE,2.45010656599381
"CAN","cpi",0.1,1961,3,1960,NA,1.5,1.05320882185819,1.672183457141,1.00921348094007,2.46209267036318,FALSE,0.716742059545291
"CAN","cpi",0.1,1962,3,1962,NA,0,1.04906175757223,1.07931072062551,1.04957947883042,1.11859419449202,TRUE,0.0302489630532756
"CAN","cpi",0.1,1962,3,1962,NA,0.5,0.518505944082179,0.742203702875365,1.04957947883042,0.567427238599509,FALSE,0.906755038693297
"CAN","cpi",0.1,1962,3,1961,NA,1,0.545512666589163,0.76921042538235,1.04957947883042,1.63689072516514,FALSE,0.846740099788887
"CAN","cpi",0.1,1962,3,1961,NA,1.5,0.960481466695229,1.35464406508541,1.04957947883042,2.63635903501327,TRUE,0.394162598390184
"CAN","cpi",0.1,1963,3,1963,NA,0,1.79595087058549,1.79642782137994,1.60677118395228,1.86240003699012,FALSE,0.420876254423805
"CAN","cpi",0.1,1963,3,1963,NA,0.5,1.50456197036639,1.7216802716963,1.60677118395228,1.39337130813056,TRUE,0.217118301329916
"CAN","cpi",0.1,1963,3,1962,NA,1,1.43246935643237,1.64958765776229,1.60677118395228,2.94326130570012,TRUE,0.217118301329916
"CAN","cpi",0.1,1963,3,1962,NA,1.5,1.05872837653992,1.30145595882196,1.60677118395228,2.44281938697022,FALSE,0.921205860349432
"CAN","cpi",0.1,1964,3,1964,NA,0,1.93699759368003,1.93744907329579,1.88764670034376,2.0039339947047,FALSE,0.110120131474142
"CAN","cpi",0.1,1964,3,1964,NA,0.5,1.94823261692863,2.01027070500469,1.88764670034376,1.7991677011144,FALSE,0.196673458264658
"CAN","cpi",0.1,1964,3,1963,NA,1,2.04670848308079,2.25880762139219,1.88764670034376,4.16988253093083,FALSE,0.565569766615916
"CAN","cpi",0.1,1964,3,1963,NA,1.5,1.14345273575816,1.35555187406956,1.88764670034376,2.39235828979053,FALSE,1.39453208558741
"CAN","cpi",0.1,1965,3,1965,NA,0,2.26933046962558,2.27836411397362,2.29538304394236,2.3444020011952,FALSE,0.0468534887230169
"CAN","cpi",0.1,1965,3,1965,NA,0.5,1.95694945998905,1.98835057724179,2.29538304394236,1.87416183614195,FALSE,0.713695487698442
"CAN","cpi",0.1,1965,3,1964,NA,1,1.31554351939088,1.34694463664363,2.29538304394236,2.77513442256292,FALSE,2.13904202236103
"CAN","cpi",0.1,1965,3,1964,NA,1.5,1.5205659703967,1.80674818363707,2.29538304394236,2.58300862182973,FALSE,1.37203745836323
"CAN","cpi",0.1,1966,3,1966,NA,0,3.75462900337171,3.76204624211116,3.72486065470629,3.82226531435883,FALSE,0.0735691246626149
"CAN","cpi",0.1,1966,3,1966,NA,0.5,4.00650432188182,4.02088132624027,3.72486065470629,3.71609253757358,FALSE,0.640251820304075
"CAN","cpi",0.1,1966,3,1965,NA,1,1.47091425144597,1.48529125580442,3.72486065470629,3.18026314560651,FALSE,4.99119789080705
"CAN","cpi",0.1,1966,3,1965,NA,1.5,1.60861650162921,1.94947627379792,3.72486065470629,2.72588429168219,FALSE,4.28615839640953
"CAN","cpi",0.1,1967,3,1967,NA,0,3.64055909601177,3.64678875993516,3.49360316391996,3.71060899730274,FALSE,0.332798401905186
"CAN","cpi",0.1,1967,3,1967,NA,0.5,2.32880953049653,2.3634970504018,3.49360316391996,2.56028521952089,FALSE,2.54603443883452
"CAN","cpi",0.1,1967,3,1966,NA,1,1.39081343171512,1.42550095162039,3.49360316391996,3.23068289349593,FALSE,4.63047021390431
"CAN","cpi",0.1,1967,3,1966,NA,1.5,2.21256800817897,2.28532799600098,3.49360316391996,3.48379255951164,FALSE,2.75781591653086
"CAN","cpi",0.1,1968,3,1968,NA,0,3.99206170315086,4.02635987071542,3.95128347779386,4.08812321751386,FALSE,0.124916446135681
"CAN","cpi",0.1,1968,3,1968,NA,0.5,3.77230543613754,3.93130584270189,3.95128347779386,3.86057245484849,FALSE,0.203395151213167
"CAN","cpi",0.1,1968,3,1967,NA,1,1.96397056132928,2.14982320800875,3.95128347779386,4.52914843962159,FALSE,4.18909769064637
"CAN","cpi",0.1,1968,3,1967,NA,1.5,2.25902132528928,2.44487397196874,3.95128347779386,2.90317969156253,FALSE,3.53342932629083
"CAN","cpi",0.1,1969,3,1969,NA,0,4.46619089291221,4.50137706118603,4.42679496126681,4.56202018095233,FALSE,0.122732683041368
"CAN","cpi",0.1,1969,3,1969,NA,0.5,3.00300200894353,3.06915505262194,4.42679496126681,3.1731721410374,FALSE,3.08313061844479
"CAN","cpi",0.1,1969,3,1968,NA,1,2.01906049879328,2.22289548760732,4.42679496126681,4.79164269130369,FALSE,5.10138937472402
"CAN","cpi",0.1,1969,3,1968,NA,1.5,2.35142881841085,2.55526380722489,4.42679496126681,3.43166930802121,FALSE,4.3627931089072
"CAN","cpi",0.1,1970,3,1970,NA,0,3.49111873015325,3.54151221903357,3.28128405769805,3.60731179706845,FALSE,0.516692761002997
"CAN","cpi",0.1,1970,3,1970,NA,0.5,3.95905817525435,4.00945166413467,3.28128405769805,4.09876840974541,FALSE,1.55655819456099
"CAN","cpi",0.1,1970,3,1969,NA,1,1.75567589013187,1.80606937901219,3.28128405769805,4.16731408225431,FALSE,3.32864833040445
"CAN","cpi",0.1,1970,3,1969,NA,1.5,2.71926934557313,2.90077457096468,3.28128405769805,2.94225383025522,FALSE,1.02708186257681
"CAN","cpi",0.1,1971,3,1971,NA,0,2.71259264253304,2.74461840183012,2.64123406634756,2.83090781749212,FALSE,0.190600373042585
"CAN","cpi",0.1,1971,3,1971,NA,0.5,1.391398412845,1.44873796665222,2.64123406634756,1.62320660035324,FALSE,2.70733088646353
"CAN","cpi",0.1,1971,3,1970,NA,1,1.45647185612833,1.51381140993555,2.64123406634756,3.17007770946556,FALSE,2.5627232347228
"CAN","cpi",0.1,1971,3,1970,NA,1.5,2.15039390723719,2.42811123149827,2.64123406634756,3.54353814347809,FALSE,0.751323623926177
"CAN","cpi",0.1,1972,3,1972,NA,0,4.90586464995625,4.9393769946965,4.83230569625923,5.0489634093373,FALSE,0.196976686289183
"CAN","cpi",0.1,1972,3,1972,NA,0.5,4.54565567545011,4.80606723126349,4.83230569625923,4.42305209693724,FALSE,0.318719255803916
"CAN","cpi",0.1,1972,3,1971,NA,1,2.28476802686417,2.54557395509697,4.83230569625923,4.88112932259212,FALSE,5.34243201970449
"CAN","cpi",0.1,1972,3,1971,NA,1.5,2.20760287320733,2.46840880144013,4.83230569625923,2.93340690449956,FALSE,5.51391013894191
"CAN","cpi",0.1,1973,3,1973,NA,0,7.05776901960249,7.02967979448775,7.12388603531779,7.21795256722813,FALSE,0.181257976729793
"CAN","cpi",0.1,1973,3,1973,NA,0.5,5.48848421416188,5.51610735618182,7.12388603531779,5.49391172870491,FALSE,3.60046465121099
"CAN","cpi",0.1,1973,3,1972,NA,1,2.40517655711334,2.69609757033449,7.12388603531779,5.39692894021178,FALSE,10.1304509354063
"CAN","cpi",0.1,1973,3,1972,NA,1.5,2.97789264428932,3.26881365751046,7.12388603531779,3.58263496028301,FALSE,8.85774851945965
"CAN","cpi",0.1,1974,3,1974,NA,0,9.97149633393699,10.0052223602164,10.2717243737774,10.1210179328964,FALSE,0.625952723081629
"CAN","cpi",0.1,1974,3,1974,NA,0.5,7.74034136272714,7.77406738900659,10.2717243737774,7.94351867110281,FALSE,5.58407488132574
"CAN","cpi",0.1,1974,3,1973,NA,1,4.08591150460988,5.02887230473754,10.2717243737774,7.1912022670208,FALSE,12.5937431757718
"CAN","cpi",0.1,1974,3,1973,NA,1.5,3.49532135709434,4.438282157222,10.2717243737774,4.0254660999559,FALSE,13.9061657258064
"CAN","cpi",0.1,1975,3,1975,NA,0,10.0661597128467,10.0476411521563,10.0232981493341,10.1376483081154,FALSE,0.0767293582265154
"CAN","cpi",0.1,1975,3,1975,NA,0.5,7.41660183810039,7.39808327740998,10.0232981493341,8.26308676293858,FALSE,5.81529226580767
"CAN","cpi",0.1,1975,3,1974,NA,1,5.17921324493554,5.83638742084464,10.0232981493341,7.73583614861028,FALSE,9.96142023921906
"CAN","cpi",0.1,1975,3,1974,NA,1.5,6.49856293476891,7.15573711067801,10.0232981493341,4.67814014273702,FALSE,7.02953203958935
"CAN","cpi",0.1,1976,3,1976,NA,0,7.11218619589549,7.12964626630056,7.22784311401172,7.2178166349125,FALSE,0.235675287540975
"CAN","cpi",0.1,1976,3,1976,NA,0.5,6.18866709120946,8.40604185319484,7.22784311401172,6.91786916440093,TRUE,2.21737476198537
"CAN","cpi",0.1,1976,3,1975,NA,1,7.11454601369535,9.9149319752132,7.22784311401172,8.273619332389,TRUE,2.80038596151785
"CAN","cpi",0.1,1976,3,1975,NA,1.5,7.04428954893891,9.84467551045676,7.22784311401172,4.5816570194731,TRUE,2.80038596151785
"CAN","cpi",0.1,1977,3,1977,NA,0,7.39472452478052,7.41207073398265,7.58101410153764,7.50701198703803,FALSE,0.3927759148799
"CAN","cpi",0.1,1977,3,1977,NA,0.5,6.91891781598359,6.93626402518571,7.58101410153764,6.51617593246189,FALSE,1.45012415665086
"CAN","cpi",0.1,1977,3,1976,NA,1,4.55389478461958,4.94353135734884,7.58101410153764,4.96992569410004,FALSE,6.25070933759328
"CAN","cpi",0.1,1977,3,1976,NA,1.5,4.97237519536899,5.4189689633643,7.58101410153764,4.37719420243736,FALSE,5.25113851949163
"CAN","cpi",0.1,1978,3,1978,NA,0,8.49812797253265,8.49011127265878,8.50208927062595,8.58158523467168,FALSE,0.0186010733865037
"CAN","cpi",0.1,1978,3,1978,NA,0.5,7.98400848256602,8.71463520981672,8.50208927062595,7.4716201567401,TRUE,0.730626727250695
"CAN","cpi",0.1,1978,3,1977,NA,1,5.84663357335047,7.08995800687844,8.50208927062595,6.36749774462425,FALSE,4.38139390852242
"CAN","cpi",0.1,1978,3,1977,NA,1.5,4.17380558477178,5.41713001829974,8.50208927062595,5.06410799386515,FALSE,8.09878943869731
"CAN","cpi",0.1,1979,3,1979,NA,0,8.41693641174291,8.41912668357301,8.65147652410481,8.49829924825941,FALSE,0.518523250789661
"CAN","cpi",0.1,1979,3,1979,NA,0.5,8.04227988883878,8.56542808917584,8.65147652410481,7.55954787357905,FALSE,0.714366944623661
"CAN","cpi",0.1,1979,3,1978,NA,1,6.33251500968461,8.42333770393561,8.65147652410481,7.11843292779768,FALSE,2.59779785018255
"CAN","cpi",0.1,1979,3,1978,NA,1.5,5.34269970984202,7.43352240409301,8.65147652410481,5.13416174624329,FALSE,4.79738740538832
"CAN","cpi",0.1,1980,3,1980,NA,0,9.34051033729254,9.36897940526794,9.5171912664748,9.41458421512922,FALSE,0.357828759546186
"CAN","cpi",0.1,1980,3,1980,NA,0.5,8.85969867345896,9.04047217466145,9.5171912664748,7.9706129876785,FALSE,1.24014926078771
"CAN","cpi",0.1,1980,3,1979,NA,1,8.11524826720362,8.29602176840612,9.5171912664748,6.28953001008885,FALSE,2.89448349691067
"CAN","cpi",0.1,1980,3,1979,NA,1.5,7.01177336619379,8.28508069505599,9.5171912664748,5.364173973799,FALSE,4.011330820904
"CAN","cpi",0.1,1981,3,1981,NA,0,11.5277073122602,11.5573188639638,11.5813425032741,11.5923033542996,FALSE,0.0829974168376661
"CAN","cpi",0.1,1981,3,1981,NA,0.5,12.6120395607501,12.6989786290957,11.5813425032741,11.0172481296202,FALSE,2.37737697384775
"CAN","cpi",0.1,1981,3,1980,NA,1,9.65114809705938,9.73808716540503,11.5813425032741,8.10476531012298,FALSE,4.18306204138812
"CAN","cpi",0.1,1981,3,1980,NA,1.5,7.99134003401148,9.33741229654477,11.5813425032741,5.56064493450504,FALSE,6.33258383304299
"CAN","cpi",0.1,1982,3,1982,NA,0,10.1720564360633,10.1792407573523,10.1124203763629,10.1931679525338,FALSE,0.139708898400946
"CAN","cpi",0.1,1982,3,1982,NA,0.5,10.4137907890701,10.7078811885783,10.1124203763629,9.37004969245236,FALSE,0.963802427746284
"CAN","cpi",0.1,1982,3,1981,NA,1,11.2872248755914,11.5813152750995,10.1124203763629,8.69554175936175,FALSE,2.90476706446019
"CAN","cpi",0.1,1982,3,1981,NA,1.5,8.37780370872835,11.2822563477429,10.1124203763629,7.27062596384307,TRUE,2.90445263901452
"CAN","cpi",0.1,1983,3,1983,NA,0,5.73498452463884,5.75087519611753,5.67091787896303,5.81768735292628,FALSE,0.158260995202705
"CAN","cpi",0.1,1983,3,1983,NA,0.5,5.31763088640562,5.41354720046408,5.67091787896303,5.01354605702602,FALSE,0.667851155167246
"CAN","cpi",0.1,1983,3,1982,NA,1,9.55626135958387,9.65217767364233,5.67091787896303,7.12656393494862,FALSE,8.73001293766031
"CAN","cpi",0.1,1983,3,1982,NA,1.5,8.37339652056064,9.42346120664752,5.67091787896303,6.40641718255638,FALSE,7.05557277852601
"CAN","cpi",0.1,1984,3,1984,NA,0,4.14145105746894,4.17062141343328,4.19799576814029,4.24028901012313,FALSE,0.0900022553132476
"CAN","cpi",0.1,1984,3,1984,NA,0.5,5.10714849930855,5.41524285013563,4.19799576814029,4.75786855948752,FALSE,2.32843375342321
"CAN","cpi",0.1,1984,3,1983,NA,1,5.44243769252343,6.00588064245246,4.19799576814029,5.66557758519989,FALSE,3.32886944855824
"CAN","cpi",0.1,1984,3,1983,NA,1.5,4.96737548032938,5.54613927111814,4.19799576814029,4.21132796972244,FALSE,2.2884964845423
"CAN","cpi",0.1,1985,3,1985,NA,0,3.82000068419017,3.85398649915063,3.86444262005169,3.92349089738505,FALSE,0.0572216391850403
"CAN","cpi",0.1,1985,3,1985,NA,0.5,4.3550551319527,4.62865034149968,3.86444262005169,4.05923277954066,FALSE,1.36384523599366
"CAN","cpi",0.1,1985,3,1984,NA,1,3.67155336885806,4.12798464924968,3.86444262005169,3.95710775307987,TRUE,0.456431280391625
"CAN","cpi",0.1,1985,3,1984,NA,1.5,2.41527347357228,3.75410807598027,3.86444262005169,4.80620472271859,FALSE,1.58402247812226
"CAN","cpi",0.1,1986,3,1986,NA,0,4.02640041802554,4.06203179769832,4.08685396749431,4.13000198176505,FALSE,0.0907917569972088
"CAN","cpi",0.1,1986,3,1986,NA,0.5,4.88942123194448,5.09398311964708,4.08685396749431,4.52376153022901,FALSE,1.98804469759186
"CAN","cpi",0.1,1986,3,1985,NA,1,3.80163150660139,4.10923028383255,4.08685396749431,4.28856700742326,TRUE,0.307598777231158
"CAN","cpi",0.1,1986,3,1985,NA,1.5,2.09925125372762,3.56011724051143,4.08685396749431,4.73207334351572,FALSE,2.63139204674576
"CAN","cpi",0.1,1987,3,1987,NA,0,4.25336916300835,4.29162164968754,4.23980729277887,4.34713339619661,FALSE,0.068389976078035
"CAN","cpi",0.1,1987,3,1987,NA,0.5,4.34311210318876,4.46530163615036,4.23980729277887,4.04554574241257,FALSE,0.351755778316912
"CAN","cpi",0.1,1987,3,1986,NA,1,4.07103687409187,4.4209829407438,4.23980729277887,4.62985152306341,TRUE,0.349946066651931
"CAN","cpi",0.1,1987,3,1986,NA,1.5,2.31709352657092,3.70469961795364,4.23980729277887,4.92117197950912,FALSE,2.57673425766101
"CAN","cpi",0.1,1988,3,1988,NA,0,3.90592031704412,3.93992211357419,3.92899537638065,4.00901931174773,TRUE,0.0340017965300685
"CAN","cpi",0.1,1988,3,1988,NA,0.5,3.98419518949369,4.12286198136458,3.92899537638065,3.73662637763501,FALSE,0.261333043233199
"CAN","cpi",0.1,1988,3,1987,NA,1,4.13828208383339,4.48379552511776,3.92899537638065,4.57559871410537,FALSE,0.810595013401566
"CAN","cpi",0.1,1988,3,1987,NA,1.5,3.8205893148019,4.26470182440522,3.92899537638065,4.47333468954476,TRUE,0.444112509603322
"CAN","cpi",0.1,1989,3,1989,NA,0,4.89023675614808,4.92734649271566,4.82821664544208,4.99076681888079,FALSE,0.174932204803146
"CAN","cpi",0.1,1989,3,1989,NA,0.5,4.84629870518518,4.96109774999466,4.82821664544208,4.4916513034202,FALSE,0.154981399794152
"CAN","cpi",0.1,1989,3,1988,NA,1,3.98944592914033,4.22117383371332,4.82821664544208,4.54165447743213,FALSE,1.5807119306369
"CAN","cpi",0.1,1989,3,1988,NA,1.5,3.59683911093207,3.82856701550506,4.82821664544208,4.35655767104226,FALSE,2.45317152665525
"CAN","cpi",0.1,1990,3,1990,NA,0,4.43725576283879,4.47013491373852,4.64347549432717,4.53713653171057,FALSE,0.418080441096735
"CAN","cpi",0.1,1990,3,1990,NA,0.5,5.45856266517992,5.58381824812792,4.64347549432717,5.08101061108308,FALSE,1.93656040706523
"CAN","cpi",0.1,1990,3,1989,NA,1,4.7978773645046,5.29202923116134,4.64347549432717,5.34783125013627,FALSE,0.837267133717686
"CAN","cpi",0.1,1990,3,1989,NA,1.5,4.34777568367364,4.84192755033038,4.64347549432717,4.81353563225505,TRUE,0.494151866656743
"CAN","cpi",0.1,1991,3,1991,NA,0,5.56384405660502,5.5996471343277,5.4258100696218,5.66037042635664,FALSE,0.342545271018734
"CAN","cpi",0.1,1991,3,1991,NA,0.5,8.59441503101912,8.65429188753966,5.4258100696218,7.84858621299389,FALSE,7.10122121518125
"CAN","cpi",0.1,1991,3,1990,NA,1,4.24912799021222,4.55250065498433,5.4258100696218,4.26930339967321,FALSE,2.24406025285536
"CAN","cpi",0.1,1991,3,1990,NA,1.5,4.07501000957907,4.38271670600037,5.4258100696218,5.0605414207232,FALSE,2.62569194891336
"CAN","cpi",0.1,1992,3,1992,NA,0,1.42133579975184,1.44600592900628,1.47496888572843,1.52994687025859,FALSE,0.0890322553036635
"CAN","cpi",0.1,1992,3,1992,NA,0.5,1.74762406034235,1.8523253195717,1.47496888572843,1.85875773502133,FALSE,0.710601647260277
"CAN","cpi",0.1,1992,3,1991,NA,1,4.39377228025686,4.59476149882263,1.47496888572843,3.50386131646851,FALSE,6.68721898418449
"CAN","cpi",0.1,1992,3,1991,NA,1.5,4.4188386994419,4.81781836850178,1.47496888572843,6.78035435046663,FALSE,6.94091258842314
"CAN","cpi",0.1,1993,3,1993,NA,0,1.76133585350887,1.78699387411282,1.84351085411351,1.87124044779021,FALSE,0.15125130949438
"CAN","cpi",0.1,1993,3,1993,NA,0.5,2.92962453101011,2.95528255161405,1.84351085411351,2.72734178597627,FALSE,2.43924396926304
"CAN","cpi",0.1,1993,3,1992,NA,1,1.89220651158796,1.91786453219191,1.84351085411351,3.08451104384819,FALSE,0.133870592769386
"CAN","cpi",0.1,1993,3,1992,NA,1.5,1.37313026895873,1.82158376902888,1.84351085411351,3.82501351795864,FALSE,0.497180355813773
"CAN","cpi",0.1,1994,3,1994,NA,0,0.158025846982818,0.18710989686563,0.161630694655448,0.262954827743209,TRUE,0.0290840498828118
"CAN","cpi",0.1,1994,3,1994,NA,0.5,0.172796934473697,0.201880984356508,0.161630694655448,0.310066271274909,FALSE,0.0538979161455872
"CAN","cpi",0.1,1994,3,1993,NA,1,1.93137547681286,2.01850946726124,0.161630694655448,2.87682482634461,FALSE,4.01990017302041
"CAN","cpi",0.1,1994,3,1993,NA,1.5,1.63216659167605,2.04706289067709,0.161630694655448,4.13541986765475,FALSE,3.68275384793571
"CAN","cpi",0.1,1995,3,1995,NA,0,2.14972902126016,2.11946028651052,2.11688403676572,2.22224044651209,FALSE,0.0427201196824599
"CAN","cpi",0.1,1995,3,1995,NA,0.5,3.30681664317422,3.27654790842459,2.11688403676572,2.99405804315788,FALSE,2.61402594615816
"CAN","cpi",0.1,1995,3,1994,NA,1,1.0981634752353,1.06789474048567,2.11688403676572,2.99684369657241,FALSE,2.30081859031714
"CAN","cpi",0.1,1995,3,1994,NA,1.5,0.635940265909927,1.12930606766334,2.11688403676572,2.55761383507254,FALSE,2.6879835108698
"CAN","cpi",0.1,1996,3,1996,NA,0,1.40753335139556,1.428945194098,1.55309584667184,1.51034526106652,FALSE,0.297302181755424
"CAN","cpi",0.1,1996,3,1996,NA,0.5,1.83305590697408,1.86034650328458,1.55309584667184,1.79601314583588,FALSE,0.649424063648805
"CAN","cpi",0.1,1996,3,1995,NA,1,1.87652750626858,2.000917058899,1.55309584667184,2.55715877011559,FALSE,0.843126573956504
"CAN","cpi",0.1,1996,3,1995,NA,1.5,1.79830580834942,2.20537205991192,1.55309584667184,4.37195408299294,FALSE,0.951977277512666
"CAN","cpi",0.1,1997,3,1997,NA,0,1.64823742793128,1.66909408706779,1.60528783555959,1.74775979926451,FALSE,0.116300197740268
"CAN","cpi",0.1,1997,3,1997,NA,0.5,2.5922237959232,2.61308045505972,1.60528783555959,2.44638235868142,FALSE,2.21404768216676
"CAN","cpi",0.1,1997,3,1996,NA,1,1.53173048204965,1.55836021814217,1.60528783555959,2.43903366578812,FALSE,0.130913330353459
"CAN","cpi",0.1,1997,3,1996,NA,1.5,1.55234693833839,1.99911085539667,1.60528783555959,3.62198739789796,TRUE,0.446763917058282
"CAN","cpi",0.1,1998,3,1998,NA,0,0.93438108151486,0.953892068463774,0.988908029337191,1.03895035119065,FALSE,0.0973242333342849
"CAN","cpi",0.1,1998,3,1998,NA,0.5,1.88769759459241,1.92958358251863,0.988908029337191,1.85198354845497,FALSE,2.03919613293782
"CAN","cpi",0.1,1998,3,1997,NA,1,1.59454961706045,1.65455481583451,0.988908029337191,2.50242700061489,FALSE,1.40587539371464
"CAN","cpi",0.1,1998,3,1997,NA,1.5,1.57022141716624,1.97953235018839,0.988908029337191,3.75826952211307,FALSE,1.70111846153114
"CAN","cpi",0.1,1999,3,1999,NA,0,1.71802756132929,1.74228818776202,1.7107350135213,1.81904689636282,FALSE,0.0404662882282788
"CAN","cpi",0.1,1999,3,1999,NA,0.5,1.28193486735388,1.32242248593057,1.7107350135213,1.31729339512256,FALSE,0.903404346556086
"CAN","cpi",0.1,1999,3,1998,NA,1,1.02527371874701,1.0657613373237,1.7107350135213,2.15211490322884,FALSE,1.47376245457135
"CAN","cpi",0.1,1999,3,1998,NA,1.5,0.933724870274206,1.16608861909498,1.7107350135213,3.69857126490312,FALSE,1.44268906976815
"CAN","cpi",0.1,2000,3,2000,NA,0,2.64212019137273,2.66706354726563,2.6718361971244,2.74274050503735,FALSE,0.0355492444679357
"CAN","cpi",0.1,2000,3,2000,NA,0.5,2.55463205311109,2.62396889309951,2.6718361971244,2.46113990926174,FALSE,0.175708626710404
"CAN","cpi",0.1,2000,3,1999,NA,1,2.23021732169141,2.3080055722178,2.6718361971244,3.49419557264756,FALSE,0.886300750318837
"CAN","cpi",0.1,2000,3,1999,NA,1.5,1.93654563034896,2.32716171688988,2.6718361971244,3.22544865557399,FALSE,1.15655937595096
"CAN","cpi",0.1,2001,3,2001,NA,0,2.70611450945895,2.73037025556984,2.47906219852806,2.80396337772557,FALSE,0.52881643706842
"CAN","cpi",0.1,2001,3,2001,NA,0.5,2.30747187042406,2.34389742290166,2.47906219852806,2.23984277042869,FALSE,0.336791720536278
"CAN","cpi",0.1,2001,3,2000,NA,1,2.97253738056364,3.16355859921527,2.47906219852806,3.95792003209951,FALSE,1.28763273428625
"CAN","cpi",0.1,2001,3,2000,NA,1.5,2.76319435388509,3.12105610130182,2.47906219852806,3.55622040628749,FALSE,0.989266537099015
"CAN","cpi",0.1,2002,3,2002,NA,0,2.24895337495821,2.27359838241055,2.20880570551249,2.34939305392984,FALSE,0.113862050665066
"CAN","cpi",0.1,2002,3,2002,NA,0.5,1.70792889790327,1.75093071837751,2.20880570551249,1.70224895292675,FALSE,1.0605017918853
"CAN","cpi",0.1,2002,3,2001,NA,1,2.00664931262386,2.19527480676184,2.20880570551249,2.47791561910008,FALSE,0.218694158028297
"CAN","cpi",0.1,2002,3,2001,NA,1.5,2.74957567168265,3.10746395587503,2.20880570551249,3.17564245091106,FALSE,1.55959932012608
"CAN","cpi",0.1,2003,3,2003,NA,0,2.71621988682231,2.74419957703818,2.71189071546809,2.81714587005806,FALSE,0.0376000710030189
"CAN","cpi",0.1,2003,3,2003,NA,0.5,4.7940717381798,4.82205142839567,2.71189071546809,4.41787786293317,FALSE,4.65504862957523
"CAN","cpi",0.1,2003,3,2002,NA,1,2.96117737963505,3.08903566850968,2.71189071546809,4.32236105253803,FALSE,0.681828653690106
"CAN","cpi",0.1,2003,3,2002,NA,1.5,2.1633044001845,2.57052834945396,2.71189071546809,3.7551535685832,FALSE,0.721362540411973
"CAN","cpi",0.1,2004,3,2004,NA,0,1.72865585485266,1.75279213515283,1.83151661303942,1.83115885083991,FALSE,0.199079564492603
"CAN","cpi",0.1,2004,3,2004,NA,0.5,1.92367268786733,1.95937011420404,1.83151661303942,1.89356075843229,FALSE,0.240488703732053
"CAN","cpi",0.1,2004,3,2003,NA,1,2.1882036926536,2.40261553669691,1.83151661303942,2.5903955121087,FALSE,1.00704979874149
"CAN","cpi",0.1,2004,3,2003,NA,1.5,2.33461977360582,2.71537160493101,1.83151661303942,4.52605057310407,FALSE,1.49875885480607
"CAN","cpi",0.1,2005,3,2005,NA,0,2.29125818776204,2.31647237585828,2.18071628336509,2.39375726304695,FALSE,0.270862864533907
"CAN","cpi",0.1,2005,3,2005,NA,0.5,2.05193594773205,2.10669962497015,2.18071628336509,2.00628617924563,FALSE,0.219245140337968
"CAN","cpi",0.1,2005,3,2004,NA,1,1.69785964098397,1.80991124164721,2.18071628336509,2.50853787240411,FALSE,0.936062804480746
"CAN","cpi",0.1,2005,3,2004,NA,1.5,1.87955038071791,2.30114877766034,2.18071628336509,3.53910826966273,TRUE,0.421598396942433
"CAN","cpi",0.1,2006,3,2006,NA,0,2.03618583517687,2.06041717514099,1.97519342012289,2.13830460574546,FALSE,0.159770040084091
"CAN","cpi",0.1,2006,3,2006,NA,0.5,2.33859588092325,2.40581856956865,1.97519342012289,2.27462572570213,FALSE,0.874783712646204
"CAN","cpi",0.1,2006,3,2005,NA,1,2.58263388523318,2.75020440124794,1.97519342012289,3.7624469653382,FALSE,1.51743821625986
"CAN","cpi",0.1,2006,3,2005,NA,1.5,2.34439172912123,2.62800829054024,1.97519342012289,3.32314929235963,FALSE,1.104057248082
"CAN","cpi",0.1,2007,3,2007,NA,0,2.07888695904511,2.09666845648985,2.10062087284572,2.1848630325127,FALSE,0.0265646449022356
"CAN","cpi",0.1,2007,3,2007,NA,0.5,2.55365274726325,2.62103632589848,2.10062087284572,2.4659174627357,FALSE,1.07412107734084
"CAN","cpi",0.1,2007,3,2006,NA,1,1.61271655339423,1.73518768235289,2.10062087284572,2.22963612092819,FALSE,0.934544885609392
"CAN","cpi",0.1,2007,3,2006,NA,1.5,2.05977212534459,2.35415649064339,2.10062087284572,3.47295078658589,TRUE,0.294384365298802
"CAN","cpi",0.1,2008,3,2008,NA,0,2.84978799655891,2.87228381974037,2.31447335265955,2.95153528130006,FALSE,1.21208392073559
"CAN","cpi",0.1,2008,3,2008,NA,0.5,1.58177748286076,1.62083386523745,2.31447335265955,1.59715335325429,FALSE,1.58047746553692
"CAN","cpi",0.1,2008,3,2007,NA,1,1.80354709609012,1.84260347846682,2.31447335265955,2.20911886965343,FALSE,1.08765610280499
"CAN","cpi",0.1,2008,3,2007,NA,1.5,1.95328919421905,2.25224985056838,2.31447335265955,3.9578182731907,FALSE,0.437235105440825
"CAN","cpi",0.1,2009,3,2009,NA,0,0.238907687588139,0.248672580007204,0.284533874408197,0.346622519867227,FALSE,0.0894566577546059
"CAN","cpi",0.1,2009,3,2009,NA,0.5,-0.226088795261065,-0.19820299327339,0.284533874408197,-0.0457515238861102,FALSE,1.10063439683565
"CAN","cpi",0.1,2009,3,2008,NA,1,2.81318227892153,3.12851139753475,0.284533874408197,4.33236618581201,FALSE,5.93454779530951
"CAN","cpi",0.1,2009,3,2008,NA,1.5,2.51288224942488,2.8282113680381,0.284533874408197,3.24825712451693,FALSE,5.26721439642807
"CAN","cpi",0.1,2010,3,2010,NA,0,1.67788918016292,1.68946325453601,1.75525687020327,1.78349521203817,FALSE,0.157782109189221
"CAN","cpi",0.1,2010,3,2010,NA,0.5,2.02289833167811,2.06354125590206,1.75525687020327,1.93597561685668,FALSE,0.635401727501367
"CAN","cpi",0.1,2010,3,2009,NA,1,0.756694180405351,0.797337104629297,1.75525687020327,2.28870864882185,FALSE,2.16935351438833
"CAN","cpi",0.1,2010,3,2009,NA,1.5,0.757980119612659,1.0995817781456,1.75525687020327,2.56709646677203,FALSE,1.7986574186611
"CAN","cpi",0.1,2011,3,2011,NA,0,2.79668564559023,2.81683826364856,2.85717434028225,2.89893270710837,FALSE,0.109788343910961
"CAN","cpi",0.1,2011,3,2011,NA,0.5,3.07894750272367,3.2163097894069,2.85717434028225,3.00273872882262,FALSE,0.630191536553059
"CAN","cpi",0.1,2011,3,2010,NA,1,1.95005335748127,2.0874156441645,2.85717434028225,3.01142322899407,FALSE,1.84793716694489
"CAN","cpi",0.1,2011,3,2010,NA,1.5,1.89310536400336,2.16554243969213,2.85717434028225,3.40953331447502,FALSE,1.80939685477791
"CAN","cpi",0.1,2012,3,2012,NA,0,1.44843187903505,1.46930742166747,1.50118536134935,1.54988369950135,FALSE,0.0917154085921483
"CAN","cpi",0.1,2012,3,2012,NA,0.5,2.18886881404675,2.22327471471055,1.50118536134935,2.15316548342416,FALSE,1.56259135110249
"CAN","cpi",0.1,2012,3,2011,NA,1,2.44980306841577,2.48420896907957,1.50118536134935,2.54342291649057,FALSE,2.1424452497003
"CAN","cpi",0.1,2012,3,2011,NA,1.5,2.87597046219454,3.16200484897633,1.50118536134935,3.73545377968611,FALSE,3.34111238866
"CAN","cpi",0.1,2013,3,2013,NA,0,1.00064535880265,1.01283945880396,0.931270594714462,1.09800048224073,FALSE,0.166360242419513
"CAN","cpi",0.1,2013,3,2013,NA,0.5,1.49386449722857,1.50605859722988,0.931270594714462,1.51761743040875,FALSE,1.26240277225488
"CAN","cpi",0.1,2013,3,2012,NA,1,1.22834448550041,1.24053858550173,0.931270594714462,1.66882566360164,FALSE,0.672358301747869
"CAN","cpi",0.1,2013,3,2012,NA,1.5,1.65884116260624,2.00367926556329,0.931270594714462,3.3545832452448,FALSE,1.961661587161
"CAN","cpi",0.1,2014,3,2014,NA,0,1.95458050204963,1.98340527034167,1.87639912240215,2.0588007866019,FALSE,0.202561167508659
"CAN","cpi",0.1,2014,3,2014,NA,0.5,2.32463791839375,2.43069038675623,1.87639912240215,2.32770811661281,FALSE,1.10213868167714
"CAN","cpi",0.1,2014,3,2013,NA,1,1.10673129049465,1.21278375885713,1.87639912240215,2.31995786180362,FALSE,1.5807532762403
"CAN","cpi",0.1,2014,3,2013,NA,1.5,1.07517222610047,1.40590474275565,1.87639912240215,3.28547165350463,FALSE,1.3762755825363
"CAN","cpi",0.1,2015,3,2015,NA,0,1.20422373043877,1.21932562096674,1.11090953952792,1.30745939376918,FALSE,0.222466759218758
"CAN","cpi",0.1,2015,3,2015,NA,0.5,0.691699979526702,0.762289672905384,1.11090953952792,0.816310503641023,FALSE,0.845300508095422
"CAN","cpi",0.1,2015,3,2014,NA,1,1.58339320651001,1.7370968263485,1.11090953952792,2.265930123798,FALSE,1.20366732424315
"CAN","cpi",0.1,2015,3,2014,NA,1.5,1.86047628689091,2.19749648937084,1.11090953952792,3.7337371203939,FALSE,2.00272408550881
"CAN","cpi",0.1,2016,3,2016,NA,0,1.40621073193305,1.42363183864057,1.41168586698797,1.51468621085982,TRUE,0.017421106707519
"CAN","cpi",0.1,2016,3,2016,NA,0.5,1.27817070148184,1.40365612109091,1.41168586698797,1.39785588750173,FALSE,0.143329299380308
"CAN","cpi",0.1,2016,3,2015,NA,1,1.44766258907315,1.57314800868222,1.41168586698797,2.74144943136963,FALSE,0.205433690909485
"CAN","cpi",0.1,2016,3,2015,NA,1.5,1.48293306292522,1.79792821945241,1.41168586698797,2.82752633095574,FALSE,0.473322258609977
"CAN","cpi",0.1,2017,3,2017,NA,0,1.48379983937259,1.49827930844061,1.57888581671161,1.58758621872303,FALSE,0.193605043003581
"CAN","cpi",0.1,2017,3,2017,NA,0.5,2.27153024949374,2.39040458287907,1.57888581671161,2.28560926705846,FALSE,1.65808418401228
"CAN","cpi",0.1,2017,3,2016,NA,1,1.26560382095433,1.38447815433966,1.57888581671161,2.1477774879281,FALSE,0.550891360878554
"CAN","cpi",0.1,2017,3,2016,NA,1.5,1.62991414096991,2.00178427486797,1.57888581671161,3.03010691132674,FALSE,0.485266410027611
"CAN","cpi",0.1,2018,3,2018,NA,0,2.35908894441338,2.37685596557817,2.23316270166586,2.46195010316238,FALSE,0.297603116159289
"CAN","cpi",0.1,2018,3,2018,NA,0.5,2.91822167128261,3.08957352856172,2.23316270166586,2.94436972801409,FALSE,1.69370512309411
"CAN","cpi",0.1,2018,3,2017,NA,1,1.30793379160865,1.47928564888776,2.23316270166586,2.08021290652945,FALSE,1.846634196786
"CAN","cpi",0.1,2018,3,2017,NA,1.5,1.47862902128963,1.75889698757874,2.23316270166586,3.54405552837179,FALSE,1.33419177537159
"CAN","cpi",0.1,2019,3,2019,NA,0,1.97309027245871,1.99186249290703,1.91921619871868,2.07527494378271,FALSE,0.138492384315048
"CAN","cpi",0.1,2019,3,2019,NA,0.5,1.90063759221342,1.99775120529493,1.91921619871868,1.96131710374494,TRUE,0.0971136130815085
"CAN","cpi",0.1,2019,3,2018,NA,1,2.16070537801357,2.25781899109508,1.91921619871868,2.81909694573415,FALSE,0.633756233736813
"CAN","cpi",0.1,2019,3,2018,NA,1.5,2.16842762166738,2.45918734653217,1.91921619871868,3.79624170159109,FALSE,0.844562886973008
"CAN","cpi",0.1,2020,3,2020,NA,0,0.671991651647997,0.685165997852068,0.71139989671781,0.779891991607007,FALSE,0.0714718992390543
"CAN","cpi",0.1,2020,3,2020,NA,0.5,1.52345517424672,1.60532812477923,0.71139989671781,1.59504539616918,FALSE,1.88644023393009
"CAN","cpi",0.1,2020,3,2019,NA,1,1.77633699599814,1.93188668775332,0.71139989671781,2.56912406193859,FALSE,2.52207657904481
"CAN","cpi",0.1,2020,3,2019,NA,1.5,1.95529111479774,2.26429836833892,0.71139989671781,3.3514298226716,FALSE,3.07320996038547
"CAN","cpi",0.1,2021,3,2021,NA,0,3.23349100832973,3.25131918590387,3.31148121717802,3.33723348286849,FALSE,0.151521580405598
"CAN","cpi",0.1,2021,3,2021,NA,0.5,2.70696410201148,2.82405546653929,3.31148121717802,2.81986273764272,FALSE,1.20025969928055
"CAN","cpi",0.1,2021,3,2020,NA,1,1.09831634077133,1.21540770529915,3.31148121717802,2.55173313104187,FALSE,4.77503250203642
"CAN","cpi",0.1,2021,3,2020,NA,1.5,0.853823641243072,1.09291279605692,3.31148121717802,3.05083641297579,FALSE,5.16924120174963
"CAN","cpi",0.1,2022,3,2022,NA,0,6.49139113974189,6.53684295428082,6.50977236228281,6.58834368873213,TRUE,0.0454518145389322
"CAN","cpi",0.1,2022,3,2022,NA,0.5,6.18669539526724,6.43725007683098,6.50977236228281,5.98101887959915,FALSE,0.411715315901137
"CAN","cpi",0.1,2022,3,2021,NA,1,3.40919640634219,3.65975108790593,6.50977236228281,4.27132466765734,FALSE,6.58393529129014
"CAN","cpi",0.1,2022,3,2021,NA,1.5,3.23336587211297,3.58152478484849,6.50977236228281,3.68392050970238,FALSE,6.85537575147846
"CAN","cpi",0.1,2023,3,2023,NA,0,3.91642290881546,3.92819432123303,3.78831288758619,4.00821358342971,FALSE,0.29646034848261
"CAN","cpi",0.1,2023,3,2023,NA,0.5,3.38793534994669,3.46829737938125,3.78831288758619,3.29302587175885,FALSE,0.791507603223311
"CAN","cpi",0.1,2023,3,2022,NA,1,4.97410397977425,5.36994974238951,3.78831288758619,4.01905628942603,FALSE,3.03093707858873
"CAN","cpi",0.1,2023,3,2022,NA,1.5,5.91976029873215,6.31560606134741,3.78831288758619,4.75925635675837,FALSE,5.13239556516184
"CAN","cpi",0.1,2024,3,2023,NA,1,3.37602480208067,3.66279474108934,NA,3.92709419556525,NA,NA
"CAN","cpi",0.1,2024,3,2023,NA,1.5,3.94600709360091,4.23277703260957,NA,3.33916254361279,NA,NA
"CAN","cpi",0.2,1952,3,1952,NA,0,2.71210197688613,2.71210197688613,2.55562336095485,2.65771800091113,FALSE,0.391196539828221
"CAN","cpi",0.2,1952,3,1952,NA,0.5,4.29591720791355,4.29591720791355,2.55562336095485,5.20333179389047,FALSE,4.35073461739676
"CAN","cpi",0.2,1952,3,1951,NA,1,2.35798777440331,2.35798777440331,2.55562336095485,8.18998200969936,FALSE,0.494088966378843
"CAN","cpi",0.2,1952,3,1951,NA,1.5,7.74297969750751,7.74297969750751,2.55562336095485,7.55460015368862,FALSE,12.9683908413817
"CAN","cpi",0.2,1953,3,1953,NA,0,-0.415524034251824,-0.555849548499482,-1.01492775838436,-0.921435878605124,FALSE,1.35818379608369
"CAN","cpi",0.2,1953,3,1953,NA,0.5,1.2191309141439,1.07880539989625,-1.01492775838436,-0.76897284692861,FALSE,5.44482116707301
"CAN","cpi",0.2,1953,3,1952,NA,1,-5.55240946806043,-5.69273498230809,-1.01492775838436,2.43113434957527,FALSE,11.5541925455616
"CAN","cpi",0.2,1953,3,1952,NA,1.5,6.90058417180273,6.76025865755507,-1.01492775838436,5.93557635631702,FALSE,19.6484543112201
"CAN","cpi",0.2,1954,3,1954,NA,0,0.823522063546587,0.823522063546587,0.644425455961438,0.902670593188762,FALSE,0.447741518962872
"CAN","cpi",0.2,1954,3,1954,NA,0.5,2.13732997586013,2.94030680499744,0.644425455961438,0.795164313951574,FALSE,4.53523812888403
"CAN","cpi",0.2,1954,3,1953,NA,1,8.27385736884372,9.07683419798103,0.644425455961438,4.14534384936852,FALSE,19.876556611343
"CAN","cpi",0.2,1954,3,1953,NA,1.5,1.15232760582428,10.6623626372443,0.644425455961438,3.28639485866967,FALSE,10.7797904060771
"CAN","cpi",0.2,1955,3,1955,NA,0,0.0410680896582222,0.0769054259654546,0.173649026558865,0.179965740558204,FALSE,0.277696337790758
"CAN","cpi",0.2,1955,3,1955,NA,0.5,0.574863959554491,0.610701295861723,0.173649026558865,0.271639815719239,FALSE,1.0388746687963
"CAN","cpi",0.2,1955,3,1954,NA,1,1.65123738851155,2.5746082642881,0.173649026558865,4.00726070064464,FALSE,4.61734178065826
"CAN","cpi",0.2,1955,3,1954,NA,1.5,0.47880737274628,1.40217824852284,0.173649026558865,3.09849569962328,FALSE,1.68626674124509
"CAN","cpi",0.2,1956,3,1956,NA,0,1.42200022923151,1.49336275338837,1.32752769429961,1.49944483483663,FALSE,0.30754386148661
"CAN","cpi",0.2,1956,3,1956,NA,0.5,0.2363469980075,0.664151165053083,1.32752769429961,0.239658941687119,FALSE,2.08624549016189
"CAN","cpi",0.2,1956,3,1955,NA,1,-0.497531168537514,0.450982128736005,1.32752769429961,2.42699902405841,FALSE,3.13987721118253
"CAN","cpi",0.2,1956,3,1955,NA,1.5,-0.285049881020489,0.66346341625303,1.32752769429961,2.6723883730094,FALSE,2.60867399238996
"CAN","cpi",0.2,1957,3,1957,NA,0,3.29166488079838,3.33942088725053,3.24684755852518,3.40805864327458,FALSE,0.159799312135168
"CAN","cpi",0.2,1957,3,1957,NA,0.5,2.95571592273722,3.2517588893076,3.24684755852518,2.77134230956367,TRUE,0.296042966570377
"CAN","cpi",0.2,1957,3,1956,NA,1,2.20278856999344,3.99618391958083,3.24684755852518,5.53767573267731,TRUE,1.79339534958739
"CAN","cpi",0.2,1957,3,1956,NA,1.5,-0.115851201936345,1.67754414765104,3.24684755852518,2.3159105314434,FALSE,5.71665387677272
"CAN","cpi",0.2,1958,3,1958,NA,0,2.13632085343559,2.17324127849294,2.33186388641149,2.2666416787086,FALSE,0.433476944853723
"CAN","cpi",0.2,1958,3,1958,NA,0.5,2.60561597781635,2.64253640287371,2.33186388641149,2.6047181946108,FALSE,0.721300653569515
"CAN","cpi",0.2,1958,3,1957,NA,1,0.863883858284754,1.36612388997497,2.33186388641149,4.25451187896576,FALSE,2.91659002278151
"CAN","cpi",0.2,1958,3,1957,NA,1.5,1.04329649944684,1.54553653113706,2.33186388641149,3.21878619474396,FALSE,2.46805841987629
"CAN","cpi",0.2,1959,3,1959,NA,0,1.07403934460443,1.15646084700796,1.19382698397654,1.23804892137791,FALSE,0.175836844824985
"CAN","cpi",0.2,1959,3,1959,NA,0.5,0.930252260244747,1.28056091715045,1.19382698397654,1.22423653017582,TRUE,0.350308656905701
"CAN","cpi",0.2,1959,3,1958,NA,1,-0.294049451251251,0.548378321263838,1.19382698397654,2.76661875727304,FALSE,2.45604942929685
"CAN","cpi",0.2,1959,3,1958,NA,1.5,1.6539916154595,2.49641938797459,1.19382698397654,3.40313655953963,FALSE,1.9928393512225
"CAN","cpi",0.2,1960,3,1960,NA,0,0.955650836015761,1.04986417690784,1.34209404870695,1.09496250556158,FALSE,0.824788020389859
"CAN","cpi",0.2,1960,3,1960,NA,0.5,1.54286736306553,1.6370807039576,1.34209404870695,1.31117730754252,FALSE,0.596146626788516
"CAN","cpi",0.2,1960,3,1959,NA,1,1.20842989907523,1.83243588989842,1.34209404870695,3.67993081372331,TRUE,0.624005990823194
"CAN","cpi",0.2,1960,3,1959,NA,1.5,0.826838672316739,1.45084466313993,1.34209404870695,2.53752597259669,TRUE,0.624005990823193
"CAN","cpi",0.2,1961,3,1961,NA,0,0.998376700734891,1.06764593298162,1.00921348094007,1.07956241593662,TRUE,0.0692692322467251
"CAN","cpi",0.2,1961,3,1961,NA,0.5,1.67861525789512,1.95533429075391,1.00921348094007,1.62810563897838,FALSE,1.95022347524641
"CAN","cpi",0.2,1961,3,1960,NA,1,-0.4330195318748,0.184453120832231,1.00921348094007,1.72683407115431,FALSE,2.67937355297663
"CAN","cpi",0.2,1961,3,1960,NA,1.5,1.0524578305703,1.66993048327733,1.00921348094007,2.46209267036318,FALSE,0.725583526782605
"CAN","cpi",0.2,1962,3,1962,NA,0,1.03804064526166,1.07931072062551,1.04957947883042,1.11859419449202,TRUE,0.0412700753638471
"CAN","cpi",0.2,1962,3,1962,NA,0.5,0.566134931571702,0.712314678741599,1.04957947883042,0.567427238599509,FALSE,0.989341747391937
"CAN","cpi",0.2,1962,3,1961,NA,1,0.745368824798671,0.891548571968568,1.04957947883042,1.63689072516514,FALSE,0.541257014324515
"CAN","cpi",0.2,1962,3,1961,NA,1.5,0.960481466695229,1.35847052529027,1.04957947883042,2.63635903501327,TRUE,0.397989058595038
"CAN","cpi",0.2,1963,3,1963,NA,0,1.79595087058549,1.82381773278499,1.60677118395228,1.86240003699012,FALSE,0.50081607878252
"CAN","cpi",0.2,1963,3,1963,NA,0.5,1.46875981164767,1.75748243041502,1.60677118395228,1.39337130813056,TRUE,0.288722618767352
"CAN","cpi",0.2,1963,3,1962,NA,1,1.23584185881691,1.71587800035582,1.60677118395228,2.94326130570012,TRUE,0.48003614153891
"CAN","cpi",0.2,1963,3,1962,NA,1.5,0.889752776279014,1.36978891781792,1.60677118395228,2.44281938697022,FALSE,1.07249180687481
"CAN","cpi",0.2,1964,3,1964,NA,0,1.92738661581781,1.93744907329579,1.88764670034376,2.0039339947047,FALSE,0.109412246163101
"CAN","cpi",0.2,1964,3,1964,NA,0.5,1.82044170573999,2.08778291043155,1.88764670034376,1.7991677011144,TRUE,0.267341204691552
"CAN","cpi",0.2,1964,3,1963,NA,1,1.63898265824932,2.12048984392215,1.88764670034376,4.16988253093083,TRUE,0.481507185672839
"CAN","cpi",0.2,1964,3,1963,NA,1.5,1.00513495828812,1.48664214396096,1.88764670034376,2.39235828979053,FALSE,1.48401857662983
"CAN","cpi",0.2,1965,3,1965,NA,0,2.26933046962558,2.27878847311143,2.29538304394236,2.3444020011952,FALSE,0.0509444305631712
"CAN","cpi",0.2,1965,3,1965,NA,0.5,1.92651222098678,2.01878781624406,2.29538304394236,1.87416183614195,FALSE,0.783763664503022
"CAN","cpi",0.2,1965,3,1964,NA,1,1.22630736153807,1.31858295679535,2.29538304394236,2.77513442256292,FALSE,2.5342758131248
"CAN","cpi",0.2,1965,3,1964,NA,1.5,1.22405305693862,1.80674818363707,2.29538304394236,2.58300862182973,FALSE,1.80428227746166
"CAN","cpi",0.2,1966,3,1966,NA,0,3.75462900337171,3.76204624211116,3.72486065470629,3.82226531435883,FALSE,0.0818381104030088
"CAN","cpi",0.2,1966,3,1966,NA,0.5,3.94854830757196,4.0908744059565,3.72486065470629,3.71609253757358,FALSE,0.701545230548721
"CAN","cpi",0.2,1966,3,1965,NA,1,1.48578482349232,1.66031132926109,3.72486065470629,3.18026314560651,FALSE,5.33589981938177
"CAN","cpi",0.2,1966,3,1965,NA,1.5,1.60861650162921,2.01869310140055,3.72486065470629,2.72588429168219,FALSE,4.67549548303568
"CAN","cpi",0.2,1967,3,1967,NA,0,3.61513011444952,3.64708140094576,3.49360316391996,3.71060899730274,FALSE,0.335768662820139
"CAN","cpi",0.2,1967,3,1967,NA,0.5,2.31698382174341,2.40087132734978,3.49360316391996,2.56028521952089,FALSE,2.81571709703182
"CAN","cpi",0.2,1967,3,1966,NA,1,1.36631726801351,1.45020477361988,3.49360316391996,3.23068289349593,FALSE,5.19238348135658
"CAN","cpi",0.2,1967,3,1966,NA,1.5,1.88006723692341,2.2713927955824,3.49360316391996,3.48379255951164,FALSE,3.44685147950289
"CAN","cpi",0.2,1968,3,1968,NA,0,3.99206170315086,4.02663993380856,3.95128347779386,4.08812321751386,FALSE,0.136523794050217
"CAN","cpi",0.2,1968,3,1968,NA,0.5,3.72072590449516,3.97373473475577,3.95128347779386,3.86057245484849,TRUE,0.253008830260613
"CAN","cpi",0.2,1968,3,1967,NA,1,1.93522116990415,2.18823000016477,3.95128347779386,4.52914843962159,FALSE,4.66064252433334
"CAN","cpi",0.2,1968,3,1967,NA,1.5,2.27935504567509,2.5323638759357,3.95128347779386,2.90317969156253,FALSE,3.800307834906
"CAN","cpi",0.2,1969,3,1969,NA,0,4.43760264954362,4.50161722430847,4.42679496126681,4.56202018095233,FALSE,0.0910337954568616
"CAN","cpi",0.2,1969,3,1969,NA,0.5,2.96009253582857,3.10183734733211,4.42679496126681,3.1731721410374,FALSE,3.4541388463403
"CAN","cpi",0.2,1969,3,1968,NA,1,2.04228760805775,2.21027650491851,4.42679496126681,4.79164269130369,FALSE,5.70928503773152
"CAN","cpi",0.2,1969,3,1968,NA,1.5,2.4105020196286,2.57849091648936,4.42679496126681,3.43166930802121,FALSE,4.78874900880439
"CAN","cpi",0.2,1970,3,1970,NA,0,3.48652168741249,3.5381188633445,3.28128405769805,3.60731179706845,FALSE,0.564691250218112
"CAN","cpi",0.2,1970,3,1970,NA,0.5,3.95376650531582,4.00536368124783,3.28128405769805,4.09876840974541,FALSE,1.73280329497645
"CAN","cpi",0.2,1970,3,1969,NA,1,1.76729814823379,1.8188953241658,3.28128405769805,4.16731408225431,FALSE,3.70756900976262
"CAN","cpi",0.2,1970,3,1969,NA,1.5,3.26191294938876,3.31351012532077,3.28128405769805,2.94225383025522,TRUE,0.0515971759320077
"CAN","cpi",0.2,1971,3,1971,NA,0,2.70779397115113,2.76421458460482,2.64123406634756,2.83090781749212,FALSE,0.222820375462601
"CAN","cpi",0.2,1971,3,1971,NA,0.5,1.38266097592772,1.51097862153869,2.64123406634756,1.62320660035324,FALSE,2.95395625763315
"CAN","cpi",0.2,1971,3,1970,NA,1,1.43026712746724,1.70934162861926,2.64123406634756,3.17007770946556,FALSE,2.60880559547277
"CAN","cpi",0.2,1971,3,1970,NA,1.5,2.1147674343451,2.45104442265393,2.64123406634756,3.54353814347809,FALSE,0.81175109754291
"CAN","cpi",0.2,1972,3,1972,NA,0,4.89868199471474,4.99295072299779,4.83230569625923,5.0489634093373,FALSE,0.260209474421819
"CAN","cpi",0.2,1972,3,1972,NA,0.5,4.47210122077997,4.80606723126349,4.83230569625923,4.42305209693724,FALSE,0.399562172972866
"CAN","cpi",0.2,1972,3,1971,NA,1,2.26732763291434,2.94988375628531,4.83230569625923,4.88112932259212,FALSE,5.38861097330577
"CAN","cpi",0.2,1972,3,1971,NA,1.5,1.97787204548586,2.66042816885682,4.83230569625923,2.93340690449956,FALSE,6.11224994187698
"CAN","cpi",0.2,1973,3,1973,NA,0,7.05776901960249,7.088412928338,7.12388603531779,7.21795256722813,FALSE,0.119326676184989
"CAN","cpi",0.2,1973,3,1973,NA,0.5,5.46637560677376,5.5180911656495,7.12388603531779,5.49391172870491,FALSE,4.06620273304647
"CAN","cpi",0.2,1973,3,1972,NA,1,2.6208716343245,3.57623716365605,7.12388603531779,5.39692894021178,FALSE,9.8244877084859
"CAN","cpi",0.2,1973,3,1972,NA,1.5,2.62725512084401,3.58262065017556,7.12388603531779,3.58263496028301,FALSE,9.80852899218712
"CAN","cpi",0.2,1974,3,1974,NA,0,9.96498428905506,9.99493332456314,10.2717243737774,10.1210179328964,FALSE,0.721926658543777
"CAN","cpi",0.2,1974,3,1974,NA,0.5,7.74441411571264,7.77436315122072,10.2717243737774,7.94351867110281,FALSE,6.27335209189983
"CAN","cpi",0.2,1974,3,1973,NA,1,3.45104513694502,4.88049384667911,10.2717243737774,7.1912022670208,FALSE,14.9075250274799
"CAN","cpi",0.2,1974,3,1973,NA,1.5,3.49173832619161,4.92118703592571,10.2717243737774,4.0254660999559,FALSE,14.8057920543634
"CAN","cpi",0.2,1975,3,1975,NA,0,10.0429678815277,10.0883567060436,10.0232981493341,10.1376483081154,FALSE,0.0945631549997987
"CAN","cpi",0.2,1975,3,1975,NA,0.5,7.43398560334284,7.5411794407445,10.0232981493341,8.26308676293858,FALSE,6.31249060887571
"CAN","cpi",0.2,1975,3,1974,NA,1,5.2087146006278,7.23009582089614,10.0232981493341,7.73583614861028,FALSE,9.00438704136329
"CAN","cpi",0.2,1975,3,1974,NA,1.5,5.88443614466757,7.90581736493592,10.0232981493341,4.67814014273702,FALSE,7.31508318126385
"CAN","cpi",0.2,1976,3,1976,NA,0,7.1090121429364,7.1220200352782,7.22784311401172,7.2178166349125,FALSE,0.277565589175595
"CAN","cpi",0.2,1976,3,1976,NA,0.5,5.94801280159269,8.42290738263669,7.22784311401172,6.91786916440093,TRUE,2.47489458104399
"CAN","cpi",0.2,1976,3,1975,NA,1,5.82547291896914,9.50743888924239,7.22784311401172,8.273619332389,TRUE,3.68196597027325
"CAN","cpi",0.2,1976,3,1975,NA,1.5,6.41458591498882,10.0965518852621,7.22784311401172,4.5816570194731,TRUE,3.68196597027325
"CAN","cpi",0.2,1977,3,1977,NA,0,7.38247995776161,7.45248547339725,7.58101410153764,7.50701198703803,FALSE,0.391327085986622
"CAN","cpi",0.2,1977,3,1977,NA,0.5,6.56187628582736,7.70428233639242,7.58101410153764,6.51617593246189,TRUE,1.14240605056506
"CAN","cpi",0.2,1977,3,1976,NA,1,5.01405808073461,6.15646413129967,7.58101410153764,4.96992569410004,FALSE,4.70378097615999
"CAN","cpi",0.2,1977,3,1976,NA,1.5,4.67592478785219,5.81833083841725,7.58101410153764,4.37719420243736,FALSE,5.54911420836605
"CAN","cpi",0.2,1978,3,1978,NA,0,8.45868153481285,8.53093686395032,8.50208927062595,8.58158523467168,TRUE,0.0722553291374766
"CAN","cpi",0.2,1978,3,1978,NA,0.5,7.98394155903176,8.71435930121688,8.50208927062595,7.4716201567401,TRUE,0.730417742185118
"CAN","cpi",0.2,1978,3,1977,NA,1,5.47107230192036,7.60153385246591,8.50208927062595,6.36749774462425,FALSE,4.38185009594564
"CAN","cpi",0.2,1978,3,1977,NA,1.5,4.48594417997823,7.12783361764965,8.50208927062595,5.06410799386515,FALSE,6.07752857011216
"CAN","cpi",0.2,1979,3,1979,NA,0,8.42351822732815,8.44549670906738,8.65147652410481,8.49829924825941,FALSE,0.536928019332813
"CAN","cpi",0.2,1979,3,1979,NA,0.5,8.03456536112995,8.79741998824792,8.65147652410481,7.55954787357905,TRUE,0.762854627117967
"CAN","cpi",0.2,1979,3,1978,NA,1,6.17656424996228,8.58365872137526,8.65147652410481,7.11843292779768,FALSE,2.57663897823686
"CAN","cpi",0.2,1979,3,1978,NA,1.5,5.22691695111758,8.21557588351119,8.65147652410481,5.13416174624329,FALSE,4.07841053387766
"CAN","cpi",0.2,1980,3,1980,NA,0,9.34710519815695,9.36538514657521,9.5171912664748,9.41458421512922,FALSE,0.397795248167221
"CAN","cpi",0.2,1980,3,1980,NA,0.5,8.5007641831785,9.13386653693968,9.5171912664748,7.9706129876785,FALSE,1.59141417759897
"CAN","cpi",0.2,1980,3,1979,NA,1,6.04833901517006,8.22772730092248,9.5171912664748,6.28953001008885,FALSE,5.40304819963321
"CAN","cpi",0.2,1980,3,1979,NA,1.5,5.10023590251262,8.28786776876979,9.5171912664748,5.364173973799,FALSE,6.26094061051969
"CAN","cpi",0.2,1981,3,1981,NA,0,11.5442860043059,11.621674526876,11.5813425032741,11.5923033542996,TRUE,0.0773885225700468
"CAN","cpi",0.2,1981,3,1981,NA,0.5,12.0641694800176,12.9052205206666,11.5813425032741,11.0172481296202,FALSE,2.04811848250753
"CAN","cpi",0.2,1981,3,1980,NA,1,7.41014290400958,9.6250881649704,11.5813425032741,8.10476531012298,FALSE,7.10558110672017
"CAN","cpi",0.2,1981,3,1980,NA,1.5,7.57592220028675,9.79086746124758,11.5813425032741,5.56064493450504,FALSE,6.69113286602723
"CAN","cpi",0.2,1982,3,1982,NA,0,10.1662877871655,10.1825949433574,10.1124203763629,10.1931679525338,FALSE,0.15097568319836
"CAN","cpi",0.2,1982,3,1982,NA,0.5,10.0662093197634,10.6109910896451,10.1124203763629,9.37004969245236,TRUE,0.544781769881613
"CAN","cpi",0.2,1982,3,1981,NA,1,11.2382452706424,11.783027040524,10.1124203763629,8.69554175936175,FALSE,3.35934400558021
"CAN","cpi",0.2,1982,3,1981,NA,1.5,8.40100326517302,11.2265429216123,10.1124203763629,7.27062596384307,TRUE,2.82553965643924
"CAN","cpi",0.2,1983,3,1983,NA,0,5.73332615940353,5.78748294668161,5.67091787896303,5.81768735292628,FALSE,0.21017748837932
"CAN","cpi",0.2,1983,3,1983,NA,0.5,5.13872557590636,5.97922858974911,5.67091787896303,5.01354605702602,TRUE,0.840503013842753
"CAN","cpi",0.2,1983,3,1982,NA,1,8.56156042832692,9.67390073604934,5.67091787896303,7.12656393494862,FALSE,8.33894668113214
"CAN","cpi",0.2,1983,3,1982,NA,1.5,7.67456022860839,9.95350923483833,5.67091787896303,6.40641718255638,FALSE,7.28805488034333
"CAN","cpi",0.2,1984,3,1984,NA,0,4.11927770305553,4.18027696282662,4.19799576814029,4.24028901012313,FALSE,0.105296273055266
"CAN","cpi",0.2,1984,3,1984,NA,0.5,5.09198131852698,5.4622105802047,4.19799576814029,4.75786855948752,FALSE,2.60519313764446
"CAN","cpi",0.2,1984,3,1983,NA,1,5.28481360294788,6.06281027746692,4.19799576814029,5.66557758519989,FALSE,3.49504126153801
"CAN","cpi",0.2,1984,3,1983,NA,1.5,4.95731671901049,5.9116010186288,4.19799576814029,4.21132796972244,FALSE,2.85258667679381
"CAN","cpi",0.2,1985,3,1985,NA,0,3.80356057782404,3.86749124294404,3.86444262005169,3.92349089738505,TRUE,0.0639306651200044
"CAN","cpi",0.2,1985,3,1985,NA,0.5,4.34968940303329,4.65357964842896,3.86444262005169,4.05923277954066,FALSE,1.51700720284967
"CAN","cpi",0.2,1985,3,1984,NA,1,3.10341409345515,4.18272997022159,3.86444262005169,3.95710775307987,TRUE,1.07931587676645
"CAN","cpi",0.2,1985,3,1984,NA,1.5,2.11052276649701,4.24867928035488,3.86444262005169,4.80620472271859,TRUE,2.13815651385787
"CAN","cpi",0.2,1986,3,1986,NA,0,4.01796463042049,4.07648529229313,4.08685396749431,4.13000198176505,FALSE,0.0844423498755931
"CAN","cpi",0.2,1986,3,1986,NA,0.5,4.85880804364622,5.16249256124365,4.08685396749431,4.52376153022901,FALSE,2.2335697079772
"CAN","cpi",0.2,1986,3,1985,NA,1,3.39757273532202,4.10923028383255,4.08685396749431,4.28856700742326,TRUE,0.711657548510535
"CAN","cpi",0.2,1986,3,1985,NA,1.5,2.02901000586677,3.95582863684094,4.08685396749431,4.73207334351572,FALSE,2.25438195760759
"CAN","cpi",0.2,1987,3,1987,NA,0,4.23853182393308,4.29470063151266,4.23980729277887,4.34713339619661,TRUE,0.0561688075795814
"CAN","cpi",0.2,1987,3,1987,NA,0.5,4.28702178231713,4.61391891679956,4.23980729277887,4.04554574241257,FALSE,0.444933358328084
"CAN","cpi",0.2,1987,3,1986,NA,1,3.89472984305429,4.43993427716874,4.23980729277887,4.62985152306341,TRUE,0.545204434114446
"CAN","cpi",0.2,1987,3,1986,NA,1.5,2.12848727201413,4.10932513006189,4.23980729277887,4.92117197950912,FALSE,2.30704326484021
"CAN","cpi",0.2,1988,3,1988,NA,0,3.900786227779,3.9535686149918,3.92899537638065,4.00901931174773,TRUE,0.0527823872128055
"CAN","cpi",0.2,1988,3,1988,NA,0.5,3.92903073781016,4.25947301274704,3.92899537638065,3.73662637763501,FALSE,0.330530678510644
"CAN","cpi",0.2,1988,3,1987,NA,1,3.96258375035129,4.50384433183566,3.92899537638065,4.57559871410537,FALSE,0.625231516410961
"CAN","cpi",0.2,1988,3,1987,NA,1.5,2.87418210001006,4.49617700765442,3.92899537638065,4.47333468954476,TRUE,1.62199490764435
"CAN","cpi",0.2,1989,3,1989,NA,0,4.88557312044122,4.94074855235254,4.82821664544208,4.99076681888079,FALSE,0.198566619409176
"CAN","cpi",0.2,1989,3,1989,NA,0.5,4.80067013227776,5.1252487843262,4.82821664544208,4.4916513034202,TRUE,0.324578652048441
"CAN","cpi",0.2,1989,3,1988,NA,1,3.73111065195701,4.29237933551028,4.82821664544208,4.54165447743213,FALSE,1.90086195838277
"CAN","cpi",0.2,1989,3,1988,NA,1.5,2.63814320996765,4.24697108991113,4.82821664544208,4.35655767104226,FALSE,3.06194176877084
"CAN","cpi",0.2,1990,3,1990,NA,0,4.43283909495048,4.48146227478333,4.64347549432717,4.53713653171057,FALSE,0.453656228692448
"CAN","cpi",0.2,1990,3,1990,NA,0.5,5.42088643211609,5.72494771653273,4.64347549432717,5.08101061108308,FALSE,2.24758862888894
"CAN","cpi",0.2,1990,3,1989,NA,1,4.64565971857183,5.30480904014984,4.64347549432717,5.34783125013627,FALSE,0.664609882189659
"CAN","cpi",0.2,1990,3,1989,NA,1.5,3.32883413882801,4.92803939295997,4.64347549432717,4.81353563225505,TRUE,1.59920525413196
"CAN","cpi",0.2,1991,3,1991,NA,0,5.56007064472354,5.613971805984,5.4258100696218,5.66037042635664,FALSE,0.389552599014825
"CAN","cpi",0.2,1991,3,1991,NA,0.5,8.56561609573381,8.7307264362334,5.4258100696218,7.84858621299389,FALSE,8.01462540577962
"CAN","cpi",0.2,1991,3,1990,NA,1,4.06968326468123,4.58020916013333,5.4258100696218,4.26930339967321,FALSE,2.62452816917327
"CAN","cpi",0.2,1991,3,1990,NA,1.5,3.95263545231589,4.67388676641477,5.4258100696218,5.0605414207232,FALSE,2.60105957211644
"CAN","cpi",0.2,1992,3,1992,NA,0,1.4158691092932,1.46277856175322,1.47496888572843,1.52994687025859,FALSE,0.0773852623980481
"CAN","cpi",0.2,1992,3,1992,NA,0.5,1.79235663500993,2.0464514697944,1.47496888572843,1.85875773502133,FALSE,1.04756420798821
"CAN","cpi",0.2,1992,3,1991,NA,1,4.20679976010069,4.63097682409145,1.47496888572843,3.50386131646851,FALSE,7.2537542499214
"CAN","cpi",0.2,1992,3,1991,NA,1.5,4.27942577026473,4.82335242201006,1.47496888572843,6.78035435046663,FALSE,7.55506886308608
"CAN","cpi",0.2,1993,3,1993,NA,0,1.75938721285968,1.79123222792317,1.84351085411351,1.87124044779021,FALSE,0.162541580539354
"CAN","cpi",0.2,1993,3,1993,NA,0.5,2.91854106766635,2.95038608272985,1.84351085411351,2.72734178597627,FALSE,2.7194205489456
"CAN","cpi",0.2,1993,3,1992,NA,1,1.67211453105413,1.9498323371852,1.84351085411351,3.08451104384819,TRUE,0.277717806131072
"CAN","cpi",0.2,1993,3,1992,NA,1.5,0.3144790378816,2.14851193318845,1.84351085411351,3.82501351795864,TRUE,1.83403289530685
"CAN","cpi",0.2,1994,3,1994,NA,0,0.142556477342512,0.190982155052112,0.161630694655448,0.262954827743209,TRUE,0.0484256777096008
"CAN","cpi",0.2,1994,3,1994,NA,0.5,0.177592932917331,0.241072267153741,0.161630694655448,0.310066271274909,FALSE,0.103384929891119
"CAN","cpi",0.2,1994,3,1993,NA,1,1.8024441454216,2.02696029011302,0.161630694655448,2.87682482634461,FALSE,4.32654977160679
"CAN","cpi",0.2,1994,3,1993,NA,1.5,0.379529358794966,2.38638948811992,0.161630694655448,4.13541986765475,FALSE,2.55160678967375
"CAN","cpi",0.2,1995,3,1995,NA,0,2.12998906690267,2.12581897559281,2.11688403676572,2.22224044651209,FALSE,0.0285924840325253
"CAN","cpi",0.2,1995,3,1995,NA,0.5,3.23555028748698,3.23138019617711,2.11688403676572,2.99405804315788,FALSE,2.79249553549329
"CAN","cpi",0.2,1995,3,1994,NA,1,0.851776784669511,1.06090421593974,2.11688403676572,2.99684369657241,FALSE,2.84907698333517
"CAN","cpi",0.2,1995,3,1994,NA,1.5,0.283252191297303,1.10909794023154,2.11688403676572,2.55761383507254,FALSE,3.34531099026968
"CAN","cpi",0.2,1996,3,1996,NA,0,1.40754700056058,1.44358676922672,1.55309584667184,1.51034526106652,FALSE,0.30981246227895
"CAN","cpi",0.2,1996,3,1996,NA,0.5,1.8084785843334,1.90389028986608,1.55309584667184,1.79601314583588,FALSE,0.73386854968658
"CAN","cpi",0.2,1996,3,1995,NA,1,1.83150790242203,2.04847410854439,1.55309584667184,2.55715877011559,FALSE,0.912996345497834
"CAN","cpi",0.2,1996,3,1995,NA,1.5,0.419963619429277,2.56073398150783,1.55309584667184,4.37195408299294,TRUE,2.14077036207855
"CAN","cpi",0.2,1997,3,1997,NA,0,1.64432398261977,1.68037380774354,1.60528783555959,1.74775979926451,FALSE,0.133640192774217
"CAN","cpi",0.2,1997,3,1997,NA,0.5,2.48801605938593,2.61075658114842,1.60528783555959,2.44638235868142,FALSE,2.32956108132834
"CAN","cpi",0.2,1997,3,1996,NA,1,1.48184639073179,1.60458691249429,1.60528783555959,2.43903366578812,FALSE,0.124492829425758
"CAN","cpi",0.2,1997,3,1996,NA,1.5,0.681686106606171,2.21455750618624,1.60528783555959,3.62198739789796,TRUE,1.53287139958007
"CAN","cpi",0.2,1998,3,1998,NA,0,0.934958620148161,0.969147397433573,0.988908029337191,1.03895035119065,FALSE,0.0835903570444562
"CAN","cpi",0.2,1998,3,1998,NA,0.5,1.80469249815467,1.93949787308212,0.988908029337191,1.85198354845497,FALSE,2.17426654697115
"CAN","cpi",0.2,1998,3,1997,NA,1,1.54637856447485,1.68118393940229,0.988908029337191,2.50242700061489,FALSE,1.52848171277158
"CAN","cpi",0.2,1998,3,1997,NA,1.5,1.09456190908402,2.0010294919479,0.988908029337191,3.75826952211307,FALSE,1.17060228223096
"CAN","cpi",0.2,1999,3,1999,NA,0,1.71474205926672,1.75043370006891,1.7107350135213,1.81904689636282,FALSE,0.0457092551657476
"CAN","cpi",0.2,1999,3,1999,NA,0.5,1.23936551546052,1.30473870818011,1.7107350135213,1.31729339512256,FALSE,1.08036395607255
"CAN","cpi",0.2,1999,3,1998,NA,1,1.04649250752002,1.11186570023961,1.7107350135213,2.15211490322884,FALSE,1.5625464759238
"CAN","cpi",0.2,1999,3,1998,NA,1.5,0.340967332214232,1.42784364786196,1.7107350135213,3.69857126490312,FALSE,1.79410472979607
"CAN","cpi",0.2,2000,3,2000,NA,0,2.63698718842927,2.67935467734843,2.6718361971244,2.74274050503735,TRUE,0.0423674889191652
"CAN","cpi",0.2,2000,3,2000,NA,0.5,2.46620543186182,2.6162464252816,2.6718361971244,2.46113990926174,FALSE,0.289015423026785
"CAN","cpi",0.2,2000,3,1999,NA,1,2.17409990638067,2.32414089980044,2.6718361971244,3.49419557264756,FALSE,1.01927923672967
"CAN","cpi",0.2,2000,3,1999,NA,1.5,1.61543388177488,2.34767699930347,2.6718361971244,3.22544865557399,FALSE,1.54264111208092
"CAN","cpi",0.2,2001,3,2001,NA,0,2.7030447079079,2.74332634430598,2.47906219852806,2.80396337772557,FALSE,0.600237909847684
"CAN","cpi",0.2,2001,3,2001,NA,0.5,2.2129484981152,2.41215903513564,2.47906219852806,2.23984277042869,FALSE,0.366468445501503
"CAN","cpi",0.2,2001,3,2000,NA,1,2.88210379693741,3.16770385016742,2.47906219852806,3.95792003209951,FALSE,1.29320404925337
"CAN","cpi",0.2,2001,3,2000,NA,1.5,2.64421304955653,3.30618100826745,2.47906219852806,3.55622040628749,FALSE,1.07484508628208
"CAN","cpi",0.2,2002,3,2002,NA,0,2.24458134990282,2.2789785136331,2.20880570551249,2.34939305392984,FALSE,0.12383627470611
"CAN","cpi",0.2,2002,3,2002,NA,0.5,1.6624328336229,1.80645048499641,2.20880570551249,1.70224895292675,FALSE,1.1499057026637
"CAN","cpi",0.2,2002,3,2001,NA,1,1.91780386408316,2.19840672565245,2.20880570551249,2.47791561910008,FALSE,0.306600311219376
"CAN","cpi",0.2,2002,3,2001,NA,1.5,2.58509031012404,3.29260259053903,2.20880570551249,3.17564245091106,FALSE,1.64822379194387
"CAN","cpi",0.2,2003,3,2003,NA,0,2.71242931914358,2.74824586122145,2.71189071546809,2.81714587005806,FALSE,0.0371630512665992
"CAN","cpi",0.2,2003,3,2003,NA,0.5,4.6112504595977,4.83891155101756,2.71189071546809,4.41787786293317,FALSE,4.97606045174389
"CAN","cpi",0.2,2003,3,2002,NA,1,2.87310526011651,3.10076635153637,2.71189071546809,4.32236105253803,FALSE,0.630697453040917
"CAN","cpi",0.2,2003,3,2002,NA,1.5,1.79367928258527,2.59043952013884,2.71189071546809,3.7551535685832,FALSE,1.10038822587669
"CAN","cpi",0.2,2004,3,2004,NA,0,1.72550383559664,1.75890747803608,1.83151661303942,1.83115885083991,FALSE,0.214926479947794
"CAN","cpi",0.2,2004,3,2004,NA,0.5,1.85212823295676,2.03006778477623,1.83151661303942,1.89356075843229,FALSE,0.22946860161281
"CAN","cpi",0.2,2004,3,2003,NA,1,2.1596326179615,2.41678724263876,1.83151661303942,2.5903955121087,FALSE,1.07744463698245
"CAN","cpi",0.2,2004,3,2003,NA,1.5,1.70472664333752,2.8473085634805,1.83151661303942,4.52605057310407,TRUE,1.14258192014298
"CAN","cpi",0.2,2005,3,2005,NA,0,2.28778028824974,2.32200292872674,2.18071628336509,2.39375726304695,FALSE,0.301882652688622
"CAN","cpi",0.2,2005,3,2005,NA,0.5,1.94901238233377,2.13332713718506,2.18071628336509,2.00628617924563,FALSE,0.302787620301367
"CAN","cpi",0.2,2005,3,2004,NA,1,1.5709685454479,1.81684930779471,2.18071628336509,2.50853787240411,FALSE,1.15554820127275
"CAN","cpi",0.2,2005,3,2004,NA,1.5,1.62299949238361,2.44750104158408,2.18071628336509,3.53910826966273,TRUE,0.824501549200468
"CAN","cpi",0.2,2006,3,2006,NA,0,2.03205092162591,2.06620403022229,1.97519342012289,2.13830460574546,FALSE,0.17629686235394
"CAN","cpi",0.2,2006,3,2006,NA,0.5,2.25051944483178,2.44550069269452,1.97519342012289,2.27462572570213,FALSE,0.88329630963497
"CAN","cpi",0.2,2006,3,2005,NA,1,2.43037180191566,2.75882044884469,1.97519342012289,3.7624469653382,FALSE,1.46639460141096
"CAN","cpi",0.2,2006,3,2005,NA,1.5,2.17289024737523,2.76083582365634,1.97519342012289,3.32314929235963,FALSE,1.08218764441197
"CAN","cpi",0.2,2007,3,2007,NA,0,2.06999275960275,2.11197208848185,2.10062087284572,2.1848630325127,TRUE,0.0419793288790924
"CAN","cpi",0.2,2007,3,2007,NA,0.5,2.45301448341972,2.64309601208184,2.10062087284572,2.4659174627357,FALSE,1.07106555509711
"CAN","cpi",0.2,2007,3,2006,NA,1,1.57804451617006,1.76812604483219,2.10062087284572,2.22963612092819,FALSE,1.02131859869596
"CAN","cpi",0.2,2007,3,2006,NA,1.5,1.82411879688951,2.49202696208182,2.10062087284572,3.47295078658589,TRUE,0.667908165192312
"CAN","cpi",0.2,2008,3,2008,NA,0,2.8462581155196,2.88253254020979,2.31447335265955,2.95153528130006,FALSE,1.3657363318403
"CAN","cpi",0.2,2008,3,2008,NA,0.5,1.51263503125464,1.68097541051767,2.31447335265955,1.59715335325429,FALSE,1.75208523461773
"CAN","cpi",0.2,2008,3,2007,NA,1,1.64820361668534,1.8216159448557,2.31447335265955,2.20911886965343,FALSE,1.40555584767998
"CAN","cpi",0.2,2008,3,2007,NA,1.5,1.60841619524481,2.37942761801575,2.31447335265955,3.9578182731907,TRUE,0.771011422770945
"CAN","cpi",0.2,2009,3,2009,NA,0,0.227636450893899,0.265924969407565,0.284533874408197,0.346622519867227,FALSE,0.0848107810152462
"CAN","cpi",0.2,2009,3,2009,NA,0.5,-0.242721405637991,-0.147346384419732,0.284533874408197,-0.0457515238861102,FALSE,1.17507566828808
"CAN","cpi",0.2,2009,3,2008,NA,1,2.77370540865336,3.17526404567746,0.284533874408197,4.33236618581201,FALSE,6.62448747263701
"CAN","cpi",0.2,2009,3,2008,NA,1.5,2.33142229743719,2.91353912518692,0.284533874408197,3.24825712451693,FALSE,5.69933788532222
"CAN","cpi",0.2,2010,3,2010,NA,0,1.67360439162573,1.70454545119199,1.75525687020327,1.78349521203817,FALSE,0.157719607094477
"CAN","cpi",0.2,2010,3,2010,NA,0.5,1.8714813683569,2.02242568309712,1.75525687020327,1.93597561685668,FALSE,0.441505560124289
"CAN","cpi",0.2,2010,3,2009,NA,1,0.617809027374835,0.76875334211505,1.75525687020327,2.28870864882185,FALSE,2.61720313496077
"CAN","cpi",0.2,2010,3,2009,NA,1.5,0.734351134325897,1.23618402770607,1.75525687020327,2.56709646677203,FALSE,1.79951499962318
"CAN","cpi",0.2,2011,3,2011,NA,0,2.79285298282814,2.82932838671778,2.85717434028225,2.89893270710837,FALSE,0.106090287800811
"CAN","cpi",0.2,2011,3,2011,NA,0.5,3.03550048896732,3.22558283233683,2.85717434028225,3.00273872882262,FALSE,0.635897715082197
"CAN","cpi",0.2,2011,3,2010,NA,1,1.91747913769138,2.10756148106089,2.85717434028225,3.01142322899407,FALSE,2.06411449142289
"CAN","cpi",0.2,2011,3,2010,NA,1.5,1.71423170722766,2.29383430874336,2.85717434028225,3.40953331447502,FALSE,1.98795268036292
"CAN","cpi",0.2,2012,3,2012,NA,0,1.44500056506048,1.48521501820034,1.50118536134935,1.54988369950135,FALSE,0.0801403110123735
"CAN","cpi",0.2,2012,3,2012,NA,0.5,2.1085682384139,2.32342267982484,1.50118536134935,2.15316548342416,FALSE,1.73331163407232
"CAN","cpi",0.2,2012,3,2011,NA,1,2.36371483810648,2.57932497689278,1.50118536134935,2.54342291649057,FALSE,2.37193383067914
"CAN","cpi",0.2,2012,3,2011,NA,1.5,2.54938263579845,3.2311376163653,1.50118536134935,3.73545377968611,FALSE,3.30224816668962
"CAN","cpi",0.2,2013,3,2013,NA,0,0.990097608309385,1.0281364793587,0.931270594714462,1.09800048224073,FALSE,0.185106405036626
"CAN","cpi",0.2,2013,3,2013,NA,0.5,1.43737501187264,1.56419419500507,0.931270594714462,1.51761743040875,FALSE,1.39208022602788
"CAN","cpi",0.2,2013,3,2012,NA,1,1.05281514064446,1.17963432377689,0.931270594714462,1.66882566360164,FALSE,0.430680547957423
"CAN","cpi",0.2,2013,3,2012,NA,1.5,1.51028086415394,2.08440588241132,0.931270594714462,3.3545832452448,FALSE,2.02165069185607
"CAN","cpi",0.2,2014,3,2014,NA,0,1.95040859809255,1.99089994810726,1.87639912240215,2.0588007866019,FALSE,0.22551503924071
"CAN","cpi",0.2,2014,3,2014,NA,0.5,2.26181446180985,2.43468466322517,1.87639912240215,2.32770811661281,FALSE,1.13640854993458
"CAN","cpi",0.2,2014,3,2013,NA,1,1.03876948792533,1.21163968934065,1.87639912240215,2.31995786180362,FALSE,1.83476878406906
"CAN","cpi",0.2,2014,3,2013,NA,1.5,0.937029508381136,1.5465982493999,1.87639912240215,3.28547165350463,FALSE,1.43407092352439
"CAN","cpi",0.2,2015,3,2015,NA,0,1.20030698072098,1.2307977115329,1.11090953952792,1.30745939376918,FALSE,0.25398433379458
"CAN","cpi",0.2,2015,3,2015,NA,0.5,0.64958501534713,0.808619753230557,1.11090953952792,0.816310503641023,FALSE,0.914759203626827
"CAN","cpi",0.2,2015,3,2014,NA,1,1.52945978870556,1.81649807850277,1.11090953952792,2.265930123798,FALSE,1.33341391274132
"CAN","cpi",0.2,2015,3,2014,NA,1.5,1.55049872596534,2.276392935333,1.11090953952792,3.7337371203939,FALSE,1.82486717546122
"CAN","cpi",0.2,2016,3,2016,NA,0,1.3958273230806,1.4371551864107,1.41168586698797,1.51468621085982,TRUE,0.0413278633300962
"CAN","cpi",0.2,2016,3,2016,NA,0.5,1.26599769786279,1.42032873428181,1.41168586698797,1.39785588750173,TRUE,0.154331036419024
"CAN","cpi",0.2,2016,3,2015,NA,1,1.39147615181496,1.54580718823398,1.41168586698797,2.74144943136963,TRUE,0.154331036419024
"CAN","cpi",0.2,2016,3,2015,NA,1.5,1.41196462172875,1.93192705813923,1.41168586698797,2.82752633095574,FALSE,0.52065932326244
"CAN","cpi",0.2,2017,3,2017,NA,0,1.46968190587054,1.51077866415542,1.57888581671161,1.58758621872303,FALSE,0.211364639675365
"CAN","cpi",0.2,2017,3,2017,NA,0.5,2.22192951914084,2.40218453532986,1.57888581671161,2.28560926705846,FALSE,1.78786427226209
"CAN","cpi",0.2,2017,3,2016,NA,1,1.22692706741846,1.40718208360747,1.57888581671161,2.1477774879281,FALSE,0.609514348949366
"CAN","cpi",0.2,2017,3,2016,NA,1.5,1.56765924510354,2.13255056116913,1.57888581671161,3.03010691132674,TRUE,0.564891316065582
"CAN","cpi",0.2,2018,3,2018,NA,0,2.35516358132353,2.38990795370779,2.23316270166586,2.46195010316238,FALSE,0.339746571528441
"CAN","cpi",0.2,2018,3,2018,NA,0.5,2.9255228403256,3.13413212670894,2.23316270166586,2.94436972801409,FALSE,1.93950963303269
"CAN","cpi",0.2,2018,3,2017,NA,1,1.26740221834862,1.47601150473197,2.23316270166586,2.08021290652945,FALSE,2.10148727871808
"CAN","cpi",0.2,2018,3,2017,NA,1.5,1.38943315827182,2.05208711728707,2.23316270166586,3.54405552837179,FALSE,1.11534291996223
"CAN","cpi",0.2,2019,3,2019,NA,0,1.96077429433672,2.00281498638086,1.91921619871868,2.07527494378271,FALSE,0.145935931089238
"CAN","cpi",0.2,2019,3,2019,NA,0.5,1.84265280498901,2.08878079354307,1.91921619871868,1.96131710374494,TRUE,0.246127988554068
"CAN","cpi",0.2,2019,3,2018,NA,1,1.97501602175248,2.38976793111024,1.91921619871868,2.81909694573415,FALSE,0.554251466942256
"CAN","cpi",0.2,2019,3,2018,NA,1.5,1.85246608404482,2.58287644035295,1.91921619871868,3.79624170159109,TRUE,0.730410356308134
"CAN","cpi",0.2,2020,3,2020,NA,0,0.663229782416083,0.700869293875407,0.71139989671781,0.779891991607007,FALSE,0.0639660185653316
"CAN","cpi",0.2,2020,3,2020,NA,0.5,1.48433035457157,1.6681200127646,0.71139989671781,1.59504539616918,FALSE,2.11611580282743
"CAN","cpi",0.2,2020,3,2019,NA,1,1.70258906877896,2.07341066028251,0.71139989671781,2.56912406193859,FALSE,2.84879452165642
"CAN","cpi",0.2,2020,3,2019,NA,1.5,1.85825202988637,2.48048981639754,0.71139989671781,3.3514298226716,FALSE,3.48936811943256
"CAN","cpi",0.2,2021,3,2021,NA,0,3.21983498369256,3.26628960488243,3.31148121717802,3.33723348286849,FALSE,0.159433651928848
"CAN","cpi",0.2,2021,3,2021,NA,0.5,2.76091124204684,2.93759242975651,3.31148121717802,2.81986273764272,FALSE,1.11140315626345
"CAN","cpi",0.2,2021,3,2020,NA,1,1.06561542357834,1.24229661128801,3.31148121717802,2.55173313104187,FALSE,5.34964270243471
"CAN","cpi",0.2,2021,3,2020,NA,1.5,0.880313179481559,1.4310948151659,3.31148121717802,3.05083641297579,FALSE,5.25174764071465
"CAN","cpi",0.2,2022,3,2022,NA,0,6.48836343258698,6.54302656401676,6.50977236228281,6.58834368873213,TRUE,0.0546631314297805
"CAN","cpi",0.2,2022,3,2022,NA,0.5,6.0982013086985,6.58209831747432,6.50977236228281,5.98101887959915,TRUE,0.483897008775825
"CAN","cpi",0.2,2022,3,2021,NA,1,3.20939766663756,3.77765870722414,6.50977236228281,4.27132466765734,FALSE,7.39854517823325
"CAN","cpi",0.2,2022,3,2021,NA,1.5,2.9729816881995,3.68672405731224,6.50977236228281,3.68392050970238,FALSE,7.77136313153917
"CAN","cpi",0.2,2023,3,2023,NA,0,3.91292212777334,3.95507063869563,3.78831288758619,4.00821358342971,FALSE,0.35367161139016
"CAN","cpi",0.2,2023,3,2023,NA,0.5,3.35485469053184,3.67176935949373,3.78831288758619,3.29302587175885,FALSE,0.608273489193046
"CAN","cpi",0.2,2023,3,2022,NA,1,4.57733910841371,5.56390108098386,3.78831288758619,4.01905628942603,FALSE,2.95912752463894
"CAN","cpi",0.2,2023,3,2022,NA,1.5,5.3352514238404,6.32181339641055,3.78831288758619,4.75925635675837,FALSE,4.85390831320568
"CAN","cpi",0.2,2024,3,2023,NA,1,2.96117596070391,3.88471681304077,NA,3.92709419556525,NA,NA
"CAN","cpi",0.2,2024,3,2023,NA,1.5,3.28759546219045,4.31017574861474,NA,3.33916254361279,NA,NA
"CAN","cpi",0.3,1952,3,1952,NA,0,2.71210197688613,2.71210197688613,2.55562336095485,2.65771800091113,FALSE,0.447081759803682
"CAN","cpi",0.3,1952,3,1952,NA,0.5,4.29591720791355,4.29591720791355,2.55562336095485,5.20333179389047,FALSE,4.97226813416773
"CAN","cpi",0.3,1952,3,1951,NA,1,2.35798777440331,2.35798777440331,2.55562336095485,8.18998200969936,FALSE,0.564673104432963
"CAN","cpi",0.3,1952,3,1951,NA,1.5,7.74297969750751,7.74297969750751,2.55562336095485,7.55460015368862,FALSE,14.8210181044362
"CAN","cpi",0.3,1953,3,1953,NA,0,-0.390508437491647,-0.551787970740609,-1.01492775838436,-0.921435878605124,FALSE,1.62277566930165
"CAN","cpi",0.3,1953,3,1953,NA,0.5,1.22960792364456,1.06832839039559,-1.01492775838436,-0.76897284692861,FALSE,6.25167955826223
"CAN","cpi",0.3,1953,3,1952,NA,1,-5.56930190930287,-5.73058144255183,-1.01492775838436,2.43113434957527,FALSE,13.3120167072295
"CAN","cpi",0.3,1953,3,1952,NA,1.5,6.91106118130339,6.74978164805443,-1.01492775838436,5.93557635631702,FALSE,22.4844031515732
"CAN","cpi",0.3,1954,3,1954,NA,0,0.832606534563004,0.823522063546587,0.644425455961438,0.902670593188762,FALSE,0.528575753559485
"CAN","cpi",0.3,1954,3,1954,NA,0.5,2.28755027790698,3.51685409911948,0.644425455961438,0.795164313951574,FALSE,5.92394616962834
"CAN","cpi",0.3,1954,3,1953,NA,1,5.7752236624311,8.50028690385899,0.644425455961438,4.14534384936852,FALSE,17.3844866884841
"CAN","cpi",0.3,1954,3,1953,NA,1.5,1.15232760582428,10.6623626372443,0.644425455961438,3.28639485866967,FALSE,10.9611840310281
"CAN","cpi",0.3,1955,3,1955,NA,0,-0.0797112567822833,0.0948240941190707,0.173649026558865,0.179965740558204,FALSE,0.39974944358648
"CAN","cpi",0.3,1955,3,1955,NA,0.5,-0.319436532324797,0.592782627708107,0.173649026558865,0.271639815719239,TRUE,0.912219160032904
"CAN","cpi",0.3,1955,3,1954,NA,1,1.62452070165728,4.50053195233411,0.173649026558865,4.00726070064464,FALSE,7.02135889381516
"CAN","cpi",0.3,1955,3,1954,NA,1.5,-0.497512814703859,2.37849843597297,0.173649026558865,3.09849569962328,TRUE,2.87601125067683
"CAN","cpi",0.3,1956,3,1956,NA,0,1.42200022923151,1.49336275338837,1.32752769429961,1.49944483483663,FALSE,0.341284052533717
"CAN","cpi",0.3,1956,3,1956,NA,0.5,0.2363469980075,0.664151165053083,1.32752769429961,0.239658941687119,FALSE,2.32316567917851
"CAN","cpi",0.3,1956,3,1955,NA,1,-0.497531168537514,0.450982128736005,1.32752769429961,2.42699902405841,FALSE,3.45292919888381
"CAN","cpi",0.3,1956,3,1955,NA,1.5,-0.285049881020489,0.66346341625303,1.32752769429961,2.6723883730094,FALSE,2.84583980597803
"CAN","cpi",0.3,1957,3,1957,NA,0,3.26989264386799,3.33942088725053,3.24684755852518,3.40805864327458,FALSE,0.135371344362019
"CAN","cpi",0.3,1957,3,1957,NA,0.5,2.95571592273722,3.71081929778271,3.24684755852518,2.77134230956367,TRUE,0.75510337504549
"CAN","cpi",0.3,1957,3,1956,NA,1,2.46522423312184,5.18528060261755,3.24684755852518,5.53767573267731,TRUE,2.72005636949571
"CAN","cpi",0.3,1957,3,1956,NA,1.5,-0.378286865064739,2.34176950443097,3.24684755852518,2.3159105314434,FALSE,5.30599366690772
"CAN","cpi",0.3,1958,3,1958,NA,0,2.12013406232515,2.18942806960338,2.33186388641149,2.2666416787086,FALSE,0.476253483872831
"CAN","cpi",0.3,1958,3,1958,NA,0.5,2.35227708407738,2.62634961176327,2.33186388641149,2.6047181946108,FALSE,0.33239594958844
"CAN","cpi",0.3,1958,3,1957,NA,1,0.405354321857682,1.21328071116595,2.33186388641149,4.25451187896576,FALSE,4.00387831858124
"CAN","cpi",0.3,1958,3,1957,NA,1.5,0.89045332063782,1.69837970994609,2.33186388641149,3.21878619474396,FALSE,2.61788117920942
"CAN","cpi",0.3,1959,3,1959,NA,0,1.07202169904777,1.22024436610625,1.19382698397654,1.23804892137791,TRUE,0.14822266705848
"CAN","cpi",0.3,1959,3,1959,NA,0.5,0.930252260244747,1.28056091715045,1.19382698397654,1.22423653017582,TRUE,0.350308656905701
"CAN","cpi",0.3,1959,3,1958,NA,1,-0.368879401237436,0.562592954615628,1.19382698397654,2.76661875727304,FALSE,2.7349981540271
"CAN","cpi",0.3,1959,3,1958,NA,1.5,1.55073239876974,2.4822047546228,1.19382698397654,3.40313655953963,FALSE,1.95120211240506
"CAN","cpi",0.3,1960,3,1960,NA,0,0.92163259811321,1.05494333957426,1.34209404870695,1.09496250556158,FALSE,0.953741338983032
"CAN","cpi",0.3,1960,3,1960,NA,0.5,1.27416826029809,1.63803811510139,1.34209404870695,1.31117730754252,TRUE,0.3638698548033
"CAN","cpi",0.3,1960,3,1959,NA,1,0.865469222257324,2.1399907790428,1.34209404870695,3.67993081372331,TRUE,1.27452155678547
"CAN","cpi",0.3,1960,3,1959,NA,1.5,0.927815506780635,2.20233706356611,1.34209404870695,2.53752597259669,TRUE,1.27452155678547
"CAN","cpi",0.3,1961,3,1961,NA,0,0.935390924662941,1.06764593298162,1.00921348094007,1.07956241593662,TRUE,0.132255008318674
"CAN","cpi",0.3,1961,3,1961,NA,0.5,1.67861525789512,1.96109624899669,1.00921348094007,1.62810563897838,FALSE,2.19505749668742
"CAN","cpi",0.3,1961,3,1960,NA,1,-0.785039359066205,0.215514721041045,1.00921348094007,1.72683407115431,FALSE,3.2682648226759
"CAN","cpi",0.3,1961,3,1960,NA,1.5,0.861511502266347,1.8620655823736,1.00921348094007,2.46209267036318,TRUE,1.00055408010725
"CAN","cpi",0.3,1962,3,1962,NA,0,1.03804064526166,1.10848813739528,1.04957947883042,1.11859419449202,TRUE,0.070447492133618
"CAN","cpi",0.3,1962,3,1962,NA,0.5,0.566134931571703,0.712314678741599,1.04957947883042,0.567427238599509,FALSE,1.10979346170937
"CAN","cpi",0.3,1962,3,1961,NA,1,0.745368824798671,0.891548571968568,1.04957947883042,1.63689072516514,FALSE,0.597696623918032
"CAN","cpi",0.3,1962,3,1961,NA,1.5,0.959306824140077,1.35847052529027,1.04957947883042,2.63635903501327,TRUE,0.399163701150191
"CAN","cpi",0.3,1963,3,1963,NA,0,1.7857976690525,1.82381773278499,1.60677118395228,1.86240003699012,FALSE,0.549524306875972
"CAN","cpi",0.3,1963,3,1963,NA,0.5,1.40111164106599,1.76349433229216,1.60677118395228,1.39337130813056,TRUE,0.362382691226166
"CAN","cpi",0.3,1963,3,1962,NA,1,1.23262449028879,1.71909536888394,1.60677118395228,2.94326130570012,TRUE,0.486470878595156
"CAN","cpi",0.3,1963,3,1962,NA,1.5,0.895438630202544,1.3819095087977,1.60677118395228,2.44281938697022,FALSE,1.12893280760825
"CAN","cpi",0.3,1964,3,1964,NA,0,1.84921973836157,1.9633762482176,1.88764670034376,2.0039339947047,TRUE,0.114156509856033
"CAN","cpi",0.3,1964,3,1964,NA,0.5,1.82044170573999,2.09334959965452,1.88764670034376,1.7991677011144,TRUE,0.272907893914524
"CAN","cpi",0.3,1964,3,1963,NA,1,1.66461822959557,2.19589769050659,1.88764670034376,4.16988253093083,TRUE,0.531279460911026
"CAN","cpi",0.3,1964,3,1963,NA,1.5,0.980998254396187,1.51227771530721,1.88764670034376,2.39235828979053,FALSE,1.60376227530116
"CAN","cpi",0.3,1965,3,1965,NA,0,2.22691672230754,2.30315819704074,2.29538304394236,2.3444020011952,TRUE,0.0762414747331999
"CAN","cpi",0.3,1965,3,1965,NA,0.5,1.84707900414435,2.10829197273103,2.29538304394236,1.87416183614195,FALSE,0.795758886333316
"CAN","cpi",0.3,1965,3,1964,NA,1,1.1727594717671,1.5087905153267,2.29538304394236,2.77513442256292,FALSE,2.58343826817576
"CAN","cpi",0.3,1965,3,1964,NA,1.5,1.21747212744668,1.66684788781057,2.29538304394236,2.58300862182973,FALSE,2.24519049216898
"CAN","cpi",0.3,1966,3,1966,NA,0,3.72533591654859,3.77506018250733,3.72486065470629,3.82226531435883,FALSE,0.0510821569367531
"CAN","cpi",0.3,1966,3,1966,NA,0.5,3.90075573335607,4.09483313565203,3.72486065470629,3.71609253757358,FALSE,0.696634769866761
"CAN","cpi",0.3,1966,3,1965,NA,1,1.34069065933194,1.66031132926109,3.72486065470629,3.18026314560651,FALSE,6.218333028344
"CAN","cpi",0.3,1966,3,1965,NA,1.5,1.58207482072898,1.96371235527422,3.72486065470629,2.72588429168219,FALSE,5.41348981863686
"CAN","cpi",0.3,1967,3,1967,NA,0,3.61440656327679,3.6585251323178,3.49360316391996,3.71060899730274,FALSE,0.389271138631962
"CAN","cpi",0.3,1967,3,1967,NA,0.5,2.31345555334393,2.36774473532838,3.49360316391996,2.56028521952089,FALSE,3.27102754938898
"CAN","cpi",0.3,1967,3,1966,NA,1,1.39088071433076,1.44516989631521,3.49360316391996,3.23068289349593,FALSE,5.90695566085517
"CAN","cpi",0.3,1967,3,1966,NA,1.5,2.136638272694,2.19092745467845,3.49360316391996,3.48379255951164,FALSE,3.77621977981734
"CAN","cpi",0.3,1968,3,1968,NA,0,3.96512502779257,4.03759180551864,3.95128347779386,4.08812321751386,FALSE,0.112014063436677
"CAN","cpi",0.3,1968,3,1968,NA,0.5,3.68472978632887,3.95611391093821,3.95128347779386,3.86057245484849,TRUE,0.27138412460934
"CAN","cpi",0.3,1968,3,1967,NA,1,1.80559426878118,2.07697839339052,3.95128347779386,4.52914843962159,FALSE,5.62654150861887
"CAN","cpi",0.3,1968,3,1967,NA,1.5,2.44183925155973,2.71322337616907,3.95128347779386,2.90317969156253,FALSE,3.80869870068015
"CAN","cpi",0.3,1969,3,1969,NA,0,4.42291243277788,4.51100880702968,4.42679496126681,4.56202018095233,TRUE,0.0880963742517977
"CAN","cpi",0.3,1969,3,1969,NA,0.5,2.91249515558424,3.10577990882192,4.42679496126681,3.1731721410374,FALSE,3.9676134745088
"CAN","cpi",0.3,1969,3,1968,NA,1,2.0427714951707,2.24975162922213,4.42679496126681,4.79164269130369,FALSE,6.42710393989339
"CAN","cpi",0.3,1969,3,1968,NA,1.5,2.63483103576215,2.84181116981358,4.42679496126681,3.43166930802121,FALSE,4.73550525248925
"CAN","cpi",0.3,1970,3,1970,NA,0,3.48268446238882,3.54195608836817,3.28128405769805,3.60731179706845,FALSE,0.634701353667265
"CAN","cpi",0.3,1970,3,1970,NA,0.5,3.94602016368772,4.01750077372267,3.28128405769805,4.09876840974541,FALSE,1.9707266271483
"CAN","cpi",0.3,1970,3,1969,NA,1,1.91506212630825,1.9865427363432,3.28128405769805,4.16731408225431,FALSE,3.77074152819167
"CAN","cpi",0.3,1970,3,1969,NA,1.5,3.37850968631297,3.44999029634791,3.28128405769805,2.94225383025522,FALSE,0.349268120363291
"CAN","cpi",0.3,1971,3,1971,NA,0,2.70506143853693,2.76456820453796,2.64123406634756,2.83090781749212,FALSE,0.24187068654209
"CAN","cpi",0.3,1971,3,1971,NA,0.5,1.28814744776146,1.51326505269109,2.64123406634756,1.62320660035324,FALSE,3.4478862153767
"CAN","cpi",0.3,1971,3,1970,NA,1,1.54454871618364,2.36243048061431,2.64123406634756,3.17007770946556,FALSE,1.61446343795425
"CAN","cpi",0.3,1971,3,1970,NA,1.5,1.74752791588116,2.56540968031182,2.64123406634756,3.54353814347809,FALSE,1.03452286738992
"CAN","cpi",0.3,1972,3,1972,NA,0,4.89102064333257,4.99320727584313,4.83230569625923,5.0489634093373,FALSE,0.269943624148671
"CAN","cpi",0.3,1972,3,1972,NA,0.5,4.40144028216745,4.81201801290832,4.83230569625923,4.42305209693724,FALSE,0.468542540314903
"CAN","cpi",0.3,1972,3,1971,NA,1,2.27305342611174,3.03678594733198,4.83230569625923,4.88112932259212,FALSE,5.89378894672667
"CAN","cpi",0.3,1972,3,1971,NA,1.5,1.96163791380213,2.72537043502238,4.83230569625923,2.93340690449956,FALSE,6.78354755332554
"CAN","cpi",0.3,1973,3,1973,NA,0,7.03780247064262,7.15235005539353,7.12388603531779,7.21795256722813,TRUE,0.114547584750918
"CAN","cpi",0.3,1973,3,1973,NA,0.5,5.43018487808062,5.54473246283153,7.12388603531779,5.49391172870491,FALSE,4.62641493471165
"CAN","cpi",0.3,1973,3,1972,NA,1,2.54333363484138,3.6433436309739,7.12388603531779,5.39692894021178,FALSE,11.0444168656865
"CAN","cpi",0.3,1973,3,1972,NA,1.5,2.67985334947006,3.77986334560259,7.12388603531779,3.58263496028301,FALSE,10.654360538176
"CAN","cpi",0.3,1974,3,1974,NA,0,9.99302087711304,9.99778450544131,10.2717243737774,10.1210179328964,FALSE,0.787448966431449
"CAN","cpi",0.3,1974,3,1974,NA,0.5,7.75263951023607,7.75740313856434,10.2717243737774,7.94351867110281,FALSE,7.18853858607993
"CAN","cpi",0.3,1974,3,1973,NA,1,3.45170585681658,5.48104955714829,10.2717243737774,7.1912022670208,FALSE,15.7169860335578
"CAN","cpi",0.3,1974,3,1973,NA,1.5,3.91009742080752,5.93944112113923,10.2717243737774,4.0254660999559,FALSE,14.4072958507265
"CAN","cpi",0.3,1975,3,1975,NA,0,10.0657907587122,10.0883567060436,10.0232981493341,10.1376483081154,FALSE,0.143973402697395
"CAN","cpi",0.3,1975,3,1975,NA,0.5,7.45000034908262,10.8238371667031,10.0232981493341,8.26308676293858,TRUE,3.37383681762047
"CAN","cpi",0.3,1975,3,1974,NA,1,3.88205568861831,7.70287032490224,10.0232981493341,7.73583614861028,FALSE,10.450608420375
"CAN","cpi",0.3,1975,3,1974,NA,1.5,5.65189187092365,9.47270650720758,10.0232981493341,4.67814014273702,FALSE,5.39393361378833
"CAN","cpi",0.3,1976,3,1976,NA,0,7.10765209253968,7.15650089981733,7.22784311401172,7.2178166349125,FALSE,0.252683704975885
"CAN","cpi",0.3,1976,3,1976,NA,0.5,5.952397570163,8.56142852451765,7.22784311401172,6.91786916440093,TRUE,2.60903095435465
"CAN","cpi",0.3,1976,3,1975,NA,1,4.93855321209876,9.4577745450789,7.22784311401172,8.273619332389,TRUE,4.51922133298014
"CAN","cpi",0.3,1976,3,1975,NA,1.5,6.00778603846727,10.5270073714474,7.22784311401172,4.5816570194731,TRUE,4.51922133298014
"CAN","cpi",0.3,1977,3,1977,NA,0,7.37872588930592,7.45246374515106,7.58101410153764,7.50701198703803,FALSE,0.441024588378226
"CAN","cpi",0.3,1977,3,1977,NA,0.5,6.10028252133379,7.85242573707024,7.58101410153764,6.51617593246189,TRUE,1.75214321573645
"CAN","cpi",0.3,1977,3,1976,NA,1,3.81654602332288,6.29119956436295,7.58101410153764,4.96992569410004,FALSE,6.15983793296777
"CAN","cpi",0.3,1977,3,1976,NA,1.5,4.74442370625662,7.21907724729669,7.58101410153764,4.37719420243736,FALSE,3.50875883887136
"CAN","cpi",0.3,1978,3,1978,NA,0,8.46832597549249,8.57797415293672,8.50208927062595,8.58158523467168,TRUE,0.109648177444228
"CAN","cpi",0.3,1978,3,1978,NA,0.5,7.44308948857232,8.93878237712189,8.50208927062595,7.4716201567401,TRUE,1.49569288854957
"CAN","cpi",0.3,1978,3,1977,NA,1,5.19070972967086,7.60153385246591,8.50208927062595,6.36749774462425,FALSE,4.98383960325229
"CAN","cpi",0.3,1978,3,1977,NA,1.5,4.4526466880894,7.39781730631798,8.50208927062595,5.06410799386515,FALSE,6.1002333733942
"CAN","cpi",0.3,1979,3,1979,NA,0,8.41738569025254,8.44538130443607,8.65147652410481,8.49829924825941,FALSE,0.616839098951349
"CAN","cpi",0.3,1979,3,1979,NA,0.5,8.03487177085917,8.77335608604682,8.65147652410481,7.55954787357905,TRUE,0.738484315187652
"CAN","cpi",0.3,1979,3,1978,NA,1,6.14331046638222,8.58917250900822,8.65147652410481,7.11843292779768,FALSE,2.62387351433055
"CAN","cpi",0.3,1979,3,1978,NA,1.5,5.20446961728629,8.22881511278524,8.65147652410481,5.13416174624329,FALSE,4.23194952784058
"CAN","cpi",0.3,1980,3,1980,NA,0,9.34710519815695,9.42129325459786,9.5171912664748,9.41458421512922,FALSE,0.348182376089294
"CAN","cpi",0.3,1980,3,1980,NA,0.5,8.49263711667948,9.2225766800791,9.5171912664748,7.9706129876785,FALSE,1.57169552453018
"CAN","cpi",0.3,1980,3,1979,NA,1,5.96489895426815,8.3236180763312,9.5171912664748,6.28953001008885,FALSE,5.76892823675903
"CAN","cpi",0.3,1980,3,1979,NA,1.5,5.07061882989948,8.60885151590814,9.5171912664748,5.364173973799,FALSE,6.13348911619911
"CAN","cpi",0.3,1981,3,1981,NA,0,11.5464125322266,11.6560242427961,11.5813425032741,11.5923033542996,TRUE,0.109611710569467
"CAN","cpi",0.3,1981,3,1981,NA,0.5,11.8981189414395,12.8594352772226,11.5813425032741,11.0172481296202,FALSE,1.86639187339844
"CAN","cpi",0.3,1981,3,1980,NA,1,6.93216754816221,9.80588878063016,11.5813425032741,8.10476531012298,FALSE,7.94644615430789
"CAN","cpi",0.3,1981,3,1980,NA,1.5,5.6244396885904,9.38094468901863,11.5813425032741,5.56064493450504,FALSE,10.0433558983011
"CAN","cpi",0.3,1982,3,1982,NA,0,10.1738730357045,10.2218102377055,10.1124203763629,10.1931679525338,FALSE,0.223516228691221
"CAN","cpi",0.3,1982,3,1982,NA,0.5,9.92346843862183,10.8929112215483,10.1124203763629,9.37004969245236,TRUE,0.969442782926428
"CAN","cpi",0.3,1982,3,1981,NA,1,8.40292409542278,12.5577638192817,10.1124203763629,8.69554175936175,TRUE,4.15483972385897
"CAN","cpi",0.3,1982,3,1981,NA,1.5,7.04050227696302,11.195342000822,10.1124203763629,7.27062596384307,TRUE,4.15483972385897
"CAN","cpi",0.3,1983,3,1983,NA,0,5.73332615940353,5.82472939011604,5.67091787896303,5.81768735292628,FALSE,0.269712603399638
"CAN","cpi",0.3,1983,3,1983,NA,0.5,5.06600871209421,6.13872782023024,5.67091787896303,5.01354605702602,TRUE,1.07271910813603
"CAN","cpi",0.3,1983,3,1982,NA,1,8.15690771817644,10.637477982422,5.67091787896303,7.12656393494862,FALSE,9.58339837628381
"CAN","cpi",0.3,1983,3,1982,NA,1.5,7.49339646197453,9.97396672622006,5.67091787896303,6.40641718255638,FALSE,7.68765192999266
"CAN","cpi",0.3,1984,3,1984,NA,0,4.11724483722746,4.18289059190304,4.19799576814029,4.24028901012313,FALSE,0.10880340106772
"CAN","cpi",0.3,1984,3,1984,NA,0.5,5.01043752729084,5.53305044474811,4.19799576814029,4.75786855948752,FALSE,2.84387508645885
"CAN","cpi",0.3,1984,3,1983,NA,1,4.33561778177415,6.09508458080243,4.19799576814029,5.66557758519989,FALSE,2.15267255226789
"CAN","cpi",0.3,1984,3,1983,NA,1.5,4.02827300848351,6.12416887573859,4.19799576814029,4.21132796972244,TRUE,2.09589586725508
"CAN","cpi",0.3,1985,3,1985,NA,0,3.78983994735437,3.87489416471772,3.86444262005169,3.92349089738505,TRUE,0.0850542173633517
"CAN","cpi",0.3,1985,3,1985,NA,0.5,4.29666915450903,4.73077708197204,3.86444262005169,4.05923277954066,FALSE,1.6690408830554
"CAN","cpi",0.3,1985,3,1984,NA,1,3.07913433839602,4.27832418695122,3.86444262005169,3.95710775307987,TRUE,1.1991898485552
"CAN","cpi",0.3,1985,3,1984,NA,1.5,1.96858217957938,4.47206719757029,3.86444262005169,4.80620472271859,TRUE,2.50348501799091
"CAN","cpi",0.3,1986,3,1986,NA,0,3.99781951547579,4.07877921327985,4.08685396749431,4.13000198176505,FALSE,0.104030424131086
"CAN","cpi",0.3,1986,3,1986,NA,0.5,4.84044493715336,5.22201254873428,4.08685396749431,4.52376153022901,FALSE,2.53468466774964
"CAN","cpi",0.3,1986,3,1985,NA,1,3.04613578013336,4.16360370839907,4.08685396749431,4.28856700742326,TRUE,1.1174679282657
"CAN","cpi",0.3,1986,3,1985,NA,1.5,1.74456987457068,4.17401476361139,4.08685396749431,4.73207334351572,TRUE,2.42944488904071
"CAN","cpi",0.3,1987,3,1987,NA,0,4.21775747558492,4.29949114002256,4.23980729277887,4.34713339619661,TRUE,0.0817336644376425
"CAN","cpi",0.3,1987,3,1987,NA,0.5,4.27734752581033,4.71241464686546,4.23980729277887,4.04554574241257,FALSE,0.542324929716429
"CAN","cpi",0.3,1987,3,1986,NA,1,3.25682316004531,4.49188215534747,4.23980729277887,4.62985152306341,TRUE,1.23505899530216
"CAN","cpi",0.3,1987,3,1986,NA,1.5,1.74569150443894,4.32187675757136,4.23980729277887,4.92117197950912,TRUE,2.57618525313242
"CAN","cpi",0.3,1988,3,1988,NA,0,3.87814634095746,3.96084608086651,3.92899537638065,4.00901931174773,TRUE,0.0826997399090548
"CAN","cpi",0.3,1988,3,1988,NA,0.5,3.87801396461288,4.30754515794659,3.92899537638065,3.73662637763501,TRUE,0.429531193333702
"CAN","cpi",0.3,1988,3,1987,NA,1,3.31434880424368,4.55873447072996,3.92899537638065,4.57559871410537,TRUE,1.24438566648628
"CAN","cpi",0.3,1988,3,1987,NA,1.5,2.43327211842877,4.63406996363716,3.92899537638065,4.47333468954476,TRUE,2.20079784520838
"CAN","cpi",0.3,1989,3,1989,NA,0,4.87554159563197,4.94260783409255,4.82821664544208,4.99076681888079,FALSE,0.202280381860281
"CAN","cpi",0.3,1989,3,1989,NA,0.5,4.79187050598324,5.18815724133943,4.82821664544208,4.4916513034202,TRUE,0.396286735356199
"CAN","cpi",0.3,1989,3,1988,NA,1,3.15385723519145,4.34359115678036,4.82821664544208,4.54165447743213,FALSE,2.57437817490811
"CAN","cpi",0.3,1989,3,1988,NA,1.5,2.25642351251199,4.28530951762455,4.82821664544208,4.35655767104226,FALSE,3.58004922744836
"CAN","cpi",0.3,1990,3,1990,NA,0,4.41336283422417,4.48841747975364,4.64347549432717,4.53713653171057,FALSE,0.518077544310976
"CAN","cpi",0.3,1990,3,1990,NA,0.5,5.41388642394937,5.79163918270051,4.64347549432717,5.08101061108308,FALSE,2.578926843386
"CAN","cpi",0.3,1990,3,1989,NA,1,3.88798331903354,5.35536697525008,4.64347549432717,5.34783125013627,TRUE,1.46738365621654
"CAN","cpi",0.3,1990,3,1989,NA,1.5,2.64119008916431,5.08356419238714,4.64347549432717,4.81353563225505,TRUE,2.44237410322283
"CAN","cpi",0.3,1991,3,1991,NA,0,5.54343096171137,5.61892411235692,5.4258100696218,5.66037042635664,FALSE,0.41155284233006
"CAN","cpi",0.3,1991,3,1991,NA,0.5,8.53130448426561,8.95730248349225,5.4258100696218,7.84858621299389,FALSE,9.29883918392325
"CAN","cpi",0.3,1991,3,1990,NA,1,3.52985722053312,4.64546688746045,5.4258100696218,4.26930339967321,FALSE,3.34516161595974
"CAN","cpi",0.3,1991,3,1990,NA,1.5,2.28441323644782,4.71613362894036,5.4258100696218,5.0605414207232,FALSE,4.45936736586807
"CAN","cpi",0.3,1992,3,1992,NA,0,1.38930231832185,1.47419424532831,1.47496888572843,1.52994687025859,FALSE,0.0871051852925317
"CAN","cpi",0.3,1992,3,1992,NA,0.5,1.75351029404102,2.28745988479153,1.47496888572843,1.85875773502133,FALSE,1.32978218592934
"CAN","cpi",0.3,1992,3,1991,NA,1,3.85249447999889,4.71906903918175,1.47496888572843,3.50386131646851,FALSE,7.65950482852702
"CAN","cpi",0.3,1992,3,1991,NA,1.5,1.05960140983742,4.94947205838395,1.47496888572843,6.78035435046663,TRUE,3.88987064854653
"CAN","cpi",0.3,1993,3,1993,NA,0,1.71922773996264,1.80606470183169,1.84351085411351,1.87124044779021,FALSE,0.193825968388533
"CAN","cpi",0.3,1993,3,1993,NA,0.5,2.9034080649968,3.12837618353533,1.84351085411351,2.72734178597627,FALSE,3.25324586391934
"CAN","cpi",0.3,1993,3,1992,NA,1,1.52715822277667,1.9909746562186,1.84351085411351,3.08451104384819,TRUE,0.463816433441931
"CAN","cpi",0.3,1993,3,1992,NA,1.5,0.294389408285354,2.17582671242131,1.84351085411351,3.82501351795864,TRUE,1.88143730413596
"CAN","cpi",0.3,1994,3,1994,NA,0,0.113896571713022,0.19348775700607,0.161630694655448,0.262954827743209,TRUE,0.0795911852930473
"CAN","cpi",0.3,1994,3,1994,NA,0.5,0.0947484181645648,0.361691009723037,0.161630694655448,0.310066271274909,TRUE,0.266942591558473
"CAN","cpi",0.3,1994,3,1993,NA,1,1.77508885563268,2.10973081516671,0.161630694655448,2.87682482634461,FALSE,4.94452241946898
"CAN","cpi",0.3,1994,3,1993,NA,1.5,0.646496354759511,2.35518030755274,0.161630694655448,4.13541986765475,FALSE,3.09401441023341
"CAN","cpi",0.3,1995,3,1995,NA,0,2.10194023355805,2.15446474166974,2.11688403676572,2.22224044651209,TRUE,0.052524508111695
"CAN","cpi",0.3,1995,3,1995,NA,0.5,3.18734851323761,3.3066259019032,2.11688403676572,2.99405804315788,FALSE,3.17774732144244
"CAN","cpi",0.3,1995,3,1994,NA,1,0.845326673191493,1.07863229718087,2.11688403676572,2.99684369657241,FALSE,3.19973916566035
"CAN","cpi",0.3,1995,3,1994,NA,1.5,0.247018673670882,1.36467077966064,2.11688403676572,2.55761383507254,FALSE,3.26683284057569
"CAN","cpi",0.3,1996,3,1996,NA,0,1.39471969090242,1.44581062911119,1.55309584667184,1.51034526106652,FALSE,0.357620131239202
"CAN","cpi",0.3,1996,3,1996,NA,0.5,1.72100559922973,1.93711380594048,1.55309584667184,1.79601314583588,FALSE,0.695850356876144
"CAN","cpi",0.3,1996,3,1995,NA,1,1.6779794671411,2.10674568864074,1.55309584667184,2.55715877011559,FALSE,0.78557656569751
"CAN","cpi",0.3,1996,3,1995,NA,1.5,0.405355802051536,2.52469007614293,1.55309584667184,4.37195408299294,TRUE,2.1193342740914
"CAN","cpi",0.3,1997,3,1997,NA,0,1.63106806250597,1.6823975124276,1.60528783555959,1.74775979926451,FALSE,0.124987241197003
"CAN","cpi",0.3,1997,3,1997,NA,0.5,2.41348269805905,2.63533174554532,1.60528783555959,2.44638235868142,FALSE,2.53097722605614
"CAN","cpi",0.3,1997,3,1996,NA,1,1.33919677013172,1.63863607760085,1.60528783555959,2.43903366578812,TRUE,0.299439307469128
"CAN","cpi",0.3,1997,3,1996,NA,1.5,0.88846857936745,2.28711010079619,1.60528783555959,3.62198739789796,TRUE,1.39864152142874
"CAN","cpi",0.3,1998,3,1998,NA,0,0.921437399721558,0.971380578823498,0.988908029337191,1.03895035119065,FALSE,0.100021609141063
"CAN","cpi",0.3,1998,3,1998,NA,0.5,1.77933403718057,1.96379412546676,0.988908029337191,1.85198354845497,FALSE,2.44282011069584
"CAN","cpi",0.3,1998,3,1997,NA,1,1.3847151456604,1.6753616566483,0.988908029337191,2.50242700061489,FALSE,1.42152398619707
"CAN","cpi",0.3,1998,3,1997,NA,1.5,0.831968098423708,2.28053955915967,0.988908029337191,3.75826952211307,TRUE,1.44857146073597
"CAN","cpi",0.3,1999,3,1999,NA,0,1.70062153912949,1.75230333995811,1.7107350135213,1.81904689636282,TRUE,0.0516818008286219
"CAN","cpi",0.3,1999,3,1999,NA,0.5,1.17394619306823,1.32264777074853,1.7107350135213,1.31729339512256,FALSE,1.25752227131678
"CAN","cpi",0.3,1999,3,1998,NA,1,0.957830290628554,1.10653186830886,1.7107350135213,2.15211490322884,FALSE,1.87499627828727
"CAN","cpi",0.3,1999,3,1998,NA,1.5,0.383021324530776,1.68631713106784,1.7107350135213,3.69857126490312,FALSE,1.37306118497552
"CAN","cpi",0.3,2000,3,2000,NA,0,2.62748044407668,2.68113927458956,2.6718361971244,2.74274050503735,TRUE,0.053658830512874
"CAN","cpi",0.3,2000,3,2000,NA,0.5,2.42966156853314,2.65891861853587,2.6718361971244,2.46113990926174,FALSE,0.266164417398543
"CAN","cpi",0.3,2000,3,1999,NA,1,1.7531916295411,2.33370875754563,2.6718361971244,3.49419557264756,FALSE,1.54659552680101
"CAN","cpi",0.3,2000,3,1999,NA,1.5,1.5079171210238,2.61255709088957,2.6718361971244,3.22544865557399,FALSE,1.27400884482242
"CAN","cpi",0.3,2001,3,2001,NA,0,2.69139616130713,2.74532261077188,2.47906219852806,2.80396337772557,FALSE,0.660594914547796
"CAN","cpi",0.3,2001,3,2001,NA,0.5,2.19613929683367,2.45466694648628,2.47906219852806,2.23984277042869,FALSE,0.328228369771996
"CAN","cpi",0.3,2001,3,2000,NA,1,2.65160943233905,3.48817966085576,2.47906219852806,3.95792003209951,FALSE,1.32956232511953
"CAN","cpi",0.3,2001,3,2000,NA,1.5,2.07182554176843,3.43598038595221,2.47906219852806,3.55622040628749,TRUE,1.36415484418378
"CAN","cpi",0.3,2002,3,2002,NA,0,2.23561402295868,2.28868762074948,2.20880570551249,2.34939305392984,FALSE,0.129668790494202
"CAN","cpi",0.3,2002,3,2002,NA,0.5,1.62193846696095,1.86316577424067,2.20880570551249,1.70224895292675,FALSE,1.22876996805633
"CAN","cpi",0.3,2002,3,2001,NA,1,1.78491907028018,2.319519268444,2.20880570551249,2.47791561910008,TRUE,0.534600198163816
"CAN","cpi",0.3,2002,3,2001,NA,1.5,2.34110313819595,3.39428763524678,2.20880570551249,3.17564245091106,FALSE,1.43117716186073
"CAN","cpi",0.3,2003,3,2003,NA,0,2.70309376034121,2.75580282300855,2.71189071546809,2.81714587005806,TRUE,0.0527090626673381
"CAN","cpi",0.3,2003,3,2003,NA,0.5,4.51908551781545,4.86818694295509,2.71189071546809,4.41787786293317,FALSE,5.5125151461321
"CAN","cpi",0.3,2003,3,2002,NA,1,2.43685006356035,3.35352071465066,2.71189071546809,4.32236105253803,TRUE,0.916670651090305
"CAN","cpi",0.3,2003,3,2002,NA,1.5,1.45187659531165,2.87920163909684,2.71189071546809,3.7551535685832,TRUE,1.42732504378519
"CAN","cpi",0.3,2004,3,2004,NA,0,1.71749866457204,1.76806638236405,1.83151661303942,1.83115885083991,FALSE,0.231854091150219
"CAN","cpi",0.3,2004,3,2004,NA,0.5,1.82672638053705,2.08616830319353,1.83151661303942,1.89356075843229,TRUE,0.259441922656483
"CAN","cpi",0.3,2004,3,2003,NA,1,1.94331035213434,2.41826699089692,1.83151661303942,2.5903955121087,FALSE,0.794367321890915
"CAN","cpi",0.3,2004,3,2003,NA,1.5,1.23448438266281,3.04775812441195,1.83151661303942,4.52605057310407,TRUE,1.81327374174914
"CAN","cpi",0.3,2005,3,2005,NA,0,2.27847710301493,2.33134191947376,2.18071628336509,2.39375726304695,FALSE,0.332181444029806
"CAN","cpi",0.3,2005,3,2005,NA,0.5,1.94461090128445,2.17189978411742,2.18071628336509,2.00628617924563,FALSE,0.252478880683457
"CAN","cpi",0.3,2005,3,2004,NA,1,1.58811107992753,1.82947545775227,2.18071628336509,2.50853787240411,FALSE,1.24490959386137
"CAN","cpi",0.3,2005,3,2004,NA,1.5,1.40556088379447,2.59265294877789,2.18071628336509,3.53910826966273,TRUE,1.18709206498342
"CAN","cpi",0.3,2006,3,2006,NA,0,2.02348936924829,2.07449211483504,1.97519342012289,2.13830460574546,FALSE,0.188991171659331
