isdrw/probabilistic-benchmark-forecasts/results/linear_quantile_regression_lag/archive/lqr_lag_prediction_rw_2026-01-30_11-57-28.csv
"country","target","tau","target_year","target_quarter","forecast_year","forecast_quarter","horizon","lower_bound","upper_bound","truth_value","prediction","covered","IS"
"CAN","cpi",0.1,1952,3,1952,NA,0,4.21811346565328,4.21811346565328,2.55562336095485,5.33589356249898,FALSE,3.6944224548854
"CAN","cpi",0.1,1952,3,1952,NA,0.5,7.28772000038339,7.28772000038339,2.55562336095485,9.78336808811006,FALSE,10.5157703098412
"CAN","cpi",0.1,1953,3,1953,NA,0,-0.225643853305272,-0.225643853305273,-1.01492775838436,-1.36658675161344,FALSE,1.75396423350909
"CAN","cpi",0.1,1953,3,1953,NA,0.5,-0.0294332742980972,-0.0294332742980978,-1.01492775838436,0.110034650547486,FALSE,2.18998774241392
"CAN","cpi",0.1,1953,3,1952,NA,1,2.24045229828239,2.24045229828239,-1.01492775838436,5.33589356249898,FALSE,7.2341779037039
"CAN","cpi",0.1,1953,3,1952,NA,1.5,4.17155386392402,4.17155386392402,-1.01492775838436,9.78336808811006,FALSE,11.5255147162408
"CAN","cpi",0.1,1954,3,1954,NA,0,2.23161428550777,2.23161428550777,0.644425455961438,0.642985131580263,FALSE,3.52708628788074
"CAN","cpi",0.1,1954,3,1954,NA,0.5,5.91533409288749,6.06401518543889,0.644425455961438,-0.366337731528715,FALSE,11.8618113968315
"CAN","cpi",0.1,1954,3,1953,NA,1,12.4614768179143,12.6101579104657,0.644425455961438,-1.36658675161344,FALSE,26.4087952302244
"CAN","cpi",0.1,1954,3,1953,NA,1.5,14.180437100218,14.3291181927694,0.644425455961438,0.110034650547486,FALSE,30.2287069686771
"CAN","cpi",0.1,1955,3,1955,NA,0,1.22849391744334,1.22849391744334,0.173649026558865,0.17297271419658,FALSE,2.34409975752105
"CAN","cpi",0.1,1955,3,1955,NA,0.5,1.95428524356725,3.08903178606971,0.173649026558865,0.586026480650511,FALSE,5.09171591363221
"CAN","cpi",0.1,1955,3,1954,NA,1,0.043818267159265,1.17856480966173,0.173649026558865,0.642985131580263,TRUE,1.13474654250246
"CAN","cpi",0.1,1955,3,1954,NA,1.5,0.452392208089363,1.58713875059183,0.173649026558865,-0.366337731528715,FALSE,1.75417583479246
"CAN","cpi",0.1,1956,3,1956,NA,0,1.37420307487326,1.6249343007192,1.32752769429961,0.753971131965347,FALSE,0.354454293787388
"CAN","cpi",0.1,1956,3,1956,NA,0.5,0.342245693422,0.592976919267945,1.32752769429961,0.174369006303267,FALSE,1.88306628147186
"CAN","cpi",0.1,1956,3,1955,NA,1,0.428408765837482,0.679139991683427,1.32752769429961,0.17297271419658,FALSE,1.69159278721524
"CAN","cpi",0.1,1956,3,1955,NA,1.5,0.728648703454312,0.979379929300257,1.32752769429961,0.586026480650511,FALSE,1.0243929258445
"CAN","cpi",0.1,1957,3,1957,NA,0,3.87549006935637,3.87549006935637,3.24684755852518,3.20420645854679,FALSE,1.39698335740266
"CAN","cpi",0.1,1957,3,1957,NA,0.5,1.88925111434436,2.51087225456086,3.24684755852518,2.07576432581215,FALSE,2.25712181569276
"CAN","cpi",0.1,1957,3,1956,NA,1,1.14603752348506,1.76765866370156,3.24684755852518,0.753971131965347,FALSE,3.90870757315787
"CAN","cpi",0.1,1957,3,1956,NA,1.5,0.635526898734465,1.25714803895096,3.24684755852518,0.174369006303267,FALSE,5.0431756281592
"CAN","cpi",0.1,1958,3,1958,NA,0,2.26543521205198,2.46190097823495,2.33186388641149,2.45716899110006,TRUE,0.196465766182975
"CAN","cpi",0.1,1958,3,1958,NA,0.5,2.46053585567641,2.65700162185939,2.33186388641149,3.16832340224646,FALSE,0.482403475660584
"CAN","cpi",0.1,1958,3,1957,NA,1,1.31737759941362,1.5138433655966,2.33186388641149,3.20420645854679,FALSE,2.01428914577162
"CAN","cpi",0.1,1958,3,1957,NA,1.5,1.42887727339898,1.74271932340885,2.33186388641149,2.07576432581215,FALSE,1.62305219001574
"CAN","cpi",0.1,1959,3,1959,NA,0,1.3388991848776,1.3388991848776,1.19382698397654,1.42085685959275,FALSE,0.322382668669011
"CAN","cpi",0.1,1959,3,1959,NA,0.5,1.6400892085438,1.68244990637355,1.19382698397654,1.98727093968503,FALSE,1.03405453020143
"CAN","cpi",0.1,1959,3,1958,NA,1,1.40724096931601,1.70935016571811,1.19382698397654,2.45716899110006,FALSE,0.776362497156478
"CAN","cpi",0.1,1959,3,1958,NA,1.5,1.61069060534971,1.9127998017518,1.19382698397654,3.16832340224646,FALSE,1.22847279945358
"CAN","cpi",0.1,1960,3,1960,NA,0,1.47253193736932,1.52439472718457,1.34209404870695,1.34570677924433,FALSE,0.341724764620511
"CAN","cpi",0.1,1960,3,1960,NA,0.5,1.57956275547068,1.63142554528593,1.34209404870695,1.13297483079829,FALSE,0.579571027067975
"CAN","cpi",0.1,1960,3,1959,NA,1,1.12378950658365,1.1756522963989,1.34209404870695,1.42085685959275,FALSE,0.421733350499815
"CAN","cpi",0.1,1960,3,1959,NA,1.5,1.2219899334529,1.54955108660227,1.34209404870695,1.98727093968503,TRUE,0.327561153149371
"CAN","cpi",0.1,1961,3,1961,NA,0,1.31227792982907,1.38435076815067,1.00921348094007,1.32757858722203,FALSE,0.745549391408259
"CAN","cpi",0.1,1961,3,1961,NA,0.5,1.57641135001711,1.73607647971558,1.00921348094007,1.39166174207428,FALSE,1.42010483875855
"CAN","cpi",0.1,1961,3,1960,NA,1,1.36416221155714,1.52382734125562,1.00921348094007,1.34570677924433,FALSE,0.948440086625303
"CAN","cpi",0.1,1961,3,1960,NA,1.5,1.38928636494113,1.5489514946396,1.00921348094007,1.13297483079829,FALSE,1.00427153858971
"CAN","cpi",0.1,1962,3,1962,NA,0,0.539640889628747,0.566887135715185,1.04957947883042,0.577977430468435,FALSE,1.09989589745362
"CAN","cpi",0.1,1962,3,1962,NA,0.5,0.930239084413925,1.07186325733467,1.04957947883042,0.636962012224359,TRUE,0.141624172920749
"CAN","cpi",0.1,1962,3,1961,NA,1,0.960351076701566,1.10197524962232,1.04957947883042,1.32757858722203,TRUE,0.141624172920749
"CAN","cpi",0.1,1962,3,1961,NA,1.5,0.989006217543599,1.25578215172444,1.04957947883042,1.39166174207428,TRUE,0.266775934180837
"CAN","cpi",0.1,1963,3,1963,NA,0,1.78056777143833,1.92017456386016,1.60677118395228,1.66779362321099,FALSE,0.525821431279716
"CAN","cpi",0.1,1963,3,1963,NA,0.5,1.96615346301188,2.10576025543371,1.60677118395228,1.52118152719239,FALSE,0.93823407922094
"CAN","cpi",0.1,1963,3,1962,NA,1,1.66454574764896,1.80415254007079,1.60677118395228,0.577977430468435,FALSE,0.267994711747785
"CAN","cpi",0.1,1963,3,1962,NA,1.5,1.06977854464798,1.20938533706981,1.60677118395228,0.636962012224359,FALSE,1.02268645216065
"CAN","cpi",0.1,1964,3,1964,NA,0,1.82641517649334,1.99709739377478,1.88764670034376,1.89274723222648,TRUE,0.170682217281441
"CAN","cpi",0.1,1964,3,1964,NA,0.5,1.40194473532454,1.62862540182596,1.88764670034376,1.59688015421336,FALSE,0.802283552096532
"CAN","cpi",0.1,1964,3,1963,NA,1,1.14008317829921,1.36676384480064,1.88764670034376,1.66779362321099,FALSE,1.38419812326392
"CAN","cpi",0.1,1964,3,1963,NA,1.5,1.13200528918607,1.35868595568749,1.88764670034376,1.52118152719239,FALSE,1.4021489879598
"CAN","cpi",0.1,1965,3,1965,NA,0,1.9193273491184,1.95326502495435,2.29538304394236,2.00763200760394,FALSE,0.794199940253741
"CAN","cpi",0.1,1965,3,1965,NA,0.5,1.71059844538027,1.80816808122214,2.29538304394236,1.88069823981647,FALSE,1.18026955299791
"CAN","cpi",0.1,1965,3,1964,NA,1,1.29396866251016,1.39153829835203,2.29538304394236,1.89274723222648,FALSE,2.10611351493148
"CAN","cpi",0.1,1965,3,1964,NA,1.5,1.46513237829956,1.57580396205378,2.29538304394236,1.59688015421336,FALSE,1.70973621017327
"CAN","cpi",0.1,1966,3,1966,NA,0,3.54520930082581,3.76670211900057,3.72486065470629,3.50850431851723,TRUE,0.221492818174758
"CAN","cpi",0.1,1966,3,1966,NA,0.5,2.35082978669723,2.63466170768119,3.72486065470629,2.72414080931513,FALSE,2.7064962477064
"CAN","cpi",0.1,1966,3,1965,NA,1,1.59902231435331,2.15377375861388,3.72486065470629,2.00763200760394,FALSE,4.04605565779926
"CAN","cpi",0.1,1966,3,1965,NA,1.5,1.47999523821275,2.03474668247332,3.72486065470629,1.88069823981647,FALSE,4.31056027144495
"CAN","cpi",0.1,1967,3,1967,NA,0,3.1490867240829,3.26769874320803,3.49360316391996,3.43593854851327,FALSE,0.620621842929412
"CAN","cpi",0.1,1967,3,1967,NA,0.5,2.38671457867327,2.5053265977984,3.49360316391996,3.60120034208141,FALSE,2.31478216606194
"CAN","cpi",0.1,1967,3,1966,NA,1,1.61398947513892,2.61878151377661,3.49360316391996,3.50850431851723,FALSE,2.94884015006736
"CAN","cpi",0.1,1967,3,1966,NA,1.5,1.54762022863607,2.55241226727376,3.49360316391996,2.72414080931513,FALSE,3.09632736451814
"CAN","cpi",0.1,1968,3,1968,NA,0,3.83687304961983,3.87397213382209,3.95128347779386,3.85741006811451,FALSE,0.208902070806183
"CAN","cpi",0.1,1968,3,1968,NA,0.5,2.89304498528953,3.02091555792241,3.95128347779386,3.82980583992124,FALSE,2.19535483901387
"CAN","cpi",0.1,1968,3,1967,NA,1,2.2180629931543,2.4254322812247,3.95128347779386,3.43593854851327,FALSE,3.59814972489074
"CAN","cpi",0.1,1968,3,1967,NA,1.5,1.73257999821132,2.44481363118515,3.95128347779386,3.60120034208141,FALSE,4.0599444032154
"CAN","cpi",0.1,1969,3,1969,NA,0,4.40997417087507,4.49771733267053,4.42679496126681,4.42973002734916,TRUE,0.0877431617954603
"CAN","cpi",0.1,1969,3,1969,NA,0.5,2.47191541607358,2.58559150641325,4.42679496126681,3.77653863724463,FALSE,4.2052393233476
"CAN","cpi",0.1,1969,3,1968,NA,1,2.65288264974346,3.44453416436577,4.42679496126681,3.85741006811451,FALSE,2.97445328551353
"CAN","cpi",0.1,1969,3,1968,NA,1.5,2.21590973056771,3.00756124519002,4.42679496126681,3.82980583992124,FALSE,3.94550421701518
"CAN","cpi",0.1,1970,3,1970,NA,0,3.59102472016902,3.61665250773155,3.28128405769805,3.84669808502433,FALSE,0.713940370831359
"CAN","cpi",0.1,1970,3,1970,NA,0.5,3.41460466837577,3.68480619726283,3.28128405769805,4.72247431437482,FALSE,0.566469552615335
"CAN","cpi",0.1,1970,3,1969,NA,1,3.50930523768728,3.77950676657434,3.28128405769805,4.42973002734916,FALSE,0.776915262196465
"CAN","cpi",0.1,1970,3,1969,NA,1.5,2.74341853586836,3.67467657721721,3.28128405769805,3.77653863724463,TRUE,0.931258041348856
"CAN","cpi",0.1,1971,3,1971,NA,0,1.7675964495101,1.80229039239033,2.64123406634756,2.09886045002039,FALSE,1.89901321834075
"CAN","cpi",0.1,1971,3,1971,NA,0.5,1.29527474388884,1.33816973320032,2.64123406634756,2.39042152113403,FALSE,2.93859350741646
"CAN","cpi",0.1,1971,3,1970,NA,1,2.05060103079214,2.19996530389017,2.64123406634756,3.84669808502433,FALSE,1.12996152300334
"CAN","cpi",0.1,1971,3,1970,NA,1.5,2.56921691997764,2.71858119307567,2.64123406634756,4.72247431437482,TRUE,0.14936427309803
"CAN","cpi",0.1,1972,3,1972,NA,0,4.95320629318477,4.97086703168012,4.83230569625923,4.61402341086119,FALSE,0.286328731663224
"CAN","cpi",0.1,1972,3,1972,NA,0.5,3.39635597565917,3.48986709528055,4.83230569625923,3.53817935863684,FALSE,3.07670801068511
"CAN","cpi",0.1,1972,3,1971,NA,1,3.06422950059525,3.21612032390425,4.83230569625923,2.09886045002039,FALSE,3.74341387298673
"CAN","cpi",0.1,1972,3,1971,NA,1.5,2.32067379244949,2.4725646157585,4.83230569625923,2.39042152113403,FALSE,5.3957598910884
"CAN","cpi",0.1,1973,3,1973,NA,0,6.31107886280664,6.27088746145494,7.12388603531779,6.22342912205835,FALSE,1.85536098501018
"CAN","cpi",0.1,1973,3,1973,NA,0.5,3.37238968562763,3.61779041625343,7.12388603531779,4.99248222648134,FALSE,8.0367243285466
"CAN","cpi",0.1,1973,3,1972,NA,1,4.19585561830632,4.44125634893212,7.12388603531779,4.61402341086119,FALSE,6.20680003370507
"CAN","cpi",0.1,1973,3,1972,NA,1.5,3.32869207240462,3.57409280303041,7.12388603531779,3.53817935863684,FALSE,8.13383013570885
"CAN","cpi",0.1,1974,3,1974,NA,0,9.82915304040305,9.84700266335914,10.2717243737774,9.59455553431256,FALSE,0.961675646107811
"CAN","cpi",0.1,1974,3,1974,NA,0.5,5.59464351940456,6.67287058377111,10.2717243737774,8.02283957227414,FALSE,9.07567993104723
"CAN","cpi",0.1,1974,3,1973,NA,1,6.52264823743995,7.60087530180651,10.2717243737774,6.22342912205835,FALSE,7.01344722430192
"CAN","cpi",0.1,1974,3,1973,NA,1.5,4.32623529922795,5.40446236359451,10.2717243737774,4.99248222648134,FALSE,11.894364864773
"CAN","cpi",0.1,1975,3,1975,NA,0,10.1739418039452,10.1491524603138,10.0232981493341,10.5280192696423,FALSE,0.309974333282048
"CAN","cpi",0.1,1975,3,1975,NA,0.5,6.98988670277546,9.10907967595317,10.0232981493341,10.7014589339012,FALSE,4.15078958069094
"CAN","cpi",0.1,1975,3,1974,NA,1,8.86673823547451,10.9859312086522,10.0232981493341,9.59455553431256,TRUE,2.11919297317771
"CAN","cpi",0.1,1975,3,1974,NA,1.5,5.8628302167656,7.98202318994331,10.0232981493341,8.02283957227414,FALSE,6.65535954960173
"CAN","cpi",0.1,1976,3,1976,NA,0,7.26420411917847,7.30370301173103,7.22784311401172,8.13534117389669,FALSE,0.120301126256455
"CAN","cpi",0.1,1976,3,1976,NA,0.5,8.01209312209334,8.14534080445079,7.22784311401172,9.54416967067372,FALSE,1.8760254780944
"CAN","cpi",0.1,1976,3,1975,NA,1,8.10727736089378,8.24052504325124,7.22784311401172,10.5280192696423,FALSE,2.08754600876205
"CAN","cpi",0.1,1976,3,1975,NA,1.5,9.2072735221585,9.40000314393955,7.22784311401172,10.7014589339012,FALSE,4.59146386210724
"CAN","cpi",0.1,1977,3,1977,NA,0,6.41983175702329,6.46706364085401,7.58101410153764,6.84168016809657,FALSE,2.52267735201658
"CAN","cpi",0.1,1977,3,1977,NA,0.5,4.76534243930485,5.2109710913126,7.58101410153764,6.57165012633641,FALSE,5.71239089695229
"CAN","cpi",0.1,1977,3,1976,NA,1,4.7318316503719,5.35317049461687,7.58101410153764,8.13534117389669,FALSE,5.57210241518002
"CAN","cpi",0.1,1977,3,1976,NA,1.5,5.02362578877497,6.69969793392508,7.58101410153764,9.54416967067372,FALSE,3.63455251762248
"CAN","cpi",0.1,1978,3,1978,NA,0,8.3993876689747,8.46642157642545,8.50208927062595,8.56560161197079,FALSE,0.146295450118519
"CAN","cpi",0.1,1978,3,1978,NA,0.5,7.65405851683727,7.94639022778493,8.50208927062595,8.14356532128036,FALSE,1.52721847281659
"CAN","cpi",0.1,1978,3,1977,NA,1,7.79722597701742,8.08955768796508,8.50208927062595,6.84168016809657,FALSE,1.20906856130514
"CAN","cpi",0.1,1978,3,1977,NA,1.5,6.02019320261623,7.47065205504749,8.50208927062595,6.57165012633641,FALSE,3.74254155371672
"CAN","cpi",0.1,1979,3,1979,NA,0,8.19352438244727,8.16183061987028,8.65147652410481,8.51558792202395,FALSE,1.05640824683308
"CAN","cpi",0.1,1979,3,1979,NA,0.5,7.60652585575798,7.79483217750733,8.65147652410481,8.48180361143764,FALSE,2.09196042529931
"CAN","cpi",0.1,1979,3,1978,NA,1,7.65191627834164,7.84022260009099,8.65147652410481,8.56560161197079,FALSE,1.99109281955784
"CAN","cpi",0.1,1979,3,1978,NA,1.5,8.09680421385602,8.28511053560537,8.65147652410481,8.14356532128036,FALSE,1.00245296285921
"CAN","cpi",0.1,1980,3,1980,NA,0,8.96000097980426,8.96580812757155,9.5171912664748,9.17959378630866,FALSE,1.23110301199673
"CAN","cpi",0.1,1980,3,1980,NA,0.5,8.08546330811351,8.66126848442398,9.5171912664748,8.77731920113821,FALSE,2.47785580309006
"CAN","cpi",0.1,1980,3,1979,NA,1,7.96790192332265,8.54370709963312,9.5171912664748,8.51558792202395,FALSE,2.73910332484752
"CAN","cpi",0.1,1980,3,1979,NA,1.5,8.24300622852227,8.81881140483274,9.5171912664748,8.48180361143764,FALSE,2.12776042440394
"CAN","cpi",0.1,1981,3,1981,NA,0,11.2814903560153,11.2744163434878,11.5813425032741,11.279360028481,FALSE,0.674984120331054
"CAN","cpi",0.1,1981,3,1981,NA,0.5,9.81624759741443,10.2739471411072,11.5813425032741,10.1336807488653,FALSE,3.36302257073038
"CAN","cpi",0.1,1981,3,1980,NA,1,9.51342744434275,9.97112698803554,11.5813425032741,9.17959378630866,FALSE,4.03595624422301
"CAN","cpi",0.1,1981,3,1980,NA,1.5,9.15426836014097,9.67159343863166,11.5813425032741,8.77731920113821,FALSE,4.76121188880731
"CAN","cpi",0.1,1982,3,1982,NA,0,10.0684564116338,10.4619965704098,10.1124203763629,10.7097306947659,TRUE,0.39354015877602
"CAN","cpi",0.1,1982,3,1982,NA,0.5,10.5097871001341,11.1425120140574,10.1124203763629,11.3795840186269,FALSE,1.51576207785921
"CAN","cpi",0.1,1982,3,1981,NA,1,11.5205345185941,12.1532594325173,10.1124203763629,11.279360028481,FALSE,3.76186745221468
"CAN","cpi",0.1,1982,3,1981,NA,1.5,11.7197885087293,12.3525134226525,10.1124203763629,10.1336807488653,FALSE,4.20465409695961
"CAN","cpi",0.1,1983,3,1983,NA,0,5.73312437413577,5.78727954457098,5.67091787896303,6.81192865303165,FALSE,0.192391826374617
"CAN","cpi",0.1,1983,3,1983,NA,0.5,7.62215595571687,8.28720102847911,5.67091787896303,9.28631267190301,FALSE,5.00112968777077
"CAN","cpi",0.1,1983,3,1982,NA,1,8.10581631751979,8.77086139028203,5.67091787896303,10.7097306947659,FALSE,6.07593049177725
"CAN","cpi",0.1,1983,3,1982,NA,1.5,9.33337430861863,9.99841938138088,5.67091787896303,11.3795840186269,FALSE,8.80383713866357
"CAN","cpi",0.1,1984,3,1984,NA,0,3.98288763147798,4.03127800385376,4.19799576814029,4.43433180473976,FALSE,0.418874293012505
"CAN","cpi",0.1,1984,3,1984,NA,0.5,4.12186693313784,4.43562311849917,4.19799576814029,5.08610822560979,TRUE,0.31375618536133
"CAN","cpi",0.1,1984,3,1983,NA,1,3.77460247304779,4.08835865840912,4.19799576814029,6.81192865303165,FALSE,0.557394206986156
"CAN","cpi",0.1,1984,3,1983,NA,1.5,4.23620232853261,5.36004195713115,4.19799576814029,9.28631267190301,FALSE,1.20874309613704
"CAN","cpi",0.1,1985,3,1985,NA,0,3.53918303585263,3.63168700234147,3.86444262005169,3.75272544104399,FALSE,0.60973867251155
"CAN","cpi",0.1,1985,3,1985,NA,0.5,3.33916955923752,3.5078971884731,3.86444262005169,3.83470516948927,FALSE,0.961050810521348
"CAN","cpi",0.1,1985,3,1984,NA,1,3.83946361427545,4.15181560452511,3.86444262005169,4.43433180473976,TRUE,0.312351990249654
"CAN","cpi",0.1,1985,3,1984,NA,1.5,3.85171247734477,4.46762844028065,3.86444262005169,5.08610822560979,TRUE,0.615915962935873
"CAN","cpi",0.1,1986,3,1986,NA,0,3.95887144854012,4.05963162429073,4.08685396749431,4.02668174324255,FALSE,0.161254271758569
"CAN","cpi",0.1,1986,3,1986,NA,0.5,4.21840480864857,4.32719137892202,4.08685396749431,4.02628294162027,FALSE,0.401121772838471
"CAN","cpi",0.1,1986,3,1985,NA,1,4.08710263934083,4.32201684351273,4.08685396749431,3.75272544104399,FALSE,0.23546680827527
"CAN","cpi",0.1,1986,3,1985,NA,1.5,3.84156432174578,4.07647852591768,4.08685396749431,3.83470516948927,FALSE,0.257970741008864
"CAN","cpi",0.1,1987,3,1987,NA,0,4.21414809141227,4.31151525179509,4.23980729277887,4.2837330645361,TRUE,0.0973671603828166
"CAN","cpi",0.1,1987,3,1987,NA,0.5,3.9186399636865,4.03655099227814,4.23980729277887,4.02033055131438,FALSE,0.569591696371037
"CAN","cpi",0.1,1987,3,1986,NA,1,4.18600460288803,4.4494758135621,4.23980729277887,4.02668174324255,TRUE,0.263471210674076
"CAN","cpi",0.1,1987,3,1986,NA,1.5,4.04931326882088,4.31278447949496,4.23980729277887,4.02628294162027,TRUE,0.263471210674076
"CAN","cpi",0.1,1988,3,1988,NA,0,3.77832406844135,3.88048256337709,3.92899537638065,3.95767765957829,FALSE,0.209964746054774
"CAN","cpi",0.1,1988,3,1988,NA,0.5,4.23917212348095,4.47167623853115,3.92899537638065,4.26147484794381,FALSE,0.921785775273074
"CAN","cpi",0.1,1988,3,1987,NA,1,4.18149330337922,4.41399741842943,3.92899537638065,4.2837330645361,FALSE,0.79361061949147
"CAN","cpi",0.1,1988,3,1987,NA,1.5,4.21200546350772,4.44450957855792,3.92899537638065,4.02033055131438,FALSE,0.861415419777015
"CAN","cpi",0.1,1989,3,1989,NA,0,4.61562619926561,4.68567180586607,4.82821664544208,4.56141251415513,FALSE,0.386811916769364
"CAN","cpi",0.1,1989,3,1989,NA,0.5,4.10261610136071,4.222457453955,4.82821664544208,4.0148475519947,FALSE,1.46597288923224
"CAN","cpi",0.1,1989,3,1988,NA,1,3.91375809235173,4.11094589818985,4.82821664544208,3.95767765957829,FALSE,1.79112279973195
"CAN","cpi",0.1,1989,3,1988,NA,1.5,3.80745033591137,4.04323845378822,4.82821664544208,4.26147484794381,FALSE,1.98018409932986
"CAN","cpi",0.1,1990,3,1990,NA,0,4.55306815394158,4.63863854901623,4.64347549432717,4.70378167021394,FALSE,0.0963191624322894
"CAN","cpi",0.1,1990,3,1990,NA,0.5,5.17857533896249,5.4036744083306,4.64347549432717,5.05069490734707,FALSE,1.41420983522438
"CAN","cpi",0.1,1990,3,1989,NA,1,5.12175689238956,5.34685596175767,4.64347549432717,4.56141251415513,FALSE,1.28794662061785
"CAN","cpi",0.1,1990,3,1989,NA,1.5,4.86382635191333,5.08892542128144,4.64347549432717,4.0148475519947,FALSE,0.714767641781805
"CAN","cpi",0.1,1991,3,1991,NA,0,5.72622433197902,5.83305015138917,5.4258100696218,5.63511155207928,FALSE,0.774413069092865
"CAN","cpi",0.1,1991,3,1991,NA,0.5,5.03300087589986,5.14100320561378,5.4258100696218,4.87807370573786,FALSE,0.740906471953947
"CAN","cpi",0.1,1991,3,1990,NA,1,4.44776929985736,4.71342873187252,5.4258100696218,4.70378167021394,FALSE,1.84872907145799
"CAN","cpi",0.1,1991,3,1990,NA,1.5,4.38708768668242,4.6751112717375,5.4258100696218,5.05069490734707,FALSE,1.95624313590906
"CAN","cpi",0.1,1992,3,1992,NA,0,1.16316387430308,1.20128312397709,1.47496888572843,2.02050638420239,FALSE,0.646309831343656
"CAN","cpi",0.1,1992,3,1992,NA,0.5,2.88371998368094,3.22898837103482,1.47496888572843,4.27205707399704,FALSE,3.4758263828039
"CAN","cpi",0.1,1992,3,1991,NA,1,4.88466591470381,5.22993430205768,1.47496888572843,5.63511155207928,FALSE,7.92237289618804
"CAN","cpi",0.1,1992,3,1991,NA,1.5,5.25884350671088,5.60411189406475,1.47496888572843,4.87807370573786,FALSE,8.75387865620376
"CAN","cpi",0.1,1993,3,1993,NA,0,1.97477626068622,2.07104337976738,1.84351085411351,1.84186847486189,FALSE,0.387968022576074
"CAN","cpi",0.1,1993,3,1993,NA,0.5,2.10200748623293,2.22486257806697,1.84351085411351,1.60616723541631,FALSE,0.69729205209941
"CAN","cpi",0.1,1993,3,1992,NA,1,1.20141370637897,1.32426879821301,1.84351085411351,2.02050638420239,FALSE,1.27672632716849
"CAN","cpi",0.1,1993,3,1992,NA,1.5,0.937223707732831,1.54098483738924,1.84351085411351,4.27205707399704,FALSE,1.27604116682146
"CAN","cpi",0.1,1994,3,1994,NA,0,0.379372654412433,0.477819194683957,0.161630694655448,0.62038151471279,FALSE,0.582317561953713
"CAN","cpi",0.1,1994,3,1994,NA,0.5,1.1943520959068,1.42037423625971,0.161630694655448,1.4565883399875,FALSE,2.52095858757813
"CAN","cpi",0.1,1994,3,1993,NA,1,2.27127741226574,2.49729955261865,0.161630694655448,1.84186847486189,FALSE,4.91412595726467
"CAN","cpi",0.1,1994,3,1993,NA,1.5,2.16096440897215,2.38698654932505,0.161630694655448,1.60616723541631,FALSE,4.66898594994557
"CAN","cpi",0.1,1995,3,1995,NA,0,1.96737908126702,1.98564089873025,2.11688403676572,1.60030724029718,FALSE,0.309913235319818
"CAN","cpi",0.1,1995,3,1995,NA,0.5,1.14084364429581,1.15910546175905,2.11688403676572,0.400723248632204,FALSE,2.14665865081138
"CAN","cpi",0.1,1995,3,1994,NA,1,0.27531066120757,0.293572478670805,2.11688403676572,0.62038151471279,FALSE,4.07006527989637
"CAN","cpi",0.1,1995,3,1994,NA,1.5,0.584983881746592,0.603245699209828,2.11688403676572,1.4565883399875,FALSE,3.38190256758743
"CAN","cpi",0.1,1996,3,1996,NA,0,1.46019480754652,1.5494409019971,1.55309584667184,1.57188450223428,FALSE,0.0973681937277865
"CAN","cpi",0.1,1996,3,1996,NA,0.5,2.26425947163572,2.46862316901418,1.55309584667184,2.10267011992876,FALSE,1.78472730840929
"CAN","cpi",0.1,1996,3,1995,NA,1,3.24325729985898,3.44762099723744,1.55309584667184,1.60030724029718,FALSE,3.96027803779432
"CAN","cpi",0.1,1996,3,1995,NA,1.5,2.63678475330057,2.84114845067902,1.55309584667184,0.400723248632204,FALSE,2.61256126766451
"CAN","cpi",0.1,1997,3,1997,NA,0,1.93929367758677,2.00124288239013,1.60528783555959,1.83379947449567,FALSE,0.804184409308203
"CAN","cpi",0.1,1997,3,1997,NA,0.5,2.18093619441336,2.2809350212703,1.60528783555959,1.71447508965446,FALSE,1.37921740208754
"CAN","cpi",0.1,1997,3,1996,NA,1,2.02423122051052,2.12423004736745,1.60528783555959,1.57188450223428,FALSE,1.03098412674788
"CAN","cpi",0.1,1997,3,1996,NA,1.5,1.84793623619331,1.94793506305025,1.60528783555959,2.10267011992876,FALSE,0.639217494931868
"CAN","cpi",0.1,1998,3,1998,NA,0,0.866017517673946,0.956486541746313,0.988908029337191,0.973278201206617,FALSE,0.162516774274317
"CAN","cpi",0.1,1998,3,1998,NA,0.5,1.06883466196837,1.23183964938566,0.988908029337191,1.34049194776323,FALSE,0.340619726597687
"CAN","cpi",0.1,1998,3,1997,NA,1,1.6667333004713,1.82973828788859,0.988908029337191,1.83379947449567,FALSE,1.66928336771531
"CAN","cpi",0.1,1998,3,1997,NA,1.5,1.86299323686191,2.02677355732231,0.988908029337191,1.71447508965446,FALSE,2.10619189273756
"CAN","cpi",0.1,1999,3,1999,NA,0,1.53995433815918,1.62098602740343,1.7107350135213,1.40211292309609,FALSE,0.280473880617276
"CAN","cpi",0.1,1999,3,1999,NA,0.5,0.998713313086568,1.15095747306545,1.7107350135213,0.923130320518117,FALSE,1.39619424988076
"CAN","cpi",0.1,1999,3,1998,NA,1,1.45941329472822,1.61165745470711,1.7107350135213,0.973278201206617,FALSE,0.372416512899302
"CAN","cpi",0.1,1999,3,1998,NA,1.5,1.31559592951183,1.46784008949072,1.7107350135213,1.34049194776323,FALSE,0.692010657824614
"CAN","cpi",0.1,2000,3,2000,NA,0,2.70929505556935,2.78722403561652,2.6718361971244,2.50399207866046,FALSE,0.161170887702614
"CAN","cpi",0.1,2000,3,2000,NA,0.5,2.90551709096906,3.03092031490943,2.6718361971244,2.17160318889212,FALSE,0.644694099150727
"CAN","cpi",0.1,2000,3,1999,NA,1,2.57828818299929,2.70369140693967,2.6718361971244,1.40211292309609,TRUE,0.125403223940378
"CAN","cpi",0.1,2000,3,1999,NA,1.5,2.05619856919197,2.24370602888904,2.6718361971244,0.923130320518117,FALSE,1.13890783355343
"CAN","cpi",0.1,2001,3,2001,NA,0,3.01852456754172,3.08718313975,2.47906219852806,2.96814309391761,FALSE,1.26746383668308
"CAN","cpi",0.1,2001,3,2001,NA,0.5,2.71492225220226,2.87209726797682,2.47906219852806,2.69801990899347,FALSE,0.681308468383894
"CAN","cpi",0.1,2001,3,2000,NA,1,3.1307582447694,3.28793326054396,2.47906219852806,2.50399207866046,FALSE,1.60538845186641
"CAN","cpi",0.1,2001,3,2000,NA,1.5,2.87906242168134,3.1088360021977,2.47906219852806,2.17160318889212,FALSE,1.11866296530143
"CAN","cpi",0.1,2002,3,2002,NA,0,1.33606081879684,1.43347438315644,2.20880570551249,1.54486874462913,FALSE,1.82037205848414
"CAN","cpi",0.1,2002,3,2002,NA,0.5,1.75248366827901,1.94843771746894,2.20880570551249,2.180209446776,FALSE,0.774549578175599
"CAN","cpi",0.1,2002,3,2001,NA,1,2.03278017321174,2.22873422240167,2.20880570551249,2.96814309391761,TRUE,0.195954049189929
"CAN","cpi",0.1,2002,3,2001,NA,1.5,2.55589855115816,2.7851127343611,2.20880570551249,2.69801990899347,FALSE,1.0005316179711
"CAN","cpi",0.1,2003,3,2003,NA,0,3.42902231217151,3.49392172591027,2.71189071546809,3.2075247865732,FALSE,1.6585251841908
"CAN","cpi",0.1,2003,3,2003,NA,0.5,3.96656808126331,4.03146749500208,2.71189071546809,2.91800239560335,FALSE,2.85307133772815
"CAN","cpi",0.1,2003,3,2002,NA,1,3.47598506771544,3.57676763419402,2.71189071546809,1.54486874462913,FALSE,1.79877001591713
"CAN","cpi",0.1,2003,3,2002,NA,1.5,2.36730609461831,2.57999744245426,2.71189071546809,2.180209446776,FALSE,0.505787510088906
"CAN","cpi",0.1,2004,3,2004,NA,0,1.45969607439239,1.55766837630828,1.83151661303942,1.69584100230101,FALSE,0.706523939096202
"CAN","cpi",0.1,2004,3,2004,NA,0.5,0.592769318087853,0.86667477157763,1.83151661303942,1.84885395921698,FALSE,2.41799843451598
"CAN","cpi",0.1,2004,3,2003,NA,1,2.145764087218,2.41966954070778,1.83151661303942,3.2075247865732,FALSE,0.97223317388662
"CAN","cpi",0.1,2004,3,2003,NA,1.5,2.73233962546567,3.00624507895545,1.83151661303942,2.91800239560335,FALSE,2.27573436999256
"CAN","cpi",0.1,2005,3,2005,NA,0,2.29256041430838,2.3962704031668,2.18071628336509,2.20100508158421,FALSE,0.352252502065729
"CAN","cpi",0.1,2005,3,2005,NA,0.5,2.67400398869338,2.80754325496632,2.18071628336509,2.12928049157936,FALSE,1.22973416700247
"CAN","cpi",0.1,2005,3,2004,NA,1,2.35908461296381,2.52476854517968,2.18071628336509,1.69584100230101,FALSE,0.562057997990808
"CAN","cpi",0.1,2005,3,2004,NA,1.5,2.05687602706735,2.23968998337755,2.18071628336509,1.84885395921698,TRUE,0.182813956310196
"CAN","cpi",0.1,2006,3,2006,NA,0,2.18423671667889,2.2693727618627,1.97519342012289,2.18435928951757,FALSE,0.549676704197153
"CAN","cpi",0.1,2006,3,2006,NA,0.5,2.35332758179187,2.5128205246195,1.97519342012289,2.23898625105085,FALSE,0.999791079869818
"CAN","cpi",0.1,2006,3,2005,NA,1,2.38980605538811,2.54929899821574,1.97519342012289,2.20100508158421,FALSE,1.08085435452813
"CAN","cpi",0.1,2006,3,2005,NA,1.5,2.3473564764349,2.55828022644506,1.97519342012289,2.12928049157936,FALSE,1.03795276403686
"CAN","cpi",0.1,2007,3,2007,NA,0,1.80630593517733,1.9130979833835,2.10062087284572,1.84480494136243,FALSE,0.523509580344439
"CAN","cpi",0.1,2007,3,2007,NA,0.5,1.70438885530833,1.90035707593061,2.10062087284572,1.84074896087257,FALSE,0.640998880433638
"CAN","cpi",0.1,2007,3,2006,NA,1,1.94055647616597,2.13652469678825,2.10062087284572,2.18435928951757,TRUE,0.195968220622284
"CAN","cpi",0.1,2007,3,2006,NA,1.5,2.13517398891362,2.3311422095359,2.10062087284572,2.23898625105085,FALSE,0.272752922995386
"CAN","cpi",0.1,2008,3,2008,NA,0,2.49973164422599,2.59805995336457,2.31447335265955,2.44343788755996,FALSE,0.510013401508436
"CAN","cpi",0.1,2008,3,2008,NA,0.5,2.24327500941777,2.41679707976948,2.31447335265955,2.09257425597425,TRUE,0.173522070351707
"CAN","cpi",0.1,2008,3,2007,NA,1,2.69589974806236,2.86942181841406,2.31447335265955,1.84480494136243,FALSE,1.02113628235794
"CAN","cpi",0.1,2008,3,2007,NA,1.5,2.30753677020071,2.48105884055241,2.31447335265955,1.84074896087257,TRUE,0.173522070351707
"CAN","cpi",0.1,2009,3,2009,NA,0,0.167518355694888,0.273973839883954,0.284533874408197,0.55191793044214,FALSE,0.129922227576273
"CAN","cpi",0.1,2009,3,2009,NA,0.5,2.14941907212003,2.2558745563091,0.284533874408197,2.17577573644726,FALSE,4.25064481243758
"CAN","cpi",0.1,2009,3,2008,NA,1,2.3778978599449,2.48435334413397,0.284533874408197,2.44343788755996,FALSE,4.75837545204841
"CAN","cpi",0.1,2009,3,2008,NA,1.5,2.47597656018628,2.66618329146704,0.284533874408197,2.09257425597425,FALSE,5.06007936634316
"CAN","cpi",0.1,2010,3,2010,NA,0,1.70668647389304,1.77608557270646,1.75525687020327,1.39285160668897,TRUE,0.0693990988134185
"CAN","cpi",0.1,2010,3,2010,NA,0.5,0.802570109050055,0.90985575008623,1.75525687020327,0.382958497759795,FALSE,1.98595479685182
"CAN","cpi",0.1,2010,3,2009,NA,1,0.49573784159703,0.603023482633205,1.75525687020327,0.55191793044214,FALSE,2.66780428008077
"CAN","cpi",0.1,2010,3,2009,NA,1.5,0.521338600093467,0.628624241129643,1.75525687020327,2.17577573644726,FALSE,2.61091370564424
"CAN","cpi",0.1,2011,3,2011,NA,0,2.99650209363115,3.04882275308746,2.85717434028225,2.75343947842877,FALSE,0.361937889120532
"CAN","cpi",0.1,2011,3,2011,NA,0.5,2.4824780876674,2.5542617447762,2.85717434028225,1.99557590637446,FALSE,0.744922758233351
"CAN","cpi",0.1,2011,3,2010,NA,1,2.5782774755289,2.7192023019435,2.85717434028225,1.39285160668897,FALSE,0.447529356056253
"CAN","cpi",0.1,2011,3,2010,NA,1.5,2.16258591747392,2.32265728746046,2.85717434028225,0.382958497759795,FALSE,1.34788704292384
"CAN","cpi",0.1,2012,3,2012,NA,0,1.68605548420086,1.80025394387889,1.50118536134935,1.92993928708068,FALSE,0.525020954903615
"CAN","cpi",0.1,2012,3,2012,NA,0.5,2.76857296431551,2.94684984436977,1.50118536134935,2.7924065414457,FALSE,2.99469377553462
"CAN","cpi",0.1,2012,3,2011,NA,1,3.11004846187319,3.28832534192745,1.50118536134935,2.75343947842877,FALSE,3.75352821455169
"CAN","cpi",0.1,2012,3,2011,NA,1.5,2.99158134321263,3.25898642089749,1.50118536134935,1.99557590637446,FALSE,3.57939614849216
"CAN","cpi",0.1,2013,3,2013,NA,0,0.822134303327642,0.933596925625857,0.931270594714462,0.933287972916032,TRUE,0.111462622298216
"CAN","cpi",0.1,2013,3,2013,NA,0.5,0.974386878286187,1.08962713803327,0.931270594714462,1.15173631466769,FALSE,0.211054223239806
"CAN","cpi",0.1,2013,3,2012,NA,1,1.2989149000122,1.41415515975928,0.931270594714462,1.92993928708068,FALSE,0.932227604853163
"CAN","cpi",0.1,2013,3,2012,NA,1.5,1.63012368856855,1.74536394831564,0.931270594714462,2.7924065414457,FALSE,1.6682471349784
"CAN","cpi",0.1,2014,3,2014,NA,0,1.81670041984914,1.90296075294058,1.87639912240215,1.63379811457679,TRUE,0.0862603330914338
"CAN","cpi",0.1,2014,3,2014,NA,0.5,1.49564100369742,1.58190133678885,1.87639912240215,1.04987664511533,FALSE,0.74069985667654
"CAN","cpi",0.1,2014,3,2013,NA,1,1.41957303395312,1.53138704893415,1.87639912240215,0.933287972916032,FALSE,0.878507511576583
"CAN","cpi",0.1,2014,3,2013,NA,1.5,1.27166827394808,1.38348228892911,1.87639912240215,1.15173631466769,FALSE,1.20718475603223
"CAN","cpi",0.1,2015,3,2015,NA,0,1.15847664169031,1.22725545649508,1.11090953952792,1.25588008397684,FALSE,0.174483486276754
"CAN","cpi",0.1,2015,3,2015,NA,0.5,1.85983878302212,1.99071326589132,1.11090953952792,1.79776205300989,FALSE,1.7951616906341
"CAN","cpi",0.1,2015,3,2014,NA,1,2.52180351183384,2.65267799470304,1.11090953952792,1.63379811457679,FALSE,3.26619442132681
"CAN","cpi",0.1,2015,3,2014,NA,1.5,2.19476320279425,2.38452287974133,1.11090953952792,1.04987664511533,FALSE,2.59832337309449
"CAN","cpi",0.1,2016,3,2016,NA,0,1.4843669310065,1.56525267015996,1.41168586698797,1.39645323019091,FALSE,0.242399214750202
"CAN","cpi",0.1,2016,3,2016,NA,0.5,1.64339003943052,1.74305861438995,1.41168586698797,1.22661053967644,FALSE,0.614566735942886
"CAN","cpi",0.1,2016,3,2015,NA,1,1.36785438750347,1.48617870688845,1.41168586698797,1.25588008397684,TRUE,0.118324319384988
"CAN","cpi",0.1,2016,3,2015,NA,1.5,1.35449796803481,1.4728222874198,1.41168586698797,1.79776205300989,TRUE,0.118324319384988
"CAN","cpi",0.1,2017,3,2017,NA,0,1.50848540752073,1.59583939436054,1.57888581671161,1.4811454634985,TRUE,0.0873539868398083
"CAN","cpi",0.1,2017,3,2017,NA,0.5,1.84200917794622,1.93605045066338,1.57888581671161,1.50199497030019,FALSE,0.678759853238513
"CAN","cpi",0.1,2017,3,2016,NA,1,1.83095437687706,1.93145977537594,1.57888581671161,1.39645323019091,FALSE,0.660657754422105
"CAN","cpi",0.1,2017,3,2016,NA,1.5,1.69011644192206,1.8574064898075,1.57888581671161,1.22661053967644,FALSE,0.414469215019766
"CAN","cpi",0.1,2018,3,2018,NA,0,2.30481952051111,2.38468743090942,2.23316270166586,2.17346080855069,FALSE,0.239105285609983
"CAN","cpi",0.1,2018,3,2018,NA,0.5,1.74345952688754,1.92597447636598,2.23316270166586,1.61472973146397,FALSE,0.865155450144835
"CAN","cpi",0.1,2018,3,2017,NA,1,2.0238321332094,2.20634708268785,2.23316270166586,1.4811454634985,FALSE,0.242105213874028
"CAN","cpi",0.1,2018,3,2017,NA,1.5,1.79659425043289,1.97910919991133,2.23316270166586,1.50199497030019,FALSE,0.747078286710722
"CAN","cpi",0.1,2019,3,2019,NA,0,1.81386111774089,1.90967448111653,1.91921619871868,1.90497611164807,FALSE,0.117017180269306
"CAN","cpi",0.1,2019,3,2019,NA,0.5,2.10015466602195,2.22012680120304,1.91921619871868,2.12426010345757,FALSE,0.522057618077234
"CAN","cpi",0.1,2019,3,2018,NA,1,2.55736314649622,2.67733528167731,1.91921619871868,2.17346080855069,FALSE,1.53807646357562
"CAN","cpi",0.1,2019,3,2018,NA,1.5,2.40155889926494,2.64700401057009,1.91921619871868,1.61472973146397,FALSE,1.31731777918572
"CAN","cpi",0.1,2020,3,2020,NA,0,0.837228571418089,0.940593930409939,0.71139989671781,1.03314712474633,FALSE,0.382984636103581
"CAN","cpi",0.1,2020,3,2020,NA,0.5,2.06178883419581,2.25157384653501,0.71139989671781,1.96699466082655,FALSE,3.19064931784587
"CAN","cpi",0.1,2020,3,2019,NA,1,2.17950136822977,2.36928638056897,0.71139989671781,1.90497611164807,FALSE,3.45223272681022
"CAN","cpi",0.1,2020,3,2019,NA,1.5,2.05244817159007,2.24223318392927,0.71139989671781,2.12426010345757,FALSE,3.16989228983312
"CAN","cpi",0.1,2021,3,2021,NA,0,2.74185473872398,2.79313526973993,3.31148121717802,2.35752845828485,FALSE,1.20316041421171
"CAN","cpi",0.1,2021,3,2021,NA,0.5,0.730071062878129,0.849315864448048,3.31148121717802,0.620135433592656,FALSE,5.59072336319209
"CAN","cpi",0.1,2021,3,2020,NA,1,0.762179180444752,0.88142398201467,3.31148121717802,1.03314712474633,FALSE,5.51937199082182
"CAN","cpi",0.1,2021,3,2020,NA,1.5,0.936148679939152,1.05539348150907,3.31148121717802,1.96699466082655,FALSE,5.13277310305648
"CAN","cpi",0.1,2022,3,2022,NA,0,6.6013179430913,6.598578550852,6.50977236228281,6.06204323255885,FALSE,0.200695231779561
"CAN","cpi",0.1,2022,3,2022,NA,0.5,5.6330442486132,5.6303048563739,6.50977236228281,4.36321977466389,FALSE,1.95163284311383
"CAN","cpi",0.1,2022,3,2021,NA,1,4.53351544039264,4.79329920364798,6.50977236228281,2.35752845828485,FALSE,4.07416856022163
"CAN","cpi",0.1,2022,3,2021,NA,1.5,3.46796105167793,3.86063687148273,6.50977236228281,0.620135433592656,FALSE,6.27964357713831
"CAN","cpi",0.1,2023,3,2023,NA,0,3.9695946054851,4.12551766571348,3.78831288758619,4.59798511919386,FALSE,0.558771322225964
"CAN","cpi",0.1,2023,3,2023,NA,0.5,5.66804621766372,5.82728040766091,3.78831288758619,6.34532620809577,FALSE,4.33641936794725
"CAN","cpi",0.1,2023,3,2022,NA,1,6.57273937444043,6.73197356443762,3.78831288758619,6.06204323255885,FALSE,6.34684860522883
"CAN","cpi",0.1,2023,3,2022,NA,1.5,6.03698373824633,6.65995249744766,3.78831288758619,4.36321977466389,FALSE,5.62001509400164
"CAN","cpi",0.1,2024,3,2023,NA,1,2.562856669784,2.73271458708531,NA,4.59798511919386,NA,NA
"CAN","cpi",0.1,2024,3,2023,NA,1.5,3.36935641345073,3.60551846240865,NA,6.34532620809577,NA,NA
"CAN","cpi",0.2,1952,3,1952,NA,0,4.21811346565328,4.21811346565328,2.55562336095485,5.33589356249898,FALSE,4.15622526174608
"CAN","cpi",0.2,1952,3,1952,NA,0.5,7.28772000038339,7.28772000038339,2.55562336095485,9.78336808811006,FALSE,11.8302415985714
"CAN","cpi",0.2,1953,3,1953,NA,0,0.189536869638907,-0.34712565987081,-1.01492775838436,-1.36658675161344,FALSE,2.47449904054846
"CAN","cpi",0.2,1953,3,1953,NA,0.5,0.628711061777158,0.0920485322674413,-1.01492775838436,0.110034650547486,FALSE,3.57243452089408
"CAN","cpi",0.2,1953,3,1952,NA,1,2.24045229828239,2.24045229828239,-1.01492775838436,5.33589356249898,FALSE,8.13845014166689
"CAN","cpi",0.2,1953,3,1952,NA,1.5,4.17155386392402,4.17155386392402,-1.01492775838436,9.78336808811006,FALSE,12.966204055771
"CAN","cpi",0.2,1954,3,1954,NA,0,2.23161428550777,2.23161428550777,0.644425455961438,0.642985131580263,FALSE,3.96797207386583
"CAN","cpi",0.2,1954,3,1954,NA,0.5,5.91533409288749,6.06401518543889,0.644425455961438,-0.366337731528715,FALSE,13.3259526848665
"CAN","cpi",0.2,1954,3,1953,NA,1,12.4614768179143,12.6101579104657,0.644425455961438,-1.36658675161344,FALSE,29.6913094974335
"CAN","cpi",0.2,1954,3,1953,NA,1.5,14.180437100218,14.3291181927694,0.644425455961438,0.110034650547486,FALSE,33.9887102031928
"CAN","cpi",0.2,1955,3,1955,NA,0,1.22849391744334,1.22849391744334,0.173649026558865,0.17297271419658,FALSE,2.63711222721118
"CAN","cpi",0.2,1955,3,1955,NA,0.5,0.591672801421783,4.45164422821518,0.173649026558865,0.586026480650511,FALSE,4.90503086395069
"CAN","cpi",0.2,1955,3,1954,NA,1,3.1088642169111,7.6484777746263,0.173649026558865,0.642985131580263,FALSE,11.8776515335958
"CAN","cpi",0.2,1955,3,1954,NA,1.5,-1.250041299517,3.28957225819819,0.173649026558865,-0.366337731528715,TRUE,4.5396135577152
"CAN","cpi",0.2,1956,3,1956,NA,0,0.99810623610434,2.00103113948812,1.32752769429961,0.753971131965347,TRUE,1.00292490338378
"CAN","cpi",0.2,1956,3,1956,NA,0.5,1.71226917467265,3.1993962039024,1.32752769429961,0.174369006303267,FALSE,2.44898073016235
"CAN","cpi",0.2,1956,3,1955,NA,1,0.0509709825739584,1.53809801180371,1.32752769429961,0.17297271419658,TRUE,1.48712702922975
"CAN","cpi",0.2,1956,3,1955,NA,1.5,0.108741759288716,1.59586878851846,1.32752769429961,0.586026480650511,TRUE,1.48712702922975
"CAN","cpi",0.2,1957,3,1957,NA,0,3.65293638943582,3.87549006935637,3.24684755852518,3.20420645854679,FALSE,1.23777575719716
"CAN","cpi",0.2,1957,3,1957,NA,0.5,1.95664914618108,2.44347422272414,3.24684755852518,2.07576432581215,FALSE,2.49525841604565
"CAN","cpi",0.2,1957,3,1956,NA,1,0.960754340947103,1.44757941749017,3.24684755852518,0.753971131965347,FALSE,4.98499542913058
"CAN","cpi",0.2,1957,3,1956,NA,1.5,1.09935151320924,1.58617658975231,3.24684755852518,0.174369006303267,FALSE,4.63850249847524
"CAN","cpi",0.2,1958,3,1958,NA,0,2.07641784232305,2.47859460709937,2.33186388641149,2.45716899110006,TRUE,0.402176764776311
"CAN","cpi",0.2,1958,3,1958,NA,0.5,1.81660561304762,2.50081711476654,2.33186388641149,3.16832340224646,TRUE,0.684211501718916
"CAN","cpi",0.2,1958,3,1957,NA,1,0.842337992395269,1.52654949411419,2.33186388641149,3.20420645854679,FALSE,2.69749748246218
"CAN","cpi",0.2,1958,3,1957,NA,1.5,1.18529257140078,1.8695040731197,2.33186388641149,2.07576432581215,FALSE,1.8401110349484
"CAN","cpi",0.2,1959,3,1959,NA,0,1.16058461350419,1.51751772414174,1.19382698397654,1.42085685959275,TRUE,0.356933110637552
"CAN","cpi",0.2,1959,3,1959,NA,0.5,1.6400892085438,2.00559162146655,1.19382698397654,1.98727093968503,FALSE,1.48115797434089
"CAN","cpi",0.2,1959,3,1958,NA,1,1.25618637111497,1.86040476391915,1.19382698397654,2.45716899110006,FALSE,0.76011686065025
"CAN","cpi",0.2,1959,3,1958,NA,1.5,0.75006208873138,2.06814566984248,1.19382698397654,3.16832340224646,TRUE,1.3180835811111
"CAN","cpi",0.2,1960,3,1960,NA,0,1.36605197721782,1.55186882932601,1.34209404870695,1.34570677924433,FALSE,0.24571167338536
"CAN","cpi",0.2,1960,3,1960,NA,0.5,1.14731859755276,1.54980895146027,1.34209404870695,1.13297483079829,TRUE,0.402490353907509
"CAN","cpi",0.2,1960,3,1959,NA,1,1.033005661336,1.43549601524351,1.34209404870695,1.42085685959275,TRUE,0.402490353907509
"CAN","cpi",0.2,1960,3,1959,NA,1.5,1.18452533307383,1.58701568698134,1.34209404870695,1.98727093968503,TRUE,0.402490353907509
"CAN","cpi",0.2,1961,3,1961,NA,0,1.29042238706837,1.49081642721022,1.00921348094007,1.32757858722203,FALSE,0.90341630546259
"CAN","cpi",0.2,1961,3,1961,NA,0.5,1.56961137010306,1.79377962649541,1.00921348094007,1.39166174207428,FALSE,1.62516297929982
"CAN","cpi",0.2,1961,3,1960,NA,1,1.40321375481813,1.62738201121047,1.00921348094007,1.34570677924433,FALSE,1.20916894108748
"CAN","cpi",0.2,1961,3,1960,NA,1.5,1.35703480159419,1.58120305798654,1.00921348094007,1.13297483079829,FALSE,1.09372155802764
"CAN","cpi",0.2,1962,3,1962,NA,0,0.539640889628747,0.566887135715185,1.04957947883042,0.577977430468435,FALSE,1.23397710387451
"CAN","cpi",0.2,1962,3,1962,NA,0.5,0.717284056386166,1.04457605116388,1.04957947883042,0.636962012224359,FALSE,0.339800563944047
"CAN","cpi",0.2,1962,3,1961,NA,1,0.933063870530776,1.26035586530849,1.04957947883042,1.32757858722203,TRUE,0.327291994777718
"CAN","cpi",0.2,1962,3,1961,NA,1.5,0.989006217543599,1.47761198139193,1.04957947883042,1.39166174207428,TRUE,0.488605763848332
"CAN","cpi",0.2,1963,3,1963,NA,0,1.70045890905148,1.97446081371087,1.60677118395228,1.66779362321099,FALSE,0.508221217407383
"CAN","cpi",0.2,1963,3,1963,NA,0.5,1.7254079903451,2.08899666547728,1.60677118395228,1.52118152719239,FALSE,0.660180691114215
"CAN","cpi",0.2,1963,3,1962,NA,1,1.66744684613632,2.03103552126849,1.60677118395228,0.577977430468435,FALSE,0.515277830592257
"CAN","cpi",0.2,1963,3,1962,NA,1.5,0.95778760329281,1.32137627842499,1.60677118395228,0.636962012224359,FALSE,1.07707593895042
"CAN","cpi",0.2,1964,3,1964,NA,0,1.80350937889522,2.09465475065269,1.88764670034376,1.89274723222648,TRUE,0.291145371757471
"CAN","cpi",0.2,1964,3,1964,NA,0.5,1.35435439325093,1.74120574512522,1.88764670034376,1.59688015421336,FALSE,0.752953739920635
"CAN","cpi",0.2,1964,3,1963,NA,1,1.12645943055442,1.5133107824287,1.88764670034376,1.66779362321099,FALSE,1.32269114666192
"CAN","cpi",0.2,1964,3,1963,NA,1.5,1.15543854147031,1.54347136754868,1.88764670034376,1.52118152719239,FALSE,1.24847115806606
"CAN","cpi",0.2,1965,3,1965,NA,0,1.89145825105968,2.06218575767748,2.29538304394236,2.00763200760394,FALSE,0.753720722279992
"CAN","cpi",0.2,1965,3,1965,NA,0.5,1.42387359582871,1.89229761388412,2.29538304394236,1.88069823981647,FALSE,1.47613759320101
"CAN","cpi",0.2,1965,3,1964,NA,1,1.28139407127393,1.74981808932933,2.29538304394236,1.89274723222648,FALSE,1.83233640458797
"CAN","cpi",0.2,1965,3,1964,NA,1.5,1.4442576928441,1.91268171089951,2.29538304394236,1.59688015421336,FALSE,1.42517735066252
"CAN","cpi",0.2,1966,3,1966,NA,0,3.40584371025084,3.83906563244633,3.72486065470629,3.50850431851723,TRUE,0.433221922195491
"CAN","cpi",0.2,1966,3,1966,NA,0.5,2.03749557491163,2.6924988083886,3.72486065470629,2.72414080931513,FALSE,3.23590784927119
"CAN","cpi",0.2,1966,3,1965,NA,1,1.5948177619312,2.24982099540817,3.72486065470629,2.00763200760394,FALSE,4.34260238172227
"CAN","cpi",0.2,1966,3,1965,NA,1.5,1.43021278162912,2.08521601510609,3.72486065470629,1.88069823981647,FALSE,4.75411483247747
"CAN","cpi",0.2,1967,3,1967,NA,0,3.14148338452553,3.37237967206444,3.49360316391996,3.43593854851327,FALSE,0.5339550171777
"CAN","cpi",0.2,1967,3,1967,NA,0.5,2.22814388178281,2.49910613321701,3.49360316391996,3.60120034208141,FALSE,2.75720482819158
"CAN","cpi",0.2,1967,3,1966,NA,1,1.61407390135855,2.61869708755697,3.49360316391996,3.50850431851723,FALSE,3.19188837710589
"CAN","cpi",0.2,1967,3,1966,NA,1.5,1.54753580241643,2.55215898861485,3.49360316391996,2.72414080931513,FALSE,3.35823362446119
"CAN","cpi",0.2,1968,3,1968,NA,0,3.66853616966832,3.93667011189555,3.95128347779386,3.85741006811451,FALSE,0.304667356972997
"CAN","cpi",0.2,1968,3,1968,NA,0.5,2.69457344101401,3.05989372436047,3.95128347779386,3.82980583992124,FALSE,2.59379466692993
"CAN","cpi",0.2,1968,3,1967,NA,1,1.55761812740101,3.01659677202363,3.95128347779386,3.43593854851327,FALSE,3.79569540904819
"CAN","cpi",0.2,1968,3,1967,NA,1.5,1.30389270006868,2.76287134469131,3.95128347779386,3.60120034208141,FALSE,4.430008977379
"CAN","cpi",0.2,1969,3,1969,NA,0,4.40997417087507,4.5100501622482,4.42679496126681,4.42973002734916,TRUE,0.100075991373128
"CAN","cpi",0.2,1969,3,1969,NA,0.5,2.41320298941832,2.75613901353278,4.42679496126681,3.77653863724463,FALSE,4.51957589344955
"CAN","cpi",0.2,1969,3,1968,NA,1,1.49623603093962,3.43477936139283,4.42679496126681,3.85741006811451,FALSE,4.41858233013817
"CAN","cpi",0.2,1969,3,1968,NA,1.5,1.48362760624977,3.42217093670298,4.42679496126681,3.82980583992124,FALSE,4.4501033918628
"CAN","cpi",0.2,1970,3,1970,NA,0,3.58295226803013,3.67574226798809,3.28128405769805,3.84669808502433,FALSE,0.846960525788167
"CAN","cpi",0.2,1970,3,1970,NA,0.5,3.1937738193014,4.25803768106186,3.28128405769805,4.72247431437482,TRUE,1.06426386176046
"CAN","cpi",0.2,1970,3,1969,NA,1,2.80763433299723,4.11388314046294,3.28128405769805,4.42973002734916,TRUE,1.30624880746571
"CAN","cpi",0.2,1970,3,1969,NA,1.5,2.43409510898796,3.74034391645367,3.28128405769805,3.77653863724463,TRUE,1.30624880746571
"CAN","cpi",0.2,1971,3,1971,NA,0,1.7675964495101,1.8952614190252,2.64123406634756,2.09886045002039,FALSE,1.99259658782101
"CAN","cpi",0.2,1971,3,1971,NA,0.5,1.23073154300532,1.46857631111521,2.64123406634756,2.39042152113403,FALSE,3.16948915619078
"CAN","cpi",0.2,1971,3,1970,NA,1,1.99413915332083,2.23546832901469,2.64123406634756,3.84669808502433,FALSE,1.25574351902604
"CAN","cpi",0.2,1971,3,1970,NA,1.5,1.80342598481669,2.92870651303199,2.64123406634756,4.72247431437482,TRUE,1.12528052821531
"CAN","cpi",0.2,1972,3,1972,NA,0,4.97087678123785,5.01299025653219,4.83230569625923,4.61402341086119,FALSE,0.388541187740894
"CAN","cpi",0.2,1972,3,1972,NA,0.5,3.37545541833535,3.89485034667879,4.83230569625923,3.53817935863684,FALSE,2.86303330229454
"CAN","cpi",0.2,1972,3,1971,NA,1,2.96853116050164,3.58606099478881,4.83230569625923,2.09886045002039,FALSE,3.73314158796321
"CAN","cpi",0.2,1972,3,1971,NA,1.5,2.08988341114123,2.7074132454284,4.83230569625923,2.39042152113403,FALSE,5.92976096136424
"CAN","cpi",0.2,1973,3,1973,NA,0,6.1757884386073,6.17611832712865,7.12388603531779,6.22342912205835,FALSE,2.3697491589942
"CAN","cpi",0.2,1973,3,1973,NA,0.5,3.38161765447393,4.38486007779761,7.12388603531779,4.99248222648134,FALSE,7.85080731712413
"CAN","cpi",0.2,1973,3,1972,NA,1,3.84158354718336,4.84482597050703,7.12388603531779,4.61402341086119,FALSE,6.70089258535057
"CAN","cpi",0.2,1973,3,1972,NA,1.5,3.14258328693516,4.14582571025884,7.12388603531779,3.53817935863684,FALSE,8.44839323597106
"CAN","cpi",0.2,1974,3,1974,NA,0,9.82915304040305,9.80812331013987,10.2717243737774,9.59455553431256,FALSE,1.13797292883069
"CAN","cpi",0.2,1974,3,1974,NA,0.5,5.23448421220142,7.07375024389939,10.2717243737774,8.02283957227414,FALSE,9.83420135639305
"CAN","cpi",0.2,1974,3,1973,NA,1,6.09137408189816,7.93064011359613,10.2717243737774,6.22342912205835,FALSE,7.69197668215119
"CAN","cpi",0.2,1974,3,1973,NA,1.5,4.10394694588544,5.94321297758341,10.2717243737774,4.99248222648134,FALSE,12.660544522183
"CAN","cpi",0.2,1975,3,1975,NA,0,10.1822010834151,10.0919958927199,10.0232981493341,10.5280192696423,FALSE,0.307052144507327
"CAN","cpi",0.2,1975,3,1975,NA,0.5,7.05942876898397,10.7043901485923,10.0232981493341,10.7014589339012,TRUE,3.64496137960832
"CAN","cpi",0.2,1975,3,1974,NA,1,7.59625790440878,11.2412192840171,10.0232981493341,9.59455553431256,TRUE,3.64496137960832
"CAN","cpi",0.2,1975,3,1974,NA,1.5,6.09215676620521,9.73711814581353,10.0232981493341,8.02283957227414,FALSE,4.3604113884098
"CAN","cpi",0.2,1976,3,1976,NA,0,7.24305768531795,7.29835308389366,7.22784311401172,8.13534117389669,FALSE,0.0933318268412897
"CAN","cpi",0.2,1976,3,1976,NA,0.5,6.34469109870353,7.72171364832888,7.22784311401172,9.54416967067372,TRUE,1.37702254962535
"CAN","cpi",0.2,1976,3,1975,NA,1,7.68931548198687,9.06633803161222,7.22784311401172,10.5280192696423,FALSE,2.53070346956324
"CAN","cpi",0.2,1976,3,1975,NA,1.5,7.47503076559743,9.31231744235447,7.22784311401172,10.7014589339012,FALSE,2.45525580572133
"CAN","cpi",0.2,1977,3,1977,NA,0,6.4067658217974,6.50523445358679,7.58101410153764,6.84168016809657,FALSE,2.78791775166652
"CAN","cpi",0.2,1977,3,1977,NA,0.5,4.72051884894255,5.4238267706904,7.58101410153764,6.57165012633641,FALSE,6.09627624886595
"CAN","cpi",0.2,1977,3,1976,NA,1,4.68098056351796,5.38428848526582,7.58101410153764,8.13534117389669,FALSE,6.19512196242743
"CAN","cpi",0.2,1977,3,1976,NA,1.5,5.00645245425333,6.6935120789268,7.58101410153764,9.54416967067372,FALSE,3.90581468120058
"CAN","cpi",0.2,1978,3,1978,NA,0,8.36627369709202,8.46197168121512,8.50208927062595,8.56560161197079,FALSE,0.195991957650167
"CAN","cpi",0.2,1978,3,1978,NA,0.5,7.66161107523113,8.04570501699903,8.50208927062595,8.14356532128036,FALSE,1.52505457583519
"CAN","cpi",0.2,1978,3,1977,NA,1,7.11781515741693,8.34853828986101,8.50208927062595,6.84168016809657,FALSE,1.61460058435642
"CAN","cpi",0.2,1978,3,1977,NA,1.5,6.00757414350887,7.5606085682396,8.50208927062595,6.57165012633641,FALSE,3.9067361806966
"CAN","cpi",0.2,1979,3,1979,NA,0,8.16999790532681,8.15667822220676,8.65147652410481,8.51558792202395,FALSE,1.22367607162507
"CAN","cpi",0.2,1979,3,1979,NA,0.5,7.28068172115522,8.13909323919936,8.65147652410481,8.48180361143764,FALSE,2.13936973030776
"CAN","cpi",0.2,1979,3,1978,NA,1,7.35720120960666,8.2156127276508,8.65147652410481,8.56560161197079,FALSE,1.94807100917917
"CAN","cpi",0.2,1979,3,1978,NA,1.5,6.49513695879976,8.22381189097724,8.65147652410481,8.14356532128036,FALSE,2.79783651499641
"CAN","cpi",0.2,1980,3,1980,NA,0,8.96461377262143,8.9564753268496,9.5171912664748,9.17959378630866,FALSE,1.39365140329117
"CAN","cpi",0.2,1980,3,1980,NA,0.5,7.7273728419978,8.51109831207249,9.5171912664748,8.77731920113821,FALSE,3.29895785608046
"CAN","cpi",0.2,1980,3,1979,NA,1,7.83967997561907,8.62340544569375,9.5171912664748,8.51558792202395,FALSE,3.0181900220273
"CAN","cpi",0.2,1980,3,1979,NA,1.5,8.06688878699784,8.85061425707253,9.5171912664748,8.48180361143764,FALSE,2.45016799358036
"CAN","cpi",0.2,1981,3,1981,NA,0,11.290817311531,11.5063694987211,11.5813425032741,11.279360028481,FALSE,0.402984698572721
"CAN","cpi",0.2,1981,3,1981,NA,0.5,9.80593704026183,10.6789089921716,11.5813425032741,10.1336807488653,FALSE,3.12905572966607
"CAN","cpi",0.2,1981,3,1980,NA,1,9.08851400264864,10.0644334254114,11.5813425032741,9.17959378630866,FALSE,4.76819211741956
"CAN","cpi",0.2,1981,3,1980,NA,1.5,9.01031822472805,9.98623764749085,11.5813425032741,8.77731920113821,FALSE,4.96368156222103
"CAN","cpi",0.2,1982,3,1982,NA,0,10.0630286365899,10.4671962944262,10.1124203763629,10.7097306947659,TRUE,0.40416765783624
"CAN","cpi",0.2,1982,3,1982,NA,0.5,9.80746023668214,11.4575588643677,10.1124203763629,11.3795840186269,TRUE,1.65009862768555
"CAN","cpi",0.2,1982,3,1981,NA,1,10.6933954266879,12.3434940543735,10.1124203763629,11.279360028481,FALSE,3.102536253498
"CAN","cpi",0.2,1982,3,1981,NA,1.5,11.1106245224764,12.760723150162,10.1124203763629,10.1336807488653,FALSE,4.14560899296924
"CAN","cpi",0.2,1983,3,1983,NA,0,5.71749733330744,6.11818558404394,5.67091787896303,6.81192865303165,FALSE,0.517136886597516
"CAN","cpi",0.2,1983,3,1983,NA,0.5,7.5606357797647,8.67969615105733,5.67091787896303,9.28631267190301,FALSE,5.84335512329679
"CAN","cpi",0.2,1983,3,1982,NA,1,8.15950843501721,9.27856880630985,5.67091787896303,10.7097306947659,FALSE,7.34053676142809
"CAN","cpi",0.2,1983,3,1982,NA,1.5,9.33749649129604,10.4565568625887,5.67091787896303,11.3795840186269,FALSE,10.2855069021252
"CAN","cpi",0.2,1984,3,1984,NA,0,3.97383845106534,4.07870178134959,4.19799576814029,4.43433180473976,FALSE,0.403098297260993
"CAN","cpi",0.2,1984,3,1984,NA,0.5,3.65897236669858,4.71856794508372,4.19799576814029,5.08610822560979,TRUE,1.05959557838513
"CAN","cpi",0.2,1984,3,1983,NA,1,3.30485194242876,4.36444752081389,4.19799576814029,6.81192865303165,TRUE,1.05959557838513
"CAN","cpi",0.2,1984,3,1983,NA,1.5,3.67881732923654,5.36100228418041,4.19799576814029,9.28631267190301,TRUE,1.68218495494387
"CAN","cpi",0.2,1985,3,1985,NA,0,3.52755010953507,3.68155555969405,3.86444262005169,3.75272544104399,FALSE,0.611223101053092
"CAN","cpi",0.2,1985,3,1985,NA,0.5,3.16158162046071,3.77789013068029,3.86444262005169,3.83470516948927,FALSE,0.832689733648089
"CAN","cpi",0.2,1985,3,1984,NA,1,3.73561131780615,4.35191982802572,3.86444262005169,4.43433180473976,TRUE,0.616308510219573
"CAN","cpi",0.2,1985,3,1984,NA,1.5,3.69963800954707,4.47888662242242,3.86444262005169,5.08610822560979,TRUE,0.779248612875349
"CAN","cpi",0.2,1986,3,1986,NA,0,3.94740502780899,4.18900758220574,4.08685396749431,4.02668174324255,TRUE,0.241602554396749
"CAN","cpi",0.2,1986,3,1986,NA,0.5,4.08282565317984,4.53112850451942,4.08685396749431,4.02628294162027,TRUE,0.448302851339585
"CAN","cpi",0.2,1986,3,1985,NA,1,3.9818418381629,4.43014468950249,4.08685396749431,3.75272544104399,TRUE,0.448302851339585
"CAN","cpi",0.2,1986,3,1985,NA,1.5,3.66020807065278,4.33108391584182,4.08685396749431,3.83470516948927,TRUE,0.670875845189038
"CAN","cpi",0.2,1987,3,1987,NA,0,4.2130548006475,4.3576473597242,4.23980729277887,4.2837330645361,TRUE,0.144592559076706
"CAN","cpi",0.2,1987,3,1987,NA,0.5,3.82093280272207,4.24723345277124,4.23980729277887,4.02033055131438,TRUE,0.42630065004917
"CAN","cpi",0.2,1987,3,1986,NA,1,4.1138336646943,4.54013431474347,4.23980729277887,4.02668174324255,TRUE,0.42630065004917
"CAN","cpi",0.2,1987,3,1986,NA,1.5,3.84371578300546,4.52733431996493,4.23980729277887,4.02628294162027,TRUE,0.683618536959468
"CAN","cpi",0.2,1988,3,1988,NA,0,3.77718746674935,3.91615044808687,3.92899537638065,3.95767765957829,FALSE,0.171075302071978
"CAN","cpi",0.2,1988,3,1988,NA,0.5,4.13574834616929,4.54976940177995,3.92899537638065,4.26147484794381,FALSE,0.930903480082242
"CAN","cpi",0.2,1988,3,1987,NA,1,4.09878649274221,4.51280754835286,3.92899537638065,4.2837330645361,FALSE,0.838498846514538
"CAN","cpi",0.2,1988,3,1987,NA,1.5,4.00359123601129,4.69561339576491,3.92899537638065,4.02033055131438,FALSE,0.878511808830216
"CAN","cpi",0.2,1989,3,1989,NA,0,4.59145033761449,4.73224237552027,4.82821664544208,4.56141251415513,FALSE,0.380727712710305
"CAN","cpi",0.2,1989,3,1989,NA,0.5,4.00469531674113,4.41067702256676,4.82821664544208,4.0148475519947,FALSE,1.44983076301392
"CAN","cpi",0.2,1989,3,1988,NA,1,3.82724001076714,4.23322171659278,4.82821664544208,3.95767765957829,FALSE,1.89346902794889
"CAN","cpi",0.2,1989,3,1988,NA,1.5,3.62269676445039,4.31448810045142,4.82821664544208,4.26147484794381,FALSE,1.97611269847768
"CAN","cpi",0.2,1990,3,1990,NA,0,4.52986973478522,4.69440593781835,4.64347549432717,4.70378167021394,TRUE,0.164536203033128
"CAN","cpi",0.2,1990,3,1990,NA,0.5,5.03981601364832,5.46067896411391,4.64347549432717,5.05069490734707,FALSE,1.41171424876846
"CAN","cpi",0.2,1990,3,1989,NA,1,5.03121986981878,5.45208282028436,4.64347549432717,4.56141251415513,FALSE,1.39022388919461
"CAN","cpi",0.2,1990,3,1989,NA,1.5,4.61437070676085,5.34000237269154,4.64347549432717,4.0148475519947,TRUE,0.725631665930692
"CAN","cpi",0.2,1991,3,1991,NA,0,5.70991110856592,5.91110395090946,5.4258100696218,5.63511155207928,FALSE,0.911445439703854
"CAN","cpi",0.2,1991,3,1991,NA,0.5,4.90817519740036,5.32647650003734,5.4258100696218,4.87807370573786,FALSE,0.666635226598122
"CAN","cpi",0.2,1991,3,1990,NA,1,4.38840729415262,4.8067085967896,5.4258100696218,4.70378167021394,FALSE,1.96605498471747
"CAN","cpi",0.2,1991,3,1990,NA,1.5,4.19280132259961,4.96083611649636,5.4258100696218,5.05069490734707,FALSE,1.93046967671033
"CAN","cpi",0.2,1992,3,1992,NA,0,1.11529598177655,1.29727677489407,1.47496888572843,2.02050638420239,FALSE,0.626211070203426
"CAN","cpi",0.2,1992,3,1992,NA,0.5,2.65473613639434,3.29839456716102,1.47496888572843,4.27205707399704,FALSE,3.59307655743145
"CAN","cpi",0.2,1992,3,1991,NA,1,4.73777964507152,5.3814380758382,1.47496888572843,5.63511155207928,FALSE,8.8006853291244
"CAN","cpi",0.2,1992,3,1991,NA,1.5,5.04692139078852,5.84587365573763,1.47496888572843,4.87807370573786,FALSE,9.72883352759932
"CAN","cpi",0.2,1993,3,1993,NA,0,1.92986669943016,1.99143790534819,1.84351085411351,1.84186847486189,FALSE,0.277460819209652
"CAN","cpi",0.2,1993,3,1993,NA,0.5,2.06993381591153,2.35672199969344,1.84351085411351,1.60616723541631,FALSE,0.852845588276952
"CAN","cpi",0.2,1993,3,1992,NA,1,1.10151243741395,1.38830062119586,1.84351085411351,2.02050638420239,FALSE,1.42481376607604
"CAN","cpi",0.2,1993,3,1992,NA,1.5,1.07837769971916,1.62909331444809,1.84351085411351,4.27205707399704,FALSE,1.08675946389248
"CAN","cpi",0.2,1994,3,1994,NA,0,0.349249260370906,0.451634259098397,0.161630694655448,0.62038151471279,FALSE,0.571431413016136
"CAN","cpi",0.2,1994,3,1994,NA,0.5,1.00596586236521,1.534783435543,0.161630694655448,1.4565883399875,FALSE,2.6396554924522
"CAN","cpi",0.2,1994,3,1993,NA,1,2.1417502247711,2.67056779794888,0.161630694655448,1.84186847486189,FALSE,5.47911639846691
"CAN","cpi",0.2,1994,3,1993,NA,1.5,2.15236057179197,2.68728349188547,0.161630694655448,1.60616723541631,FALSE,5.51174761293481
"CAN","cpi",0.2,1995,3,1995,NA,0,1.95827477262755,1.98412326197797,2.11688403676572,1.60030724029718,FALSE,0.357750426319782
"CAN","cpi",0.2,1995,3,1995,NA,0.5,1.11334253926404,1.34372623609852,2.11688403676572,0.400723248632204,FALSE,2.16327819850247
"CAN","cpi",0.2,1995,3,1994,NA,1,0.177344338392139,0.407728035226618,2.11688403676572,0.62038151471279,FALSE,4.50327370068222
"CAN","cpi",0.2,1995,3,1994,NA,1.5,0.406655220957083,0.674383463391134,2.11688403676572,1.4565883399875,FALSE,3.8739796758705
"CAN","cpi",0.2,1996,3,1996,NA,0,1.43255987539767,1.53093841149474,1.55309584667184,1.57188450223428,FALSE,0.15377212403982
"CAN","cpi",0.2,1996,3,1996,NA,0.5,2.12154413690869,2.63788334831171,1.55309584667184,2.10267011992876,FALSE,1.93745993699514
"CAN","cpi",0.2,1996,3,1995,NA,1,3.04132827741375,3.55766748881678,1.55309584667184,1.60030724029718,FALSE,4.2369202882578
"CAN","cpi",0.2,1996,3,1995,NA,1.5,2.67490327557305,3.19124248697608,1.55309584667184,0.400723248632204,FALSE,3.32085778365605
"CAN","cpi",0.2,1997,3,1997,NA,0,1.89593605657813,1.99072033639069,1.60528783555959,1.83379947449567,FALSE,0.821404832358907
"CAN","cpi",0.2,1997,3,1997,NA,0.5,2.02183363849133,2.43874288283572,1.60528783555959,1.71447508965446,FALSE,1.45827375167374
"CAN","cpi",0.2,1997,3,1996,NA,1,1.87524587947718,2.29215512382156,1.60528783555959,1.57188450223428,FALSE,1.09180435413834
"CAN","cpi",0.2,1997,3,1996,NA,1.5,1.68984376550893,2.252931475206,1.60528783555959,2.10267011992876,FALSE,0.774477534570405
"CAN","cpi",0.2,1998,3,1998,NA,0,0.838814637008171,0.924741040583234,0.988908029337191,0.973278201206617,FALSE,0.246343875459955
"CAN","cpi",0.2,1998,3,1998,NA,0.5,0.971469589590267,1.53397231406516,0.988908029337191,1.34049194776323,TRUE,0.562502724474891
"CAN","cpi",0.2,1998,3,1997,NA,1,1.51484258056794,2.07734530504284,0.988908029337191,1.83379947449567,FALSE,1.87733910255177
"CAN","cpi",0.2,1998,3,1997,NA,1.5,1.82228394664053,2.38478667111542,0.988908029337191,1.71447508965446,FALSE,2.64594251773324
"CAN","cpi",0.2,1999,3,1999,NA,0,1.51822319983208,1.60077490016069,1.7107350135213,1.40211292309609,FALSE,0.357451983730132
"CAN","cpi",0.2,1999,3,1999,NA,0.5,0.999247160970445,1.29893403644282,1.7107350135213,0.923130320518117,FALSE,1.32918931816856
"CAN","cpi",0.2,1999,3,1998,NA,1,1.45995294838619,1.75963982385857,1.7107350135213,0.973278201206617,TRUE,0.299686875472378
"CAN","cpi",0.2,1999,3,1998,NA,1.5,1.17717242700566,1.47685930247803,1.7107350135213,1.34049194776323,FALSE,0.884376153080532
"CAN","cpi",0.2,2000,3,2000,NA,0,2.66799156996791,2.78567308267661,2.6718361971244,2.50399207866046,TRUE,0.117681512708696
"CAN","cpi",0.2,2000,3,2000,NA,0.5,2.90629640298177,3.1802395863941,2.6718361971244,2.17160318889212,FALSE,0.86009369805576
"CAN","cpi",0.2,2000,3,1999,NA,1,2.45957438879402,2.76820460363199,2.6718361971244,1.40211292309609,TRUE,0.308630214837967
"CAN","cpi",0.2,2000,3,1999,NA,1.5,2.13706241291667,2.50912559085787,2.6718361971244,0.923130320518117,FALSE,0.778839693607526
"CAN","cpi",0.2,2001,3,2001,NA,0,2.98484730512926,3.11512589698186,2.47906219852806,2.96814309391761,FALSE,1.39474135835558
"CAN","cpi",0.2,2001,3,2001,NA,0.5,2.63163097337394,3.12554380649238,2.47906219852806,2.69801990899347,FALSE,0.87533477023313
"CAN","cpi",0.2,2001,3,2000,NA,1,2.96024625953471,3.45415909265315,2.47906219852806,2.50399207866046,FALSE,1.69687298563507
"CAN","cpi",0.2,2001,3,2000,NA,1.5,2.82782947600098,3.33414765357358,2.47906219852806,2.17160318889212,FALSE,1.37823637125489
"CAN","cpi",0.2,2002,3,2002,NA,0,1.30617926429125,1.44050226241601,2.20880570551249,1.54486874462913,FALSE,2.05508160586595
"CAN","cpi",0.2,2002,3,2002,NA,0.5,1.56954417862534,2.08659643668323,2.20880570551249,2.180209446776,FALSE,0.822575430131026
"CAN","cpi",0.2,2002,3,2001,NA,1,1.87157579260827,2.38862805066617,2.20880570551249,2.96814309391761,TRUE,0.517052258057896
"CAN","cpi",0.2,2002,3,2001,NA,1.5,2.49081121922726,3.00786347728516,2.20880570551249,2.69801990899347,FALSE,1.22206604234484
"CAN","cpi",0.2,2003,3,2003,NA,0,3.40219832635539,3.50070749080643,2.71189071546809,3.2075247865732,FALSE,1.82427819166929
"CAN","cpi",0.2,2003,3,2003,NA,0.5,3.9697730768912,4.06828224134225,2.71189071546809,2.91800239560335,FALSE,3.24321506800883
"CAN","cpi",0.2,2003,3,2002,NA,1,3.32129480271833,3.71964673520965,2.71189071546809,1.54486874462913,FALSE,1.92186215061693
"CAN","cpi",0.2,2003,3,2002,NA,1.5,2.23077806716435,2.80936363127325,2.71189071546809,2.180209446776,TRUE,0.578585564108897
"CAN","cpi",0.2,2004,3,2004,NA,0,1.42909500303824,1.59208587341578,1.83151661303942,1.69584100230101,FALSE,0.761567719436645
"CAN","cpi",0.2,2004,3,2004,NA,0.5,0.489599769338417,1.03743995318542,1.83151661303942,1.84885395921698,FALSE,2.53303183348201
"CAN","cpi",0.2,2004,3,2003,NA,1,2.00977457162437,2.55761475547138,1.83151661303942,3.2075247865732,FALSE,0.993485080309375
"CAN","cpi",0.2,2004,3,2003,NA,1.5,2.62538554577014,3.17322572961714,1.83151661303942,2.91800239560335,FALSE,2.5325125156738
"CAN","cpi",0.2,2005,3,2005,NA,0,2.27305155530795,2.39718903837447,2.18071628336509,2.20100508158421,FALSE,0.354975662923669
"CAN","cpi",0.2,2005,3,2005,NA,0.5,2.58455837802779,2.86226073055283,2.18071628336509,2.12928049157936,FALSE,1.28730758918179
"CAN","cpi",0.2,2005,3,2004,NA,1,2.27325142057244,2.55095377309748,2.18071628336509,1.69584100230101,FALSE,0.509040195543417
"CAN","cpi",0.2,2005,3,2004,NA,1.5,1.95196557130096,2.37856887204597,2.18071628336509,1.84885395921698,TRUE,0.426603300745015
"CAN","cpi",0.2,2006,3,2006,NA,0,2.15886316481268,2.29643978085716,1.97519342012289,2.18435928951757,FALSE,0.596750977768974
"CAN","cpi",0.2,2006,3,2006,NA,0.5,2.32306575781812,2.69810983460247,1.97519342012289,2.23898625105085,FALSE,1.24472492102243
"CAN","cpi",0.2,2006,3,2005,NA,1,2.29834405482267,2.67338813160702,1.97519342012289,2.20100508158421,FALSE,1.18292066353381
"CAN","cpi",0.2,2006,3,2005,NA,1.5,2.32277121439631,2.69781529118065,1.97519342012289,2.12928049157936,FALSE,1.2439885624679
"CAN","cpi",0.2,2007,3,2007,NA,0,1.80017913703853,1.91020230306239,2.10062087284572,1.84480494136243,FALSE,0.586069590482199
"CAN","cpi",0.2,2007,3,2007,NA,0.5,1.68385237177836,2.05336799566395,2.10062087284572,1.84074896087257,FALSE,0.487647816840028
"CAN","cpi",0.2,2007,3,2006,NA,1,1.86886290022917,2.23837852411476,2.10062087284572,2.18435928951757,TRUE,0.369515623885588
"CAN","cpi",0.2,2007,3,2006,NA,1.5,2.00174810200637,2.38827705314251,2.10062087284572,2.23898625105085,TRUE,0.386528951136141
"CAN","cpi",0.2,2008,3,2008,NA,0,2.49377399880871,2.62325157655275,2.31447335265955,2.44343788755996,FALSE,0.57772919311693
"CAN","cpi",0.2,2008,3,2008,NA,0.5,2.08291762570759,2.42937712149653,2.31447335265955,2.09257425597425,TRUE,0.346459495788944
"CAN","cpi",0.2,2008,3,2007,NA,1,2.62721655718884,2.97367605297778,2.31447335265955,1.84480494136243,FALSE,1.12831750711216
"CAN","cpi",0.2,2008,3,2007,NA,1.5,2.20851422060888,2.55497371639783,2.31447335265955,1.84074896087257,TRUE,0.346459495788944
"CAN","cpi",0.2,2009,3,2009,NA,0,0.128294988707249,0.292154368800016,0.284533874408197,0.55191793044214,TRUE,0.163859380092768
"CAN","cpi",0.2,2009,3,2009,NA,0.5,1.97444031630509,2.32133613978591,0.284533874408197,2.17577573644726,FALSE,4.57166192822305
"CAN","cpi",0.2,2009,3,2008,NA,1,2.19658213419939,2.54347795768021,0.284533874408197,2.44343788755996,FALSE,5.1270164729588
"CAN","cpi",0.2,2009,3,2008,NA,1.5,2.42313280324352,2.77002862672434,0.284533874408197,2.09257425597425,FALSE,5.69339314556912
"CAN","cpi",0.2,2010,3,2010,NA,0,1.68905855665124,1.74600276763538,1.75525687020327,1.39285160668897,FALSE,0.0800794674038704
"CAN","cpi",0.2,2010,3,2010,NA,0.5,0.814648936221238,0.978283055453716,1.75525687020327,0.382958497759795,FALSE,2.10606865610637
"CAN","cpi",0.2,2010,3,2009,NA,1,0.376179996382087,0.539814115614565,1.75525687020327,0.55191793044214,FALSE,3.20224100570425
"CAN","cpi",0.2,2010,3,2009,NA,1.5,0.321898552467752,0.612047241145856,1.75525687020327,2.17577573644726,FALSE,3.14817276132165
"CAN","cpi",0.2,2011,3,2011,NA,0,2.95901058851286,3.04879197584783,2.85717434028225,2.75343947842877,FALSE,0.344372007911501
"CAN","cpi",0.2,2011,3,2011,NA,0.5,2.35081310469095,2.63673763916272,2.85717434028225,1.99557590637446,FALSE,0.837016287270587
"CAN","cpi",0.2,2011,3,2010,NA,1,2.41398955532878,2.78798546745644,2.85717434028225,1.39285160668897,FALSE,0.546968094192172
"CAN","cpi",0.2,2011,3,2010,NA,1.5,1.9902908337981,2.36428674592576,2.85717434028225,0.382958497759795,FALSE,1.60621489801887
"CAN","cpi",0.2,2012,3,2012,NA,0,1.67545377408902,1.82010062391547,1.50118536134935,1.92993928708068,FALSE,0.580317881675637
"CAN","cpi",0.2,2012,3,2012,NA,0.5,2.60128671758346,2.96981381514914,1.50118536134935,2.7924065414457,FALSE,3.11878048815097
"CAN","cpi",0.2,2012,3,2011,NA,1,3.0369328162751,3.40545991384078,1.50118536134935,2.75343947842877,FALSE,4.20789573488007
"CAN","cpi",0.2,2012,3,2011,NA,1.5,3.00683881398733,3.37536591155301,1.50118536134935,1.99557590637446,FALSE,4.13266072916064
"CAN","cpi",0.2,2013,3,2013,NA,0,0.801775577324385,0.93048812840998,0.931270594714462,0.933287972916032,FALSE,0.1306687168468
"CAN","cpi",0.2,2013,3,2013,NA,0.5,0.778870865467374,1.13662213785527,0.931270594714462,1.15173631466769,TRUE,0.357751272387898
"CAN","cpi",0.2,2013,3,2012,NA,1,1.12932589286755,1.48707716525545,0.931270594714462,1.92993928708068,FALSE,0.85288951777062
"CAN","cpi",0.2,2013,3,2012,NA,1.5,1.51035063561797,1.86810190800587,0.931270594714462,2.7924065414457,FALSE,1.80545137464668
"CAN","cpi",0.2,2014,3,2014,NA,0,1.81410664879553,1.89636018292145,1.87639912240215,1.63379811457679,TRUE,0.0822535341259218
"CAN","cpi",0.2,2014,3,2014,NA,0.5,1.39832575186025,1.67177221906748,1.87639912240215,1.04987664511533,FALSE,0.785013725543912
"CAN","cpi",0.2,2014,3,2013,NA,1,1.27520916639908,1.54865563360631,1.87639912240215,0.933287972916032,FALSE,1.09280518919682
"CAN","cpi",0.2,2014,3,2013,NA,1.5,1.16204899654783,1.43549546375506,1.87639912240215,1.15173631466769,FALSE,1.37570561382495
"CAN","cpi",0.2,2015,3,2015,NA,0,1.11147397288792,1.23065541810549,1.11090953952792,1.25588008397684,FALSE,0.12059252861758
"CAN","cpi",0.2,2015,3,2015,NA,0.5,1.72109481696741,2.08826920305978,1.11090953952792,1.79776205300989,FALSE,1.8926375796911
"CAN","cpi",0.2,2015,3,2014,NA,1,2.35567106999729,2.72284545608966,1.11090953952792,1.63379811457679,FALSE,3.4790782122658
"CAN","cpi",0.2,2015,3,2014,NA,1.5,2.13733215107675,2.50450653716912,1.11090953952792,1.04987664511533,FALSE,2.93323091496446
"CAN","cpi",0.2,2016,3,2016,NA,0,1.47926956294176,1.57182915219854,1.41168586698797,1.39645323019091,FALSE,0.261518829141265
"CAN","cpi",0.2,2016,3,2016,NA,0.5,1.50288327043057,1.85446361761449,1.41168586698797,1.22661053967644,FALSE,0.57957385579042
"CAN","cpi",0.2,2016,3,2015,NA,1,1.13782490832988,1.48940525551381,1.41168586698797,1.25588008397684,TRUE,0.351580347183921
"CAN","cpi",0.2,2016,3,2015,NA,1.5,1.22220420120852,1.57378454839244,1.41168586698797,1.79776205300989,TRUE,0.351580347183921
"CAN","cpi",0.2,2017,3,2017,NA,0,1.50424518985976,1.60128106401188,1.57888581671161,1.4811454634985,TRUE,0.0970358741521133
"CAN","cpi",0.2,2017,3,2017,NA,0.5,1.7161070019026,2.04577482502093,1.57888581671161,1.50199497030019,FALSE,0.672720786095795
"CAN","cpi",0.2,2017,3,2016,NA,1,1.6740078601403,2.00367568325863,1.57888581671161,1.39645323019091,FALSE,0.567472931690056
"CAN","cpi",0.2,2017,3,2016,NA,1.5,1.57490959341872,1.90457741653706,1.57888581671161,1.22661053967644,TRUE,0.329667823118334
"CAN","cpi",0.2,2018,3,2018,NA,0,2.30071268705876,2.38228783882244,2.23316270166586,2.17346080855069,FALSE,0.250450115245933
"CAN","cpi",0.2,2018,3,2018,NA,0.5,1.65458485918187,2.04657007883613,2.23316270166586,1.61472973146397,FALSE,0.858466776728581
"CAN","cpi",0.2,2018,3,2017,NA,1,1.80311857658451,2.19510379623877,2.23316270166586,1.4811454634985,FALSE,0.487132483221981
"CAN","cpi",0.2,2018,3,2017,NA,1.5,1.67278497882931,2.06477019848356,2.23316270166586,1.50199497030019,FALSE,0.812966477609989
"CAN","cpi",0.2,2019,3,2019,NA,0,1.80595942225744,1.9181115775054,1.91921619871868,1.90497611164807,FALSE,0.114913708281162
"CAN","cpi",0.2,2019,3,2019,NA,0.5,1.8578268779625,2.30779297681027,1.91921619871868,2.12426010345757,TRUE,0.449966098847772
"CAN","cpi",0.2,2019,3,2018,NA,1,2.35622160569463,2.8061877045424,1.91921619871868,2.17346080855069,FALSE,1.54247961628764
"CAN","cpi",0.2,2019,3,2018,NA,1.5,2.26647514859087,2.71644124743864,1.91921619871868,1.61472973146397,FALSE,1.31811347352824
"CAN","cpi",0.2,2020,3,2020,NA,0,0.829697081821986,0.945918909126856,0.71139989671781,1.03314712474633,FALSE,0.41196479006531
"CAN","cpi",0.2,2020,3,2020,NA,0.5,2.03592680602788,2.41000425717718,0.71139989671781,1.96699466082655,FALSE,3.68539472442448
"CAN","cpi",0.2,2020,3,2019,NA,1,1.99070659007386,2.36478404122317,0.71139989671781,1.90497611164807,FALSE,3.57234418453943
"CAN","cpi",0.2,2020,3,2019,NA,1.5,1.94230799247965,2.31638544362895,0.71139989671781,2.12426010345757,FALSE,3.4513476905539
"CAN","cpi",0.2,2021,3,2021,NA,0,2.73605052692698,2.7924434512261,3.31148121717802,2.35752845828485,FALSE,1.35398733917893
"CAN","cpi",0.2,2021,3,2021,NA,0.5,0.643221878390817,0.958097038951522,3.31148121717802,0.620135433592656,FALSE,6.19833560612696
"CAN","cpi",0.2,2021,3,2020,NA,1,0.539323949961418,0.854199110522122,3.31148121717802,1.03314712474633,FALSE,6.45808042720046
"CAN","cpi",0.2,2021,3,2020,NA,1.5,0.82089957839694,1.13577473895765,3.31148121717802,1.96699466082655,FALSE,5.75414135611165
"CAN","cpi",0.2,2022,3,2022,NA,0,6.57109518631844,6.6437771830678,6.50977236228281,6.06204323255885,FALSE,0.22598905683843
"CAN","cpi",0.2,2022,3,2022,NA,0.5,5.67461995376989,5.74730195051925,6.50977236228281,4.36321977466389,FALSE,1.97885802615826
"CAN","cpi",0.2,2022,3,2021,NA,1,4.32735825908687,4.96517205872703,6.50977236228281,2.35752845828485,FALSE,4.4993145585296
"CAN","cpi",0.2,2022,3,2021,NA,1.5,3.32314237717296,3.96095617681312,6.50977236228281,0.620135433592656,FALSE,7.00985426331439
"CAN","cpi",0.2,2023,3,2023,NA,0,3.96679899585679,4.17530729974254,3.78831288758619,4.59798511919386,FALSE,0.654723574562246
"CAN","cpi",0.2,2023,3,2023,NA,0.5,5.36991689641774,6.04795550582929,3.78831288758619,6.34532620809577,FALSE,4.63204863149042
"CAN","cpi",0.2,2023,3,2022,NA,1,6.26294105929996,7.08867076568364,3.78831288758619,6.06204323255885,FALSE,7.01230013566809
"CAN","cpi",0.2,2023,3,2022,NA,1.5,5.92568047463729,6.75141018102098,3.78831288758619,4.36321977466389,FALSE,6.16914867401144
"CAN","cpi",0.2,2024,3,2023,NA,1,2.48488701244242,2.87333869797498,NA,4.59798511919386,NA,NA
"CAN","cpi",0.2,2024,3,2023,NA,1.5,3.29081960043871,3.67927128597127,NA,6.34532620809577,NA,NA
"CAN","cpi",0.3,1952,3,1952,NA,0,4.21811346565328,4.21811346565328,2.55562336095485,5.33589356249898,FALSE,4.74997172770981
"CAN","cpi",0.3,1952,3,1952,NA,0.5,7.28772000038339,7.28772000038339,2.55562336095485,9.78336808811006,FALSE,13.520276112653
"CAN","cpi",0.3,1953,3,1953,NA,0,0.189536869638908,-0.34712565987081,-1.01492775838436,-1.36658675161344,FALSE,2.9046649791282
"CAN","cpi",0.3,1953,3,1953,NA,0.5,0.628711061777159,0.0920485322674415,-1.01492775838436,0.110034650547486,FALSE,4.15944838523749
"CAN","cpi",0.3,1953,3,1952,NA,1,2.24045229828239,2.24045229828239,-1.01492775838436,5.33589356249898,FALSE,9.30108587619073
"CAN","cpi",0.3,1953,3,1952,NA,1.5,4.17155386392402,4.17155386392402,-1.01492775838436,9.78336808811006,FALSE,14.8185189208811
"CAN","cpi",0.3,1954,3,1954,NA,0,3.44745421325079,2.49713873327967,0.644425455961438,0.642985131580263,FALSE,7.05833811228417
"CAN","cpi",0.3,1954,3,1954,NA,0.5,7.67520679411127,6.72489131414016,0.644425455961438,-0.366337731528715,FALSE,19.137631200457
"CAN","cpi",0.3,1954,3,1953,NA,1,12.5684072528846,12.5032274754954,0.644425455961438,-1.36658675161344,FALSE,34.0033396423912
"CAN","cpi",0.3,1954,3,1953,NA,1.5,14.2873675351883,14.2221877577991,0.644425455961438,0.110034650547486,FALSE,38.9146547346875
"CAN","cpi",0.3,1955,3,1955,NA,0,-0.35669629652946,1.22849391744334,0.173649026558865,0.17297271419658,TRUE,1.5851902139728
"CAN","cpi",0.3,1955,3,1955,NA,0.5,0.459498320163936,4.45164422821518,0.173649026558865,0.586026480650511,FALSE,4.80885817549431
"CAN","cpi",0.3,1955,3,1954,NA,1,0.611191538410496,10.1461504531269,0.173649026558865,0.642985131580263,FALSE,10.7850803771496
"CAN","cpi",0.3,1955,3,1954,NA,1.5,1.2476313789836,13.1060549289804,0.173649026558865,-0.366337731528715,FALSE,14.9269445569246
"CAN","cpi",0.3,1956,3,1956,NA,0,0.99810623610434,2.00103113948812,1.32752769429961,0.753971131965347,TRUE,1.00292490338378
"CAN","cpi",0.3,1956,3,1956,NA,0.5,1.49659508703233,3.34597400637979,1.32752769429961,0.174369006303267,FALSE,2.33242861286953
"CAN","cpi",0.3,1956,3,1955,NA,1,-0.130154962484894,1.71922395686256,1.32752769429961,0.17297271419658,TRUE,1.84937891934745
"CAN","cpi",0.3,1956,3,1955,NA,1.5,-0.58121387836523,1.26816504098222,1.32752769429961,0.586026480650511,FALSE,2.01898650025427
"CAN","cpi",0.3,1957,3,1957,NA,0,3.67633062684565,4.30710769118318,3.24684755852518,3.20420645854679,FALSE,1.85787154525318
"CAN","cpi",0.3,1957,3,1957,NA,0.5,1.69213940800198,2.32291647233951,3.24684755852518,2.07576432581215,FALSE,3.27058016772514
"CAN","cpi",0.3,1957,3,1956,NA,1,0.888778347049871,1.5195554113874,3.24684755852518,0.753971131965347,FALSE,5.56589748473117
"CAN","cpi",0.3,1957,3,1956,NA,1.5,1.02737551931201,1.65815258364954,3.24684755852518,0.174369006303267,FALSE,5.1699055639822
"CAN","cpi",0.3,1958,3,1958,NA,0,2.07641784232305,2.47859460709937,2.33186388641149,2.45716899110006,TRUE,0.402176764776311
"CAN","cpi",0.3,1958,3,1958,NA,0.5,1.5788818517277,2.73854087608646,2.33186388641149,3.16832340224646,TRUE,1.15965902435876
"CAN","cpi",0.3,1958,3,1957,NA,1,1.77131425946144,3.83803077267286,2.33186388641149,3.20420645854679,TRUE,2.06671651321142
"CAN","cpi",0.3,1958,3,1957,NA,1.5,0.49404006565453,2.56075657886595,2.33186388641149,2.07576432581215,TRUE,2.06671651321142
"CAN","cpi",0.3,1959,3,1959,NA,0,1.16058461350419,1.51751772414174,1.19382698397654,1.42085685959275,TRUE,0.356933110637552
"CAN","cpi",0.3,1959,3,1959,NA,0.5,0.96334388596145,2.00559162146655,1.19382698397654,1.98727093968503,TRUE,1.0422477355051
"CAN","cpi",0.3,1959,3,1958,NA,1,0.730549175442134,2.30128086522027,1.19382698397654,2.45716899110006,TRUE,1.57073168977813
"CAN","cpi",0.3,1959,3,1958,NA,1.5,0.75006208873138,2.34108713664618,1.19382698397654,3.16832340224646,TRUE,1.59102504791481
"CAN","cpi",0.3,1960,3,1960,NA,0,1.30620677477125,1.74041574794525,1.34209404870695,1.34570677924433,TRUE,0.434208973174001
"CAN","cpi",0.3,1960,3,1960,NA,0.5,1.22160887215007,1.84760897601032,1.34209404870695,1.13297483079829,TRUE,0.626000103860255
"CAN","cpi",0.3,1960,3,1959,NA,1,0.921250786359627,1.54725089021988,1.34209404870695,1.42085685959275,TRUE,0.626000103860255
"CAN","cpi",0.3,1960,3,1959,NA,1.5,0.753150233148844,1.68176500188286,1.34209404870695,1.98727093968503,TRUE,0.928614768734012
"CAN","cpi",0.3,1961,3,1961,NA,0,1.28917019016965,1.6787537469959,1.00921348094007,1.32757858722203,FALSE,1.18945986891075
"CAN","cpi",0.3,1961,3,1961,NA,0.5,1.32669140832871,1.74987190222618,1.00921348094007,1.39166174207428,FALSE,1.33026028643645
"CAN","cpi",0.3,1961,3,1960,NA,1,1.26506088251904,1.68824137641651,1.00921348094007,1.34570677924433,FALSE,1.15417306983738
"CAN","cpi",0.3,1961,3,1960,NA,1.5,1.36642616302701,1.78960665692448,1.00921348094007,1.13297483079829,FALSE,1.44378815700302
"CAN","cpi",0.3,1962,3,1962,NA,0,0.530144410040511,0.685095013646464,1.04957947883042,0.577977430468435,FALSE,1.19633478984581
"CAN","cpi",0.3,1962,3,1962,NA,0.5,0.509531239719258,1.09772292298599,1.04957947883042,0.636962012224359,TRUE,0.588191683266736
"CAN","cpi",0.3,1962,3,1961,NA,1,0.696265844416353,1.28445752768309,1.04957947883042,1.32757858722203,TRUE,0.588191683266736
"CAN","cpi",0.3,1962,3,1961,NA,1.5,0.865332383482987,1.60980073394793,1.04957947883042,1.39166174207428,TRUE,0.744468350464939
"CAN","cpi",0.3,1963,3,1963,NA,0,1.67565321154222,2.15614301044005,1.60677118395228,1.66779362321099,FALSE,0.677295592011928
"CAN","cpi",0.3,1963,3,1963,NA,0.5,1.6900827615972,2.18388970342055,1.60677118395228,1.52118152719239,FALSE,0.731840020808835
"CAN","cpi",0.3,1963,3,1962,NA,1,1.64171211364803,2.13551905547138,1.60677118395228,0.577977430468435,FALSE,0.593638169525475
"CAN","cpi",0.3,1963,3,1962,NA,1.5,1.00139126047472,1.49519820229807,1.60677118395228,0.636962012224359,FALSE,0.812586889406807
"CAN","cpi",0.3,1964,3,1964,NA,0,1.80350937889522,2.26686678915382,1.88764670034376,1.89274723222648,TRUE,0.463357410258592
"CAN","cpi",0.3,1964,3,1964,NA,0.5,1.29275257847647,1.79171540012367,1.88764670034376,1.59688015421336,FALSE,0.773052250847462
"CAN","cpi",0.3,1964,3,1963,NA,1,1.17696908555287,1.67593190720006,1.88764670034376,1.66779362321099,FALSE,1.10386223062919
"CAN","cpi",0.3,1964,3,1963,NA,1.5,1.17257551928562,1.80140495910237,1.88764670034376,1.52118152719239,FALSE,0.875234414792153
"CAN","cpi",0.3,1965,3,1965,NA,0,1.86953509676242,2.15701812064623,2.29538304394236,2.00763200760394,FALSE,0.682811376158449
"CAN","cpi",0.3,1965,3,1965,NA,0.5,1.40327799718146,1.96231799944281,2.29538304394236,1.88069823981647,FALSE,1.51065441511719
"CAN","cpi",0.3,1965,3,1964,NA,1,1.24448061549044,1.85530019254126,2.29538304394236,1.89274723222648,FALSE,1.86819915248253
"CAN","cpi",0.3,1965,3,1964,NA,1.5,1.22600551374649,1.89278556755798,2.29538304394236,1.59688015421336,FALSE,1.81705855776686
"CAN","cpi",0.3,1966,3,1966,NA,0,3.37743335511755,3.94464743673669,3.72486065470629,3.50850431851723,TRUE,0.567214081619133
"CAN","cpi",0.3,1966,3,1966,NA,0.5,2.08215744943258,2.68865615811936,3.72486065470629,2.72414080931513,FALSE,3.56708298464945
"CAN","cpi",0.3,1966,3,1965,NA,1,1.45522621914825,2.06172492783503,3.72486065470629,2.00763200760394,FALSE,5.3583150711761
"CAN","cpi",0.3,1966,3,1965,NA,1.5,1.2521262984805,2.02772442748726,3.72486065470629,1.88069823981647,FALSE,5.62455877820398
"CAN","cpi",0.3,1967,3,1967,NA,0,3.09196977346903,3.47103414946997,3.49360316391996,3.43593854851327,FALSE,0.443547274429492
"CAN","cpi",0.3,1967,3,1967,NA,0.5,1.97964695132505,2.53146975160279,3.49360316391996,3.60120034208141,FALSE,3.30077540689823
"CAN","cpi",0.3,1967,3,1966,NA,1,1.69160632214108,2.9940275573416,3.49360316391996,3.50850431851723,FALSE,2.72978011113868
"CAN","cpi",0.3,1967,3,1966,NA,1.5,1.36679362317266,2.66921485837318,3.49360316391996,2.72414080931513,FALSE,3.6578163939056
"CAN","cpi",0.3,1968,3,1968,NA,0,3.66667689472691,4.02814944084377,3.95128347779386,3.85741006811451,TRUE,0.361472546116866
"CAN","cpi",0.3,1968,3,1968,NA,0.5,2.39528815717248,3.39365206555697,3.95128347779386,3.82980583992124,FALSE,2.5915965147756
"CAN","cpi",0.3,1968,3,1967,NA,1,1.38052421386295,3.1648992828576,3.95128347779386,3.43593854851327,FALSE,4.03118705452682
"CAN","cpi",0.3,1968,3,1967,NA,1.5,1.19974145956508,3.12538055840513,3.95128347779386,3.60120034208141,FALSE,4.28536172566499
"CAN","cpi",0.3,1969,3,1969,NA,0,4.31276270788798,4.57492055755716,4.42679496126681,4.42973002734916,TRUE,0.262157849669187
"CAN","cpi",0.3,1969,3,1969,NA,0.5,2.2526056789275,3.19360001097375,4.42679496126681,3.77653863724463,FALSE,4.46440847574072
"CAN","cpi",0.3,1969,3,1968,NA,1,1.50071118200718,3.52497015324374,4.42679496126681,3.85741006811451,FALSE,4.60090127987391
"CAN","cpi",0.3,1969,3,1968,NA,1.5,1.44377235732304,3.4680313285596,4.42679496126681,3.82980583992124,FALSE,4.76358363611431
"CAN","cpi",0.3,1970,3,1970,NA,0,3.55969109180242,3.70231411446708,3.28128405769805,3.84669808502433,FALSE,0.938071691534291
"CAN","cpi",0.3,1970,3,1970,NA,0.5,3.00032752875228,4.47679483817222,3.28128405769805,4.72247431437482,TRUE,1.47646730941994
"CAN","cpi",0.3,1970,3,1969,NA,1,1.66917840613074,4.35360668878923,3.28128405769805,4.42973002734916,TRUE,2.68442828265849
"CAN","cpi",0.3,1970,3,1969,NA,1.5,1.45755907917642,4.14198736183491,3.28128405769805,3.77653863724463,TRUE,2.68442828265849
"CAN","cpi",0.3,1971,3,1971,NA,0,1.721916397899,2.04068901310602,2.64123406634756,2.09886045002039,FALSE,2.03461562446857
"CAN","cpi",0.3,1971,3,1971,NA,0.5,1.24530064738597,1.88649767318081,2.64123406634756,2.39042152113403,FALSE,2.79758672055699
"CAN","cpi",0.3,1971,3,1970,NA,1,1.68383370212986,2.55500641955099,2.64123406634756,3.84669808502433,FALSE,1.11753742255418
"CAN","cpi",0.3,1971,3,1970,NA,1.5,1.31335227988382,3.03789607317216,2.64123406634756,4.72247431437482,TRUE,1.72454379328834
"CAN","cpi",0.3,1972,3,1972,NA,0,4.7109327020734,5.01299025653219,4.83230569625923,4.61402341086119,TRUE,0.302057554458788
"CAN","cpi",0.3,1972,3,1972,NA,0.5,3.32613236037982,4.26300522902393,4.83230569625923,3.53817935863684,FALSE,2.56344563217354
"CAN","cpi",0.3,1972,3,1971,NA,1,2.70099291491074,3.63786578355485,4.83230569625923,2.09886045002039,FALSE,4.34955833351376
"CAN","cpi",0.3,1972,3,1971,NA,1.5,1.86494874867656,2.80182161732067,4.83230569625923,2.39042152113403,FALSE,6.73825595132571
"CAN","cpi",0.3,1973,3,1973,NA,0,6.19167629120774,6.25442870261156,7.12388603531779,6.22342912205835,FALSE,2.5469162191359
"CAN","cpi",0.3,1973,3,1973,NA,0.5,3.25551160026561,4.55914356058694,7.12388603531779,4.99248222648134,FALSE,8.63146760240947
"CAN","cpi",0.3,1973,3,1972,NA,1,3.79279696500112,5.18555569158142,7.12388603531779,4.61402341086119,FALSE,6.93084542296992
"CAN","cpi",0.3,1973,3,1972,NA,1.5,2.77919668611591,4.17195541269621,7.12388603531779,3.53817935863684,FALSE,9.82684621978481
"CAN","cpi",0.3,1974,3,1974,NA,0,9.59511345773586,9.76946793598094,10.2717243737774,9.59455553431256,FALSE,1.6093728719493
"CAN","cpi",0.3,1974,3,1974,NA,0.5,5.14554539236862,7.40063656868373,10.2717243737774,8.02283957227414,FALSE,10.4581991908685
"CAN","cpi",0.3,1974,3,1973,NA,1,5.81498206569441,8.28645902418948,10.2717243737774,6.22342912205835,FALSE,8.14366367160347
"CAN","cpi",0.3,1974,3,1973,NA,1.5,3.89143348226816,6.86026531359118,10.2717243737774,4.99248222648134,FALSE,12.7158577175694
"CAN","cpi",0.3,1975,3,1975,NA,0,10.2042503149278,10.0086017449478,10.0232981493341,10.5280192696423,FALSE,0.363347344248508
"CAN","cpi",0.3,1975,3,1975,NA,0.5,6.5916044002422,11.2681976052787,10.0232981493341,10.7014589339012,TRUE,4.67659320503655
"CAN","cpi",0.3,1975,3,1974,NA,1,7.57485284598021,12.2514460510168,10.0232981493341,9.59455553431256,TRUE,4.67659320503655
"CAN","cpi",0.3,1975,3,1974,NA,1.5,5.6909174301155,10.3675106351521,10.0232981493341,8.02283957227414,TRUE,4.67659320503655
"CAN","cpi",0.3,1976,3,1976,NA,0,7.23763404739743,7.28491912208222,7.22784311401172,8.13534117389669,FALSE,0.0752591700725469
"CAN","cpi",0.3,1976,3,1976,NA,0.5,5.70376069432542,7.91153539299264,7.22784311401172,9.54416967067372,TRUE,2.20777469866722
"CAN","cpi",0.3,1976,3,1975,NA,1,6.56708005323089,8.77485475189811,7.22784311401172,10.5280192696423,TRUE,2.20777469866722
"CAN","cpi",0.3,1976,3,1975,NA,1.5,7.26770089962054,9.47547559828776,7.22784311401172,10.7014589339012,FALSE,2.321654086121
"CAN","cpi",0.3,1977,3,1977,NA,0,6.38961621646709,6.52238388776899,7.58101410153764,6.84168016809657,FALSE,3.15742542492663
"CAN","cpi",0.3,1977,3,1977,NA,0.5,3.81736163548621,5.32108761062266,7.58101410153764,6.57165012633641,FALSE,7.96065880632211
"CAN","cpi",0.3,1977,3,1976,NA,1,4.28865805507404,5.79238403021049,7.58101410153764,8.13534117389669,FALSE,6.61409760749973
"CAN","cpi",0.3,1977,3,1976,NA,1.5,4.94210884120942,6.69039595179984,7.58101410153764,9.54416967067372,FALSE,4.29291039555558
"CAN","cpi",0.3,1978,3,1978,NA,0,8.35360738219281,8.44838447023733,8.50208927062595,8.56560161197079,FALSE,0.248219374869147
"CAN","cpi",0.3,1978,3,1978,NA,0.5,7.51952220024291,8.12768003646166,8.50208927062595,8.14356532128036,FALSE,1.67789850525957
"CAN","cpi",0.3,1978,3,1977,NA,1,7.08858695902613,8.43044319998131,8.50208927062595,6.84168016809657,FALSE,1.54655929993985
"CAN","cpi",0.3,1978,3,1977,NA,1.5,5.83508746583825,7.60592420061097,8.50208927062595,6.57165012633641,FALSE,4.33130836338694
"CAN","cpi",0.3,1979,3,1979,NA,0,8.06630558760904,8.20487398894976,8.65147652410481,8.51558792202395,FALSE,1.41457564464086
"CAN","cpi",0.3,1979,3,1979,NA,0.5,7.17643770635997,8.28782503969079,8.65147652410481,8.48180361143764,FALSE,2.15039157451375
"CAN","cpi",0.3,1979,3,1978,NA,1,6.71207499633737,8.08163024319621,8.65147652410481,8.56560161197079,FALSE,2.99768747802627
"CAN","cpi",0.3,1979,3,1978,NA,1.5,6.47531695537647,9.19630946111712,8.65147652410481,8.14356532128036,TRUE,2.72099250574065
"CAN","cpi",0.3,1980,3,1980,NA,0,8.81947654205288,8.94396030250422,9.5171912664748,9.17959378630866,FALSE,1.76228651465298
"CAN","cpi",0.3,1980,3,1980,NA,0.5,7.73239485154367,8.99557445450287,9.5171912664748,8.77731920113821,FALSE,2.75351335145041
"CAN","cpi",0.3,1980,3,1979,NA,1,7.88241219551774,9.14559179847694,9.5171912664748,8.51558792202395,FALSE,2.32489236866736
"CAN","cpi",0.3,1980,3,1979,NA,1.5,6.7155846755666,8.74009375086127,9.5171912664748,8.48180361143764,FALSE,4.24478769133332
"CAN","cpi",0.3,1981,3,1981,NA,0,11.3131402046422,11.7480171476184,11.5813425032741,11.279360028481,TRUE,0.434876942976206
"CAN","cpi",0.3,1981,3,1981,NA,0.5,9.70212261218774,10.6860207972134,11.5813425032741,10.1336807488653,FALSE,3.54196020234207
"CAN","cpi",0.3,1981,3,1980,NA,1,8.99216724810279,10.1531479212392,11.5813425032741,9.17959378630866,FALSE,5.24153662180774
"CAN","cpi",0.3,1981,3,1980,NA,1.5,9.11339526371789,10.2743759368543,11.5813425032741,8.77731920113821,FALSE,4.89517086290746
"CAN","cpi",0.3,1982,3,1982,NA,0,10.0859864514922,10.4835588519025,10.1124203763629,10.7097306947659,TRUE,0.397572400410311
"CAN","cpi",0.3,1982,3,1982,NA,0.5,9.65900005778537,11.6182793245884,10.1124203763629,11.3795840186269,TRUE,1.95927926680299
"CAN","cpi",0.3,1982,3,1981,NA,1,10.6071577159146,12.5664369827176,10.1124203763629,11.279360028481,FALSE,3.37281452266487
"CAN","cpi",0.3,1982,3,1981,NA,1.5,10.916913943686,12.876193210489,10.1124203763629,10.1336807488653,FALSE,4.25783231629737
"CAN","cpi",0.3,1983,3,1983,NA,0,5.71095200189198,6.17479722720132,5.67091787896303,6.81192865303165,FALSE,0.578228433677753
"CAN","cpi",0.3,1983,3,1983,NA,0.5,6.873460913282,8.98722192737367,5.67091787896303,9.28631267190301,FALSE,5.549598255003
"CAN","cpi",0.3,1983,3,1982,NA,1,7.69050287222981,9.80426388632148,5.67091787896303,10.7097306947659,FALSE,7.88400385199674
"CAN","cpi",0.3,1983,3,1982,NA,1.5,8.42944299840594,10.5432040124976,5.67091787896303,11.3795840186269,FALSE,9.99526135535712
"CAN","cpi",0.3,1984,3,1984,NA,0,3.95431288755866,4.17165028621986,4.19799576814029,4.43433180473976,FALSE,0.292610204148136
"CAN","cpi",0.3,1984,3,1984,NA,0.5,3.47565060753424,4.8011810514844,4.19799576814029,5.08610822560979,TRUE,1.32553044395016
"CAN","cpi",0.3,1984,3,1983,NA,1,3.32862270816303,4.65415315211318,4.19799576814029,6.81192865303165,TRUE,1.32553044395016
"CAN","cpi",0.3,1984,3,1983,NA,1.5,3.71829532677275,5.63379470904869,4.19799576814029,9.28631267190301,TRUE,1.91549938227594
"CAN","cpi",0.3,1985,3,1985,NA,0,3.5031275785674,3.75592636564969,3.86444262005169,3.75272544104399,FALSE,0.56284522823088
"CAN","cpi",0.3,1985,3,1985,NA,0.5,2.86459698660015,3.95102271277903,3.86444262005169,3.83470516948927,TRUE,1.08642572617888
"CAN","cpi",0.3,1985,3,1984,NA,1,3.52018486510493,4.60661059128381,3.86444262005169,4.43433180473976,TRUE,1.08642572617888
"CAN","cpi",0.3,1985,3,1984,NA,1.5,3.55000694354184,4.92692956910208,3.86444262005169,5.08610822560979,TRUE,1.37692262556024
"CAN","cpi",0.3,1986,3,1986,NA,0,3.92439957256903,4.22198298047766,4.08685396749431,4.02668174324255,TRUE,0.297583407908633
"CAN","cpi",0.3,1986,3,1986,NA,0.5,3.86894020730279,4.69116588001271,4.08685396749431,4.02628294162027,TRUE,0.822225672709916
"CAN","cpi",0.3,1986,3,1985,NA,1,3.86802507703789,4.70719916147919,4.08685396749431,3.75272544104399,TRUE,0.839174084441296
"CAN","cpi",0.3,1986,3,1985,NA,1.5,3.65719488727922,4.59437163024535,4.08685396749431,3.83470516948927,TRUE,0.93717674296613
"CAN","cpi",0.3,1987,3,1987,NA,0,4.18067159742132,4.47632905580457,4.23980729277887,4.2837330645361,TRUE,0.295657458383246
"CAN","cpi",0.3,1987,3,1987,NA,0.5,3.49011459197643,4.44817881125308,4.23980729277887,4.02033055131438,TRUE,0.958064219276646
"CAN","cpi",0.3,1987,3,1986,NA,1,3.92121795499523,4.87928217427188,4.23980729277887,4.02668174324255,TRUE,0.958064219276645
"CAN","cpi",0.3,1987,3,1986,NA,1.5,3.83742521557471,4.79548943485136,4.23980729277887,4.02628294162027,TRUE,0.958064219276645
"CAN","cpi",0.3,1988,3,1988,NA,0,3.74893801220502,3.99672542640628,3.92899537638065,3.95767765957829,TRUE,0.247787414201261
"CAN","cpi",0.3,1988,3,1988,NA,0.5,3.89393631984264,4.67075184191957,3.92899537638065,4.26147484794381,TRUE,0.77681552207693
"CAN","cpi",0.3,1988,3,1987,NA,1,3.89931911507039,4.67613463714732,3.92899537638065,4.2837330645361,TRUE,0.77681552207693
"CAN","cpi",0.3,1988,3,1987,NA,1.5,3.96641994668628,4.74323546876321,3.92899537638065,4.02033055131438,FALSE,0.883742865807289
"CAN","cpi",0.3,1989,3,1989,NA,0,4.57996877623134,4.82277639053193,4.82821664544208,4.56141251415513,FALSE,0.258351199758147
"CAN","cpi",0.3,1989,3,1989,NA,0.5,3.85997549928901,4.55748961312341,4.82821664544208,4.0148475519947,FALSE,1.47101992045916
"CAN","cpi",0.3,1989,3,1988,NA,1,3.70360516994601,4.40111928378042,4.82821664544208,3.95767765957829,FALSE,1.91779229001057
"CAN","cpi",0.3,1989,3,1988,NA,1.5,3.61992585757159,4.32774458687832,4.82821664544208,4.26147484794381,FALSE,2.13773889663176
"CAN","cpi",0.3,1990,3,1990,NA,0,4.52049948252223,4.75898961543647,4.64347549432717,4.70378167021394,TRUE,0.238490132914245
"CAN","cpi",0.3,1990,3,1990,NA,0.5,4.93580048847262,5.66493024776226,4.64347549432717,5.05069490734707,FALSE,1.56434402827663
"CAN","cpi",0.3,1990,3,1989,NA,1,4.83010901392175,5.82033614139313,4.64347549432717,4.56141251415513,FALSE,1.52346575488447
"CAN","cpi",0.3,1990,3,1989,NA,1.5,4.60476963274568,5.59499676021706,4.64347549432717,4.0148475519947,TRUE,0.990227127471375
"CAN","cpi",0.3,1991,3,1991,NA,0,5.70120083542587,5.95713869788735,5.4258100696218,5.63511155207928,FALSE,1.04276862190169
"CAN","cpi",0.3,1991,3,1991,NA,0.5,4.81219189025304,5.51459538999,5.4258100696218,4.87807370573786,TRUE,0.702403499736958
"CAN","cpi",0.3,1991,3,1990,NA,1,4.24270156548594,4.94892380513743,5.4258100696218,4.70378167021394,FALSE,2.06875442389253
"CAN","cpi",0.3,1991,3,1990,NA,1.5,4.16732708922769,4.97164811287734,5.4258100696218,5.05069490734707,FALSE,2.10192661434809
"CAN","cpi",0.3,1992,3,1992,NA,0,1.10462522983392,1.29546384365476,1.47496888572843,2.02050638420239,FALSE,0.70371016260276
"CAN","cpi",0.3,1992,3,1992,NA,0.5,2.19701514849611,3.48124194776916,1.47496888572843,4.27205707399704,FALSE,3.34721612146641
"CAN","cpi",0.3,1992,3,1991,NA,1,4.49553270067518,5.77975949994823,1.47496888572843,5.63511155207928,FALSE,9.91440912769232
"CAN","cpi",0.3,1992,3,1991,NA,1.5,4.89209304725131,6.17631984652437,1.47496888572843,4.87807370573786,FALSE,11.0474386893384
"CAN","cpi",0.3,1993,3,1993,NA,0,1.9130889743063,2.07021929476328,1.84351085411351,1.84186847486189,FALSE,0.355924949579223
"CAN","cpi",0.3,1993,3,1993,NA,0.5,1.89215312957537,2.32630030372114,1.84351085411351,1.60616723541631,FALSE,0.57312510403678
"CAN","cpi",0.3,1993,3,1992,NA,1,1.07405383032524,1.50820100447101,1.84351085411351,2.02050638420239,FALSE,1.3921753159815
"CAN","cpi",0.3,1993,3,1992,NA,1.5,1.07581709415677,1.94346351088272,1.84351085411351,4.27205707399704,TRUE,0.867646416725952
"CAN","cpi",0.3,1994,3,1994,NA,0,0.300368413021738,0.549686917096608,0.161630694655448,0.62038151471279,FALSE,0.645711985121413
"CAN","cpi",0.3,1994,3,1994,NA,0.5,0.834098787920563,1.60513230628994,0.161630694655448,1.4565883399875,FALSE,2.69237092769828
"CAN","cpi",0.3,1994,3,1993,NA,1,2.03870672394295,2.80974024231232,0.161630694655448,1.84186847486189,FALSE,6.13410788776223
"CAN","cpi",0.3,1994,3,1993,NA,1.5,2.05309898089894,2.82413249926832,0.161630694655448,1.60616723541631,FALSE,6.17522862192221
"CAN","cpi",0.3,1995,3,1995,NA,0,1.91907376664434,1.98056907161459,2.11688403676572,1.60030724029718,FALSE,0.450966633973468
"CAN","cpi",0.3,1995,3,1995,NA,0.5,1.07171240786578,1.37257867402469,2.11688403676572,0.400723248632204,FALSE,2.42745301684756
"CAN","cpi",0.3,1995,3,1994,NA,1,0.17331524315192,0.474181509310822,2.11688403676572,0.62038151471279,FALSE,4.99430205888717
"CAN","cpi",0.3,1995,3,1994,NA,1.5,0.40257011066807,0.985837520371575,2.11688403676572,1.4565883399875,FALSE,3.81482888511533
"CAN","cpi",0.3,1996,3,1996,NA,0,1.37992200541181,1.62557648807052,1.55309584667184,1.57188450223428,TRUE,0.245654482658705
"CAN","cpi",0.3,1996,3,1996,NA,0.5,1.95400908876162,2.71279449532595,1.55309584667184,2.10267011992876,FALSE,1.90425181253512
"CAN","cpi",0.3,1996,3,1995,NA,1,3.06056187620001,3.83816972198312,1.55309584667184,1.60030724029718,FALSE,5.08465364443502
"CAN","cpi",0.3,1996,3,1995,NA,1.5,2.67748908683414,3.45509693261724,1.55309584667184,0.400723248632204,FALSE,3.99015996053252
"CAN","cpi",0.3,1997,3,1997,NA,0,1.85441790817603,2.05477198027428,1.60528783555959,1.83379947449567,FALSE,0.912154279573784
"CAN","cpi",0.3,1997,3,1997,NA,0.5,1.90555638399148,2.4610009631331,1.60528783555959,1.71447508965446,FALSE,1.41335471751844
"CAN","cpi",0.3,1997,3,1996,NA,1,1.81715138765891,2.37259596680053,1.60528783555959,1.57188450223428,FALSE,1.1607690137111
"CAN","cpi",0.3,1997,3,1996,NA,1.5,1.59265941222017,2.35780123411586,1.60528783555959,2.10267011992876,TRUE,0.765141821895695
"CAN","cpi",0.3,1998,3,1998,NA,0,0.781494065566406,0.946262214243621,0.988908029337191,0.973278201206617,FALSE,0.286613334658842
"CAN","cpi",0.3,1998,3,1998,NA,0.5,0.868377920353349,1.60875987163689,0.988908029337191,1.34049194776323,TRUE,0.740381951283545
"CAN","cpi",0.3,1998,3,1997,NA,1,1.46694427510418,2.20732622638772,0.988908029337191,1.83379947449567,FALSE,2.10619979633208
"CAN","cpi",0.3,1998,3,1997,NA,1.5,1.74753056516015,2.49102307265432,0.988908029337191,1.71447508965446,FALSE,2.91098546698833
"CAN","cpi",0.3,1999,3,1999,NA,0,1.46379186143369,1.6252361343706,1.7107350135213,1.40211292309609,FALSE,0.405726784796036
"CAN","cpi",0.3,1999,3,1999,NA,0.5,0.833217075469189,1.3512225152152,1.7107350135213,0.923130320518117,FALSE,1.54518400633486
"CAN","cpi",0.3,1999,3,1998,NA,1,1.41714091921576,1.93514635896177,1.7107350135213,0.973278201206617,TRUE,0.518005439746009
"CAN","cpi",0.3,1999,3,1998,NA,1.5,1.14410435478091,1.66210979452692,1.7107350135213,1.34049194776323,FALSE,0.65693463687279
"CAN","cpi",0.3,2000,3,2000,NA,0,2.65627674585,2.83221687828944,2.6718361971244,2.50399207866046,TRUE,0.175940132439431
"CAN","cpi",0.3,2000,3,2000,NA,0.5,2.82212748408183,3.20813905605947,2.6718361971244,2.17160318889212,FALSE,0.815415248998865
"CAN","cpi",0.3,2000,3,1999,NA,1,2.42476328638478,2.95467945155371,2.6718361971244,1.40211292309609,TRUE,0.529916165168935
"CAN","cpi",0.3,2000,3,1999,NA,1.5,2.03652197906722,2.57152128723106,2.6718361971244,0.923130320518117,FALSE,0.821613336430535
"CAN","cpi",0.3,2001,3,2001,NA,0,2.97068837035027,3.15409665395743,2.47906219852806,2.96814309391761,FALSE,1.58805448881347
"CAN","cpi",0.3,2001,3,2001,NA,0.5,2.52759756207443,3.14509317522176,2.47906219852806,2.69801990899347,FALSE,0.756168080422662
"CAN","cpi",0.3,2001,3,2000,NA,1,2.88960492425053,3.50710053739786,2.47906219852806,2.50399207866046,FALSE,1.79047482949723
"CAN","cpi",0.3,2001,3,2000,NA,1.5,2.73938980846372,3.47496754317789,2.47906219852806,2.17160318889212,FALSE,1.47937090595891
"CAN","cpi",0.3,2002,3,2002,NA,0,1.26298326123884,1.46887950299367,2.20880570551249,1.54486874462913,FALSE,2.31997110609431
"CAN","cpi",0.3,2002,3,2002,NA,0.5,1.5583825137961,2.27118366694403,2.20880570551249,2.180209446776,TRUE,0.712801153147924
"CAN","cpi",0.3,2002,3,2001,NA,1,1.78119027403476,2.49399142718269,2.20880570551249,2.96814309391761,TRUE,0.712801153147923
"CAN","cpi",0.3,2002,3,2001,NA,1.5,2.3930007855566,3.10580193870453,2.20880570551249,2.69801990899347,FALSE,1.23907281041682
"CAN","cpi",0.3,2003,3,2003,NA,0,3.38189385670031,3.53463305356058,2.71189071546809,3.2075247865732,FALSE,2.06703388609519
"CAN","cpi",0.3,2003,3,2003,NA,0.5,3.95258960649462,4.10532880335488,2.71189071546809,2.91800239560335,FALSE,3.69759317122178
"CAN","cpi",0.3,2003,3,2002,NA,1,3.2845745794762,3.69798917116878,2.71189071546809,1.54486874462913,FALSE,2.04965420314432
"CAN","cpi",0.3,2003,3,2002,NA,1.5,2.12059741312391,2.88565816299783,2.71189071546809,2.180209446776,TRUE,0.765060749873923
"CAN","cpi",0.3,2004,3,2004,NA,0,1.37765838105829,1.61739756944458,1.83151661303942,1.69584100230101,FALSE,0.851507884371551
"CAN","cpi",0.3,2004,3,2004,NA,0.5,0.269276134002334,1.22991629923694,1.83151661303942,1.84885395921698,FALSE,2.67949820467028
"CAN","cpi",0.3,2004,3,2003,NA,1,1.76453627173655,2.72517643697115,1.83151661303942,3.2075247865732,TRUE,0.960640165234602
"CAN","cpi",0.3,2004,3,2003,NA,1.5,2.41149347524549,3.37213364048009,1.83151661303942,2.91800239560335,FALSE,2.61771691439478
"CAN","cpi",0.3,2005,3,2005,NA,0,2.25684170120087,2.42178317017141,2.18071628336509,2.20100508158421,FALSE,0.382442662787048
"CAN","cpi",0.3,2005,3,2005,NA,0.5,2.47729024809784,2.9266032689657,2.18071628336509,2.12928049157936,FALSE,1.29666720581858
"CAN","cpi",0.3,2005,3,2004,NA,1,2.02231728631852,2.62118378542283,2.18071628336509,1.69584100230101,TRUE,0.598866499104306
"CAN","cpi",0.3,2005,3,2004,NA,1.5,1.77960463461852,2.53525455975627,2.18071628336509,1.84885395921698,TRUE,0.75564992513775
"CAN","cpi",0.3,2006,3,2006,NA,0,2.11061831387089,2.33036413398751,1.97519342012289,2.18435928951757,FALSE,0.606674087968058
"CAN","cpi",0.3,2006,3,2006,NA,0.5,2.18645329409809,2.77971419191224,1.97519342012289,2.23898625105085,FALSE,1.19686053774332
"CAN","cpi",0.3,2006,3,2005,NA,1,2.10661028451488,2.69987118232903,1.97519342012289,2.20100508158421,FALSE,0.968737653219838
"CAN","cpi",0.3,2006,3,2005,NA,1.5,2.07350789580895,2.78695112531814,1.97519342012289,2.12928049157936,FALSE,0.994341731469368
"CAN","cpi",0.3,2007,3,2007,NA,0,1.74941651558449,1.94652546367733,2.10062087284572,1.84480494136243,FALSE,0.637381545716823
"CAN","cpi",0.3,2007,3,2007,NA,0.5,1.47803169215103,2.18867253665417,2.10062087284572,1.84074896087257,TRUE,0.710640844503146
"CAN","cpi",0.3,2007,3,2006,NA,1,1.59045724709648,2.30109809159962,2.10062087284572,2.18435928951757,TRUE,0.710640844503146
"CAN","cpi",0.3,2007,3,2006,NA,1.5,1.84102160835593,2.55166245285908,2.10062087284572,2.23898625105085,TRUE,0.710640844503146
