isdrw/probabilistic-benchmark-forecasts/results/bayesian_quantile_regression/archive/bqr_prediction_rw_2026-01-31_20-29-22.csv
"country","target","tau","target_year","target_quarter","forecast_year","forecast_quarter","horizon","lower_bound","upper_bound","truth_value","prediction","covered","IS"
"CAN","cpi",0.1,1952,3,1952,NA,0,-13.2049208607095,-3.50909340153092,2.55562336095485,5.33589356249898,FALSE,23.1729758202581
"CAN","cpi",0.1,1952,3,1952,NA,0.5,20.1893907412945,29.8852182004731,2.55562336095485,9.78336808811006,FALSE,48.8819771932668
"CAN","cpi",0.1,1953,3,1953,NA,0,-11.0766142921595,-12.0252797277255,-1.01492775838436,-1.36658675161344,FALSE,23.5187833851922
"CAN","cpi",0.1,1953,3,1953,NA,0.5,-10.9319513861756,-10.6873782913543,-1.01492775838436,0.110034650547486,FALSE,21.7389076125322
"CAN","cpi",0.1,1953,3,1952,NA,1,32.4080217958661,35.1479437829853,-1.01492775838436,5.33589356249898,FALSE,77.0131432187869
"CAN","cpi",0.1,1953,3,1952,NA,1.5,67.2379856628003,70.3992956677482,-1.01492775838436,9.78336808811006,FALSE,154.834450940914
"CAN","cpi",0.1,1954,3,1954,NA,0,2.91990029161168,2.5139632550731,0.644425455961438,0.642985131580263,FALSE,4.65067370935085
"CAN","cpi",0.1,1954,3,1954,NA,0.5,2.38990163486898,1.98396459833039,0.644425455961438,-0.366337731528715,FALSE,3.47289891658928
"CAN","cpi",0.1,1954,3,1953,NA,1,-3.38351349655805,-3.78945053309664,0.644425455961438,-1.36658675161344,FALSE,9.44712071692381
"CAN","cpi",0.1,1954,3,1953,NA,1.5,7.89698998621506,7.66069292874867,0.644425455961438,0.110034650547486,FALSE,15.8805130097639
"CAN","cpi",0.1,1955,3,1955,NA,0,0.3086613549216,0.678506172693774,0.173649026558865,0.17297271419658,FALSE,0.669872214133808
"CAN","cpi",0.1,1955,3,1955,NA,0.5,1.44954155574064,2.18970275067922,0.173649026558865,0.586026480650511,FALSE,3.57547792645364
"CAN","cpi",0.1,1955,3,1954,NA,1,2.24331768647036,3.08006765896851,0.173649026558865,0.642985131580263,FALSE,5.43601366119036
"CAN","cpi",0.1,1955,3,1954,NA,1.5,-3.82279817335442,-2.98604820085626,0.173649026558865,-0.366337731528715,FALSE,7.85829936675399
"CAN","cpi",0.1,1956,3,1956,NA,0,1.20241368384983,1.46857506596828,1.32752769429961,0.753971131965347,TRUE,0.266161382118447
"CAN","cpi",0.1,1956,3,1956,NA,0.5,0.626093052150422,1.04389190790123,1.32752769429961,0.174369006303267,FALSE,1.04810060330276
"CAN","cpi",0.1,1956,3,1955,NA,1,0.692373315780651,1.28912888182944,1.32752769429961,0.17297271419658,FALSE,0.682086260426936
"CAN","cpi",0.1,1956,3,1955,NA,1.5,2.09666238986597,3.08518424869296,1.32752769429961,0.586026480650511,FALSE,2.69771007119669
"CAN","cpi",0.1,1957,3,1957,NA,0,3.2895831075817,3.96050154546526,3.24684755852518,3.20420645854679,FALSE,0.765886324675836
"CAN","cpi",0.1,1957,3,1957,NA,0.5,3.68279581841759,4.81471534467202,3.24684755852518,2.07576432581215,FALSE,2.10069343712645
"CAN","cpi",0.1,1957,3,1956,NA,1,-0.230742821353152,0.901176704901282,3.24684755852518,0.753971131965347,FALSE,6.34452142319642
"CAN","cpi",0.1,1957,3,1956,NA,1.5,-1.44803450542294,-0.316114979168507,3.24684755852518,0.174369006303267,FALSE,9.04961405446262
"CAN","cpi",0.1,1958,3,1958,NA,0,2.05283226332546,2.7204354900205,2.33186388641149,2.45716899110006,TRUE,0.667603226695036
"CAN","cpi",0.1,1958,3,1958,NA,0.5,3.65423208395658,5.33147468052717,2.33186388641149,3.16832340224646,FALSE,4.61583859111523
"CAN","cpi",0.1,1958,3,1957,NA,1,4.14425731244086,6.35029166381598,2.33186388641149,3.20420645854679,FALSE,6.23357529810706
"CAN","cpi",0.1,1958,3,1957,NA,1.5,1.45405806163057,3.66009241300569,2.33186388641149,2.07576432581215,TRUE,2.20603435137511
"CAN","cpi",0.1,1959,3,1959,NA,0,1.42554420128263,1.76639238950089,1.19382698397654,1.42085685959275,FALSE,0.855775337787342
"CAN","cpi",0.1,1959,3,1959,NA,0.5,2.06420917017331,2.97962532434272,1.19382698397654,1.98727093968503,FALSE,2.84959879016223
"CAN","cpi",0.1,1959,3,1958,NA,1,3.36819821370319,4.98852450190149,1.19382698397654,2.45716899110006,FALSE,6.45226235425751
"CAN","cpi",0.1,1959,3,1958,NA,1.5,4.58910709567598,6.47366476663883,1.19382698397654,3.16832340224646,FALSE,9.42962458585049
"CAN","cpi",0.1,1960,3,1960,NA,0,1.36463033229652,1.56423068100834,1.34209404870695,1.34570677924433,FALSE,0.249680978910858
"CAN","cpi",0.1,1960,3,1960,NA,0.5,1.49927051324568,1.93301726526181,1.34209404870695,1.13297483079829,FALSE,0.783027784324413
"CAN","cpi",0.1,1960,3,1959,NA,1,2.21645854730189,2.8777013421833,1.34209404870695,1.42085685959275,FALSE,2.60427501398128
"CAN","cpi",0.1,1960,3,1959,NA,1.5,2.920043995876,3.59652990557421,1.34209404870695,1.98727093968503,FALSE,4.18304134785166
"CAN","cpi",0.1,1961,3,1961,NA,0,1.32860680217759,1.49976863200984,1.00921348094007,1.32757858722203,FALSE,0.880924765915624
"CAN","cpi",0.1,1961,3,1961,NA,0.5,1.76269189236039,2.13960127144622,1.00921348094007,1.39166174207428,FALSE,2.05130584890875
"CAN","cpi",0.1,1961,3,1960,NA,1,1.78102621417487,2.35322087289744,1.00921348094007,1.34570677924433,FALSE,2.28733406591101
"CAN","cpi",0.1,1961,3,1960,NA,1.5,1.40379129299704,1.97598595171961,1.00921348094007,1.13297483079829,FALSE,1.44903424107138
"CAN","cpi",0.1,1962,3,1962,NA,0,0.742898836867805,0.859450651533602,1.04957947883042,0.577977430468435,FALSE,0.539060319769826
"CAN","cpi",0.1,1962,3,1962,NA,0.5,0.651106758030247,0.886977811743466,1.04957947883042,0.636962012224359,FALSE,0.597208091684217
"CAN","cpi",0.1,1962,3,1961,NA,1,1.88962760160594,2.35730251224597,1.04957947883042,1.32757858722203,FALSE,2.33444851680787
"CAN","cpi",0.1,1962,3,1961,NA,1.5,1.77318361726921,2.24085852790924,1.04957947883042,1.39166174207428,FALSE,2.07568410717069
"CAN","cpi",0.1,1963,3,1963,NA,0,1.50512777353521,1.66185331882344,1.60677118395228,1.66779362321099,TRUE,0.156725545288237
"CAN","cpi",0.1,1963,3,1963,NA,0.5,2.02231661167388,2.27542029367157,1.60677118395228,1.52118152719239,FALSE,1.17653796582345
"CAN","cpi",0.1,1963,3,1962,NA,1,0.5679936874644,0.821097369462094,1.60677118395228,0.577977430468435,FALSE,1.99904549197589
"CAN","cpi",0.1,1963,3,1962,NA,1.5,0.823500391060123,1.07660407305782,1.60677118395228,0.636962012224359,FALSE,1.43125281731873
"CAN","cpi",0.1,1964,3,1964,NA,0,1.64917015087768,1.81641575260687,1.88764670034376,1.89274723222648,FALSE,0.325536596700053
"CAN","cpi",0.1,1964,3,1964,NA,0.5,1.69912712474155,2.01035124737841,1.88764670034376,1.59688015421336,TRUE,0.31122412263686
"CAN","cpi",0.1,1964,3,1963,NA,1,1.88592855721996,2.26393059718431,1.88764670034376,1.66779362321099,TRUE,0.378002039964357
"CAN","cpi",0.1,1964,3,1963,NA,1.5,1.71295875033105,2.09096079029541,1.88764670034376,1.52118152719239,TRUE,0.378002039964356
"CAN","cpi",0.1,1965,3,1965,NA,0,1.72246426034388,1.90289438758249,2.29538304394236,2.00763200760394,FALSE,1.05262714137165
"CAN","cpi",0.1,1965,3,1965,NA,0.5,2.04636193173407,2.31705904038185,2.29538304394236,1.88069823981647,TRUE,0.270697108647777
"CAN","cpi",0.1,1965,3,1964,NA,1,2.15268844081839,2.5189925084708,2.29538304394236,1.89274723222648,TRUE,0.366304067652415
"CAN","cpi",0.1,1965,3,1964,NA,1.5,1.85253782739989,2.24447525528073,2.29538304394236,1.59688015421336,FALSE,0.505065847128893
"CAN","cpi",0.1,1966,3,1966,NA,0,2.73357677809117,2.96163779280346,3.72486065470629,3.50850431851723,FALSE,1.9241118189408
"CAN","cpi",0.1,1966,3,1966,NA,0.5,3.02954462488917,3.43832247319288,3.72486065470629,2.72414080931513,FALSE,1.04552936277795
"CAN","cpi",0.1,1966,3,1965,NA,1,2.24512755478173,2.65390540308544,3.72486065470629,2.00763200760394,FALSE,2.78867840746116
"CAN","cpi",0.1,1966,3,1965,NA,1.5,2.20366268757478,2.61244053587849,3.72486065470629,1.88069823981647,FALSE,2.88082255680994
"CAN","cpi",0.1,1967,3,1967,NA,0,2.87443507705789,3.15713087823591,3.49360316391996,3.43593854851327,FALSE,1.03041199158702
"CAN","cpi",0.1,1967,3,1967,NA,0.5,3.72295426742972,4.31245934215111,3.49360316391996,3.60120034208141,FALSE,1.09917419363196
"CAN","cpi",0.1,1967,3,1966,NA,1,3.95461642468744,4.54412149940884,3.49360316391996,3.50850431851723,FALSE,1.61397898753802
"CAN","cpi",0.1,1967,3,1966,NA,1.5,3.203765826178,3.7932709008994,3.49360316391996,2.72414080931513,TRUE,0.589505074721394
"CAN","cpi",0.1,1968,3,1968,NA,0,3.14044873335354,3.40769631604846,3.95128347779386,3.85741006811451,FALSE,1.47521905324024
"CAN","cpi",0.1,1968,3,1968,NA,0.5,4.27433959696865,4.79614818631279,3.95128347779386,3.82980583992124,FALSE,1.23971107639923
"CAN","cpi",0.1,1968,3,1967,NA,1,4.0043372893017,4.52614587864585,3.95128347779386,3.43593854851327,FALSE,0.639705948250465
"CAN","cpi",0.1,1968,3,1967,NA,1.5,4.26859263924343,4.79040122858758,3.95128347779386,3.60120034208141,FALSE,1.2269400592321
"CAN","cpi",0.1,1969,3,1969,NA,0,3.51442958054501,3.8969084692686,4.42679496126681,4.42973002734916,FALSE,1.5600044264974
"CAN","cpi",0.1,1969,3,1969,NA,0.5,4.13587459395308,4.70955894897172,4.42679496126681,3.77653863724463,TRUE,0.573684355018646
"CAN","cpi",0.1,1969,3,1968,NA,1,4.43733931910569,5.06892020208995,4.42679496126681,3.85741006811451,FALSE,0.655012789292865
"CAN","cpi",0.1,1969,3,1968,NA,1.5,4.45049257144154,5.31651618566882,4.42679496126681,3.82980583992124,FALSE,0.91868497017111
"CAN","cpi",0.1,1970,3,1970,NA,0,3.26386336450472,3.59410082005971,3.28128405769805,3.84669808502433,TRUE,0.33023745555499
"CAN","cpi",0.1,1970,3,1970,NA,0.5,5.31934980754687,6.11064519721926,3.28128405769805,4.72247431437482,FALSE,5.32033038933644
"CAN","cpi",0.1,1970,3,1969,NA,1,5.0773065607361,5.87062010834119,3.28128405769805,4.42973002734916,FALSE,4.78447466546742
"CAN","cpi",0.1,1970,3,1969,NA,1.5,4.37977898813951,5.1730925357446,3.28128405769805,3.77653863724463,FALSE,3.23441339303056
"CAN","cpi",0.1,1971,3,1971,NA,0,2.06082561050284,2.30767188600907,2.64123406634756,2.09886045002039,FALSE,0.988095565147331
"CAN","cpi",0.1,1971,3,1971,NA,0.5,2.59561822305611,3.16882334819281,2.64123406634756,2.39042152113403,TRUE,0.573205125136697
"CAN","cpi",0.1,1971,3,1970,NA,1,4.63264170945148,5.39239107074673,2.64123406634756,3.84669808502433,FALSE,5.18509967930395
"CAN","cpi",0.1,1971,3,1970,NA,1.5,5.48184444649849,6.40686265311189,2.64123406634756,4.72247431437482,FALSE,7.23748571805991
"CAN","cpi",0.1,1972,3,1972,NA,0,3.51615339523459,3.84435573393618,4.83230569625923,4.61402341086119,FALSE,2.52364669941948
"CAN","cpi",0.1,1972,3,1972,NA,0.5,4.461881024184,4.97785417247452,4.83230569625923,3.53817935863684,TRUE,0.515973148290515
"CAN","cpi",0.1,1972,3,1971,NA,1,2.37976452809234,2.89573767638285,4.83230569625923,2.09886045002039,FALSE,4.81945763690469
"CAN","cpi",0.1,1972,3,1971,NA,1.5,2.94429376386057,3.46026691215108,4.83230569625923,2.39042152113403,FALSE,3.5649482240864
"CAN","cpi",0.1,1973,3,1973,NA,0,4.75284225296635,5.19724421578926,7.12388603531779,6.22342912205835,FALSE,4.72582822844186
"CAN","cpi",0.1,1973,3,1973,NA,0.5,5.84640932452945,6.72421231722825,7.12388603531779,4.99248222648134,FALSE,1.76596681067555
"CAN","cpi",0.1,1973,3,1972,NA,1,5.26346972984913,6.14127272254794,7.12388603531779,4.61402341086119,FALSE,3.06138813218737
"CAN","cpi",0.1,1973,3,1972,NA,1.5,4.18311968937118,5.06092268206999,7.12388603531779,3.53817935863684,FALSE,5.46216599991614
"CAN","cpi",0.1,1974,3,1974,NA,0,6.91672425218649,7.63432659514982,10.2717243737774,9.59455553431256,FALSE,6.5784862954691
"CAN","cpi",0.1,1974,3,1974,NA,0.5,9.46108148600577,10.6625158629838,10.2717243737774,8.02283957227414,TRUE,1.201434376978
"CAN","cpi",0.1,1974,3,1973,NA,1,6.63846071638924,7.83989509336723,10.2717243737774,6.22342912205835,FALSE,6.60549944455619
"CAN","cpi",0.1,1974,3,1973,NA,1.5,5.67183970368598,6.87327408066397,10.2717243737774,4.99248222648134,FALSE,8.75354613945232
"CAN","cpi",0.1,1975,3,1975,NA,0,7.76571391424555,8.47603764855288,10.0232981493341,10.5280192696423,FALSE,4.14868040271009
"CAN","cpi",0.1,1975,3,1975,NA,0.5,11.77540935097,12.9086464983421,10.0232981493341,10.7014589339012,FALSE,5.0268175954519
"CAN","cpi",0.1,1975,3,1974,NA,1,9.44253411280981,10.890016413366,10.0232981493341,9.59455553431256,TRUE,1.44748230055618
"CAN","cpi",0.1,1975,3,1974,NA,1.5,8.06375581962655,9.51123812018274,10.0232981493341,8.02283957227414,FALSE,2.58539347644815
"CAN","cpi",0.1,1976,3,1976,NA,0,6.53611702518164,7.15548287145617,7.22784311401172,8.13534117389669,FALSE,0.780166385286857
"CAN","cpi",0.1,1976,3,1976,NA,0.5,9.50508545936676,10.8707475669296,7.22784311401172,9.54416967067372,FALSE,6.4262006527963
"CAN","cpi",0.1,1976,3,1975,NA,1,10.6288799979019,12.4717534774293,7.22784311401172,10.5280192696423,FALSE,9.40073322150563
"CAN","cpi",0.1,1976,3,1975,NA,1.5,10.4316085289197,13.0133524159022,7.22784311401172,10.7014589339012,FALSE,9.70122258677798
"CAN","cpi",0.1,1977,3,1977,NA,0,5.38429165992735,5.85616903864434,7.58101410153764,6.84168016809657,FALSE,4.30486640736878
"CAN","cpi",0.1,1977,3,1977,NA,0.5,6.4507107658751,7.7639877153195,7.58101410153764,6.57165012633641,TRUE,1.3132769494444
"CAN","cpi",0.1,1977,3,1976,NA,1,8.82274852762462,10.2280830002475,7.58101410153764,8.13534117389669,FALSE,4.16474430837174
"CAN","cpi",0.1,1977,3,1976,NA,1.5,10.0034695074705,11.7735744017366,7.58101410153764,9.54416967067372,FALSE,7.15333912967238
"CAN","cpi",0.1,1978,3,1978,NA,0,6.25329604044681,6.81143285408256,8.50208927062595,8.56560161197079,FALSE,4.31515107262105
"CAN","cpi",0.1,1978,3,1978,NA,0.5,8.66813680054736,9.74616033108871,8.50208927062595,8.14356532128036,FALSE,1.44701804147782
"CAN","cpi",0.1,1978,3,1977,NA,1,6.91375829997311,8.10755739817047,8.50208927062595,6.84168016809657,FALSE,2.07053659254287
"CAN","cpi",0.1,1978,3,1977,NA,1.5,6.87865731207731,8.19886734160015,8.50208927062595,6.57165012633641,FALSE,1.99403653846905
"CAN","cpi",0.1,1979,3,1979,NA,0,6.43067938817396,7.05253260882321,8.65147652410481,8.51558792202395,FALSE,4.17506192127502
"CAN","cpi",0.1,1979,3,1979,NA,0.5,8.42787400728287,9.85264415472958,8.65147652410481,8.48180361143764,TRUE,1.42477014744671
"CAN","cpi",0.1,1979,3,1978,NA,1,8.89907109477885,10.3238412422256,8.65147652410481,8.56560161197079,FALSE,1.97498030450013
"CAN","cpi",0.1,1979,3,1978,NA,1.5,8.30525099017561,10.0488713620209,8.65147652410481,8.14356532128036,TRUE,1.74362037184525
"CAN","cpi",0.1,1980,3,1980,NA,0,6.73503252018725,7.33842388784671,9.5171912664748,9.17959378630866,FALSE,5.44509665349966
"CAN","cpi",0.1,1980,3,1980,NA,0.5,8.53561603766358,10.0882746197128,9.5171912664748,8.77731920113821,TRUE,1.55265858204923
"CAN","cpi",0.1,1980,3,1979,NA,1,8.71867614546752,10.2713347275168,9.5171912664748,8.51558792202395,TRUE,1.55265858204923
"CAN","cpi",0.1,1980,3,1979,NA,1.5,8.47030241523873,10.4326858094379,9.5171912664748,8.48180361143764,TRUE,1.96238339419915
"CAN","cpi",0.1,1981,3,1981,NA,0,7.90968617668257,8.57835138098978,11.5813425032741,11.279360028481,FALSE,7.34197880938357
"CAN","cpi",0.1,1981,3,1981,NA,0.5,10.0532467294872,11.3972230210541,11.5813425032741,10.1336807488653,FALSE,1.75313069650035
"CAN","cpi",0.1,1981,3,1980,NA,1,9.19037251714628,10.7931088959472,11.5813425032741,9.17959378630866,FALSE,3.35436661730517
"CAN","cpi",0.1,1981,3,1980,NA,1.5,8.45716207188226,10.5150595737351,11.5813425032741,8.77731920113821,FALSE,4.42741512305066
"CAN","cpi",0.1,1982,3,1982,NA,0,7.90955258504299,8.59689110062192,10.1124203763629,10.7097306947659,FALSE,4.05518135055899
"CAN","cpi",0.1,1982,3,1982,NA,0.5,10.6002123042723,12.5173707026012,10.1124203763629,11.3795840186269,FALSE,3.00114046034964
"CAN","cpi",0.1,1982,3,1981,NA,1,10.9313296095817,12.8484880079107,10.1124203763629,11.279360028481,FALSE,3.73695669437072
"CAN","cpi",0.1,1982,3,1981,NA,1.5,9.52878306666687,11.9761928104209,10.1124203763629,10.1336807488653,TRUE,2.44740974375405
"CAN","cpi",0.1,1983,3,1983,NA,0,5.78135262072444,6.27882390751516,5.67091787896303,6.81192865303165,FALSE,0.742881824038287
"CAN","cpi",0.1,1983,3,1983,NA,0.5,8.63261747157554,10.1946085126109,5.67091787896303,9.28631267190301,FALSE,8.14354569128541
"CAN","cpi",0.1,1983,3,1982,NA,1,11.1444442033254,12.7064352443608,5.67091787896303,10.7097306947659,FALSE,13.7253828729518
"CAN","cpi",0.1,1983,3,1982,NA,1.5,11.5178447196992,13.9888734043635,5.67091787896303,11.3795840186269,FALSE,15.4641994418557
"CAN","cpi",0.1,1984,3,1984,NA,0,3.67775605627254,4.05109390979184,4.19799576814029,4.43433180473976,FALSE,0.699786427626967
"CAN","cpi",0.1,1984,3,1984,NA,0.5,4.67323251424015,5.72419063093526,4.19799576814029,5.08610822560979,FALSE,2.10703977469481
"CAN","cpi",0.1,1984,3,1983,NA,1,7.71946493539381,8.77042305208892,4.19799576814029,6.81192865303165,FALSE,8.87644515503628
"CAN","cpi",0.1,1984,3,1983,NA,1.5,9.92940253533612,11.606490006314,4.19799576814029,9.28631267190301,FALSE,14.4135469536353
"CAN","cpi",0.1,1985,3,1985,NA,0,3.09458192255792,3.36203256341101,3.86444262005169,3.75272544104399,FALSE,1.38391743338794
"CAN","cpi",0.1,1985,3,1985,NA,0.5,3.86815691117199,4.48665356689692,3.86444262005169,3.83470516948927,FALSE,0.626750635992255
"CAN","cpi",0.1,1985,3,1984,NA,1,5.12458492582084,5.74308158154577,3.86444262005169,4.43433180473976,FALSE,3.41881289076748
"CAN","cpi",0.1,1985,3,1984,NA,1.5,5.58401087701929,6.66043563985438,3.86444262005169,5.08610822560979,FALSE,4.89768755609641
"CAN","cpi",0.1,1986,3,1986,NA,0,3.19933300396091,3.48518908585236,4.08685396749431,4.02668174324255,FALSE,1.6228891522069
"CAN","cpi",0.1,1986,3,1986,NA,0.5,4.30968383448258,4.91083571735608,4.08685396749431,4.02628294162027,FALSE,1.09632936506965
"CAN","cpi",0.1,1986,3,1985,NA,1,4.24130980566283,4.84246168853633,4.08685396749431,3.75272544104399,FALSE,0.944387078803545
"CAN","cpi",0.1,1986,3,1985,NA,1.5,4.33505307147774,5.1314047671547,4.08685396749431,3.83470516948927,FALSE,1.34790526008457
"CAN","cpi",0.1,1987,3,1987,NA,0,3.38366279348785,3.65810401434638,4.23980729277887,4.2837330645361,FALSE,1.56711517293074
"CAN","cpi",0.1,1987,3,1987,NA,0.5,4.22470301271898,4.75089116074561,4.23980729277887,4.02033055131438,TRUE,0.526188148026622
"CAN","cpi",0.1,1987,3,1986,NA,1,4.58700259909313,5.11319074711975,4.23980729277887,4.02668174324255,FALSE,1.29773327316941
"CAN","cpi",0.1,1987,3,1986,NA,1.5,4.51533887413803,5.21189468278751,4.23980729277887,4.02628294162027,FALSE,1.30884821166983
"CAN","cpi",0.1,1988,3,1988,NA,0,3.25067705035056,3.47826977717679,3.92899537638065,3.95767765957829,FALSE,1.22920516950148
"CAN","cpi",0.1,1988,3,1988,NA,0.5,4.53957382253236,5.07914991602663,3.92899537638065,4.26147484794381,FALSE,1.8964170849425
"CAN","cpi",0.1,1988,3,1987,NA,1,4.8631005295721,5.40267662306637,3.92899537638065,4.2837330645361,FALSE,2.6153653228086
"CAN","cpi",0.1,1988,3,1987,NA,1.5,4.58534744839057,5.3331439759675,3.92899537638065,4.02033055131438,FALSE,2.20635668759897
"CAN","cpi",0.1,1989,3,1989,NA,0,3.49269560711114,3.72868857667522,4.82821664544208,4.56141251415513,FALSE,2.67938867793488
"CAN","cpi",0.1,1989,3,1989,NA,0.5,4.24728665355555,4.73541639694673,4.82821664544208,4.0148475519947,FALSE,0.694352517825288
"CAN","cpi",0.1,1989,3,1988,NA,1,4.49794535120868,4.98607509459986,4.82821664544208,3.95767765957829,TRUE,0.488129743391177
"CAN","cpi",0.1,1989,3,1988,NA,1.5,4.70841154866461,5.42886695852622,4.82821664544208,4.26147484794381,TRUE,0.720455409861604
"CAN","cpi",0.1,1990,3,1990,NA,0,3.79113173607717,4.05864199662516,4.64347549432717,4.70378167021394,FALSE,1.56714025544135
"CAN","cpi",0.1,1990,3,1990,NA,0.5,5.35520173352653,5.96512654026665,4.64347549432717,5.05069490734707,FALSE,2.19153867162758
"CAN","cpi",0.1,1990,3,1989,NA,1,5.09190140939033,5.70182621613044,4.64347549432717,4.56141251415513,FALSE,1.6064268402138
"CAN","cpi",0.1,1990,3,1989,NA,1.5,4.62908834432938,5.2860536073033,4.64347549432717,4.0148475519947,TRUE,0.65696526297392
"CAN","cpi",0.1,1991,3,1991,NA,0,4.20346909294123,4.46044543362844,5.4258100696218,5.63511155207928,FALSE,2.40223108733911
"CAN","cpi",0.1,1991,3,1991,NA,0.5,5.13733876324419,5.73428079818232,5.4258100696218,4.87807370573786,TRUE,0.596942034938131
"CAN","cpi",0.1,1991,3,1990,NA,1,5.2701748112166,5.86711684615473,5.4258100696218,4.70378167021394,TRUE,0.596942034938131
"CAN","cpi",0.1,1991,3,1990,NA,1.5,5.62991341984345,6.36066752921246,5.4258100696218,5.05069490734707,FALSE,1.18431710986158
"CAN","cpi",0.1,1992,3,1992,NA,0,2.69012662334298,2.82992504089464,1.47496888572843,2.02050638420239,FALSE,2.84014894558399
"CAN","cpi",0.1,1992,3,1992,NA,0.5,4.18205662498256,4.9241382948844,1.47496888572843,4.27205707399704,FALSE,6.75783220157768
"CAN","cpi",0.1,1992,3,1991,NA,1,6.24726399908467,6.98934566898651,1.47496888572843,5.63511155207928,FALSE,11.3471819218046
"CAN","cpi",0.1,1992,3,1991,NA,1.5,5.55041784035074,6.31925610976001,1.47496888572843,4.87807370573786,FALSE,9.82539150190329
"CAN","cpi",0.1,1993,3,1993,NA,0,1.61590509645425,1.72712187418229,1.84351085411351,1.84186847486189,FALSE,0.369858955352985
"CAN","cpi",0.1,1993,3,1993,NA,0.5,2.0034325701309,2.24048332147232,1.84351085411351,1.60616723541631,FALSE,0.592432342491167
"CAN","cpi",0.1,1993,3,1992,NA,1,2.64430287648432,2.88135362782574,1.84351085411351,2.02050638420239,FALSE,2.0165885788321
"CAN","cpi",0.1,1993,3,1992,NA,1.5,4.70034393670094,5.24555297264247,1.84351085411351,4.27205707399704,FALSE,6.89372699724693
"CAN","cpi",0.1,1994,3,1994,NA,0,1.11340023567306,1.17062600046702,0.161630694655448,0.62038151471279,FALSE,2.17226918927755
"CAN","cpi",0.1,1994,3,1994,NA,0.5,1.66435578262938,1.91230386205543,0.161630694655448,1.4565883399875,FALSE,3.58733716381257
"CAN","cpi",0.1,1994,3,1993,NA,1,2.4370544126692,2.68500249209526,0.161630694655448,1.84186847486189,FALSE,5.30444523056773
"CAN","cpi",0.1,1994,3,1993,NA,1.5,2.17082153341976,2.47402224351015,0.161630694655448,1.60616723541631,FALSE,4.76806924067776
"CAN","cpi",0.1,1995,3,1995,NA,0,1.11943212570625,1.21339811545272,2.11688403676572,1.60030724029718,FALSE,2.10171248155313
"CAN","cpi",0.1,1995,3,1995,NA,0.5,0.839109475303245,0.937451643914389,2.11688403676572,0.400723248632204,FALSE,2.71930304161409
"CAN","cpi",0.1,1995,3,1994,NA,1,1.20698368663238,1.30532585524352,2.11688403676572,0.62038151471279,FALSE,1.90180479421602
"CAN","cpi",0.1,1995,3,1994,NA,1.5,1.86456171826063,2.0701732781536,2.11688403676572,1.4565883399875,FALSE,0.309413245697666
"CAN","cpi",0.1,1996,3,1996,NA,0,1.60516720064489,1.70154804100165,1.55309584667184,1.57188450223428,FALSE,0.21209496029687
"CAN","cpi",0.1,1996,3,1996,NA,0.5,2.30034057444244,2.63562184782529,1.55309584667184,2.10267011992876,FALSE,1.99582511287307
"CAN","cpi",0.1,1996,3,1995,NA,1,2.09288630907552,2.42816758245837,1.55309584667184,1.60030724029718,FALSE,1.53481563427991
"CAN","cpi",0.1,1996,3,1995,NA,1.5,0.978419710468178,1.31370098385103,1.55309584667184,0.400723248632204,FALSE,0.867269857429107
"CAN","cpi",0.1,1997,3,1997,NA,0,1.59506689273062,1.68496047518851,1.60528783555959,1.83379947449567,TRUE,0.089893582457889
"CAN","cpi",0.1,1997,3,1997,NA,0.5,1.9593090691025,2.21825561768655,1.60528783555959,1.71447508965446,FALSE,1.04566040090162
"CAN","cpi",0.1,1997,3,1996,NA,1,2.10339995312779,2.36234650171184,1.60528783555959,1.57188450223428,FALSE,1.36586236540226
"CAN","cpi",0.1,1997,3,1996,NA,1.5,2.51215201106603,2.90069284247017,1.60528783555959,2.10267011992876,FALSE,2.40379455475179
"CAN","cpi",0.1,1998,3,1998,NA,0,1.19512535119773,1.25918117567631,0.988908029337191,0.973278201206617,FALSE,0.522316539724219
"CAN","cpi",0.1,1998,3,1998,NA,0.5,1.42739892510864,1.70048748533352,0.988908029337191,1.34049194776323,FALSE,1.24751277305032
"CAN","cpi",0.1,1998,3,1997,NA,1,2.34740029662554,2.62048885685042,0.988908029337191,1.83379947449567,FALSE,3.2919602653101
"CAN","cpi",0.1,1998,3,1997,NA,1.5,2.13343775244525,2.44825184868091,0.988908029337191,1.71447508965446,FALSE,2.85821348092023
"CAN","cpi",0.1,1999,3,1999,NA,0,1.24894033042088,1.31742832470313,1.7107350135213,1.40211292309609,FALSE,0.942502858322622
"CAN","cpi",0.1,1999,3,1999,NA,0.5,1.12696824158658,1.32912302260257,1.7107350135213,0.923130320518117,FALSE,1.05018142750205
"CAN","cpi",0.1,1999,3,1998,NA,1,1.40179062553069,1.60394540654667,1.7107350135213,0.973278201206617,FALSE,0.439465018737375
"CAN","cpi",0.1,1999,3,1998,NA,1.5,1.65501422066196,1.94428018911186,1.7107350135213,1.34049194776323,TRUE,0.289265968449897
"CAN","cpi",0.1,2000,3,2000,NA,0,1.94495235288814,2.05425878773345,2.6718361971244,2.50399207866046,FALSE,1.48170067793631
"CAN","cpi",0.1,2000,3,2000,NA,0.5,2.37600992777347,2.6754986592274,2.6718361971244,2.17160318889212,TRUE,0.299488731453927
"CAN","cpi",0.1,2000,3,1999,NA,1,1.77519569156863,2.07468442302255,2.6718361971244,1.40211292309609,FALSE,1.62649267390248
"CAN","cpi",0.1,2000,3,1999,NA,1.5,1.33583632641901,1.63532505787294,2.6718361971244,0.923130320518117,FALSE,2.6028468186794
"CAN","cpi",0.1,2001,3,2001,NA,0,2.40560558165544,2.52581001633826,2.47906219852806,2.96814309391761,TRUE,0.120204434682822
"CAN","cpi",0.1,2001,3,2001,NA,0.5,2.59550558306043,3.00642679808486,2.47906219852806,2.69801990899347,FALSE,0.66968429176302
"CAN","cpi",0.1,2001,3,2000,NA,1,2.88877527777049,3.29969649279492,2.47906219852806,2.50399207866046,FALSE,1.32139472445204
"CAN","cpi",0.1,2001,3,2000,NA,1.5,2.5732865257831,2.98420774080753,2.47906219852806,2.17160318889212,FALSE,0.620308608924508
"CAN","cpi",0.1,2002,3,2002,NA,0,1.69578931121619,1.77909061220664,2.20880570551249,1.54486874462913,FALSE,1.038223730559
"CAN","cpi",0.1,2002,3,2002,NA,0.5,2.05814872125481,2.46819013660877,2.20880570551249,2.180209446776,TRUE,0.410041415353967
"CAN","cpi",0.1,2002,3,2001,NA,1,3.37117763466818,3.78121905002215,2.20880570551249,2.96814309391761,FALSE,2.99309014681107
"CAN","cpi",0.1,2002,3,2001,NA,1.5,2.96221346495651,3.4098288468553,2.20880570551249,2.69801990899347,FALSE,2.12185484732995
"CAN","cpi",0.1,2003,3,2003,NA,0,2.38635926264617,2.5224858549139,2.71189071546809,3.2075247865732,FALSE,0.557026282388153
"CAN","cpi",0.1,2003,3,2003,NA,0.5,3.00645260105604,3.3487060810618,2.71189071546809,2.91800239560335,FALSE,0.996835447978992
"CAN","cpi",0.1,2003,3,2002,NA,1,1.86781837084853,2.21007185085429,2.71189071546809,1.54486874462913,FALSE,1.45740651248088
"CAN","cpi",0.1,2003,3,2002,NA,1.5,2.41849896179266,2.82888137763939,2.71189071546809,2.180209446776,TRUE,0.410382415846728
"CAN","cpi",0.1,2004,3,2004,NA,0,1.82001248822415,1.92598316046058,1.83151661303942,1.69584100230101,TRUE,0.105970672236432
"CAN","cpi",0.1,2004,3,2004,NA,0.5,1.68813217909415,2.08319192299268,1.83151661303942,1.84885395921698,TRUE,0.395059743898526
"CAN","cpi",0.1,2004,3,2003,NA,1,3.55834658681779,3.95340633071632,1.83151661303942,3.2075247865732,FALSE,4.23245968562823
"CAN","cpi",0.1,2004,3,2003,NA,1.5,3.16503986872803,3.56093503459968,1.83151661303942,2.91800239560335,FALSE,3.35928017851299
"CAN","cpi",0.1,2005,3,2005,NA,0,1.83935522086723,1.9398085023711,2.18071628336509,2.20100508158421,FALSE,0.635803905934958
"CAN","cpi",0.1,2005,3,2005,NA,0.5,2.28667550953037,2.59742719713828,2.18071628336509,2.12928049157936,FALSE,0.546216634641862
"CAN","cpi",0.1,2005,3,2004,NA,1,1.99340847090361,2.30416015851151,2.18071628336509,1.69584100230101,TRUE,0.310751687607909
"CAN","cpi",0.1,2005,3,2004,NA,1.5,2.12082248408729,2.4400490758962,2.18071628336509,1.84885395921698,TRUE,0.319226591808903
"CAN","cpi",0.1,2006,3,2006,NA,0,1.9057511207395,2.00580597170082,1.97519342012289,2.18435928951757,TRUE,0.100054850961325
"CAN","cpi",0.1,2006,3,2006,NA,0.5,2.25116612738982,2.59422946553476,1.97519342012289,2.23898625105085,FALSE,0.956336020960352
"CAN","cpi",0.1,2006,3,2005,NA,1,2.47273793979791,2.81580127794285,1.97519342012289,2.20100508158421,FALSE,1.44871782631165
"CAN","cpi",0.1,2006,3,2005,NA,1.5,2.36954627648073,2.74864204780104,1.97519342012289,2.12928049157936,FALSE,1.25543545211553
"CAN","cpi",0.1,2007,3,2007,NA,0,1.67728310131053,1.77459010314211,2.10062087284572,1.84480494136243,FALSE,0.821819823395157
"CAN","cpi",0.1,2007,3,2007,NA,0.5,1.85598393848884,2.16066446986747,2.10062087284572,1.84074896087257,TRUE,0.304680531378634
"CAN","cpi",0.1,2007,3,2006,NA,1,2.44141871546349,2.74609924684212,2.10062087284572,2.18435928951757,FALSE,1.06200907052922
"CAN","cpi",0.1,2007,3,2006,NA,1.5,2.38131993005336,2.75700582783049,2.10062087284572,2.23898625105085,FALSE,0.999461580460773
"CAN","cpi",0.1,2008,3,2008,NA,0,1.99240073451817,2.10647729139568,2.31447335265955,2.44343788755996,FALSE,0.576290026352778
"CAN","cpi",0.1,2008,3,2008,NA,0.5,2.15424746980113,2.44309911904045,2.31447335265955,2.09257425597425,TRUE,0.28885164923932
"CAN","cpi",0.1,2008,3,2007,NA,1,2.1051797279486,2.39403137718792,2.31447335265955,1.84480494136243,TRUE,0.28885164923932
"CAN","cpi",0.1,2008,3,2007,NA,1.5,2.07332643117029,2.37321489043715,2.31447335265955,1.84074896087257,TRUE,0.299888459266857
"CAN","cpi",0.1,2009,3,2009,NA,0,1.19276103194553,1.25658589058683,0.284533874408197,0.55191793044214,FALSE,2.08210743094649
"CAN","cpi",0.1,2009,3,2009,NA,0.5,2.19153129592775,2.50723232325186,0.284533874408197,2.17577573644726,FALSE,4.55347307514534
"CAN","cpi",0.1,2009,3,2008,NA,1,2.63664341836472,2.95234444568882,0.284533874408197,2.44343788755996,FALSE,5.54261112500526
"CAN","cpi",0.1,2009,3,2008,NA,1.5,2.29933366902015,2.61503469634426,0.284533874408197,2.09257425597425,FALSE,4.79303390423956
"CAN","cpi",0.1,2010,3,2010,NA,0,1.04775610870968,1.10592399155227,1.75525687020327,1.39285160668897,FALSE,1.50112983540038
"CAN","cpi",0.1,2010,3,2010,NA,0.5,0.730841807983935,0.824829755106444,1.75525687020327,0.382958497759795,FALSE,2.16160375844879
"CAN","cpi",0.1,2010,3,2009,NA,1,0.96124806281535,1.05523600993786,1.75525687020327,0.55191793044214,FALSE,1.64958985882343
"CAN","cpi",0.1,2010,3,2009,NA,1.5,2.16228964011324,2.38270596244145,1.75525687020327,2.17577573644726,FALSE,1.1249335887948
"CAN","cpi",0.1,2011,3,2011,NA,0,2.0397928781708,2.14173289560843,2.85717434028225,2.75343947842877,FALSE,1.69180989449055
"CAN","cpi",0.1,2011,3,2011,NA,0.5,2.13027951775036,2.36095219445204,2.85717434028225,1.99557590637446,FALSE,1.33338855632436
"CAN","cpi",0.1,2011,3,2010,NA,1,1.69244275536981,1.92311543207149,2.85717434028225,1.39285160668897,FALSE,2.30635913939224
"CAN","cpi",0.1,2011,3,2010,NA,1.5,0.887861826391822,1.1185345030935,2.85717434028225,0.382958497759795,FALSE,4.09431675934334
"CAN","cpi",0.1,2012,3,2012,NA,0,1.94972077446518,2.06343258708992,1.50118536134935,1.92993928708068,FALSE,1.11045717510437
"CAN","cpi",0.1,2012,3,2012,NA,0.5,2.7864348216995,3.1904418954821,1.50118536134935,2.7924065414457,FALSE,3.26011698567184
"CAN","cpi",0.1,2012,3,2011,NA,1,2.98646961524878,3.39047668903138,1.50118536134935,2.75343947842877,FALSE,3.70463874911467
"CAN","cpi",0.1,2012,3,2011,NA,1.5,2.32972729752396,2.73373437130656,1.50118536134935,1.99557590637446,FALSE,2.24521137639285
"CAN","cpi",0.1,2013,3,2013,NA,0,1.14546340009268,1.21411180164184,0.931270594714462,0.933287972916032,FALSE,0.544632413500758
"CAN","cpi",0.1,2013,3,2013,NA,0.5,1.30209817170638,1.54109282258837,0.931270594714462,1.15173631466769,FALSE,1.06305593308625
"CAN","cpi",0.1,2013,3,2012,NA,1,2.2293520059052,2.46834665678719,0.931270594714462,1.92993928708068,FALSE,3.12362000908364
"CAN","cpi",0.1,2013,3,2012,NA,1.5,2.81014238191873,3.13967053215111,0.931270594714462,2.7924065414457,FALSE,4.5047987884641
"CAN","cpi",0.1,2014,3,2014,NA,0,1.30821650520566,1.38230681068656,1.87639912240215,1.63379811457679,FALSE,1.17207322040443
"CAN","cpi",0.1,2014,3,2014,NA,0.5,1.3168982401691,1.47136608577677,1.87639912240215,1.04987664511533,FALSE,1.05454126033073
"CAN","cpi",0.1,2014,3,2013,NA,1,1.29169668843168,1.44616453403936,1.87639912240215,0.933287972916032,FALSE,1.1105447086361
"CAN","cpi",0.1,2014,3,2013,NA,1.5,1.4285541916504,1.61193537546281,1.87639912240215,1.15173631466769,FALSE,0.771078399233173
"CAN","cpi",0.1,2015,3,2015,NA,0,1.40381778693281,1.47319244417598,1.11090953952792,1.25588008397684,FALSE,0.720281873698483
"CAN","cpi",0.1,2015,3,2015,NA,0.5,1.93313218915324,2.20884738636219,1.11090953952792,1.79776205300989,FALSE,2.10287664082077
"CAN","cpi",0.1,2015,3,2014,NA,1,1.90519446072657,2.18090965793552,1.11090953952792,1.63379811457679,FALSE,2.04079279987263
"CAN","cpi",0.1,2015,3,2014,NA,1.5,1.43521082488994,1.71092602209889,1.11090953952792,1.04987664511533,FALSE,0.996384720235665
"CAN","cpi",0.1,2016,3,2016,NA,0,1.247187181289,1.31157628721146,1.41168586698797,1.39645323019091,FALSE,0.286854838759134
"CAN","cpi",0.1,2016,3,2016,NA,0.5,1.43393582060374,1.65209539077248,1.41168586698797,1.22661053967644,FALSE,0.26760391153712
"CAN","cpi",0.1,2016,3,2015,NA,1,1.58096551559054,1.79912508575928,1.41168586698797,1.25588008397684,FALSE,0.594336567063357
"CAN","cpi",0.1,2016,3,2015,NA,1.5,1.92504028255273,2.2130166590065,1.41168586698797,1.79776205300989,FALSE,1.42876396659769
"CAN","cpi",0.1,2017,3,2017,NA,0,1.3616471278837,1.42336122912228,1.57888581671161,1.4811454634985,FALSE,0.407324295881544
"CAN","cpi",0.1,2017,3,2017,NA,0.5,1.6457910380099,1.88167949073005,1.57888581671161,1.50199497030019,FALSE,0.384566722271898
"CAN","cpi",0.1,2017,3,2016,NA,1,1.69084928489735,1.93179124208927,1.57888581671161,1.39645323019091,FALSE,0.489749664271335
"CAN","cpi",0.1,2017,3,2016,NA,1.5,1.52865769901156,1.76959965620348,1.57888581671161,1.22661053967644,TRUE,0.240941957191917
"CAN","cpi",0.1,2018,3,2018,NA,0,1.7055000547361,1.78429109031297,2.23316270166586,2.17346080855069,FALSE,1.07628350524995
"CAN","cpi",0.1,2018,3,2018,NA,0.5,1.69054134255803,1.9313657498423,2.23316270166586,1.61472973146397,FALSE,0.91148430022551
"CAN","cpi",0.1,2018,3,2017,NA,1,1.75463493008465,1.99545933736891,2.23316270166586,1.4811454634985,FALSE,0.769054105721923
"CAN","cpi",0.1,2018,3,2017,NA,1.5,1.74322666954819,1.99170204677465,2.23316270166586,1.50199497030019,FALSE,0.785054610318027
"CAN","cpi",0.1,2019,3,2019,NA,0,1.75681620945803,1.84619913880684,1.91921619871868,1.90497611164807,FALSE,0.251643062486228
"CAN","cpi",0.1,2019,3,2019,NA,0.5,2.12382987382918,2.42634803814734,1.91921619871868,2.12426010345757,FALSE,0.757215220119266
"CAN","cpi",0.1,2019,3,2018,NA,1,2.41488586610078,2.71740403041893,1.91921619871868,2.17346080855069,FALSE,1.40400631405614
"CAN","cpi",0.1,2019,3,2018,NA,1.5,1.93241840798155,2.2349365722997,1.91921619871868,1.61472973146397,FALSE,0.331856407124527
"CAN","cpi",0.1,2020,3,2020,NA,0,1.31349676110028,1.37339794992508,0.71139989671781,1.03314712474633,FALSE,1.39789422078585
"CAN","cpi",0.1,2020,3,2020,NA,0.5,2.01359676630652,2.28220282006117,0.71139989671781,1.96699466082655,FALSE,3.16237687506289
"CAN","cpi",0.1,2020,3,2019,NA,1,2.12342652837137,2.39203258212602,0.71139989671781,1.90497611164807,FALSE,3.40644301298478
"CAN","cpi",0.1,2020,3,2019,NA,1.5,2.25627999718134,2.54711880781559,0.71139989671781,2.12426010345757,FALSE,3.7239057005532
"CAN","cpi",0.1,2021,3,2021,NA,0,1.53169693764494,1.60548160261012,3.31148121717802,2.35752845828485,FALSE,3.86489491956052
"CAN","cpi",0.1,2021,3,2021,NA,0.5,0.860162747960492,1.01667585577067,3.31148121717802,0.620135433592656,FALSE,5.2560805776043
"CAN","cpi",0.1,2021,3,2020,NA,1,1.36287036005646,1.51938346786664,3.31148121717802,1.03314712474633,FALSE,4.13895255072437
"CAN","cpi",0.1,2021,3,2020,NA,1.5,1.97869033232832,2.2010946778727,3.31148121717802,1.96699466082655,FALSE,2.6899299884451
"CAN","cpi",0.1,2022,3,2022,NA,0,3.81439004812333,3.9986150385738,6.50977236228281,6.06204323255885,FALSE,5.76457459869272
"CAN","cpi",0.1,2022,3,2022,NA,0.5,4.170186341571,4.56830493750244,6.50977236228281,4.36321977466389,FALSE,4.71249065099893
"CAN","cpi",0.1,2022,3,2021,NA,1,2.45658910332894,2.85470769926038,6.50977236228281,2.35752845828485,FALSE,8.52048451375907
"CAN","cpi",0.1,2022,3,2021,NA,1.5,1.20308232853235,1.60120092446379,6.50977236228281,0.620135433592656,FALSE,11.3060551244182
"CAN","cpi",0.1,2023,3,2023,NA,0,4.09719841806903,4.27859596158594,3.78831288758619,4.59798511919386,FALSE,0.867809833478778
"CAN","cpi",0.1,2023,3,2023,NA,0.5,5.50529335334545,6.31800684961921,3.78831288758619,6.34532620809577,FALSE,4.62822564240545
"CAN","cpi",0.1,2023,3,2022,NA,1,5.81546923727186,6.62818273354562,3.78831288758619,6.06204323255885,FALSE,5.31750538446414
"CAN","cpi",0.1,2023,3,2022,NA,1.5,4.49713625808906,5.30984975436281,3.78831288758619,4.36321977466389,FALSE,2.38787654183569
"CAN","cpi",0.1,2024,3,2023,NA,1,4.70694751727381,5.18410476459269,NA,4.59798511919386,NA,NA
"CAN","cpi",0.1,2024,3,2023,NA,1.5,5.7497764003412,6.4423452961143,NA,6.34532620809577,NA,NA
"CAN","cpi",0.2,1952,3,1952,NA,0,-15.9874594815146,-5.07482804349798,2.55562336095485,5.33589356249898,FALSE,29.9887599491487
"CAN","cpi",0.2,1952,3,1952,NA,0.5,12.5979377240564,29.4025671426355,2.55562336095485,9.78336808811006,FALSE,41.910415326333
"CAN","cpi",0.2,1953,3,1953,NA,0,-12.1665698331535,-11.0372397245636,-1.01492775838436,-1.36658675161344,FALSE,26.185110024038
"CAN","cpi",0.2,1953,3,1953,NA,0.5,-12.5086427285529,-9.10138406601038,-1.01492775838436,0.110034650547486,FALSE,23.6233994316075
"CAN","cpi",0.2,1953,3,1952,NA,1,29.205816804286,36.1954398119439,-1.01492775838436,5.33589356249898,FALSE,82.5414844143338
"CAN","cpi",0.2,1953,3,1952,NA,1.5,62.0365568751803,73.057129791286,-1.01492775838436,9.78336808811006,FALSE,168.649284500017
"CAN","cpi",0.2,1954,3,1954,NA,0,3.03796576479339,2.22291772391005,0.644425455961438,0.642985131580263,FALSE,5.16880273119654
"CAN","cpi",0.2,1954,3,1954,NA,0.5,2.4613622221627,1.64631418127936,0.644425455961438,-0.366337731528715,FALSE,3.72729387461982
"CAN","cpi",0.2,1954,3,1953,NA,1,-3.12041447020944,-3.93546251109278,0.644425455961438,-1.36658675161344,FALSE,10.6346718767522
"CAN","cpi",0.2,1954,3,1953,NA,1.5,7.98775055545058,7.84215987122511,0.644425455961438,0.110034650547486,FALSE,18.2127220644974
"CAN","cpi",0.2,1955,3,1955,NA,0,0.171815465458496,0.751751251195952,0.173649026558865,0.17297271419658,TRUE,0.579935785737456
"CAN","cpi",0.2,1955,3,1955,NA,0.5,0.935088473494509,2.66598856050995,0.173649026558865,0.586026480650511,FALSE,3.63449870435455
"CAN","cpi",0.2,1955,3,1954,NA,1,1.69752437787956,3.42842446489501,0.173649026558865,0.642985131580263,FALSE,5.54058846531719
"CAN","cpi",0.2,1955,3,1954,NA,1.5,-4.23534502709405,-2.50444494007861,0.173649026558865,-0.366337731528715,FALSE,8.42613500360913
"CAN","cpi",0.2,1956,3,1956,NA,0,1.08193986409945,1.60300594769358,1.32752769429961,0.753971131965347,TRUE,0.52106608359413
"CAN","cpi",0.2,1956,3,1956,NA,0.5,0.472186161846654,1.25809020117791,1.32752769429961,0.174369006303267,FALSE,0.959497772135503
"CAN","cpi",0.2,1956,3,1955,NA,1,0.378925492125143,1.6994124731157,1.32752769429961,0.17297271419658,TRUE,1.32048698099055
"CAN","cpi",0.2,1956,3,1955,NA,1.5,1.54588265319653,3.64993873415288,1.32752769429961,0.586026480650511,FALSE,2.64994347819866
"CAN","cpi",0.2,1957,3,1957,NA,0,2.94768198526658,4.2133901318783,3.24684755852518,3.20420645854679,TRUE,1.26570814661173
"CAN","cpi",0.2,1957,3,1957,NA,0.5,3.27091028051279,5.30760780968855,3.24684755852518,2.07576432581215,FALSE,2.09685433414479
"CAN","cpi",0.2,1957,3,1956,NA,1,-0.383538004167345,1.65315952500842,3.24684755852518,0.753971131965347,FALSE,6.02091761296765
"CAN","cpi",0.2,1957,3,1956,NA,1.5,-1.78771412917928,0.248983399996488,3.24684755852518,0.174369006303267,FALSE,9.53135792549749
"CAN","cpi",0.2,1958,3,1958,NA,0,1.85056166043079,3.12339014500648,2.33186388641149,2.45716899110006,TRUE,1.27282848457568
"CAN","cpi",0.2,1958,3,1958,NA,0.5,2.81250738504038,6.24630261050347,2.33186388641149,3.16832340224646,FALSE,4.63540397203532
"CAN","cpi",0.2,1958,3,1957,NA,1,3.22653787003407,7.99148845205871,2.33186388641149,3.20420645854679,FALSE,7.00163554108109
"CAN","cpi",0.2,1958,3,1957,NA,1.5,0.463381362649324,5.22833194467396,2.33186388641149,2.07576432581215,TRUE,4.76495058202464
"CAN","cpi",0.2,1959,3,1959,NA,0,1.28955715988648,1.97135777769388,1.19382698397654,1.42085685959275,FALSE,0.921126057582251
"CAN","cpi",0.2,1959,3,1959,NA,0.5,1.73936992424585,3.44903670445933,1.19382698397654,1.98727093968503,FALSE,3.07352413088676
"CAN","cpi",0.2,1959,3,1958,NA,1,2.76193647999273,6.0783756732061,1.19382698397654,2.45716899110006,FALSE,7.23671293325384
"CAN","cpi",0.2,1959,3,1958,NA,1.5,3.9163417678765,7.40720351859625,1.19382698397654,3.16832340224646,FALSE,10.2971487104697
"CAN","cpi",0.2,1960,3,1960,NA,0,1.247718939297,1.71543831323129,1.34209404870695,1.34570677924433,TRUE,0.467719373934292
"CAN","cpi",0.2,1960,3,1960,NA,0.5,1.25464348337172,2.18635635484776,1.34209404870695,1.13297483079829,TRUE,0.931712871476036
"CAN","cpi",0.2,1960,3,1959,NA,1,1.78105064004529,3.16714211026274,1.34209404870695,1.42085685959275,FALSE,2.4834829485633
"CAN","cpi",0.2,1960,3,1959,NA,1.5,2.49498062393155,4.47773105142976,1.34209404870695,1.98727093968503,FALSE,4.86496686555971
"CAN","cpi",0.2,1961,3,1961,NA,0,1.23536224878539,1.59141979921752,1.00921348094007,1.32757858722203,FALSE,0.92142947004543
"CAN","cpi",0.2,1961,3,1961,NA,0.5,1.56103740351184,2.40228303315236,1.00921348094007,1.39166174207428,FALSE,2.22080543606994
"CAN","cpi",0.2,1961,3,1960,NA,1,1.60827153979829,2.6311131331273,1.00921348094007,1.34570677924433,FALSE,2.52048674047456
"CAN","cpi",0.2,1961,3,1960,NA,1.5,1.25711946616618,2.27996105949519,1.00921348094007,1.13297483079829,FALSE,1.64260655639429
"CAN","cpi",0.2,1962,3,1962,NA,0,0.708949327425756,0.919518380092238,1.04957947883042,0.577977430468435,FALSE,0.535721799511925
"CAN","cpi",0.2,1962,3,1962,NA,0.5,0.557671160601162,1.0492593824625,1.04957947883042,0.636962012224359,FALSE,0.492388462781121
"CAN","cpi",0.2,1962,3,1961,NA,1,1.64287322041091,2.63323914700845,1.04957947883042,1.32757858722203,FALSE,2.47360028054877
"CAN","cpi",0.2,1962,3,1961,NA,1.5,1.54977108093953,2.54768281817845,1.04957947883042,1.39166174207428,FALSE,2.2483907425117
"CAN","cpi",0.2,1963,3,1963,NA,0,1.42580559179771,1.74643896355897,1.60677118395228,1.66779362321099,TRUE,0.32063337176126
"CAN","cpi",0.2,1963,3,1963,NA,0.5,1.86687410219433,2.42566797279465,1.60677118395228,1.52118152719239,FALSE,1.20905116620543
"CAN","cpi",0.2,1963,3,1962,NA,1,0.44509363663706,1.00388750723738,1.60677118395228,0.577977430468435,FALSE,2.06600306238759
"CAN","cpi",0.2,1963,3,1962,NA,1.5,0.707415825311604,1.26620969591192,1.60677118395228,0.636962012224359,FALSE,1.41019759070123
"CAN","cpi",0.2,1964,3,1964,NA,0,1.54099667891683,1.91466878677509,1.88764670034376,1.89274723222648,TRUE,0.373672107858261
"CAN","cpi",0.2,1964,3,1964,NA,0.5,1.56008346882458,2.19321222336001,1.88764670034376,1.59688015421336,TRUE,0.633128754535428
"CAN","cpi",0.2,1964,3,1963,NA,1,1.72389428051262,2.54732348920759,1.88764670034376,1.66779362321099,TRUE,0.823429208694969
"CAN","cpi",0.2,1964,3,1963,NA,1.5,1.54024524406359,2.36367445275856,1.88764670034376,1.52118152719239,TRUE,0.823429208694969
"CAN","cpi",0.2,1965,3,1965,NA,0,1.62535274404989,1.99971577609831,2.29538304394236,2.00763200760394,FALSE,1.11353120165854
"CAN","cpi",0.2,1965,3,1965,NA,0.5,1.82590713065012,2.49979132168544,2.29538304394236,1.88069823981647,TRUE,0.673884191035323
"CAN","cpi",0.2,1965,3,1964,NA,1,1.98129908126849,2.80205586451048,2.29538304394236,1.89274723222648,TRUE,0.820756783241994
"CAN","cpi",0.2,1965,3,1964,NA,1.5,1.63029911752347,2.45105590076546,2.29538304394236,1.59688015421336,TRUE,0.820756783241994
"CAN","cpi",0.2,1966,3,1966,NA,0,2.59693047445661,3.12025187924666,3.72486065470629,3.50850431851723,FALSE,2.03484334343912
"CAN","cpi",0.2,1966,3,1966,NA,0.5,2.85182886764537,3.67897414219208,3.72486065470629,2.72414080931513,FALSE,0.941861555832236
"CAN","cpi",0.2,1966,3,1965,NA,1,2.01162439641383,2.83876967096054,3.72486065470629,2.00763200760394,FALSE,3.04237273391109
"CAN","cpi",0.2,1966,3,1965,NA,1.5,2.03652935959439,2.86367463414111,3.72486065470629,1.88069823981647,FALSE,2.98011032595967
"CAN","cpi",0.2,1967,3,1967,NA,0,2.65687529330248,3.27184324209952,3.49360316391996,3.43593854851327,FALSE,1.16936775334814
"CAN","cpi",0.2,1967,3,1967,NA,0.5,3.45626997716539,4.63051618074233,3.49360316391996,3.60120034208141,TRUE,1.17424620357694
"CAN","cpi",0.2,1967,3,1966,NA,1,3.52969845035125,4.91408366519687,3.49360316391996,3.50850431851723,FALSE,1.47462343092385
"CAN","cpi",0.2,1967,3,1966,NA,1.5,2.74951529160851,4.13390050645413,3.49360316391996,2.72414080931513,TRUE,1.38438521484562
"CAN","cpi",0.2,1968,3,1968,NA,0,2.95004450049721,3.56273010822046,3.95128347779386,3.85741006811451,FALSE,1.58406903165673
"CAN","cpi",0.2,1968,3,1968,NA,0.5,3.98101216051354,5.25133517322332,3.95128347779386,3.82980583992124,FALSE,1.34464471950898
"CAN","cpi",0.2,1968,3,1967,NA,1,3.57403001874398,4.95799480568162,3.95128347779386,3.43593854851327,TRUE,1.38396478693765
"CAN","cpi",0.2,1968,3,1967,NA,1.5,3.93405911606171,5.35860963061112,3.95128347779386,3.60120034208141,TRUE,1.42455051454941
"CAN","cpi",0.2,1969,3,1969,NA,0,3.33576305819045,4.02915901486238,4.42679496126681,4.42973002734916,FALSE,1.68748582268302
"CAN","cpi",0.2,1969,3,1969,NA,0.5,3.7801664883798,4.97114107804935,4.42679496126681,3.77653863724463,TRUE,1.19097458966955
"CAN","cpi",0.2,1969,3,1968,NA,1,4.01076707090066,5.58897751355363,4.42679496126681,3.85741006811451,TRUE,1.57821044265297
"CAN","cpi",0.2,1969,3,1968,NA,1.5,4.14321764954131,5.72142809219428,4.42679496126681,3.82980583992124,TRUE,1.57821044265297
"CAN","cpi",0.2,1970,3,1970,NA,0,3.09840578321086,3.74555150367909,3.28128405769805,3.84669808502433,TRUE,0.647145720468227
"CAN","cpi",0.2,1970,3,1970,NA,0.5,5.00726929244344,6.40646157471906,3.28128405769805,4.72247431437482,FALSE,5.7141553691391
"CAN","cpi",0.2,1970,3,1969,NA,1,4.70228101863209,6.10147330090772,3.28128405769805,4.42973002734916,FALSE,4.95168468461073
"CAN","cpi",0.2,1970,3,1969,NA,1.5,4.16475146525538,5.58695927089676,3.28128405769805,3.77653863724463,FALSE,3.63087632453472
"CAN","cpi",0.2,1971,3,1971,NA,0,1.94930517164368,2.40480948516372,2.64123406634756,2.09886045002039,FALSE,1.04656576647964
"CAN","cpi",0.2,1971,3,1971,NA,0.5,2.45264516559659,3.38754060270371,2.64123406634756,2.39042152113403,TRUE,0.934895437107121
"CAN","cpi",0.2,1971,3,1970,NA,1,4.3630867216836,5.74404966324611,2.64123406634756,3.84669808502433,FALSE,5.68559457990261
"CAN","cpi",0.2,1971,3,1970,NA,1.5,5.10125308571723,7.10279988932192,2.64123406634756,4.72247431437482,FALSE,8.15159435202886
"CAN","cpi",0.2,1972,3,1972,NA,0,3.34622288462483,3.94934235241806,4.83230569625923,4.61402341086119,FALSE,2.81052782739616
"CAN","cpi",0.2,1972,3,1972,NA,0.5,4.17700781158361,5.22518489594775,4.83230569625923,3.53817935863684,TRUE,1.04817708436414
"CAN","cpi",0.2,1972,3,1971,NA,1,2.12276678688682,3.17094387125096,4.83230569625923,2.09886045002039,FALSE,5.20158164688481
"CAN","cpi",0.2,1972,3,1971,NA,1.5,2.79389079085135,3.84206787521549,4.83230569625923,2.39042152113403,FALSE,3.52377163697349
"CAN","cpi",0.2,1973,3,1973,NA,0,4.48311184705287,5.43630165191002,7.12388603531779,6.22342912205835,FALSE,5.17215076337658
"CAN","cpi",0.2,1973,3,1973,NA,0.5,5.39015526997494,7.07410496155175,7.12388603531779,4.99248222648134,FALSE,1.80840237599191
"CAN","cpi",0.2,1973,3,1972,NA,1,4.95524881400135,6.68320272152481,7.12388603531779,4.61402341086119,FALSE,2.8296621920059
"CAN","cpi",0.2,1973,3,1972,NA,1.5,3.9008645365723,5.62881844409576,7.12388603531779,3.53817935863684,FALSE,5.46562288557855
"CAN","cpi",0.2,1974,3,1974,NA,0,6.61402273467466,7.97935545033692,10.2717243737774,9.59455553431256,FALSE,7.09625502426351
"CAN","cpi",0.2,1974,3,1974,NA,0.5,8.91345095427422,11.1140618818623,10.2717243737774,8.02283957227414,TRUE,2.20061092758811
"CAN","cpi",0.2,1974,3,1973,NA,1,5.98540960239135,8.18602052997947,10.2717243737774,6.22342912205835,FALSE,7.41487053708299
"CAN","cpi",0.2,1974,3,1973,NA,1.5,5.08922671765938,7.37920510270952,10.2717243737774,4.99248222648134,FALSE,9.52127656271989
"CAN","cpi",0.2,1975,3,1975,NA,0,7.36462396476707,8.85160389125461,10.0232981493341,10.5280192696423,FALSE,4.41621557168631
"CAN","cpi",0.2,1975,3,1975,NA,0.5,10.834398243997,13.2573418352572,10.0232981493341,10.7014589339012,FALSE,4.45069382791734
"CAN","cpi",0.2,1975,3,1974,NA,1,8.69991767741887,11.1228612686791,10.0232981493341,9.59455553431256,TRUE,2.42294359126022
"CAN","cpi",0.2,1975,3,1974,NA,1.5,7.26271325924459,10.427306273686,10.0232981493341,8.02283957227414,TRUE,3.1645930144414
"CAN","cpi",0.2,1976,3,1976,NA,0,6.19845803099357,7.38965614260876,7.22784311401172,8.13534117389669,TRUE,1.1911981116152
"CAN","cpi",0.2,1976,3,1976,NA,0.5,9.06133615263651,11.4499907525849,7.22784311401172,9.54416967067372,FALSE,6.97238719651038
"CAN","cpi",0.2,1976,3,1975,NA,1,10.0828805094443,13.5057314063109,7.22784311401172,10.5280192696423,FALSE,10.5604443854481
"CAN","cpi",0.2,1976,3,1975,NA,1.5,9.78217525594588,14.1098221651746,7.22784311401172,10.7014589339012,FALSE,10.7134772640641
"CAN","cpi",0.2,1977,3,1977,NA,0,5.03053871740519,6.09338120157913,7.58101410153764,6.84168016809657,FALSE,4.78192473407023
"CAN","cpi",0.2,1977,3,1977,NA,0.5,5.89298846138803,8.19459149619577,7.58101410153764,6.57165012633641,TRUE,2.30160303480774
"CAN","cpi",0.2,1977,3,1976,NA,1,8.18242149829708,10.8257026704452,7.58101410153764,8.13534117389669,FALSE,4.14679966404672
"CAN","cpi",0.2,1977,3,1976,NA,1.5,9.09212699263468,12.9100790020152,7.58101410153764,9.54416967067372,FALSE,7.59573423712311
"CAN","cpi",0.2,1978,3,1978,NA,0,5.91699566659411,7.1165117630002,8.50208927062595,8.56560161197079,FALSE,4.66345986547045
"CAN","cpi",0.2,1978,3,1978,NA,0.5,7.79375970094922,10.1157071904942,8.50208927062595,8.14356532128036,TRUE,2.32194748954495
"CAN","cpi",0.2,1978,3,1977,NA,1,6.42957706387329,8.75152455341825,8.50208927062595,6.84168016809657,TRUE,2.32194748954495
"CAN","cpi",0.2,1978,3,1977,NA,1.5,6.08253869728751,8.95941282484742,8.50208927062595,6.57165012633641,TRUE,2.87687412755991
"CAN","cpi",0.2,1979,3,1979,NA,0,6.0612071951466,7.32949321096111,8.65147652410481,8.51558792202395,FALSE,4.57324429867375
"CAN","cpi",0.2,1979,3,1979,NA,0.5,7.7260390572964,10.4834869185829,8.65147652410481,8.48180361143764,TRUE,2.7574478612865
"CAN","cpi",0.2,1979,3,1978,NA,1,8.18467819721265,10.9421260584991,8.65147652410481,8.56560161197079,TRUE,2.7574478612865
"CAN","cpi",0.2,1979,3,1978,NA,1.5,7.47799880719921,11.0345014020169,8.65147652410481,8.14356532128036,TRUE,3.55650259481773
"CAN","cpi",0.2,1980,3,1980,NA,0,6.42034813884508,7.65817616767128,9.5171912664748,9.17959378630866,FALSE,5.88536577583499
"CAN","cpi",0.2,1980,3,1980,NA,0.5,7.95802567093581,10.7518273621377,9.5171912664748,8.77731920113821,TRUE,2.7938016912019
"CAN","cpi",0.2,1980,3,1979,NA,1,7.99095767475748,10.7847593659594,9.5171912664748,8.51558792202395,TRUE,2.7938016912019
"CAN","cpi",0.2,1980,3,1979,NA,1.5,7.53859102283126,11.4117789279788,9.5171912664748,8.48180361143764,TRUE,3.87318790514757
"CAN","cpi",0.2,1981,3,1981,NA,0,7.52437638352827,8.93070847037569,11.5813425032741,11.279360028481,FALSE,8.03291716909355
"CAN","cpi",0.2,1981,3,1981,NA,0.5,9.34356591264553,12.3432775847518,11.5813425032741,10.1336807488653,TRUE,2.9997116721063
"CAN","cpi",0.2,1981,3,1980,NA,1,8.39802289584323,11.3977345679495,11.5813425032741,9.17959378630866,FALSE,3.45873151041781
"CAN","cpi",0.2,1981,3,1980,NA,1.5,7.68278791983617,11.5510398396738,11.5813425032741,8.77731920113821,FALSE,3.94400857883852
"CAN","cpi",0.2,1982,3,1982,NA,0,7.53668840423303,9.02950656404264,10.1124203763629,10.7097306947659,FALSE,4.20010269061037
"CAN","cpi",0.2,1982,3,1982,NA,0.5,9.56137544724192,13.2220228746582,10.1124203763629,11.3795840186269,TRUE,3.66064742741629
"CAN","cpi",0.2,1982,3,1981,NA,1,10.1792662307342,13.8399136581505,10.1124203763629,11.279360028481,FALSE,3.82776206334445
"CAN","cpi",0.2,1982,3,1981,NA,1.5,8.40480939683034,13.2329832260798,10.1124203763629,10.1336807488653,TRUE,4.8281738292495
"CAN","cpi",0.2,1983,3,1983,NA,0,5.48112541903536,6.61926759628563,5.67091787896303,6.81192865303165,TRUE,1.13814217725027
"CAN","cpi",0.2,1983,3,1983,NA,0.5,7.80505422888776,10.9609279477397,5.67091787896303,9.28631267190301,FALSE,8.49121459366376
"CAN","cpi",0.2,1983,3,1982,NA,1,10.375084802505,13.530958521357,5.67091787896303,10.7097306947659,FALSE,14.9162910277069
"CAN","cpi",0.2,1983,3,1982,NA,1.5,10.1852289850729,14.7433275651782,5.67091787896303,11.3795840186269,FALSE,15.8438763453799
"CAN","cpi",0.2,1984,3,1984,NA,0,3.50660597721566,4.24281290762236,4.19799576814029,4.43433180473976,TRUE,0.736206930406698
"CAN","cpi",0.2,1984,3,1984,NA,0.5,4.19027154140746,6.26572902110386,4.19799576814029,5.08610822560979,TRUE,2.0754574796964
"CAN","cpi",0.2,1984,3,1983,NA,1,7.16362989229039,9.23908737198679,4.19799576814029,6.81192865303165,FALSE,9.48954279007167
"CAN","cpi",0.2,1984,3,1983,NA,1.5,9.1083637490962,12.4496087909468,4.19799576814029,9.28631267190301,FALSE,15.6171649942404
"CAN","cpi",0.2,1985,3,1985,NA,0,2.9201383670416,3.51162050102108,3.86444262005169,3.75272544104399,FALSE,1.47353743155601
"CAN","cpi",0.2,1985,3,1985,NA,0.5,3.46218047730078,4.93428495289725,3.86444262005169,3.83470516948927,TRUE,1.47210447559647
"CAN","cpi",0.2,1985,3,1984,NA,1,4.64519746104371,6.11730193664018,3.86444262005169,4.43433180473976,FALSE,3.42399157807651
"CAN","cpi",0.2,1985,3,1984,NA,1.5,4.95094741530348,7.13658920878365,3.86444262005169,5.08610822560979,FALSE,4.90190378160963
"CAN","cpi",0.2,1986,3,1986,NA,0,3.03281068673607,3.58842467152933,4.08685396749431,4.02668174324255,FALSE,1.80168722470571
"CAN","cpi",0.2,1986,3,1986,NA,0.5,3.9072320529821,5.21739715352296,4.08685396749431,4.02628294162027,TRUE,1.31016510054086
"CAN","cpi",0.2,1986,3,1985,NA,1,3.90491349015324,5.21507859069411,4.08685396749431,3.75272544104399,TRUE,1.31016510054086
"CAN","cpi",0.2,1986,3,1985,NA,1.5,3.84837246152099,5.52256196695942,4.08685396749431,3.83470516948927,TRUE,1.67418950543843
"CAN","cpi",0.2,1987,3,1987,NA,0,3.2055856231623,3.80122085132067,4.23980729277887,4.2837330645361,FALSE,1.69210133180388
"CAN","cpi",0.2,1987,3,1987,NA,0.5,3.83702644735671,4.99023960697425,4.23980729277887,4.02033055131438,TRUE,1.15321315961753
"CAN","cpi",0.2,1987,3,1986,NA,1,4.24471752796142,5.39793068757895,4.23980729277887,4.02668174324255,FALSE,1.16548874757391
"CAN","cpi",0.2,1987,3,1986,NA,1.5,4.13860852528175,5.64155697784536,4.23980729277887,4.02628294162027,TRUE,1.50294845256361
"CAN","cpi",0.2,1988,3,1988,NA,0,3.11565093019189,3.61020616918413,3.92899537638065,3.95767765957829,FALSE,1.29152825698355
"CAN","cpi",0.2,1988,3,1988,NA,0.5,4.18960657863749,5.34169989107761,3.92899537638065,4.26147484794381,FALSE,1.80362131808221
"CAN","cpi",0.2,1988,3,1987,NA,1,4.5595964418977,5.71168975433782,3.92899537638065,4.2837330645361,FALSE,2.72859597623273
"CAN","cpi",0.2,1988,3,1987,NA,1.5,4.25015978393202,5.6202793085025,3.92899537638065,4.02033055131438,FALSE,2.1730305434489
"CAN","cpi",0.2,1989,3,1989,NA,0,3.35466348872643,3.83837819211439,4.82821664544208,4.56141251415513,FALSE,2.95831083670717
"CAN","cpi",0.2,1989,3,1989,NA,0.5,3.91620778336538,4.94688957440918,4.82821664544208,4.0148475519947,TRUE,1.03068179104379
"CAN","cpi",0.2,1989,3,1988,NA,1,4.24295973743481,5.27364152847861,4.82821664544208,3.95767765957829,TRUE,1.0306817910438
"CAN","cpi",0.2,1989,3,1988,NA,1.5,4.28586533697841,5.7745099884186,4.82821664544208,4.26147484794381,TRUE,1.48864465144019
"CAN","cpi",0.2,1990,3,1990,NA,0,3.63230716332705,4.15177577133516,4.64347549432717,4.70378167021394,FALSE,1.74871791548814
"CAN","cpi",0.2,1990,3,1990,NA,0.5,4.96427981663717,6.25554532838549,4.64347549432717,5.05069490734707,FALSE,2.09327631752331
"CAN","cpi",0.2,1990,3,1989,NA,1,4.79596118101372,6.08722669276205,4.64347549432717,4.56141251415513,FALSE,1.6724797284647
"CAN","cpi",0.2,1990,3,1989,NA,1.5,4.36403084347758,5.6552963552259,4.64347549432717,4.0148475519947,TRUE,1.29126551174833
"CAN","cpi",0.2,1991,3,1991,NA,0,4.05555920930673,4.58392140835645,5.4258100696218,5.63511155207928,FALSE,2.63308385221309
"CAN","cpi",0.2,1991,3,1991,NA,0.5,4.7738369935241,6.00194300363501,5.4258100696218,4.87807370573786,TRUE,1.22810601011091
"CAN","cpi",0.2,1991,3,1990,NA,1,4.92492898519347,6.15303499530438,5.4258100696218,4.70378167021394,TRUE,1.22810601011091
"CAN","cpi",0.2,1991,3,1990,NA,1.5,5.18910910723469,6.8394679325806,5.4258100696218,5.05069490734707,TRUE,1.65035882534591
"CAN","cpi",0.2,1992,3,1992,NA,0,2.57060377308085,2.90464016901592,1.47496888572843,2.02050638420239,FALSE,3.07312361431611
"CAN","cpi",0.2,1992,3,1992,NA,0.5,3.82403459552728,5.22725453077972,1.47496888572843,4.27205707399704,FALSE,7.27588420974957
"CAN","cpi",0.2,1992,3,1991,NA,1,5.86716964122118,7.27038957647362,1.47496888572843,5.63511155207928,FALSE,12.3837218239843
"CAN","cpi",0.2,1992,3,1991,NA,1.5,5.1813315668591,6.86053507360934,1.47496888572843,4.87807370573786,FALSE,10.9451102095769
"CAN","cpi",0.2,1993,3,1993,NA,0,1.55645717339036,1.76291818901598,1.84351085411351,1.84186847486189,FALSE,0.407942678369455
"CAN","cpi",0.2,1993,3,1993,NA,0.5,1.83242054418146,2.35113253604859,1.84351085411351,1.60616723541631,TRUE,0.518711991867134
"CAN","cpi",0.2,1993,3,1992,NA,1,2.52964622559255,3.04835821745968,1.84351085411351,2.02050638420239,FALSE,2.23405042056473
"CAN","cpi",0.2,1993,3,1992,NA,1.5,4.34202018431838,5.51850493686926,1.84351085411351,4.27205707399704,FALSE,7.42275807806305
"CAN","cpi",0.2,1994,3,1994,NA,0,1.07169683991941,1.19789724907375,0.161630694655448,0.62038151471279,FALSE,2.40136577231424
"CAN","cpi",0.2,1994,3,1994,NA,0.5,1.50307184656735,2.03366622004516,0.161630694655448,1.4565883399875,FALSE,3.88419725325757
"CAN","cpi",0.2,1994,3,1993,NA,1,2.35103612930787,2.88163050278568,0.161630694655448,1.84186847486189,FALSE,6.00410796010887
"CAN","cpi",0.2,1994,3,1993,NA,1.5,2.01096611630685,2.69214642411603,0.161630694655448,1.60616723541631,FALSE,5.30451886193768
"CAN","cpi",0.2,1995,3,1995,NA,0,1.07644462438854,1.23266790770193,2.11688403676572,1.60030724029718,FALSE,2.36676360597285
"CAN","cpi",0.2,1995,3,1995,NA,0.5,0.775307988128505,0.976997188428205,2.11688403676572,0.400723248632204,FALSE,3.05140632114348
"CAN","cpi",0.2,1995,3,1994,NA,1,1.15899727810146,1.36068647840116,2.11688403676572,0.62038151471279,FALSE,2.09218309621109
"CAN","cpi",0.2,1995,3,1994,NA,1.5,1.73727821438298,2.17384232534947,2.11688403676572,1.4565883399875,TRUE,0.436564110966491
"CAN","cpi",0.2,1996,3,1996,NA,0,1.55172884966167,1.75264635255909,1.55309584667184,1.57188450223428,TRUE,0.200917502897429
"CAN","cpi",0.2,1996,3,1996,NA,0.5,2.14584461677392,2.79833304665894,1.55309584667184,2.10267011992876,FALSE,2.13436035514021
"CAN","cpi",0.2,1996,3,1995,NA,1,1.93946852537909,2.59195695526411,1.55309584667184,1.60030724029718,FALSE,1.61842012665313
"CAN","cpi",0.2,1996,3,1995,NA,1.5,0.795167969366372,1.44765639925139,1.55309584667184,0.400723248632204,FALSE,0.916087048436149
"CAN","cpi",0.2,1997,3,1997,NA,0,1.5447832711664,1.72829274880295,1.60528783555959,1.83379947449567,TRUE,0.18350947763654
"CAN","cpi",0.2,1997,3,1997,NA,0.5,1.78068220739128,2.38108731413134,1.60528783555959,1.71447508965446,FALSE,1.03889103631928
"CAN","cpi",0.2,1997,3,1996,NA,1,1.94805569999369,2.54846080673374,1.60528783555959,1.57188450223428,FALSE,1.4573247678253
"CAN","cpi",0.2,1997,3,1996,NA,1.5,2.30406084081082,3.18897350768657,1.60528783555959,2.10267011992876,FALSE,2.63184518000382
"CAN","cpi",0.2,1998,3,1998,NA,0,1.15699308950516,1.29213400872655,0.988908029337191,0.973278201206617,FALSE,0.55535356964132
"CAN","cpi",0.2,1998,3,1998,NA,0.5,1.26653297886878,1.88254491480833,0.988908029337191,1.34049194776323,FALSE,1.31007430976852
"CAN","cpi",0.2,1998,3,1997,NA,1,2.17762495007189,2.79363688601144,0.988908029337191,1.83379947449567,FALSE,3.58780423777629
"CAN","cpi",0.2,1998,3,1997,NA,1.5,1.93446248896114,2.62394890502286,0.988908029337191,1.71447508965446,FALSE,3.05337256512158
"CAN","cpi",0.2,1999,3,1999,NA,0,1.20271854614628,1.34108435573269,1.7107350135213,1.40211292309609,FALSE,1.06249245405792
"CAN","cpi",0.2,1999,3,1999,NA,0.5,1.01723694890608,1.42947890113511,1.7107350135213,0.923130320518117,FALSE,1.11538223319449
"CAN","cpi",0.2,1999,3,1998,NA,1,1.29773464593033,1.70997659815937,1.7107350135213,0.973278201206617,FALSE,0.414137990633858
"CAN","cpi",0.2,1999,3,1998,NA,1.5,1.5202968895477,2.10943849113925,1.7107350135213,1.34049194776323,TRUE,0.589141601591548
"CAN","cpi",0.2,2000,3,2000,NA,0,1.88340828755856,2.09673785825218,2.6718361971244,2.50399207866046,FALSE,1.65107541787418
"CAN","cpi",0.2,2000,3,2000,NA,0.5,2.20109294344616,2.82686992073508,2.6718361971244,2.17160318889212,TRUE,0.625776977288924
"CAN","cpi",0.2,2000,3,1999,NA,1,1.60502406858797,2.2308010458769,2.6718361971244,1.40211292309609,FALSE,1.72836485540768
"CAN","cpi",0.2,2000,3,1999,NA,1.5,1.19888605371438,1.8246630310033,2.6718361971244,0.923130320518117,FALSE,2.74370989259166
"CAN","cpi",0.2,2001,3,2001,NA,0,2.32734689205961,2.58846749332997,2.47906219852806,2.96814309391761,TRUE,0.261120601270355
"CAN","cpi",0.2,2001,3,2001,NA,0.5,2.41349081676512,3.29551050189389,2.47906219852806,2.69801990899347,TRUE,0.88201968512877
"CAN","cpi",0.2,2001,3,2000,NA,1,2.67627582003153,3.5582955051603,2.47906219852806,2.50399207866046,FALSE,1.37505373888743
"CAN","cpi",0.2,2001,3,2000,NA,1.5,2.31437742348141,3.2272337870548,2.47906219852806,2.17160318889212,TRUE,0.912856363573389
"CAN","cpi",0.2,2002,3,2002,NA,0,1.64305162743244,1.83175852434782,2.20880570551249,1.54486874462913,FALSE,1.13132484982704
"CAN","cpi",0.2,2002,3,2002,NA,0.5,1.88121263283267,2.69676287929439,2.20880570551249,2.180209446776,TRUE,0.815550246461716
"CAN","cpi",0.2,2002,3,2001,NA,1,3.1614474389155,3.97699768537722,2.20880570551249,2.96814309391761,FALSE,3.19715457996925
"CAN","cpi",0.2,2002,3,2001,NA,1.5,2.70576160221651,3.67389122402083,2.20880570551249,2.69801990899347,FALSE,2.21051936356437
"CAN","cpi",0.2,2003,3,2003,NA,0,2.32182364006687,2.58104052047025,2.71189071546809,3.2075247865732,FALSE,0.586342367897984
"CAN","cpi",0.2,2003,3,2003,NA,0.5,2.81431984766894,3.51898585584802,2.71189071546809,2.91800239560335,FALSE,0.960738838681204
"CAN","cpi",0.2,2003,3,2002,NA,1,1.68091113407957,2.38557714225864,2.71189071546809,1.54486874462913,FALSE,1.5204499412027
"CAN","cpi",0.2,2003,3,2002,NA,1.5,2.22716050623973,3.0405126886872,2.71189071546809,2.180209446776,TRUE,0.813352182447469
"CAN","cpi",0.2,2004,3,2004,NA,0,1.75511797218762,1.97936291485217,1.83151661303942,1.69584100230101,TRUE,0.224244942664544
"CAN","cpi",0.2,2004,3,2004,NA,0.5,1.49873380108747,2.28850817223925,1.83151661303942,1.84885395921698,TRUE,0.789774371151786
"CAN","cpi",0.2,2004,3,2003,NA,1,3.30878180168764,4.13018811062613,1.83151661303942,3.2075247865732,FALSE,4.51456928055904
"CAN","cpi",0.2,2004,3,2003,NA,1.5,2.92986104899585,3.84076675362825,1.83151661303942,2.91800239560335,FALSE,3.65676679452348
"CAN","cpi",0.2,2005,3,2005,NA,0,1.77457770422964,1.99275711133288,2.18071628336509,2.20100508158421,FALSE,0.688077337183765
"CAN","cpi",0.2,2005,3,2005,NA,0.5,2.12035362771701,2.71988079637292,2.18071628336509,2.12928049157936,TRUE,0.599527168655902
"CAN","cpi",0.2,2005,3,2004,NA,1,1.85637112841784,2.45589829707374,2.18071628336509,1.69584100230101,TRUE,0.599527168655902
"CAN","cpi",0.2,2005,3,2004,NA,1.5,1.95092274176452,2.60898544553048,2.18071628336509,1.84885395921698,TRUE,0.658062703765959
"CAN","cpi",0.2,2006,3,2006,NA,0,1.833997330043,2.06353038784441,1.97519342012289,2.18435928951757,TRUE,0.229533057801413
"CAN","cpi",0.2,2006,3,2006,NA,0.5,2.08242313166676,2.77100700763068,1.97519342012289,2.23898625105085,FALSE,0.956658154823595
"CAN","cpi",0.2,2006,3,2005,NA,1,2.29335863400131,2.98194250996523,1.97519342012289,2.20100508158421,FALSE,1.48399691065998
"CAN","cpi",0.2,2006,3,2005,NA,1.5,2.18898276073968,2.93517933831725,1.97519342012289,2.12928049157936,FALSE,1.28066992911956
"CAN","cpi",0.2,2007,3,2007,NA,0,1.60870304275642,1.83738098871778,2.10062087284572,1.84480494136243,FALSE,0.88677765628122
"CAN","cpi",0.2,2007,3,2007,NA,0.5,1.67745581811593,2.32941659538277,2.10062087284572,1.84074896087257,TRUE,0.651960777266845
"CAN","cpi",0.2,2007,3,2006,NA,1,2.27340439649573,2.92536517376257,2.10062087284572,2.18435928951757,FALSE,1.08391958639186
"CAN","cpi",0.2,2007,3,2006,NA,1.5,2.24378887337766,2.95756594470444,2.10062087284572,2.23898625105085,FALSE,1.07169707265662
"CAN","cpi",0.2,2008,3,2008,NA,0,1.92360733745194,2.18447922695535,2.31447335265955,2.44343788755996,FALSE,0.585857203763918
"CAN","cpi",0.2,2008,3,2008,NA,0.5,1.96598538468821,2.58021655921047,2.31447335265955,2.09257425597425,TRUE,0.61423117452226
"CAN","cpi",0.2,2008,3,2007,NA,1,1.93574207106696,2.54997324558922,2.31447335265955,1.84480494136243,TRUE,0.61423117452226
"CAN","cpi",0.2,2008,3,2007,NA,1.5,1.93062945653607,2.54486063105833,2.31447335265955,1.84074896087257,TRUE,0.61423117452226
"CAN","cpi",0.2,2009,3,2009,NA,0,1.14995574880176,1.29934959772578,0.284533874408197,0.55191793044214,FALSE,2.31294853490792
"CAN","cpi",0.2,2009,3,2009,NA,0.5,2.02208447203605,2.65338046625989,0.284533874408197,2.17577573644726,FALSE,4.97517248829347
"CAN","cpi",0.2,2009,3,2008,NA,1,2.47897665198007,3.11027264620392,0.284533874408197,2.44343788755996,FALSE,6.11740293815353
"CAN","cpi",0.2,2009,3,2008,NA,1.5,2.13338428884635,2.7646802830702,0.284533874408197,2.09257425597425,FALSE,5.25342203031923
"CAN","cpi",0.2,2010,3,2010,NA,0,1.00751588732657,1.12725351601299,1.75525687020327,1.39285160668897,FALSE,1.68974601416213
"CAN","cpi",0.2,2010,3,2010,NA,0.5,0.668460609452341,0.86338802351783,1.75525687020327,0.382958497759795,FALSE,2.42459953077909
"CAN","cpi",0.2,2010,3,2009,NA,1,0.909134345324989,1.10406175939048,1.75525687020327,0.55191793044214,FALSE,1.82291519109747
"CAN","cpi",0.2,2010,3,2009,NA,1.5,2.09103899359502,2.47917001731727,1.75525687020327,2.17577573644726,FALSE,1.22758633220161
"CAN","cpi",0.2,2011,3,2011,NA,0,1.97518948579698,2.20234972771289,2.85717434028225,2.75343947842877,FALSE,1.8642217733393
"CAN","cpi",0.2,2011,3,2011,NA,0.5,1.99542892699005,2.47338545463975,2.85717434028225,1.99557590637446,FALSE,1.43742874175594
"CAN","cpi",0.2,2011,3,2010,NA,1,1.56334029025053,2.04129681790023,2.85717434028225,1.39285160668897,FALSE,2.51765033360473
"CAN","cpi",0.2,2011,3,2010,NA,1.5,0.741138361302474,1.21909488895218,2.85717434028225,0.382958497759795,FALSE,4.57315515597487
"CAN","cpi",0.2,2012,3,2012,NA,0,1.88745754422937,2.1144907507614,1.50118536134935,1.92993928708068,FALSE,1.19271366373209
"CAN","cpi",0.2,2012,3,2012,NA,0.5,2.52033004155919,3.34477881423025,1.50118536134935,2.7924065414457,FALSE,3.37231047319567
"CAN","cpi",0.2,2012,3,2011,NA,1,2.73173209450238,3.55618086717344,1.50118536134935,2.75343947842877,FALSE,3.90081560555364
"CAN","cpi",0.2,2012,3,2011,NA,1.5,2.11561920085805,2.94006797352911,1.50118536134935,1.99557590637446,FALSE,2.36053337144283
"CAN","cpi",0.2,2013,3,2013,NA,0,1.10504204170521,1.24099141793492,0.931270594714462,0.933287972916032,FALSE,0.570377993706583
"CAN","cpi",0.2,2013,3,2013,NA,0.5,1.14751029856395,1.66077080782379,0.931270594714462,1.15173631466769,FALSE,1.05385976888356
"CAN","cpi",0.2,2013,3,2012,NA,1,2.10740897751276,2.6206694867726,0.931270594714462,1.92993928708068,FALSE,3.45360646625558
"CAN","cpi",0.2,2013,3,2012,NA,1.5,2.64291211023752,3.28590821221548,0.931270594714462,2.7924065414457,FALSE,4.92209989078561
"CAN","cpi",0.2,2014,3,2014,NA,0,1.26073625034341,1.41286792087649,1.87639912240215,1.63379811457679,FALSE,1.31095967434723
"CAN","cpi",0.2,2014,3,2014,NA,0.5,1.21002626670361,1.54822423937394,1.87639912240215,1.04987664511533,FALSE,1.15863518024085
"CAN","cpi",0.2,2014,3,2013,NA,1,1.1897861803614,1.52798415303173,1.87639912240215,0.933287972916032,FALSE,1.20923539609638
"CAN","cpi",0.2,2014,3,2013,NA,1.5,1.32583330083161,1.71060002045917,1.87639912240215,1.15173631466769,FALSE,0.799264474485005
"CAN","cpi",0.2,2015,3,2015,NA,0,1.35792273608205,1.51270102484037,1.11090953952792,1.25588008397684,FALSE,0.772311280143643
"CAN","cpi",0.2,2015,3,2015,NA,0.5,1.77529664383366,2.31523097403293,1.11090953952792,1.79776205300989,FALSE,2.20090209096363
"CAN","cpi",0.2,2015,3,2014,NA,1,1.77248026621583,2.3124145964151,1.11090953952792,1.63379811457679,FALSE,2.19386114691905
"CAN","cpi",0.2,2015,3,2014,NA,1.5,1.32808752764651,1.86802185784578,1.11090953952792,1.04987664511533,FALSE,1.08287930049575
"CAN","cpi",0.2,2016,3,2016,NA,0,1.21019032228193,1.34294185638713,1.41168586698797,1.39645323019091,FALSE,0.304611560607292
"CAN","cpi",0.2,2016,3,2016,NA,0.5,1.31730844278721,1.74280829881804,1.41168586698797,1.22661053967644,TRUE,0.425499856030828
"CAN","cpi",0.2,2016,3,2015,NA,1,1.46218867845466,1.88768853448549,1.41168586698797,1.25588008397684,FALSE,0.551756884697573
"CAN","cpi",0.2,2016,3,2015,NA,1.5,1.81585459722329,2.32779446067302,1.41168586698797,1.79776205300989,FALSE,1.52236168903805
"CAN","cpi",0.2,2017,3,2017,NA,0,1.31593091322583,1.45787518081416,1.57888581671161,1.4811454634985,FALSE,0.444470857331968
"CAN","cpi",0.2,2017,3,2017,NA,0.5,1.50719469092374,1.97011589926502,1.57888581671161,1.50199497030019,TRUE,0.462921208341275
"CAN","cpi",0.2,2017,3,2016,NA,1,1.57383111712959,2.03675232547086,1.57888581671161,1.39645323019091,TRUE,0.462921208341275
"CAN","cpi",0.2,2017,3,2016,NA,1.5,1.41120588391385,1.87412709225513,1.57888581671161,1.22661053967644,TRUE,0.462921208341275
"CAN","cpi",0.2,2018,3,2018,NA,0,1.65709147789378,1.8232053941366,2.23316270166586,2.17346080855069,FALSE,1.19100718506596
"CAN","cpi",0.2,2018,3,2018,NA,0.5,1.58674071212814,2.06620754918165,2.23316270166586,1.61472973146397,FALSE,0.896854718264034
"CAN","cpi",0.2,2018,3,2017,NA,1,1.61705343897154,2.09652027602504,2.23316270166586,1.4811454634985,FALSE,0.821072901155546
"CAN","cpi",0.2,2018,3,2017,NA,1.5,1.63484797176167,2.11431480881518,2.23316270166586,1.50199497030019,FALSE,0.776586569180209
"CAN","cpi",0.2,2019,3,2019,NA,0,1.71630389909843,1.87618144002673,1.91921619871868,1.90497611164807,FALSE,0.267464437658174
"CAN","cpi",0.2,2019,3,2019,NA,0.5,1.95347971654156,2.56160481483722,1.91921619871868,2.12426010345757,FALSE,0.693783892852861
"CAN","cpi",0.2,2019,3,2018,NA,1,2.23186895192182,2.83999405021748,1.91921619871868,2.17346080855069,FALSE,1.38975698130351
"CAN","cpi",0.2,2019,3,2018,NA,1.5,1.79020141788077,2.39832651617642,1.91921619871868,1.61472973146397,TRUE,0.608125098295658
"CAN","cpi",0.2,2020,3,2020,NA,0,1.27452522706541,1.39998280058297,0.71139989671781,1.03314712474633,FALSE,1.53327089938657
"CAN","cpi",0.2,2020,3,2020,NA,0.5,1.84660434853477,2.40731808356652,0.71139989671781,1.96699466082655,FALSE,3.39872486457415
"CAN","cpi",0.2,2020,3,2019,NA,1,1.96051553269299,2.52122926772474,0.71139989671781,1.90497611164807,FALSE,3.68350282496971
"CAN","cpi",0.2,2020,3,2019,NA,1.5,2.07083847789212,2.69569748625283,0.71139989671781,2.12426010345757,FALSE,4.02345546129648
"CAN","cpi",0.2,2021,3,2021,NA,0,1.48881590993443,1.62946630125255,3.31148121717802,2.35752845828485,FALSE,4.3456876811318
"CAN","cpi",0.2,2021,3,2021,NA,0.5,0.79687996674331,1.09295017920064,3.31148121717802,0.620135433592656,FALSE,5.8423978074008
"CAN","cpi",0.2,2021,3,2020,NA,1,1.27702810687661,1.57309831933394,3.31148121717802,1.03314712474633,FALSE,4.64202745706754
"CAN","cpi",0.2,2021,3,2020,NA,1.5,1.84558182507712,2.28566060462053,3.31148121717802,1.96699466082655,FALSE,3.00463031093714
"CAN","cpi",0.2,2022,3,2022,NA,0,3.70799196819466,4.07868247134891,6.50977236228281,6.06204323255885,FALSE,6.44841523048899
"CAN","cpi",0.2,2022,3,2022,NA,0.5,3.92126575769458,4.74599393387128,6.50977236228281,4.36321977466389,FALSE,5.23417424720552
"CAN","cpi",0.2,2022,3,2021,NA,1,2.23572572663214,3.06045390280883,6.50977236228281,2.35752845828485,FALSE,9.44802432486164
"CAN","cpi",0.2,2022,3,2021,NA,1.5,0.97905369820264,1.80378187437934,6.50977236228281,0.620135433592656,FALSE,12.5897043959354
"CAN","cpi",0.2,2023,3,2023,NA,0,3.96946690032651,4.39081686792543,3.78831288758619,4.59798511919386,FALSE,0.874234999449723
"CAN","cpi",0.2,2023,3,2023,NA,0.5,5.04536615033307,6.7250615259818,3.78831288758619,6.34532620809577,FALSE,4.82232853251593
"CAN","cpi",0.2,2023,3,2022,NA,1,5.43120864141636,7.11090401706509,3.78831288758619,6.06204323255885,FALSE,5.78693476022415
"CAN","cpi",0.2,2023,3,2022,NA,1.5,4.04780386556596,5.7274992412147,3.78831288758619,4.36321977466389,FALSE,2.32842282059816
"CAN","cpi",0.2,2024,3,2023,NA,1,4.38022263910164,5.40147254292364,NA,4.59798511919386,NA,NA
"CAN","cpi",0.2,2024,3,2023,NA,1.5,5.42631113873112,6.87841519689243,NA,6.34532620809577,NA,NA
"CAN","cpi",0.3,1952,3,1952,NA,0,-17.7599819567796,-4.51675788050482,2.55562336095485,5.33589356249898,FALSE,33.4500276233024
"CAN","cpi",0.3,1952,3,1952,NA,0.5,8.99119475929835,36.1540673820661,2.55562336095485,9.78336808811006,FALSE,45.5502194751777
"CAN","cpi",0.3,1953,3,1953,NA,0,-14.3808369811874,-10.0994018820346,-1.01492775838436,-1.36658675161344,FALSE,30.2370754524392
"CAN","cpi",0.3,1953,3,1953,NA,0.5,-13.91578781448,-9.33244753507415,-1.01492775838436,0.110034650547486,FALSE,28.3476824985196
"CAN","cpi",0.3,1953,3,1952,NA,1,28.7741364465232,38.1732959533197,-1.01492775838436,5.33589356249898,FALSE,94.510771520818
"CAN","cpi",0.3,1953,3,1952,NA,1.5,60.7224631360801,81.1262886521561,-1.01492775838436,9.78336808811006,FALSE,196.796370928832
"CAN","cpi",0.3,1954,3,1954,NA,0,3.55931211700657,2.07210110146245,0.644425455961438,0.642985131580263,FALSE,6.84103658744198
"CAN","cpi",0.3,1954,3,1954,NA,0.5,2.87899780596219,1.39178679041807,0.644425455961438,-0.366337731528715,FALSE,4.89728141302945
"CAN","cpi",0.3,1954,3,1953,NA,1,-2.87181576675448,-4.3590267822986,0.644425455961438,-1.36658675161344,FALSE,12.808366808056
"CAN","cpi",0.3,1954,3,1953,NA,1.5,7.91190065799522,7.57475677279255,0.644425455961438,0.110034650547486,FALSE,20.427070977751
"CAN","cpi",0.3,1955,3,1955,NA,0,-0.0151398226998579,0.948764670955041,0.173649026558865,0.17297271419658,TRUE,0.963904493654899
"CAN","cpi",0.3,1955,3,1955,NA,0.5,0.621830065501342,3.04209373234784,0.173649026558865,0.586026480650511,FALSE,3.70078092096786
"CAN","cpi",0.3,1955,3,1954,NA,1,1.07971415844744,3.8424570003292,0.173649026558865,0.642985131580263,FALSE,5.3515003615634
"CAN","cpi",0.3,1955,3,1954,NA,1.5,-4.60120827948861,-1.83846543760685,0.173649026558865,-0.366337731528715,FALSE,8.51164131092666
"CAN","cpi",0.3,1956,3,1956,NA,0,0.921011258921397,1.68470365208498,1.32752769429961,0.753971131965347,TRUE,0.763692393163588
"CAN","cpi",0.3,1956,3,1956,NA,0.5,0.252360990541381,1.54888315370763,1.32752769429961,0.174369006303267,TRUE,1.29652216316625
"CAN","cpi",0.3,1956,3,1955,NA,1,0.147233663807993,1.95772268260145,1.32752769429961,0.17297271419658,TRUE,1.81048901879346
"CAN","cpi",0.3,1956,3,1955,NA,1.5,1.01310217105271,4.32114544798207,1.32752769429961,0.586026480650511,TRUE,3.30804327692936
"CAN","cpi",0.3,1957,3,1957,NA,0,2.61253798131708,4.44433165317585,3.24684755852518,3.20420645854679,TRUE,1.83179367185878
"CAN","cpi",0.3,1957,3,1957,NA,0.5,2.79547675250296,5.99286875789551,3.24684755852518,2.07576432581215,TRUE,3.19739200539256
"CAN","cpi",0.3,1957,3,1956,NA,1,-1.10750185326123,2.08989015213133,3.24684755852518,0.753971131965347,FALSE,6.50298459508927
"CAN","cpi",0.3,1957,3,1956,NA,1.5,-2.21666266568309,0.980729339709463,3.24684755852518,0.174369006303267,FALSE,9.67201548772317
"CAN","cpi",0.3,1958,3,1958,NA,0,1.51471772399993,3.42975327213704,2.33186388641149,2.45716899110006,TRUE,1.91503554813711
"CAN","cpi",0.3,1958,3,1958,NA,0.5,1.9804555978418,6.90301905984241,2.33186388641149,3.16832340224646,TRUE,4.92256346200061
"CAN","cpi",0.3,1958,3,1957,NA,1,2.19396330484523,9.42901372235849,2.33186388641149,3.20420645854679,TRUE,7.23505041751326
"CAN","cpi",0.3,1958,3,1957,NA,1.5,-0.775128959369921,6.45992145814334,2.33186388641149,2.07576432581215,TRUE,7.23505041751326
"CAN","cpi",0.3,1959,3,1959,NA,0,1.11985279564574,2.16668396110348,1.19382698397654,1.42085685959275,TRUE,1.04683116545774
"CAN","cpi",0.3,1959,3,1959,NA,0.5,1.23659740969624,4.08167723779794,1.19382698397654,1.98727093968503,FALSE,2.9672810444437
"CAN","cpi",0.3,1959,3,1958,NA,1,2.19503989519502,7.00360356805572,1.19382698397654,2.45716899110006,FALSE,7.66917199062779
"CAN","cpi",0.3,1959,3,1958,NA,1.5,2.8285373098433,8.85621490383719,1.19382698397654,3.16832340224646,FALSE,10.6982785250418
"CAN","cpi",0.3,1960,3,1960,NA,0,1.1645037936718,1.85245237433418,1.34209404870695,1.34570677924433,TRUE,0.687948580662383
"CAN","cpi",0.3,1960,3,1960,NA,0.5,1.05929715189668,2.51402394515114,1.34209404870695,1.13297483079829,TRUE,1.45472679325446
"CAN","cpi",0.3,1960,3,1959,NA,1,1.49382835421908,3.87951280104083,1.34209404870695,1.42085685959275,FALSE,2.81921103399927
"CAN","cpi",0.3,1960,3,1959,NA,1.5,2.12615708007231,5.04912364111399,1.34209404870695,1.98727093968503,FALSE,5.163146650657
"CAN","cpi",0.3,1961,3,1961,NA,0,1.18135971381682,1.71780274901949,1.00921348094007,1.32757858722203,FALSE,1.02828941485053
"CAN","cpi",0.3,1961,3,1961,NA,0.5,1.40687976263701,2.7365253003464,1.00921348094007,1.39166174207428,FALSE,2.46583491398635
"CAN","cpi",0.3,1961,3,1960,NA,1,1.37679247215326,3.02751829552196,1.00921348094007,1.34570677924433,FALSE,2.70095151254923
"CAN","cpi",0.3,1961,3,1960,NA,1.5,1.03043585137257,2.68116167474128,1.00921348094007,1.13297483079829,FALSE,1.71136116746156
"CAN","cpi",0.3,1962,3,1962,NA,0,0.637808181564654,0.99348425971718,1.04957947883042,0.577977430468435,FALSE,0.515948132761769
"CAN","cpi",0.3,1962,3,1962,NA,0.5,0.499613533273891,1.22610649305417,1.04957947883042,0.636962012224359,TRUE,0.72649295978028
"CAN","cpi",0.3,1962,3,1961,NA,1,1.49503332283353,2.97237170875073,1.04957947883042,1.32757858722203,FALSE,2.75006365449753
"CAN","cpi",0.3,1962,3,1961,NA,1.5,1.39919739181469,2.87653577773189,1.04957947883042,1.39166174207428,FALSE,2.47624670872942
"CAN","cpi",0.3,1963,3,1963,NA,0,1.3586066205501,1.8746264220429,1.60677118395228,1.66779362321099,TRUE,0.5160198014928
"CAN","cpi",0.3,1963,3,1963,NA,0.5,1.78915870686299,2.64494928806028,1.60677118395228,1.52118152719239,FALSE,1.3768977895136
"CAN","cpi",0.3,1963,3,1962,NA,1,0.336906879438435,1.19269746063572,1.60677118395228,0.577977430468435,FALSE,2.03885836210174
"CAN","cpi",0.3,1963,3,1962,NA,1.5,0.58468153852663,1.44047211972392,1.60677118395228,0.636962012224359,FALSE,1.3309307647069
"CAN","cpi",0.3,1964,3,1964,NA,0,1.45840302085408,2.04345507896235,1.88764670034376,1.89274723222648,TRUE,0.585052058108273
"CAN","cpi",0.3,1964,3,1964,NA,0.5,1.41737391439223,2.42804689552701,1.88764670034376,1.59688015421336,TRUE,1.01067298113478
"CAN","cpi",0.3,1964,3,1963,NA,1,1.55316759919295,2.87254181499097,1.88764670034376,1.66779362321099,TRUE,1.31937421579802
"CAN","cpi",0.3,1964,3,1963,NA,1.5,1.33625420166217,2.65562841746019,1.88764670034376,1.52118152719239,TRUE,1.31937421579802
"CAN","cpi",0.3,1965,3,1965,NA,0,1.56748890780682,2.10943501908097,2.29538304394236,2.00763200760394,FALSE,1.07322618230668
"CAN","cpi",0.3,1965,3,1965,NA,0.5,1.70876035541517,2.75650809817192,2.29538304394236,1.88069823981647,TRUE,1.04774774275674
"CAN","cpi",0.3,1965,3,1964,NA,1,1.78676257186483,3.08477656796515,2.29538304394236,1.89274723222648,TRUE,1.29801399610032
"CAN","cpi",0.3,1965,3,1964,NA,1.5,1.45584334633038,2.7538573424307,2.29538304394236,1.59688015421336,TRUE,1.29801399610032
"CAN","cpi",0.3,1966,3,1966,NA,0,2.51921897933382,3.29314380034825,3.72486065470629,3.50850431851723,FALSE,2.0074015477517
"CAN","cpi",0.3,1966,3,1966,NA,0.5,2.61882634920069,3.91384417185014,3.72486065470629,2.72414080931513,TRUE,1.29501782264945
"CAN","cpi",0.3,1966,3,1965,NA,1,1.84009405060904,3.13511187325849,3.72486065470629,2.00763200760394,FALSE,2.98001434107173
"CAN","cpi",0.3,1966,3,1965,NA,1.5,1.8334181156427,3.12843593829216,3.72486065470629,1.88069823981647,FALSE,2.99908844097555
"CAN","cpi",0.3,1967,3,1967,NA,0,2.57674070371065,3.46110515172749,3.49360316391996,3.43593854851327,FALSE,0.977215911423897
"CAN","cpi",0.3,1967,3,1967,NA,0.5,3.20232820498197,4.94820172151824,3.49360316391996,3.60120034208141,TRUE,1.74587351653627
"CAN","cpi",0.3,1967,3,1966,NA,1,3.32463954267421,5.32107408046537,3.49360316391996,3.50850431851723,TRUE,1.99643453779116
"CAN","cpi",0.3,1967,3,1966,NA,1.5,2.59519977770459,4.59163431549574,3.49360316391996,2.72414080931513,TRUE,1.99643453779116
"CAN","cpi",0.3,1968,3,1968,NA,0,2.77320025651784,3.69721620922121,3.95128347779386,3.85741006811451,FALSE,1.64992243433951
"CAN","cpi",0.3,1968,3,1968,NA,0.5,3.66044334659597,5.53466339895404,3.95128347779386,3.82980583992124,TRUE,1.87422005235806
"CAN","cpi",0.3,1968,3,1967,NA,1,3.23776393146139,5.24971833812948,3.95128347779386,3.43593854851327,TRUE,2.01195440666809
"CAN","cpi",0.3,1968,3,1967,NA,1.5,3.55713520234439,5.73805725408888,3.95128347779386,3.60120034208141,TRUE,2.1809220517445
"CAN","cpi",0.3,1969,3,1969,NA,0,3.15970331727914,4.20279097029845,4.42679496126681,4.42973002734916,FALSE,1.68309905578606
"CAN","cpi",0.3,1969,3,1969,NA,0.5,3.53920078586043,5.45257778373865,4.42679496126681,3.77653863724463,TRUE,1.91337699787823
"CAN","cpi",0.3,1969,3,1968,NA,1,3.80755971365591,6.0452869580462,4.42679496126681,3.85741006811451,TRUE,2.23772724439028
"CAN","cpi",0.3,1969,3,1968,NA,1.5,3.84847382384558,6.27111186265777,4.42679496126681,3.82980583992124,TRUE,2.42263803881219
"CAN","cpi",0.3,1970,3,1970,NA,0,2.92250323070543,3.91309790333994,3.28128405769805,3.84669808502433,TRUE,0.990594672634511
"CAN","cpi",0.3,1970,3,1970,NA,0.5,4.57185822289214,6.8434629344232,3.28128405769805,4.72247431437482,FALSE,5.95895946922847
"CAN","cpi",0.3,1970,3,1969,NA,1,4.41578107617881,6.81436716566409,3.28128405769805,4.42973002734916,FALSE,5.64000614228746
"CAN","cpi",0.3,1970,3,1969,NA,1.5,3.86546648982275,6.26405257930803,3.28128405769805,3.77653863724463,FALSE,4.06767875269872
"CAN","cpi",0.3,1971,3,1971,NA,0,1.80477603184137,2.5078263851701,2.64123406634756,2.09886045002039,FALSE,1.08421515669291
"CAN","cpi",0.3,1971,3,1971,NA,0.5,2.15218486449405,3.65017123945385,2.64123406634756,2.39042152113403,TRUE,1.49798637495979
"CAN","cpi",0.3,1971,3,1970,NA,1,4.05742310607095,6.17566924036398,2.64123406634756,3.84669808502433,FALSE,6.16450053350271
"CAN","cpi",0.3,1971,3,1970,NA,1.5,4.77400603296614,7.6489780707293,2.64123406634756,4.72247431437482,FALSE,8.96860622810196
"CAN","cpi",0.3,1972,3,1972,NA,0,3.11807404660821,4.11337256361091,4.83230569625923,4.61402341086119,FALSE,3.04939318171218
"CAN","cpi",0.3,1972,3,1972,NA,0.5,3.95009406403769,5.4205920988227,4.83230569625923,3.53817935863684,TRUE,1.47049803478501
"CAN","cpi",0.3,1972,3,1971,NA,1,1.93921830287543,3.40971633766045,4.83230569625923,2.09886045002039,FALSE,5.53503905935296
"CAN","cpi",0.3,1972,3,1971,NA,1.5,2.59347623198176,4.06397426676677,4.83230569625923,2.39042152113403,FALSE,3.66573069047774
"CAN","cpi",0.3,1973,3,1973,NA,0,4.18348892967424,5.70280136906391,7.12388603531779,6.22342912205835,FALSE,5.57955434297219
"CAN","cpi",0.3,1973,3,1973,NA,0.5,5.00340646986413,7.55032861001203,7.12388603531779,4.99248222648134,TRUE,2.54692214014789
"CAN","cpi",0.3,1973,3,1972,NA,1,4.6341607918114,7.18108293195929,7.12388603531779,4.61402341086119,TRUE,2.54692214014789
"CAN","cpi",0.3,1973,3,1972,NA,1.5,3.57514175353483,6.12206389368272,7.12388603531779,3.53817935863684,FALSE,5.4092711162481
"CAN","cpi",0.3,1974,3,1974,NA,0,6.23242179973838,8.31341500746704,10.2717243737774,9.59455553431256,FALSE,7.67616282575832
"CAN","cpi",0.3,1974,3,1974,NA,0.5,8.13421253112377,11.4958841399878,10.2717243737774,8.02283957227414,TRUE,3.361671608864
"CAN","cpi",0.3,1974,3,1973,NA,1,5.55161031154849,8.91328192041249,10.2717243737774,6.22342912205835,FALSE,7.24293576133522
"CAN","cpi",0.3,1974,3,1973,NA,1.5,4.70118070505191,8.06285231391591,10.2717243737774,4.99248222648134,FALSE,9.67273463703973
"CAN","cpi",0.3,1975,3,1975,NA,0,6.93509482486669,9.2906073342986,10.0232981493341,10.5280192696423,FALSE,4.44891483810483
"CAN","cpi",0.3,1975,3,1975,NA,0.5,9.81841393098672,13.8024984296083,10.0232981493341,10.7014589339012,TRUE,3.98408449862161
"CAN","cpi",0.3,1975,3,1974,NA,1,8.00136646142473,12.1920044528699,10.0232981493341,9.59455553431256,TRUE,4.19063799144515
"CAN","cpi",0.3,1975,3,1974,NA,1.5,6.81671244275904,11.1099528875989,10.0232981493341,8.02283957227414,TRUE,4.29324044483985
"CAN","cpi",0.3,1976,3,1976,NA,0,5.8059886686993,7.7622891342496,7.22784311401172,8.13534117389669,TRUE,1.9563004655503
"CAN","cpi",0.3,1976,3,1976,NA,0.5,8.18250966445082,12.5771158537978,7.22784311401172,9.54416967067372,FALSE,7.12222490488728
"CAN","cpi",0.3,1976,3,1975,NA,1,9.13008829587086,14.1756326136402,7.22784311401172,10.5280192696423,FALSE,10.4805305516526
"CAN","cpi",0.3,1976,3,1975,NA,1.5,9.00351954414066,15.4320425649216,7.22784311401172,10.7014589339012,FALSE,11.5018842497208
"CAN","cpi",0.3,1977,3,1977,NA,0,4.74848402530546,6.38049788193374,7.58101410153764,6.84168016809657,FALSE,5.06206019835372
"CAN","cpi",0.3,1977,3,1977,NA,0.5,5.44112608658516,8.86675906328185,7.58101410153764,6.57165012633641,TRUE,3.4256329766967
"CAN","cpi",0.3,1977,3,1976,NA,1,7.48399062393294,11.6143464265527,7.58101410153764,8.13534117389669,TRUE,4.13035580261978
"CAN","cpi",0.3,1977,3,1976,NA,1.5,8.49589245470514,13.6852260572279,7.58101410153764,9.54416967067372,FALSE,7.80327175442984
"CAN","cpi",0.3,1978,3,1978,NA,0,5.57574563566531,7.54091962076976,8.50208927062595,8.56560161197079,FALSE,4.71137298469356
"CAN","cpi",0.3,1978,3,1978,NA,0.5,7.36044646299702,10.6280297068257,8.50208927062595,8.14356532128036,TRUE,3.26758324382864
"CAN","cpi",0.3,1978,3,1977,NA,1,5.73533910445664,9.37015979185915,8.50208927062595,6.84168016809657,TRUE,3.63482068740251
"CAN","cpi",0.3,1978,3,1977,NA,1.5,5.45912352527062,9.88088730835054,8.50208927062595,6.57165012633641,TRUE,4.42176378307992
"CAN","cpi",0.3,1979,3,1979,NA,0,5.67966602269606,7.77724052191801,8.65147652410481,8.51558792202395,FALSE,4.59539164832709
"CAN","cpi",0.3,1979,3,1979,NA,0.5,7.30393882372843,11.3614840308759,8.65147652410481,8.48180361143764,TRUE,4.05754520714751
"CAN","cpi",0.3,1979,3,1978,NA,1,7.24411842344598,11.7223576342084,8.65147652410481,8.56560161197079,TRUE,4.47823921076246
"CAN","cpi",0.3,1979,3,1978,NA,1.5,6.74681077982711,11.6624310596751,8.65147652410481,8.14356532128036,TRUE,4.91562027984803
"CAN","cpi",0.3,1980,3,1980,NA,0,6.01914394789595,8.06228826773551,9.5171912664748,9.17959378630866,FALSE,6.20001003052324
"CAN","cpi",0.3,1980,3,1980,NA,0.5,7.30476626048136,11.4108823394491,9.5171912664748,8.77731920113821,TRUE,4.10611607896774
"CAN","cpi",0.3,1980,3,1979,NA,1,7.26730797007003,11.5323430238324,9.5171912664748,8.51558792202395,TRUE,4.26503505376236
"CAN","cpi",0.3,1980,3,1979,NA,1.5,6.73493765832945,12.2659250909688,9.5171912664748,8.48180361143764,TRUE,5.5309874326394
"CAN","cpi",0.3,1981,3,1981,NA,0,7.10335903701427,9.47697210343947,11.5813425032741,11.279360028481,FALSE,8.38609992309567
"CAN","cpi",0.3,1981,3,1981,NA,0.5,8.56618257581969,12.9665537278189,11.5813425032741,10.1336807488653,TRUE,4.40037115199925
"CAN","cpi",0.3,1981,3,1980,NA,1,7.755019334214,12.2996845019432,11.5813425032741,9.17959378630866,TRUE,4.54466516772916
"CAN","cpi",0.3,1981,3,1980,NA,1.5,6.71013391995244,12.5905756392836,11.5813425032741,8.77731920113821,TRUE,5.88044171933113
"CAN","cpi",0.3,1982,3,1982,NA,0,7.02535091668012,9.57273104222225,10.1124203763629,10.7097306947659,FALSE,4.08934965165841
"CAN","cpi",0.3,1982,3,1982,NA,0.5,8.5984208919547,14.3339128649582,10.1124203763629,11.3795840186269,TRUE,5.73549197300354
"CAN","cpi",0.3,1982,3,1981,NA,1,8.96169527017411,14.6971872431777,10.1124203763629,11.279360028481,TRUE,5.73549197300354
"CAN","cpi",0.3,1982,3,1981,NA,1.5,7.2606398993457,14.3812104277162,10.1124203763629,10.1336807488653,TRUE,7.1205705283705
"CAN","cpi",0.3,1983,3,1983,NA,0,5.11365353255597,6.92022972505781,5.67091787896303,6.81192865303165,TRUE,1.80657619250184
"CAN","cpi",0.3,1983,3,1983,NA,0.5,6.75414153406591,11.9466961201967,5.67091787896303,9.28631267190301,FALSE,8.28747931499611
"CAN","cpi",0.3,1983,3,1982,NA,1,9.33372013707479,14.6087382788469,5.67091787896303,10.7097306947659,FALSE,15.7401674506628
"CAN","cpi",0.3,1983,3,1982,NA,1.5,9.13105266785423,16.0571591837399,5.67091787896303,11.3795840186269,FALSE,16.8122059127177
"CAN","cpi",0.3,1984,3,1984,NA,0,3.31783308921042,4.49303299246291,4.19799576814029,4.43433180473976,TRUE,1.17519990325249
"CAN","cpi",0.3,1984,3,1984,NA,0.5,3.65641572470563,6.82313387890399,4.19799576814029,5.08610822560979,TRUE,3.16671815419837
"CAN","cpi",0.3,1984,3,1983,NA,1,6.53605705231338,9.70277520651175,4.19799576814029,6.81192865303165,FALSE,9.84689325183578
"CAN","cpi",0.3,1984,3,1983,NA,1.5,8.08205564808243,13.2090274790686,4.19799576814029,9.28631267190301,FALSE,16.224285773678
"CAN","cpi",0.3,1985,3,1985,NA,0,2.776805419804,3.66622138557357,3.86444262005169,3.75272544104399,FALSE,1.45576234999279
"CAN","cpi",0.3,1985,3,1985,NA,0.5,2.99624605208428,5.27204574871372,3.86444262005169,3.83470516948927,TRUE,2.27579969662944
"CAN","cpi",0.3,1985,3,1984,NA,1,4.2052622311285,6.48106192775794,3.86444262005169,4.43433180473976,FALSE,3.24957001399175
"CAN","cpi",0.3,1985,3,1984,NA,1.5,4.43929881374441,7.67589738227878,3.86444262005169,5.08610822560979,FALSE,4.87904483622785
"CAN","cpi",0.3,1986,3,1986,NA,0,2.84371590342835,3.80132458064679,4.08685396749431,4.02668174324255,FALSE,1.77340692535422
"CAN","cpi",0.3,1986,3,1986,NA,0.5,3.58942636789016,5.54311190926292,4.08685396749431,4.02628294162027,TRUE,1.95368554137276
"CAN","cpi",0.3,1986,3,1985,NA,1,3.56693025900919,5.52061580038195,4.08685396749431,3.75272544104399,TRUE,1.95368554137276
"CAN","cpi",0.3,1986,3,1985,NA,1.5,3.43015424926842,5.93800435461139,4.08685396749431,3.83470516948927,TRUE,2.50785010534297
"CAN","cpi",0.3,1987,3,1987,NA,0,3.0266187384667,3.95447304674095,4.23980729277887,4.2837330645361,FALSE,1.74309501123974
"CAN","cpi",0.3,1987,3,1987,NA,0.5,3.53115272035515,5.40785489236769,4.23980729277887,4.02033055131438,TRUE,1.87670217201254
"CAN","cpi",0.3,1987,3,1986,NA,1,3.85381457550816,5.7305167475207,4.23980729277887,4.02668174324255,TRUE,1.87670217201254
"CAN","cpi",0.3,1987,3,1986,NA,1.5,3.67308806468983,6.05677572746874,4.23980729277887,4.02628294162027,TRUE,2.38368766277891
"CAN","cpi",0.3,1988,3,1988,NA,0,2.95671617680872,3.74888155242882,3.92899537638065,3.95767765957829,FALSE,1.30677630119676
"CAN","cpi",0.3,1988,3,1988,NA,0.5,3.80293345262508,5.57266461538257,3.92899537638065,4.26147484794381,TRUE,1.7697311627575
"CAN","cpi",0.3,1988,3,1987,NA,1,4.21632044255995,5.98605160531744,3.92899537638065,4.2837330645361,FALSE,2.59065992326976
"CAN","cpi",0.3,1988,3,1987,NA,1.5,3.85106084610749,6.05049274130979,3.92899537638065,4.02033055131438,TRUE,2.1994318952023
"CAN","cpi",0.3,1989,3,1989,NA,0,3.20516642752086,3.99084743339203,4.82821664544208,4.56141251415513,FALSE,3.1781644688713
"CAN","cpi",0.3,1989,3,1989,NA,0.5,3.59048996665721,5.18638008332702,4.82821664544208,4.0148475519947,TRUE,1.59589011666981
"CAN","cpi",0.3,1989,3,1988,NA,1,3.93722396288046,5.53311407955027,4.82821664544208,3.95767765957829,TRUE,1.59589011666981
"CAN","cpi",0.3,1989,3,1988,NA,1.5,4.11014161480385,6.15695471035809,4.82821664544208,4.26147484794381,TRUE,2.04681309555424
"CAN","cpi",0.3,1990,3,1990,NA,0,3.48069434949343,4.29819885437582,4.64347549432717,4.70378167021394,FALSE,1.80400919045767
"CAN","cpi",0.3,1990,3,1990,NA,0.5,4.51087671399683,6.48833936921212,4.64347549432717,5.05069490734707,TRUE,1.97746265521529
"CAN","cpi",0.3,1990,3,1989,NA,1,4.44410032932505,6.42156298454034,4.64347549432717,4.56141251415513,TRUE,1.97746265521529
"CAN","cpi",0.3,1990,3,1989,NA,1.5,3.78020210343952,6.07170728394726,4.64347549432717,4.0148475519947,TRUE,2.29150518050774
"CAN","cpi",0.3,1991,3,1991,NA,0,3.87765230297351,4.75101048310583,5.4258100696218,5.63511155207928,FALSE,2.80135699874937
"CAN","cpi",0.3,1991,3,1991,NA,0.5,4.39992326018922,6.29797990814978,5.4258100696218,4.87807370573786,TRUE,1.89805664796056
"CAN","cpi",0.3,1991,3,1990,NA,1,4.65876374112348,6.55682038908404,5.4258100696218,4.70378167021394,TRUE,1.89805664796056
"CAN","cpi",0.3,1991,3,1990,NA,1.5,4.86832113494334,7.21738431275922,5.4258100696218,5.05069490734707,TRUE,2.34906317781588
"CAN","cpi",0.3,1992,3,1992,NA,0,2.42548437803525,2.99510165805622,1.47496888572843,2.02050638420239,FALSE,3.28537582946902
"CAN","cpi",0.3,1992,3,1992,NA,0.5,3.35539737836802,5.49020177591927,1.47496888572843,4.27205707399704,FALSE,7.50745723366436
"CAN","cpi",0.3,1992,3,1991,NA,1,5.69109374502617,7.82589814257742,1.47496888572843,5.63511155207928,FALSE,14.1808754241162
"CAN","cpi",0.3,1992,3,1991,NA,1.5,4.71421387074582,7.23353959305483,1.47496888572843,4.87807370573786,FALSE,11.7743113937873
"CAN","cpi",0.3,1993,3,1993,NA,0,1.49417466363462,1.82332593016237,1.84351085411351,1.84186847486189,FALSE,0.386822477816725
"CAN","cpi",0.3,1993,3,1993,NA,0.5,1.64898988365923,2.44554142572813,1.84351085411351,1.60616723541631,TRUE,0.796551542068903
"CAN","cpi",0.3,1993,3,1992,NA,1,2.39489823340686,3.19144977547576,1.84351085411351,2.02050638420239,FALSE,2.37194405433561
"CAN","cpi",0.3,1993,3,1992,NA,1.5,4.17046477927635,5.91070855438143,1.84351085411351,4.27205707399704,FALSE,8.38868356128461
"CAN","cpi",0.3,1994,3,1994,NA,0,1.02859521112159,1.23934857630905,0.161630694655448,0.62038151471279,FALSE,2.68779484080501
"CAN","cpi",0.3,1994,3,1994,NA,0.5,1.36813084131255,2.19844501216314,0.161630694655448,1.4565883399875,FALSE,4.27745744701374
"CAN","cpi",0.3,1994,3,1993,NA,1,2.17540649665171,3.0057206675023,0.161630694655448,1.84186847486189,FALSE,6.58395931941134
"CAN","cpi",0.3,1994,3,1993,NA,1.5,1.83692677934665,2.85041119746901,0.161630694655448,1.60616723541631,FALSE,5.80004466009723
"CAN","cpi",0.3,1995,3,1995,NA,0,1.0288406322939,1.28883386672198,2.11688403676572,1.60030724029718,FALSE,2.62585086312447
"CAN","cpi",0.3,1995,3,1995,NA,0.5,0.719360962599784,1.02878648617509,2.11688403676572,0.400723248632204,FALSE,3.41827566811995
"CAN","cpi",0.3,1995,3,1994,NA,1,1.11413294562926,1.42355846920457,2.11688403676572,0.62038151471279,FALSE,2.29035571660715
"CAN","cpi",0.3,1995,3,1994,NA,1.5,1.67834701612271,2.3297542206704,2.11688403676572,1.4565883399875,TRUE,0.651407204547682
"CAN","cpi",0.3,1996,3,1996,NA,0,1.48924669608119,1.81763752740882,1.55309584667184,1.57188450223428,TRUE,0.328390831327636
"CAN","cpi",0.3,1996,3,1996,NA,0.5,1.95324094933836,2.9483887965333,1.55309584667184,2.10267011992876,FALSE,2.13841956909928
"CAN","cpi",0.3,1996,3,1995,NA,1,1.79344870415695,2.78859655135188,1.55309584667184,1.60030724029718,FALSE,1.68187029715237
"CAN","cpi",0.3,1996,3,1995,NA,1.5,0.635130378006355,1.63027822520129,1.55309584667184,0.400723248632204,TRUE,0.995147847194934
"CAN","cpi",0.3,1997,3,1997,NA,0,1.48160939529498,1.78596532039877,1.60528783555959,1.83379947449567,TRUE,0.304355925103787
"CAN","cpi",0.3,1997,3,1997,NA,0.5,1.58558403907946,2.54107498459473,1.60528783555959,1.71447508965446,TRUE,0.955490945515267
"CAN","cpi",0.3,1997,3,1996,NA,1,1.76307032927763,2.7185612747929,1.60528783555959,1.57188450223428,FALSE,1.40629807042396
"CAN","cpi",0.3,1997,3,1996,NA,1.5,2.10177977660732,3.3286670849187,1.60528783555959,2.10267011992876,FALSE,2.64543571130489
"CAN","cpi",0.3,1998,3,1998,NA,0,1.10866296819819,1.33780878301115,0.988908029337191,0.973278201206617,FALSE,0.571302782987238
"CAN","cpi",0.3,1998,3,1998,NA,0.5,1.14474019966469,2.05319055190109,0.988908029337191,1.34049194776323,FALSE,1.35368512460069
"CAN","cpi",0.3,1998,3,1997,NA,1,2.03886944232026,2.95574598527616,0.988908029337191,1.83379947449567,FALSE,3.91676629433611
"CAN","cpi",0.3,1998,3,1997,NA,1.5,1.76977888795404,2.8566230703119,0.988908029337191,1.71447508965446,FALSE,3.317903778406
"CAN","cpi",0.3,1999,3,1999,NA,0,1.15775645047219,1.38342383869951,1.7107350135213,1.40211292309609,FALSE,1.16084217343243
"CAN","cpi",0.3,1999,3,1999,NA,0.5,0.919460036652738,1.56093016811652,1.7107350135213,0.923130320518117,FALSE,1.06948397547744
"CAN","cpi",0.3,1999,3,1998,NA,1,1.19133980272562,1.8328099341894,1.7107350135213,0.973278201206617,TRUE,0.641470131463779
"CAN","cpi",0.3,1999,3,1998,NA,1.5,1.39390691378217,2.29065947647405,1.7107350135213,1.34049194776323,TRUE,0.896752562691888
"CAN","cpi",0.3,2000,3,2000,NA,0,1.81134419423095,2.16140518910719,2.6718361971244,2.50399207866046,FALSE,1.80843530349683
"CAN","cpi",0.3,2000,3,2000,NA,0.5,2.04766877964631,2.98035905059188,2.6718361971244,2.17160318889212,TRUE,0.932690270945572
"CAN","cpi",0.3,2000,3,1999,NA,1,1.46216710250728,2.39485737345286,2.6718361971244,1.40211292309609,FALSE,1.72405833857856
"CAN","cpi",0.3,2000,3,1999,NA,1.5,1.03934601392767,1.97203628487324,2.6718361971244,0.923130320518117,FALSE,2.93211859166317
"CAN","cpi",0.3,2001,3,2001,NA,0,2.24887691869679,2.64621216437406,2.47906219852806,2.96814309391761,TRUE,0.397335245677271
"CAN","cpi",0.3,2001,3,2001,NA,0.5,2.16805911485866,3.46978928606995,2.47906219852806,2.69801990899347,TRUE,1.30173017121129
"CAN","cpi",0.3,2001,3,2000,NA,1,2.47602632029145,3.77775649150274,2.47906219852806,2.50399207866046,TRUE,1.30173017121129
"CAN","cpi",0.3,2001,3,2000,NA,1.5,2.09967997453191,3.49004494680688,2.47906219852806,2.17160318889212,TRUE,1.39036497227497
"CAN","cpi",0.3,2002,3,2002,NA,0,1.56984736555874,1.87853493603134,2.20880570551249,1.54486874462913,FALSE,1.25231834041874
"CAN","cpi",0.3,2002,3,2002,NA,0.5,1.70102938224768,2.89798785162734,2.20880570551249,2.180209446776,TRUE,1.19695846937966
"CAN","cpi",0.3,2002,3,2001,NA,1,2.9419826347877,4.21112356933719,2.20880570551249,2.96814309391761,FALSE,3.3639321610501
"CAN","cpi",0.3,2002,3,2001,NA,1.5,2.50706631292485,3.93484293454544,2.20880570551249,2.69801990899347,FALSE,2.27994978565592
"CAN","cpi",0.3,2003,3,2003,NA,0,2.21844209897087,2.65969735949469,2.71189071546809,3.2075247865732,FALSE,0.59037913473352
"CAN","cpi",0.3,2003,3,2003,NA,0.5,2.58188942169313,3.67604682194203,2.71189071546809,2.91800239560335,TRUE,1.0941574002489
"CAN","cpi",0.3,2003,3,2002,NA,1,1.46891231165239,2.56306971190128,2.71189071546809,1.54486874462913,FALSE,1.51936026758263
"CAN","cpi",0.3,2003,3,2002,NA,1.5,2.07222977795815,3.26824716045863,2.71189071546809,2.180209446776,TRUE,1.19601738250048
"CAN","cpi",0.3,2004,3,2004,NA,0,1.68551691411646,2.03130962201111,1.83151661303942,1.69584100230101,TRUE,0.345792707894649
"CAN","cpi",0.3,2004,3,2004,NA,0.5,1.36672060974553,2.48741320725296,1.83151661303942,1.84885395921698,TRUE,1.12069259750743
"CAN","cpi",0.3,2004,3,2003,NA,1,3.17256019855153,4.39539746462092,1.83151661303942,3.2075247865732,FALSE,5.05439036753254
"CAN","cpi",0.3,2004,3,2003,NA,1.5,2.63690933419633,4.13451476455833,1.83151661303942,2.91800239560335,FALSE,3.7987274908103
"CAN","cpi",0.3,2005,3,2005,NA,0,1.69700846535464,2.05964414908253,2.18071628336509,2.20100508158421,FALSE,0.708556067392358
"CAN","cpi",0.3,2005,3,2005,NA,0.5,1.90942128818616,2.82675290914806,2.18071628336509,2.12928049157936,TRUE,0.9173316209619
"CAN","cpi",0.3,2005,3,2004,NA,1,1.67506540513565,2.59239702609755,2.18071628336509,1.69584100230101,TRUE,0.9173316209619
"CAN","cpi",0.3,2005,3,2004,NA,1.5,1.78450681877074,2.7953233868261,2.18071628336509,1.84885395921698,TRUE,1.01081656805536
"CAN","cpi",0.3,2006,3,2006,NA,0,1.76231859040462,2.12151331298023,1.97519342012289,2.18435928951757,TRUE,0.359194722575614
"CAN","cpi",0.3,2006,3,2006,NA,0.5,1.89496118597286,2.89328587368087,1.97519342012289,2.23898625105085,TRUE,0.998324687708007
"CAN","cpi",0.3,2006,3,2005,NA,1,2.16426749979699,3.16259218750499,1.97519342012289,2.20100508158421,FALSE,1.53853634391972
"CAN","cpi",0.3,2006,3,2005,NA,1.5,2.02910466916424,3.11352880920421,1.97519342012289,2.12928049157936,FALSE,1.23845628015813
"CAN","cpi",0.3,2007,3,2007,NA,0,1.5421532946686,1.87912556279167,2.10062087284572,1.84480494136243,FALSE,0.969816011134641
"CAN","cpi",0.3,2007,3,2007,NA,0.5,1.52233026774412,2.46685276706861,2.10062087284572,1.84074896087257,TRUE,0.944522499324491
"CAN","cpi",0.3,2007,3,2006,NA,1,2.1440312726015,3.08855377192599,2.10062087284572,2.18435928951757,FALSE,1.06855221291242
"CAN","cpi",0.3,2007,3,2006,NA,1.5,2.07844536469841,3.148379913716,2.10062087284572,2.23898625105085,TRUE,1.06993454901759
"CAN","cpi",0.3,2008,3,2008,NA,0,1.83768182139653,2.24279341216388,2.31447335265955,2.44343788755996,FALSE,0.609911420754981
"CAN","cpi",0.3,2008,3,2008,NA,0.5,1.79443803237863,2.70826345270073,2.31447335265955,2.09257425597425,TRUE,0.913825420322104
