isdrw/probabilistic-benchmark-forecasts/results/t_quantiles_prediction/mean 0 assumption/t_prediction_ar1_2026-02-26_10-58-11.csv
"country","target","tau","target_year","target_quarter","forecast_year","forecast_quarter","horizon","lower_bound","upper_bound","truth_value","prediction","covered","IS"
"CAN","cpi",0.1,1959,3,1959,NA,0,1.07822373192985,1.30086825109367,1.19382698397654,1.18954599151176,TRUE,0.222644519163818
"CAN","cpi",0.1,1959,3,1959,NA,0.5,0.433986067579016,0.656630586742834,1.19382698397654,0.545308327160925,FALSE,1.41641429079428
"CAN","cpi",0.1,1959,3,1958,NA,1,1.00406095319719,1.26184133178374,1.19382698397654,1.13295114249046,TRUE,0.257780378586547
"CAN","cpi",0.1,1959,3,1958,NA,1.5,0.373883162015678,1.0609610141429,1.19382698397654,0.717422088079289,FALSE,0.982335562868644
"CAN","cpi",0.1,1960,3,1960,NA,0,1.00827276022734,1.03895332496221,1.34209404870695,1.02361304259477,FALSE,0.704326617500968
"CAN","cpi",0.1,1960,3,1960,NA,0.5,0.592803681101439,0.704418334325875,1.34209404870695,0.648611007713657,FALSE,1.5286717962935
"CAN","cpi",0.1,1960,3,1959,NA,1,2.14255931275886,2.61077815095386,1.34209404870695,2.37666873185636,FALSE,2.24703053608813
"CAN","cpi",0.1,1960,3,1959,NA,1.5,-0.637860244446291,-0.0603241146882632,1.34209404870695,-0.349092179567277,FALSE,3.69402093730295
"CAN","cpi",0.1,1961,3,1961,NA,0,0.988689740719152,1.02973722116099,1.00921348094007,1.00921348094007,TRUE,0.0410474804418395
"CAN","cpi",0.1,1961,3,1961,NA,0.5,0.970253280667301,1.04817368121284,1.00921348094007,1.00921348094007,TRUE,0.0779204005455418
"CAN","cpi",0.1,1961,3,1960,NA,1,-0.0964965069256848,0.204037432132751,1.00921348094007,0.0537704626035329,FALSE,2.08981404751915
"CAN","cpi",0.1,1961,3,1960,NA,1.5,-0.482583355685617,-0.182049416627181,1.00921348094007,-0.332316386156399,FALSE,2.94778482254122
"CAN","cpi",0.1,1962,3,1962,NA,0,1.05155473476494,1.07920549033165,1.04957947883042,1.0653801125483,FALSE,0.0320402131989923
"CAN","cpi",0.1,1962,3,1962,NA,0.5,-0.0490628932954524,0.0490628932954524,1.04957947883042,0,FALSE,2.3214959766686
"CAN","cpi",0.1,1962,3,1961,NA,1,-0.13601834002896,0.13601834002896,1.04957947883042,0,FALSE,2.30217254406115
"CAN","cpi",0.1,1962,3,1961,NA,1.5,-0.13601834002896,0.13601834002896,1.04957947883042,0,FALSE,2.30217254406115
"CAN","cpi",0.1,1963,3,1963,NA,0,1.81657127862726,1.84392780691969,1.60677118395228,1.83024954277348,FALSE,0.493578960903497
"CAN","cpi",0.1,1963,3,1963,NA,0.5,0.800637017484949,0.873020411750059,1.60677118395228,0.836828714617504,FALSE,1.70294066582561
"CAN","cpi",0.1,1963,3,1962,NA,1,1.4893773141155,1.72932469979102,1.60677118395228,1.60935100695326,TRUE,0.239947385675517
"CAN","cpi",0.1,1963,3,1962,NA,1.5,-0.119973692837758,0.119973692837758,1.60677118395228,0,FALSE,3.54394181037446
"CAN","cpi",0.1,1964,3,1964,NA,0,1.93461723331165,1.96927573554884,1.88764670034376,1.95194648443024,FALSE,0.139037464388054
"CAN","cpi",0.1,1964,3,1964,NA,0.5,1.24713900676778,1.29901733010018,1.88764670034376,1.27307816843398,FALSE,1.35994359054035
"CAN","cpi",0.1,1964,3,1963,NA,1,3.09746623973402,3.30598041301614,1.88764670034376,3.20172332637508,FALSE,2.89700203859381
"CAN","cpi",0.1,1964,3,1963,NA,1.5,-0.104257086641061,0.104257086641061,1.88764670034376,0,FALSE,4.17160220373256
"CAN","cpi",0.1,1965,3,1965,NA,0,2.28083119126199,2.31517259813447,2.29538304394236,2.29800189469823,TRUE,0.0343414068724774
"CAN","cpi",0.1,1965,3,1965,NA,0.5,1.3736817055479,1.41518265958861,2.29538304394236,1.39443218256826,FALSE,1.99750180816014
"CAN","cpi",0.1,1965,3,1964,NA,1,1.38377329503442,1.57779406575454,2.29538304394236,1.48078368039448,FALSE,1.78866294447081
"CAN","cpi",0.1,1965,3,1964,NA,1.5,0.1962470141734,0.390267784893522,2.29538304394236,0.293257399533461,FALSE,4.42761023527309
"CAN","cpi",0.1,1966,3,1966,NA,0,3.7614156225472,3.78880974234974,3.72486065470629,3.77511268244847,FALSE,0.108627381671223
"CAN","cpi",0.1,1966,3,1966,NA,0.5,3.34214627851299,3.41272811605544,3.72486065470629,3.37743719728421,FALSE,0.764209701211007
"CAN","cpi",0.1,1966,3,1965,NA,1,1.88681761781977,2.08292184507112,3.72486065470629,1.98486973144544,FALSE,3.84485713755174
"CAN","cpi",0.1,1966,3,1965,NA,1.5,0.480588720375362,0.676692947626713,3.72486065470629,0.578640834001038,FALSE,6.96981024298374
"CAN","cpi",0.1,1967,3,1967,NA,0,3.67383715156733,3.69367826272484,3.49360316391996,3.68375770714608,FALSE,0.42036108370722
"CAN","cpi",0.1,1967,3,1967,NA,0.5,2.06183094040635,2.15926322055882,3.49360316391996,2.11054708048259,FALSE,3.06263215428833
"CAN","cpi",0.1,1967,3,1966,NA,1,1.92292736963863,2.1171387810314,3.49360316391996,2.02003307533501,FALSE,3.25302115114513
"CAN","cpi",0.1,1967,3,1966,NA,1.5,1.61847965810034,1.81269106949312,3.49360316391996,1.71558536379673,FALSE,3.92957162123021
"CAN","cpi",0.1,1968,3,1968,NA,0,4.05959543734051,4.08211891904664,3.95128347779386,4.07085717819357,FALSE,0.263216725143135
"CAN","cpi",0.1,1968,3,1968,NA,0.5,3.40564463068274,3.60900003484729,3.95128347779386,3.50732233276501,FALSE,0.963985277379144
"CAN","cpi",0.1,1968,3,1967,NA,1,3.56135909093464,3.7647144950992,3.95128347779386,3.66303679301692,FALSE,0.617953143486017
"CAN","cpi",0.1,1968,3,1967,NA,1.5,0.733203816962775,0.93655922112733,3.95128347779386,0.834881519045053,FALSE,6.90274264120128
"CAN","cpi",0.1,1969,3,1969,NA,0,4.51309017977652,4.53756262038855,4.42679496126681,4.52532640008253,FALSE,0.216239592855811
"CAN","cpi",0.1,1969,3,1969,NA,0.5,2.56201601855354,2.81979639714009,4.42679496126681,2.69090620784681,FALSE,3.82888829886817
"CAN","cpi",0.1,1969,3,1968,NA,1,3.94904913834063,4.20682951692717,4.42679496126681,4.0779393276339,FALSE,0.746592477119084
"CAN","cpi",0.1,1969,3,1968,NA,1.5,1.48332852406131,1.74110890264786,4.42679496126681,1.61221871335458,FALSE,6.22597161996201
"CAN","cpi",0.1,1970,3,1970,NA,0,3.54920816997391,3.56836393874567,3.28128405769805,3.55878605435979,FALSE,0.614542684940344
"CAN","cpi",0.1,1970,3,1970,NA,0.5,3.62080258474177,3.87858296332831,3.28128405769805,3.74969277403504,FALSE,1.01226599423926
"CAN","cpi",0.1,1970,3,1969,NA,1,2.98297589353281,3.24075627211936,3.28128405769805,3.11186608282608,FALSE,0.34784212431697
"CAN","cpi",0.1,1970,3,1969,NA,1.5,0.636051787966364,0.893832166552912,3.28128405769805,0.764941977259638,FALSE,5.56322902557574
"CAN","cpi",0.1,1971,3,1971,NA,0,2.80228413878874,2.82800692698868,2.64123406634756,2.81514553288871,FALSE,0.383611838069228
"CAN","cpi",0.1,1971,3,1971,NA,0.5,0.987847118371939,1.24562749695849,2.64123406634756,1.11673730766521,FALSE,3.35912831056227
"CAN","cpi",0.1,1971,3,1970,NA,1,1.79154431531068,2.04932469389722,2.64123406634756,1.92043450460395,FALSE,1.5731345395873
"CAN","cpi",0.1,1971,3,1970,NA,1.5,1.57305056271274,1.83083094129929,2.64123406634756,1.70194075200601,FALSE,2.05867621202716
"CAN","cpi",0.1,1972,3,1972,NA,0,4.93516748234914,5.16140776077034,4.83230569625923,5.04828762155974,FALSE,0.454822025287657
"CAN","cpi",0.1,1972,3,1972,NA,0.5,3.98290371438657,4.20914399280777,4.83230569625923,4.09602385359717,FALSE,1.61104406386888
"CAN","cpi",0.1,1972,3,1971,NA,1,4.05500097712656,4.28124125554776,4.83230569625923,4.16812111633716,FALSE,1.45082792444669
"CAN","cpi",0.1,1972,3,1971,NA,1.5,0.563139816057815,0.820920194644363,4.83230569625923,0.692030005351089,FALSE,9.17197038217514
"CAN","cpi",0.1,1973,3,1973,NA,0,7.15834105841512,7.34358158612453,7.12388603531779,7.25096132226983,FALSE,0.261807245703478
"CAN","cpi",0.1,1973,3,1973,NA,0.5,5.21183990904611,5.39708043675552,7.12388603531779,5.30446017290082,FALSE,4.02258630229223
"CAN","cpi",0.1,1973,3,1972,NA,1,4.83014009406795,5.01538062177736,7.12388603531779,4.92276035792265,FALSE,4.87080811335481
"CAN","cpi",0.1,1973,3,1972,NA,1.5,1.66298860144876,1.92076898003531,7.12388603531779,1.79187879074203,FALSE,11.8202627236587
"CAN","cpi",0.1,1974,3,1974,NA,0,10.0268453817557,10.2709770385463,10.2717243737774,10.148911210151,FALSE,0.245792401748638
"CAN","cpi",0.1,1974,3,1974,NA,0.5,7.7823970640552,8.02652872084579,10.2717243737774,7.90446289245049,FALSE,5.23345532997199
"CAN","cpi",0.1,1974,3,1973,NA,1,7.1826951391708,7.42682679596138,10.2717243737774,7.30476096756609,FALSE,6.56612627415956
"CAN","cpi",0.1,1974,3,1973,NA,1.5,2.43743890654363,2.69521928513018,10.2717243737774,2.5663290958369,FALSE,17.0944583533582
"CAN","cpi",0.1,1975,3,1975,NA,0,10.1616433719209,10.1876708488377,10.0232981493341,10.1746571103793,FALSE,0.333461304887356
"CAN","cpi",0.1,1975,3,1975,NA,0.5,7.94263287985137,8.20041325843792,10.0232981493341,8.07152306914465,FALSE,4.30863569168921
"CAN","cpi",0.1,1975,3,1974,NA,1,7.68988764639813,7.94766802498468,10.0232981493341,7.8187778356914,FALSE,4.87029176602976
"CAN","cpi",0.1,1975,3,1974,NA,1.5,3.50227659811071,3.796008895898,10.0232981493341,3.64914274700436,FALSE,14.1321528609787
"CAN","cpi",0.1,1976,3,1976,NA,0,7.17785569995143,7.20204716092467,7.22784311401172,7.18995143043805,FALSE,0.0815158011666755
"CAN","cpi",0.1,1976,3,1976,NA,0.5,6.48444345355981,6.74222383214635,7.22784311401172,6.61333364285308,FALSE,1.33693433828735
"CAN","cpi",0.1,1976,3,1975,NA,1,8.45608088660972,8.71386126519627,7.22784311401172,8.584971075903,FALSE,2.98719765102656
"CAN","cpi",0.1,1976,3,1975,NA,1.5,3.01849551066263,3.27627588924918,7.22784311401172,3.14738569995591,FALSE,9.03904087805885
"CAN","cpi",0.1,1977,3,1977,NA,0,7.48804959882254,7.51548929125638,7.58101410153764,7.50176944503946,FALSE,0.173050381947764
"CAN","cpi",0.1,1977,3,1977,NA,0.5,6.27682619897546,6.53460657756201,7.58101410153764,6.40571638826874,FALSE,2.58313043186573
"CAN","cpi",0.1,1977,3,1976,NA,1,3.92020267147687,4.17798305006342,7.58101410153764,4.04909286077014,FALSE,7.82007160408483
"CAN","cpi",0.1,1977,3,1976,NA,1.5,2.46543728798165,2.72321766656819,7.58101410153764,2.59432747727492,FALSE,11.0528835674075
"CAN","cpi",0.1,1978,3,1978,NA,0,8.46215828454822,8.71993866313477,8.50208927062595,8.59104847384149,TRUE,0.257780378586549
"CAN","cpi",0.1,1978,3,1978,NA,0.5,7.21224889804167,7.47002927662822,8.50208927062595,7.34113908733495,FALSE,2.55124703191483
"CAN","cpi",0.1,1978,3,1977,NA,1,5.75013849588824,6.00791887447478,8.50208927062595,5.87902868518151,FALSE,5.80038125892247
"CAN","cpi",0.1,1978,3,1977,NA,1.5,3.76404466912887,4.02182504771542,8.50208927062595,3.89293485842214,FALSE,10.2139230961655
"CAN","cpi",0.1,1979,3,1979,NA,0,8.35762391214449,8.61540429073104,8.65147652410481,8.48651410143776,FALSE,0.337940897194933
"CAN","cpi",0.1,1979,3,1979,NA,0.5,7.33297728135546,7.590757659942,8.65147652410481,7.46186747064873,FALSE,2.61493341005945
"CAN","cpi",0.1,1979,3,1978,NA,1,6.80797039450341,7.06575077308996,8.65147652410481,6.93686058379669,FALSE,3.78161538084177
"CAN","cpi",0.1,1979,3,1978,NA,1.5,3.78908083117952,4.04686120976607,8.65147652410481,3.9179710204728,FALSE,10.4902588548949
"CAN","cpi",0.1,1980,3,1980,NA,0,9.30822109225891,9.56600147084546,9.5171912664748,9.43711128155219,TRUE,0.257780378586549
"CAN","cpi",0.1,1980,3,1980,NA,0.5,7.76255057556524,8.02033095415178,9.5171912664748,7.89144076485851,FALSE,3.58413662819324
"CAN","cpi",0.1,1980,3,1979,NA,1,5.56498775782476,5.82276813641131,9.5171912664748,5.69387794711803,FALSE,8.46760955650541
"CAN","cpi",0.1,1980,3,1979,NA,1.5,4.1431002932741,4.40088067186065,9.5171912664748,4.27199048256738,FALSE,11.6273594777291
"CAN","cpi",0.1,1981,3,1981,NA,0,11.4886485698607,11.7464289484473,11.5813425032741,11.617538759154,TRUE,0.257780378586549
"CAN","cpi",0.1,1981,3,1981,NA,0.5,11.1749357207974,11.432716099384,11.5813425032741,11.3038259100907,FALSE,0.588061276120231
"CAN","cpi",0.1,1981,3,1980,NA,1,8.10033453661117,8.35811491519772,11.5813425032741,8.22922472590444,FALSE,7.42050835208971
"CAN","cpi",0.1,1981,3,1980,NA,1.5,4.41477733152386,4.68159001940856,11.5813425032741,4.54818367546621,FALSE,15.5995959853638
"CAN","cpi",0.1,1982,3,1982,NA,0,10.0575070230416,10.3152874016281,10.1124203763629,10.1863972123348,TRUE,0.257780378586549
"CAN","cpi",0.1,1982,3,1982,NA,0.5,9.25122571238636,9.50900609097291,10.1124203763629,9.38011590167964,FALSE,1.59870101278663
"CAN","cpi",0.1,1982,3,1981,NA,1,8.79885940573377,9.05663978432032,10.1124203763629,8.92774959502704,FALSE,2.60395947201461
"CAN","cpi",0.1,1982,3,1981,NA,1.5,7.50843040789707,7.80533081093207,10.1124203763629,7.65688060941457,FALSE,5.42376610399251
"CAN","cpi",0.1,1983,3,1983,NA,0,5.66342431007789,5.92120468866443,5.67091787896303,5.79231449937116,TRUE,0.257780378586547
"CAN","cpi",0.1,1983,3,1983,NA,0.5,4.36046467821211,4.61824505679866,5.67091787896303,4.48935486750539,FALSE,2.5970533167296
"CAN","cpi",0.1,1983,3,1982,NA,1,6.54224692434521,6.82496994890661,5.67091787896303,6.68360843662591,FALSE,2.21900979207735
"CAN","cpi",0.1,1983,3,1982,NA,1.5,5.66356785116358,5.94629087572499,5.67091787896303,5.80492936344428,TRUE,0.28272302456141
"CAN","cpi",0.1,1984,3,1984,NA,0,4.08437151821712,4.28831695737169,4.19799576814029,4.1863442377944,TRUE,0.20394543915457
"CAN","cpi",0.1,1984,3,1984,NA,0.5,4.27171647077486,4.47566190992943,4.19799576814029,4.37368919035215,FALSE,0.367769222786955
"CAN","cpi",0.1,1984,3,1983,NA,1,4.69634966934012,4.95413004792667,4.19799576814029,4.8252398586334,FALSE,1.36523349236396
"CAN","cpi",0.1,1984,3,1983,NA,1.5,1.45474262647693,1.81829437542515,4.19799576814029,1.63651850095104,FALSE,5.65177706609298
"CAN","cpi",0.1,1985,3,1985,NA,0,3.74599944484151,4.00377982342806,3.86444262005169,3.87488963413478,TRUE,0.257780378586547
"CAN","cpi",0.1,1985,3,1985,NA,0.5,3.54065441238947,3.79843479097601,3.86444262005169,3.66954460168274,FALSE,0.404464443199167
"CAN","cpi",0.1,1985,3,1984,NA,1,2.38871895297203,2.64649933155858,3.86444262005169,2.51760914226531,FALSE,2.96432101968235
"CAN","cpi",0.1,1985,3,1984,NA,1.5,2.61579904073458,2.87357941932113,3.86444262005169,2.74468923002786,FALSE,2.45969860243224
"CAN","cpi",0.1,1986,3,1986,NA,0,3.9612036209145,4.21898399950105,4.08685396749431,4.09009381020777,TRUE,0.257780378586547
"CAN","cpi",0.1,1986,3,1986,NA,0.5,4.05978724722701,4.31756762581356,4.08685396749431,4.18867743652029,TRUE,0.257780378586547
"CAN","cpi",0.1,1986,3,1985,NA,1,2.83457517765309,3.09235555623963,4.08685396749431,2.96346536694636,FALSE,2.46777684804139
"CAN","cpi",0.1,1986,3,1985,NA,1.5,2.52756495572897,2.78534533431551,4.08685396749431,2.65645514502224,FALSE,3.15002178565054
"CAN","cpi",0.1,1987,3,1987,NA,0,4.17493729990067,4.43271767848722,4.23980729277887,4.30382748919395,TRUE,0.257780378586547
"CAN","cpi",0.1,1987,3,1987,NA,0.5,3.47856025430229,3.73634063288884,4.23980729277887,3.60745044359556,FALSE,1.37659517834218
"CAN","cpi",0.1,1987,3,1986,NA,1,3.36065375346737,3.61843413205391,4.23980729277887,3.48954394276064,FALSE,1.63860962464201
"CAN","cpi",0.1,1987,3,1986,NA,1.5,2.92172595893375,3.1795063375203,4.23980729277887,3.05061614822702,FALSE,2.6140047236056
"CAN","cpi",0.1,1988,3,1988,NA,0,3.83762181945641,4.09540219804296,3.92899537638065,3.96651200874969,TRUE,0.257780378586547
"CAN","cpi",0.1,1988,3,1988,NA,0.5,3.14699415633888,3.40477453492543,3.92899537638065,3.27588434563216,FALSE,1.42271558182038
"CAN","cpi",0.1,1988,3,1987,NA,1,3.23668834308944,3.49446872167599,3.92899537638065,3.36557853238272,FALSE,1.22339516681914
"CAN","cpi",0.1,1988,3,1987,NA,1.5,2.10001647059166,2.35779684917821,3.92899537638065,2.22890665988493,FALSE,3.74933266125865
"CAN","cpi",0.1,1989,3,1989,NA,0,4.95462606400851,4.96985638089384,4.82821664544208,4.96224122245117,FALSE,0.296140135921846
"CAN","cpi",0.1,1989,3,1989,NA,0.5,4.0235716283335,4.28135200692005,4.82821664544208,4.15246181762677,FALSE,1.47303513085772
"CAN","cpi",0.1,1989,3,1988,NA,1,3.22172757844658,3.47950795703312,4.82821664544208,3.35061776773985,FALSE,3.25491079727311
"CAN","cpi",0.1,1989,3,1988,NA,1.5,1.90404191706502,2.16182229565156,4.82821664544208,2.03293210635829,FALSE,6.1831011558988
"CAN","cpi",0.1,1990,3,1990,NA,0,4.48164319869973,4.50069145046835,4.64347549432717,4.49116732458404,FALSE,0.33634612701044
"CAN","cpi",0.1,1990,3,1990,NA,0.5,4.67746114970814,4.93524152829469,4.64347549432717,4.80635133900141,FALSE,0.333304057210924
"CAN","cpi",0.1,1990,3,1989,NA,1,4.32443911596874,4.58221949455529,4.64347549432717,4.45332930526201,FALSE,0.393904822524063
"CAN","cpi",0.1,1990,3,1989,NA,1.5,2.81105124367604,3.06883162226259,4.64347549432717,2.93994143296931,FALSE,3.75698898317451
"CAN","cpi",0.1,1991,3,1991,NA,0,5.46943481559085,5.72384825465536,5.4258100696218,5.5966415351231,FALSE,0.351357318995743
"CAN","cpi",0.1,1991,3,1991,NA,0.5,7.91525372062355,8.16966715968805,5.4258100696218,8.0424604401558,FALSE,5.78651044129061
"CAN","cpi",0.1,1991,3,1990,NA,1,2.88045713436648,3.13487057343098,5.4258100696218,3.00766385389873,FALSE,5.34539009726632
"CAN","cpi",0.1,1991,3,1990,NA,1.5,3.29740650797712,3.55181994704162,5.4258100696218,3.42461322750937,FALSE,4.41883593368712
"CAN","cpi",0.1,1992,3,1992,NA,0,1.452430807818,1.46993521117431,1.47496888572843,1.46118300949616,FALSE,0.0286903468099114
"CAN","cpi",0.1,1992,3,1992,NA,0.5,1.17723951309911,1.29869683807029,1.47496888572843,1.2379681755847,FALSE,0.513172986433724
"CAN","cpi",0.1,1992,3,1991,NA,1,1.76273580421633,1.98193725407587,1.47496888572843,1.8723365291461,FALSE,0.858683490943756
"CAN","cpi",0.1,1992,3,1991,NA,1.5,6.78973624345961,7.00893769331914,1.47496888572843,6.89933696838937,FALSE,12.029795578151
"CAN","cpi",0.1,1993,3,1993,NA,0,1.79233759505348,1.81207375606458,1.84351085411351,1.80220567555903,FALSE,0.089596378897612
"CAN","cpi",0.1,1993,3,1993,NA,0.5,2.15683963159422,2.27953033299269,1.84351085411351,2.21818498229346,FALSE,0.818976873577822
"CAN","cpi",0.1,1993,3,1992,NA,1,1.24529940257031,1.45878658119208,1.84351085411351,1.3520429918812,FALSE,1.06843000733606
"CAN","cpi",0.1,1993,3,1992,NA,1.5,0.826741898025975,1.04022907664774,1.84351085411351,0.933485487336859,FALSE,1.99855779521237
"CAN","cpi",0.1,1994,3,1994,NA,0,0.104937816147498,0.299281498826885,0.161630694655448,0.202109657487191,TRUE,0.194343682679388
"CAN","cpi",0.1,1994,3,1994,NA,0.5,-0.669811548802471,-0.475467866123083,0.161630694655448,-0.572639707462777,FALSE,1.61011826218723
"CAN","cpi",0.1,1994,3,1993,NA,1,1.03722051908983,1.24499014244689,0.161630694655448,1.14110533076836,FALSE,2.15352478876679
"CAN","cpi",0.1,1994,3,1993,NA,1.5,1.5463498112807,1.75411943463776,0.161630694655448,1.65023462295923,FALSE,3.28492321585762
"CAN","cpi",0.1,1995,3,1995,NA,0,2.13902286112029,2.15800212912598,2.11688403676572,2.14851249512314,FALSE,0.0681766554603045
"CAN","cpi",0.1,1995,3,1995,NA,0.5,2.5406063504658,2.66084251571906,2.11688403676572,2.60072443309243,FALSE,1.061841306809
"CAN","cpi",0.1,1995,3,1994,NA,1,1.33124328171439,1.53623617112944,2.11688403676572,1.43373972642191,FALSE,1.49532147971789
"CAN","cpi",0.1,1995,3,1994,NA,1.5,-1.3686097789533,-1.16361688953825,2.11688403676572,-1.26611333424577,FALSE,7.4949949478683
"CAN","cpi",0.1,1996,3,1996,NA,0,1.42731543649817,1.4459899720026,1.55309584667184,1.43665270425039,FALSE,0.256687590324971
"CAN","cpi",0.1,1996,3,1996,NA,0.5,1.16664743034727,1.29887917695346,1.55309584667184,1.23276330365037,FALSE,0.697157679313702
"CAN","cpi",0.1,1996,3,1995,NA,1,0.626695262712877,0.832811256074952,1.55309584667184,0.729753259393914,FALSE,1.80674841691072
"CAN","cpi",0.1,1996,3,1995,NA,1.5,2.2159903951844,2.42210638854647,1.55309584667184,2.31904839186543,FALSE,1.67921499005664
"CAN","cpi",0.1,1997,3,1997,NA,0,1.66786498516706,1.69112458930485,1.60528783555959,1.67949478723595,FALSE,0.16231993659883
"CAN","cpi",0.1,1997,3,1997,NA,0.5,1.86661549893273,1.99922434303541,1.60528783555959,1.93291992098407,FALSE,0.713336984931877
"CAN","cpi",0.1,1997,3,1996,NA,1,0.529784242864671,0.699476660377238,1.60528783555959,0.614630451620954,FALSE,2.18260614014002
"CAN","cpi",0.1,1997,3,1996,NA,1.5,0.850396510969045,1.0739266174287,1.60528783555959,0.962161564198873,FALSE,1.40433281341719
"CAN","cpi",0.1,1998,3,1998,NA,0,0.878674181736664,1.05545317903892,0.988908029337191,0.967063680387792,TRUE,0.176778997302256
"CAN","cpi",0.1,1998,3,1998,NA,0.5,1.26058510001224,1.4373640973145,0.988908029337191,1.34897459866337,FALSE,0.780505821024586
"CAN","cpi",0.1,1998,3,1997,NA,1,0.704300460595001,0.881079457897257,0.988908029337191,0.792689959246129,FALSE,0.416398044946554
"CAN","cpi",0.1,1998,3,1997,NA,1.5,1.11689334553051,1.45078666200842,0.988908029337191,1.28384000376946,FALSE,0.618305130240836
"CAN","cpi",0.1,1999,3,1999,NA,0,1.6712635017591,1.86602917613298,1.7107350135213,1.76864633894604,TRUE,0.194765674373885
"CAN","cpi",0.1,1999,3,1999,NA,0.5,0.634716873413588,0.829482547787473,1.7107350135213,0.732099710600531,FALSE,2.15310448711571
"CAN","cpi",0.1,1999,3,1998,NA,1,0.271669734772687,0.466435409146572,1.7107350135213,0.369052571959629,FALSE,2.95987590631772
"CAN","cpi",0.1,1999,3,1998,NA,1.5,1.0457712344912,1.49116890597139,1.7107350135213,1.26847007023129,FALSE,0.933322354924429
"CAN","cpi",0.1,2000,3,2000,NA,0,2.59977079903213,2.80538541444856,2.6718361971244,2.70257810674034,TRUE,0.205614615416431
"CAN","cpi",0.1,2000,3,2000,NA,0.5,1.85667575110054,2.06229036651698,2.6718361971244,1.95948305880876,FALSE,1.56016090565515
"CAN","cpi",0.1,2000,3,1999,NA,1,2.03265643056671,2.29043680915326,2.6718361971244,2.16154661985999,FALSE,1.10533457407797
"CAN","cpi",0.1,2000,3,1999,NA,1.5,0.283174356815654,0.722393399311867,2.6718361971244,0.50278387806376,FALSE,4.77131414874629
"CAN","cpi",0.1,2001,3,2001,NA,0,2.63464543616145,2.82844555156029,2.47906219852806,2.73154549386087,FALSE,0.539540643473033
"CAN","cpi",0.1,2001,3,2001,NA,0.5,1.56171822493984,1.75551834033868,2.47906219852806,1.65861828263926,FALSE,1.80167535581969
"CAN","cpi",0.1,2001,3,2000,NA,1,2.74443890019044,2.93823901558929,2.47906219852806,2.84133895788986,FALSE,0.783526119093021
"CAN","cpi",0.1,2001,3,2000,NA,1.5,0.937498011244791,1.34632907771459,2.47906219852806,1.14191354447969,FALSE,2.92601577938863
"CAN","cpi",0.1,2002,3,2002,NA,0,2.30362099009071,2.32202955921336,2.20880570551249,2.31282527465204,FALSE,0.229109201518703
"CAN","cpi",0.1,2002,3,2002,NA,0.5,1.1608470354786,1.33379193720326,2.20880570551249,1.24731948634093,FALSE,2.11741994241183
"CAN","cpi",0.1,2002,3,2001,NA,1,0.586821229102795,0.804161852670955,2.20880570551249,0.695491540886875,FALSE,3.33877140766045
"CAN","cpi",0.1,2002,3,2001,NA,1.5,0.281023104477552,0.671100133165128,2.20880570551249,0.47606161882134,FALSE,3.80720052279282
"CAN","cpi",0.1,2003,3,2003,NA,0,2.74668794102168,2.76252000453482,2.71189071546809,2.75460397277825,FALSE,0.0931592314100043
"CAN","cpi",0.1,2003,3,2003,NA,0.5,4.03207951863099,4.28985989721754,2.71189071546809,4.16096970792426,FALSE,3.1915332745041
"CAN","cpi",0.1,2003,3,2002,NA,1,3.14902889259143,3.40680927117798,2.71189071546809,3.27791908188471,FALSE,1.22919854997176
"CAN","cpi",0.1,2003,3,2002,NA,1.5,1.33209780637093,1.70450244876708,2.71189071546809,1.51830012756901,FALSE,2.61104523506505
"CAN","cpi",0.1,2004,3,2004,NA,0,1.75619070783286,1.7668713702059,1.83151661303942,1.76153103901938,FALSE,0.154336757558638
"CAN","cpi",0.1,2004,3,2004,NA,0.5,1.26056585551244,1.51834623409899,1.83151661303942,1.38945604480572,FALSE,0.953714554009729
"CAN","cpi",0.1,2004,3,2003,NA,1,0.889856002302699,1.14763638088925,1.83151661303942,1.01874619159597,FALSE,1.77751422780916
"CAN","cpi",0.1,2004,3,2003,NA,1.5,2.86216340175083,3.11994378033738,1.83151661303942,2.99105359104411,FALSE,2.54810657572302
"CAN","cpi",0.1,2005,3,2005,NA,0,2.34555015937805,2.35569946346829,2.18071628336509,2.35062481142317,FALSE,0.376446806341255
"CAN","cpi",0.1,2005,3,2005,NA,0.5,1.32639353193703,1.58417391052358,2.18071628336509,1.4552837212303,FALSE,1.58343009601214
"CAN","cpi",0.1,2005,3,2004,NA,1,0.667596522730496,0.925376901317044,2.18071628336509,0.79648671202377,FALSE,3.04742344980443
"CAN","cpi",0.1,2005,3,2004,NA,1.5,1.0079193242147,1.26569970280125,2.18071628336509,1.13680951350797,FALSE,2.29115055761732
"CAN","cpi",0.1,2006,3,2006,NA,0,1.93559023395024,2.19337061253679,1.97519342012289,2.06448042324351,TRUE,0.257780378586547
"CAN","cpi",0.1,2006,3,2006,NA,0.5,1.64184295190878,1.89962333049533,1.97519342012289,1.77073314120205,FALSE,0.425713911092234
"CAN","cpi",0.1,2006,3,2005,NA,1,2.45919185789614,2.71697223648268,1.97519342012289,2.58808204718941,FALSE,1.3333324625271
"CAN","cpi",0.1,2006,3,2005,NA,1.5,0.633185079623454,0.890965458210002,1.97519342012289,0.762075268916728,FALSE,2.66717584950407
"CAN","cpi",0.1,2007,3,2007,NA,0,2.09558827528843,2.12055853487112,2.10062087284572,2.10807340507977,TRUE,0.0249702595826911
"CAN","cpi",0.1,2007,3,2007,NA,0.5,2.02777481417743,2.16743061431607,2.10062087284572,2.09760271424675,TRUE,0.139655800138645
"CAN","cpi",0.1,2007,3,2006,NA,1,0.309972269330598,0.567752647917146,2.10062087284572,0.438862458623872,FALSE,3.66415421176116
"CAN","cpi",0.1,2007,3,2006,NA,1.5,0.952001788458974,1.20978216704552,2.10062087284572,1.08089197775225,FALSE,2.23742194703144
"CAN","cpi",0.1,2008,3,2008,NA,0,2.90479567306275,2.92453939456064,2.31447335265955,2.9146675338117,FALSE,1.33157110017167
"CAN","cpi",0.1,2008,3,2008,NA,0.5,0.932198948089053,1.15905595634625,2.31447335265955,1.04562745221765,FALSE,2.79445122228675
"CAN","cpi",0.1,2008,3,2007,NA,1,0.251601676257573,0.478458684514773,2.31447335265955,0.365030180386173,FALSE,4.30688960413449
"CAN","cpi",0.1,2008,3,2007,NA,1.5,1.92764539039274,2.15450239864994,2.31447335265955,2.04107389452134,FALSE,0.582348017167442
"CAN","cpi",0.1,2009,3,2009,NA,0,0.263358244043511,0.281879428389347,0.284533874408197,0.272618836216429,FALSE,0.024419953276614
"CAN","cpi",0.1,2009,3,2009,NA,0.5,-0.875406047679204,-0.739446629356866,0.284533874408197,-0.807426338518035,FALSE,2.41147164891137
"CAN","cpi",0.1,2009,3,2008,NA,1,3.15466675835658,3.41244713694313,0.284533874408197,3.28355694764985,FALSE,6.6358534540274
"CAN","cpi",0.1,2009,3,2008,NA,1.5,0.574486765945639,0.832267144532186,0.284533874408197,0.703376955238912,FALSE,0.90212013755864
"CAN","cpi",0.1,2010,3,2010,NA,0,1.71816665604997,1.7359940719635,1.75525687020327,1.72708036400674,FALSE,0.0606336342241345
"CAN","cpi",0.1,2010,3,2010,NA,0.5,1.37645786758316,1.46840745638016,1.75525687020327,1.42243266198166,FALSE,0.729392730626142
"CAN","cpi",0.1,2010,3,2009,NA,1,0.376520806754559,0.655138067404358,1.75525687020327,0.515829437079458,FALSE,2.72332571131405
"CAN","cpi",0.1,2010,3,2009,NA,1.5,-0.805708262331693,-0.527091001681893,1.75525687020327,-0.666399632006793,FALSE,5.35050142039461
"CAN","cpi",0.1,2011,3,2011,NA,0,2.81807559049279,2.83934678407417,2.85717434028225,2.82871118728348,FALSE,0.0608879851548795
"CAN","cpi",0.1,2011,3,2011,NA,0.5,2.53818023505466,2.6479326838462,2.85717434028225,2.59305645945043,FALSE,0.574733907538314
"CAN","cpi",0.1,2011,3,2010,NA,1,1.44342560159818,1.72047138464472,2.85717434028225,1.58194849312145,FALSE,2.80305235112994
"CAN","cpi",0.1,2011,3,2010,NA,1.5,0.870139426053968,1.14718520910051,2.85717434028225,1.00866231757724,FALSE,4.07702163011706
"CAN","cpi",0.1,2012,3,2012,NA,0,1.45499780205008,1.47863722685746,1.50118536134935,1.46681751445377,FALSE,0.0737463903449007
"CAN","cpi",0.1,2012,3,2012,NA,0.5,1.57803764858369,1.69929429263142,1.50118536134935,1.63866597060755,FALSE,0.292039504568493
"CAN","cpi",0.1,2012,3,2011,NA,1,0.710334421854383,0.986146676120483,1.50118536134935,0.848240548987433,FALSE,1.4203426658858
"CAN","cpi",0.1,2012,3,2011,NA,1.5,1.5459368647521,1.8217491190182,1.50118536134935,1.68384299188515,FALSE,0.375260039605545
"CAN","cpi",0.1,2013,3,2013,NA,0,1.02292540496594,1.03873690331662,0.931270594714462,1.03083115414128,FALSE,0.219488854465071
"CAN","cpi",0.1,2013,3,2013,NA,0.5,0.934025566476794,1.06965569745372,0.931270594714462,1.00184063196526,FALSE,0.141752290448778
"CAN","cpi",0.1,2013,3,2012,NA,1,-0.343454930951527,-0.201637050793245,0.931270594714462,-0.272545990872386,FALSE,2.65939042573096
"CAN","cpi",0.1,2013,3,2012,NA,1.5,0.829718614842797,1.08749899342934,0.931270594714462,0.958608804136071,TRUE,0.257780378586548
"CAN","cpi",0.1,2014,3,2014,NA,0,1.9782869601804,1.99397861003363,1.87639912240215,1.98613278510701,FALSE,0.242109067138229
"CAN","cpi",0.1,2014,3,2014,NA,0.5,1.89269229438765,2.01178540808838,1.87639912240215,1.95223885123801,FALSE,0.155300162557395
"CAN","cpi",0.1,2014,3,2013,NA,1,0.625115355233652,0.752202019334042,1.87639912240215,0.688658687283847,FALSE,2.62530244869619
"CAN","cpi",0.1,2014,3,2013,NA,1.5,0.762704010591227,1.02048438917778,1.87639912240215,0.891594199884501,FALSE,2.15981311908516
"CAN","cpi",0.1,2015,3,2015,NA,0,1.23589537342366,1.25694195412142,1.11090953952792,1.24641866377254,FALSE,0.298792878243855
"CAN","cpi",0.1,2015,3,2015,NA,0.5,0.123797766067816,0.272436558111581,1.11090953952792,0.198117162089698,FALSE,2.01191208408007
"CAN","cpi",0.1,2015,3,2014,NA,1,0.457786676574884,0.606425468618649,1.11090953952792,0.532106072596766,FALSE,1.26971450517547
"CAN","cpi",0.1,2015,3,2014,NA,1.5,1.6814690130594,1.93924939164595,1.11090953952792,1.81035920235268,FALSE,1.52569031976763
"CAN","cpi",0.1,2016,3,2016,NA,0,1.43062896810258,1.4530701797892,1.41168586698797,1.44184957394589,FALSE,0.064536991941316
"CAN","cpi",0.1,2016,3,2016,NA,0.5,0.769220195236996,0.916979899575248,1.41168586698797,0.843100047406122,FALSE,1.24710629858874
"CAN","cpi",0.1,2016,3,2015,NA,1,1.1609686855336,1.30872838987186,1.41168586698797,1.23484853770273,FALSE,0.376554097929607
"CAN","cpi",0.1,2016,3,2015,NA,1.5,-0.0214274371159909,0.236352941470557,1.41168586698797,0.107462752177283,FALSE,2.86963132418079
"CAN","cpi",0.1,2017,3,2017,NA,0,1.50835190613096,1.52644660666251,1.57888581671161,1.51739925639673,FALSE,0.134626278418444
"CAN","cpi",0.1,2017,3,2017,NA,0.5,1.77810730071707,1.98529808484067,1.57888581671161,1.88170269277887,FALSE,0.649905193024623
"CAN","cpi",0.1,2017,3,2016,NA,1,0.314742954693442,0.521933738817046,1.57888581671161,0.418338346755244,FALSE,2.55597317944486
"CAN","cpi",0.1,2017,3,2016,NA,1.5,0.396685898044017,0.654466276630564,1.57888581671161,0.52557608733729,FALSE,2.3120460232111
"CAN","cpi",0.1,2018,3,2018,NA,0,2.3993129211027,2.41291465060039,2.23316270166586,2.40611378585155,FALSE,0.382824439357344
"CAN","cpi",0.1,2018,3,2018,NA,0.5,2.55242824243829,2.69171217404579,2.23316270166586,2.62207020824204,FALSE,0.848762911101791
"CAN","cpi",0.1,2018,3,2017,NA,1,0.334471134802421,0.473755066409919,2.23316270166586,0.40411310060617,FALSE,4.0490786766207
"CAN","cpi",0.1,2018,3,2017,NA,1.5,1.40898505785599,1.66676543644254,2.23316270166586,1.53787524714926,FALSE,1.5164409679717
"CAN","cpi",0.1,2019,3,2019,NA,0,1.99973400722857,2.0231227906739,1.91921619871868,2.01142839895124,FALSE,0.202317246800645
"CAN","cpi",0.1,2019,3,2019,NA,0.5,1.44933706396802,1.5883370968437,1.91921619871868,1.51883708040586,FALSE,0.874286925931192
"CAN","cpi",0.1,2019,3,2018,NA,1,1.34992982458065,1.48892985745632,1.91921619871868,1.41942984101848,FALSE,1.09519190234758
"CAN","cpi",0.1,2019,3,2018,NA,1.5,1.93216152160684,2.18994190019339,1.91921619871868,2.06105171090012,FALSE,0.286547762782464
"CAN","cpi",0.1,2020,3,2020,NA,0,0.621362291307665,0.830997414274484,0.71139989671781,0.726179852791075,TRUE,0.20963512296682
"CAN","cpi",0.1,2020,3,2020,NA,0.5,0.967441888997114,1.17707701196393,0.71139989671781,1.07225945048052,FALSE,0.778617328031938
"CAN","cpi",0.1,2020,3,2019,NA,1,0.914322081794655,1.12395720476147,0.71139989671781,1.01913964327806,FALSE,0.660573312026475
"CAN","cpi",0.1,2020,3,2019,NA,1.5,1.09872626421191,1.35650664279846,0.71139989671781,1.22761645350518,FALSE,1.11850563968454
"CAN","cpi",0.1,2021,3,2021,NA,0,3.30014710170446,3.31962796211337,3.31148121717802,3.30988753190892,TRUE,0.0194808604089101
"CAN","cpi",0.1,2021,3,2021,NA,0.5,2.36101388936743,2.61879426795398,3.31148121717802,2.4899040786607,FALSE,1.79708471019554
"CAN","cpi",0.1,2021,3,2020,NA,1,1.06901651523983,1.32679689382638,3.31148121717802,1.1979067045331,FALSE,4.66818998603465
"CAN","cpi",0.1,2021,3,2020,NA,1.5,0.541736621697379,0.799517000283926,3.31148121717802,0.670626810990653,FALSE,5.83992308279565
"CAN","cpi",0.1,2022,3,2022,NA,0,6.41666770249529,6.67444808108184,6.50977236228281,6.54555789178856,TRUE,0.257780378586547
"CAN","cpi",0.1,2022,3,2022,NA,0.5,5.83579979676876,6.0935801753553,6.50977236228281,5.96468998606203,FALSE,1.18265190509212
"CAN","cpi",0.1,2022,3,2021,NA,1,3.29216245893653,3.54994283752308,6.50977236228281,3.42105264822981,FALSE,6.83517932249706
"CAN","cpi",0.1,2022,3,2021,NA,1.5,1.80387246954634,2.06165284813289,6.50977236228281,1.93276265883962,FALSE,10.1424904100308
"CAN","cpi",0.1,2023,3,2023,NA,0,3.96301028315646,3.98076342172989,3.78831288758619,3.97188685244318,FALSE,0.405969573174027
"CAN","cpi",0.1,2023,3,2023,NA,0.5,2.71030991425302,2.96809029283957,3.78831288758619,2.8392001035463,FALSE,2.08049725580126
"CAN","cpi",0.1,2023,3,2022,NA,1,2.73995972560431,2.99774010419086,3.78831288758619,2.86884991489758,FALSE,2.01460878613173
"CAN","cpi",0.1,2023,3,2022,NA,1.5,3.89869465667865,4.16765029363954,3.78831288758619,4.03317247515909,FALSE,0.514248457166354
"CAN","cpi",0.1,2024,3,2023,NA,1,2.77057735250034,3.02835773108689,NA,2.89946754179362,NA,NA
"CAN","cpi",0.1,2024,3,2023,NA,1.5,1.04378112241459,1.31605191322843,NA,1.17991651782151,NA,NA
"CAN","cpi",0.2,1959,3,1959,NA,0,0.964506964494957,1.41458501852857,1.19382698397654,1.18954599151176,TRUE,0.450078054033612
"CAN","cpi",0.2,1959,3,1959,NA,0.5,0.320269300144119,0.770347354177731,1.19382698397654,0.545308327160925,FALSE,1.50877712853064
"CAN","cpi",0.2,1959,3,1958,NA,1,0.872766312998381,1.39313597198254,1.19382698397654,1.13295114249046,TRUE,0.52036965898416
"CAN","cpi",0.2,1959,3,1958,NA,1.5,0.0216066039749119,1.41323757218367,1.19382698397654,0.717422088079289,TRUE,1.39163096820876
"CAN","cpi",0.2,1960,3,1960,NA,0,0.992624872138495,1.05460121305105,1.34209404870695,1.02361304259477,FALSE,0.78070843005231
"CAN","cpi",0.2,1960,3,1960,NA,0.5,0.535576940721024,0.76164507470629,1.34209404870695,0.648611007713657,FALSE,1.67719056898692
"CAN","cpi",0.2,1960,3,1959,NA,1,1.90298835620385,2.85034910750887,1.34209404870695,2.37666873185636,FALSE,2.34959652004726
"CAN","cpi",0.2,1960,3,1959,NA,1.5,-0.933972889185814,0.23578853005126,1.34209404870695,-0.349092179567277,FALSE,3.9355252158763
"CAN","cpi",0.2,1961,3,1961,NA,0,0.967783129419916,1.05064383246023,1.00921348094007,1.00921348094007,TRUE,0.0828607030403115
"CAN","cpi",0.2,1961,3,1961,NA,0.5,0.930302159523814,1.08812480235633,1.00921348094007,1.00921348094007,TRUE,0.157822642832515
"CAN","cpi",0.2,1961,3,1960,NA,1,-0.250585394084771,0.358126319291837,1.00921348094007,0.0537704626035329,FALSE,2.23642961749719
"CAN","cpi",0.2,1961,3,1960,NA,1.5,-0.636672242844703,-0.0279605294680948,1.00921348094007,-0.332316386156399,FALSE,3.20164673939703
"CAN","cpi",0.2,1962,3,1962,NA,0,1.0374291177904,1.0933311073062,1.04957947883042,1.0653801125483,TRUE,0.0559019895158022
"CAN","cpi",0.2,1962,3,1962,NA,0.5,-0.0993736612066352,0.0993736612066352,1.04957947883042,0,FALSE,2.57426186647272
"CAN","cpi",0.2,1962,3,1961,NA,1,-0.275496195434923,0.275496195434923,1.04957947883042,0,FALSE,2.48620059935858
"CAN","cpi",0.2,1962,3,1961,NA,1.5,-0.275496195434923,0.275496195434923,1.04957947883042,0,FALSE,2.48620059935858
"CAN","cpi",0.2,1963,3,1963,NA,0,1.80259130715485,1.85790777839211,1.60677118395228,1.83024954277348,FALSE,0.544866779243671
"CAN","cpi",0.2,1963,3,1963,NA,0.5,0.763524814097699,0.910132615137308,1.60677118395228,0.836828714617504,FALSE,1.88820422307705
"CAN","cpi",0.2,1963,3,1962,NA,1,1.3667890712865,1.85191294262002,1.60677118395228,1.60935100695326,TRUE,0.485123871333518
"CAN","cpi",0.2,1963,3,1962,NA,1.5,-0.242561935666759,0.242561935666759,1.60677118395228,0,FALSE,3.89564699204733
"CAN","cpi",0.2,1964,3,1964,NA,0,1.9169647044186,1.98692826444189,1.88764670034376,1.95194648443024,FALSE,0.143258570210386
"CAN","cpi",0.2,1964,3,1964,NA,0.5,1.22054010371207,1.32561623315589,1.88764670034376,1.27307816843398,FALSE,1.51015229741349
"CAN","cpi",0.2,1964,3,1963,NA,1,2.99099434214279,3.41245231060737,1.88764670034376,3.20172332637508,FALSE,3.17982707296216
"CAN","cpi",0.2,1964,3,1963,NA,1.5,-0.210728984232289,0.210728984232289,1.88764670034376,0,FALSE,4.61375225874326
"CAN","cpi",0.2,1965,3,1965,NA,0,2.26334016776375,2.33266362163271,2.29538304394236,2.29800189469823,TRUE,0.0693234538689591
"CAN","cpi",0.2,1965,3,1965,NA,0.5,1.35240345709381,1.43646090804271,2.29538304394236,1.39443218256826,FALSE,2.23136279069802
"CAN","cpi",0.2,1965,3,1964,NA,1,1.28473241265207,1.67683494813689,2.29538304394236,1.48078368039448,FALSE,1.93847277499848
"CAN","cpi",0.2,1965,3,1964,NA,1.5,0.0972061317910501,0.489308667275872,2.29538304394236,0.293257399533461,FALSE,4.90728847715103
"CAN","cpi",0.2,1966,3,1966,NA,0,3.74739812553287,3.80282723936407,3.72486065470629,3.77511268244847,FALSE,0.111772790897644
"CAN","cpi",0.2,1966,3,1966,NA,0.5,3.30595776404893,3.4489166305195,3.72486065470629,3.37743719728421,FALSE,0.832818926937546
"CAN","cpi",0.2,1966,3,1965,NA,1,1.78670851166426,2.18303095122662,3.72486065470629,1.98486973144544,FALSE,4.25089669826153
"CAN","cpi",0.2,1966,3,1965,NA,1.5,0.38047961421986,0.776802053782216,3.72486065470629,0.578640834001038,FALSE,7.76646894187254
"CAN","cpi",0.2,1967,3,1967,NA,0,3.66366427476068,3.70385113953149,3.49360316391996,3.68375770714608,FALSE,0.465339641872609
"CAN","cpi",0.2,1967,3,1967,NA,0.5,2.01207208002679,2.20902208093838,3.49360316391996,2.11054708048259,FALSE,3.40840270836553
"CAN","cpi",0.2,1967,3,1966,NA,1,1.82378874252505,2.21627740814498,3.49360316391996,2.02003307533501,FALSE,3.58580305505738
"CAN","cpi",0.2,1967,3,1966,NA,1.5,1.51934103098677,1.91182969660669,3.49360316391996,1.71558536379673,FALSE,4.3469223339031
"CAN","cpi",0.2,1968,3,1968,NA,0,4.04804726330759,4.09366709307955,3.95128347779386,4.07085717819357,FALSE,0.287529293556302
"CAN","cpi",0.2,1968,3,1968,NA,0.5,3.30196334981965,3.71268131571038,3.95128347779386,3.50732233276501,FALSE,1.00722337109942
"CAN","cpi",0.2,1968,3,1967,NA,1,3.45767781007156,3.86839577596229,3.95128347779386,3.66303679301692,FALSE,0.617937220469656
"CAN","cpi",0.2,1968,3,1967,NA,1.5,0.629522536099687,1.04024050199042,3.95128347779386,0.834881519045053,FALSE,7.68832540539933
"CAN","cpi",0.2,1969,3,1969,NA,0,4.50054274120173,4.55011005896333,4.42679496126681,4.52532640008253,FALSE,0.233936767598891
"CAN","cpi",0.2,1969,3,1969,NA,0.5,2.43072137835473,2.95109103733889,4.42679496126681,2.69090620784681,FALSE,4.20962946880397
"CAN","cpi",0.2,1969,3,1968,NA,1,3.81775449814182,4.33812415712598,4.42679496126681,4.0779393276339,FALSE,0.742046669336248
"CAN","cpi",0.2,1969,3,1968,NA,1.5,1.3520338838625,1.87240354284666,4.42679496126681,1.61221871335458,FALSE,6.90634820503454
"CAN","cpi",0.2,1970,3,1970,NA,0,3.53938667992202,3.57818542879756,3.28128405769805,3.55878605435979,FALSE,0.684055304435473
"CAN","cpi",0.2,1970,3,1970,NA,0.5,3.48950794454296,4.00987760352712,3.28128405769805,3.74969277403504,FALSE,1.04092937609645
"CAN","cpi",0.2,1970,3,1969,NA,1,2.851681253334,3.37205091231816,3.28128405769805,3.11186608282608,TRUE,0.52036965898416
"CAN","cpi",0.2,1970,3,1969,NA,1.5,0.504757147767557,1.02512680675172,3.28128405769805,0.764941977259638,FALSE,6.16076278634998
"CAN","cpi",0.2,1971,3,1971,NA,0,2.78909562563521,2.84119544014222,2.64123406634756,2.81514553288871,FALSE,0.42175371272612
"CAN","cpi",0.2,1971,3,1971,NA,0.5,0.856552478173133,1.37692213715729,2.64123406634756,1.11673730766521,FALSE,3.68114948195983
"CAN","cpi",0.2,1971,3,1970,NA,1,1.66024967511187,2.18061933409603,2.64123406634756,1.92043450460395,FALSE,1.67190648961299
"CAN","cpi",0.2,1971,3,1970,NA,1.5,1.44175592251393,1.96212558149809,2.64123406634756,1.70194075200601,FALSE,2.21814087110783
"CAN","cpi",0.2,1972,3,1972,NA,0,4.81984824951763,5.27672699360184,4.83230569625923,5.04828762155974,TRUE,0.456878744084205
"CAN","cpi",0.2,1972,3,1972,NA,0.5,3.86758448155507,4.32446322563927,4.83230569625923,4.09602385359717,FALSE,1.72648492063409
"CAN","cpi",0.2,1972,3,1971,NA,1,3.93968174429506,4.39656048837926,4.83230569625923,4.16812111633716,FALSE,1.54624176378412
"CAN","cpi",0.2,1972,3,1971,NA,1.5,0.431845175859009,0.952214834843169,4.83230569625923,0.692030005351089,FALSE,10.2205968125243
"CAN","cpi",0.2,1973,3,1973,NA,0,7.06387393393788,7.43804871060177,7.12388603531779,7.25096132226983,TRUE,0.374174776663894
"CAN","cpi",0.2,1973,3,1973,NA,0.5,5.11737278456887,5.49154756123276,7.12388603531779,5.30446017290082,FALSE,4.45502096187646
"CAN","cpi",0.2,1973,3,1972,NA,1,4.73567296959071,5.1098477462546,7.12388603531779,4.92276035792265,FALSE,5.40927049932187
"CAN","cpi",0.2,1973,3,1972,NA,1.5,1.53169396124995,2.05206362023411,7.12388603531779,1.79187879074203,FALSE,13.1999256966934
"CAN","cpi",0.2,1974,3,1974,NA,0,9.90250241114169,10.3953200091603,10.2717243737774,10.148911210151,TRUE,0.492817598018622
"CAN","cpi",0.2,1974,3,1974,NA,0.5,7.65805409344118,8.15087169145981,10.2717243737774,7.90446289245049,FALSE,5.79494930381266
"CAN","cpi",0.2,1974,3,1973,NA,1,7.05835216855678,7.5511697665754,10.2717243737774,7.30476096756609,FALSE,7.29420411602367
"CAN","cpi",0.2,1974,3,1973,NA,1.5,2.30614426634482,2.82651392532898,10.2717243737774,2.5663290958369,FALSE,19.1333957801052
"CAN","cpi",0.2,1975,3,1975,NA,0,10.1483868617248,10.2009273590337,10.0232981493341,10.1746571103793,FALSE,0.365262278285659
"CAN","cpi",0.2,1975,3,1975,NA,0.5,7.81133823965257,8.33170789863673,10.0232981493341,8.07152306914465,FALSE,4.74934528572764
"CAN","cpi",0.2,1975,3,1974,NA,1,7.55859300619932,8.07896266518348,10.0232981493341,7.8187778356914,FALSE,5.38120836936076
"CAN","cpi",0.2,1975,3,1974,NA,1.5,3.35167502868223,3.94661046532648,10.0232981493341,3.64914274700436,FALSE,15.7866546466633
"CAN","cpi",0.2,1976,3,1976,NA,0,7.16553425579645,7.21436860507965,7.22784311401172,7.18995143043805,FALSE,0.0825206216133658
"CAN","cpi",0.2,1976,3,1976,NA,0.5,6.353148813361,6.87351847234516,7.22784311401172,6.61333364285308,FALSE,1.40618126315055
"CAN","cpi",0.2,1976,3,1975,NA,1,8.32478624641091,8.84515590539508,7.22784311401172,8.584971075903,FALSE,3.26272748998216
"CAN","cpi",0.2,1976,3,1975,NA,1.5,2.88720087046383,3.40757052944799,7.22784311401172,3.14738569995591,FALSE,10.0710511203935
"CAN","cpi",0.2,1977,3,1977,NA,0,7.4740738084035,7.52946508167542,7.58101410153764,7.50176944503946,FALSE,0.184263822927485
"CAN","cpi",0.2,1977,3,1977,NA,0.5,6.14553155877666,6.66590121776082,7.58101410153764,6.40571638826874,FALSE,2.80815186842622
"CAN","cpi",0.2,1977,3,1976,NA,1,3.78890803127806,4.30927769026222,7.58101410153764,4.04909286077014,FALSE,8.69971068717271
"CAN","cpi",0.2,1977,3,1976,NA,1.5,2.33414264778284,2.854512306767,7.58101410153764,2.59432747727492,FALSE,12.3366241459108
"CAN","cpi",0.2,1978,3,1978,NA,0,8.33086364434941,8.85123330333357,8.50208927062595,8.59104847384149,TRUE,0.520369658984162
"CAN","cpi",0.2,1978,3,1978,NA,0.5,7.08095425784287,7.60132391682703,8.50208927062595,7.34113908733495,FALSE,2.77228304348146
"CAN","cpi",0.2,1978,3,1977,NA,1,5.61884385568943,6.13921351467359,8.50208927062595,5.87902868518151,FALSE,6.42755904886505
"CAN","cpi",0.2,1978,3,1977,NA,1.5,3.63275002893006,4.15311968791422,8.50208927062595,3.89293485842214,FALSE,11.3927936157635
"CAN","cpi",0.2,1979,3,1979,NA,0,8.22632927194568,8.74669893092984,8.65147652410481,8.48651410143776,TRUE,0.520369658984162
"CAN","cpi",0.2,1979,3,1979,NA,0.5,7.20168264115665,7.72205230014081,8.65147652410481,7.46186747064873,FALSE,2.84393021889416
"CAN","cpi",0.2,1979,3,1978,NA,1,6.6766757543046,7.19704541328877,8.65147652410481,6.93686058379669,FALSE,4.15644743602427
"CAN","cpi",0.2,1979,3,1978,NA,1.5,3.65778619098072,4.17815584996488,8.65147652410481,3.9179710204728,FALSE,11.703671344334
"CAN","cpi",0.2,1980,3,1980,NA,0,9.1769264520601,9.69729611104427,9.5171912664748,9.43711128155219,TRUE,0.520369658984162
"CAN","cpi",0.2,1980,3,1980,NA,0.5,7.63125593536643,8.15162559435059,9.5171912664748,7.89144076485851,FALSE,3.93428383929468
"CAN","cpi",0.2,1980,3,1979,NA,1,5.43369311762595,5.95406277661011,9.5171912664748,5.69387794711803,FALSE,9.42819088364587
"CAN","cpi",0.2,1980,3,1979,NA,1.5,4.0118056530753,4.53217531205946,9.5171912664748,4.27199048256738,FALSE,12.9829095450225
"CAN","cpi",0.2,1981,3,1981,NA,0,11.3573539296619,11.8777235886461,11.5813425032741,11.617538759154,TRUE,0.520369658984162
"CAN","cpi",0.2,1981,3,1981,NA,0.5,11.0436410805986,11.5640107395828,11.5813425032741,11.3038259100907,FALSE,0.563699068212538
"CAN","cpi",0.2,1981,3,1980,NA,1,7.96903989641236,8.48940955539653,11.5813425032741,8.22922472590444,FALSE,8.2502020286782
"CAN","cpi",0.2,1981,3,1980,NA,1.5,4.27797790619146,4.81838944474097,11.5813425032741,4.54818367546621,FALSE,17.4477941848824
"CAN","cpi",0.2,1982,3,1982,NA,0,9.92621238284276,10.4465820418269,10.1124203763629,10.1863972123348,TRUE,0.520369658984162
"CAN","cpi",0.2,1982,3,1982,NA,0.5,9.11993107218756,9.64030073117172,10.1124203763629,9.38011590167964,FALSE,1.70066877196223
"CAN","cpi",0.2,1982,3,1981,NA,1,8.66756476553496,9.18793442451913,10.1124203763629,8.92774959502704,FALSE,2.83158453859371
"CAN","cpi",0.2,1982,3,1981,NA,1.5,7.35620449676012,7.95755672206902,10.1124203763629,7.65688060941457,FALSE,5.98851136104372
"CAN","cpi",0.2,1983,3,1983,NA,0,5.53212966987908,6.05249932886324,5.67091787896303,5.79231449937116,TRUE,0.52036965898416
"CAN","cpi",0.2,1983,3,1983,NA,0.5,4.22917003801331,4.74953969699747,5.67091787896303,4.48935486750539,FALSE,2.82381511389808
"CAN","cpi",0.2,1983,3,1982,NA,1,6.39806968213835,6.96914719111347,5.67091787896303,6.68360843662591,FALSE,2.38895701691341
"CAN","cpi",0.2,1983,3,1982,NA,1.5,5.51939060895672,6.09046811793184,5.67091787896303,5.80492936344428,TRUE,0.571077508975122
"CAN","cpi",0.2,1984,3,1984,NA,0,3.98049649405582,4.39219198153299,4.19799576814029,4.1863442377944,TRUE,0.411695487477168
"CAN","cpi",0.2,1984,3,1984,NA,0.5,4.16784144661356,4.57953693409073,4.19799576814029,4.37368919035215,TRUE,0.411695487477168
"CAN","cpi",0.2,1984,3,1983,NA,1,4.56505502914132,5.08542468812548,4.19799576814029,4.8252398586334,FALSE,1.43801781148673
"CAN","cpi",0.2,1984,3,1983,NA,1.5,1.26834343111257,2.0046935707895,4.19799576814029,1.63651850095104,FALSE,6.2196056330539
"CAN","cpi",0.2,1985,3,1985,NA,0,3.6147048046427,4.13507446362686,3.86444262005169,3.87488963413478,TRUE,0.52036965898416
"CAN","cpi",0.2,1985,3,1985,NA,0.5,3.40935977219066,3.92972943117482,3.86444262005169,3.66954460168274,TRUE,0.52036965898416
"CAN","cpi",0.2,1985,3,1984,NA,1,2.25742431277323,2.77779397175739,3.86444262005169,2.51760914226531,FALSE,3.23699127971992
"CAN","cpi",0.2,1985,3,1984,NA,1.5,2.48450440053578,3.00487405951994,3.86444262005169,2.74468923002786,FALSE,2.66929106031355
"CAN","cpi",0.2,1986,3,1986,NA,0,3.82990898071569,4.35027863969985,4.08685396749431,4.09009381020777,TRUE,0.52036965898416
"CAN","cpi",0.2,1986,3,1986,NA,0.5,3.92849260702821,4.44886226601237,4.08685396749431,4.18867743652029,TRUE,0.52036965898416
"CAN","cpi",0.2,1986,3,1985,NA,1,2.70328053745428,3.22365019643844,4.08685396749431,2.96346536694636,FALSE,2.67837908662384
"CAN","cpi",0.2,1986,3,1985,NA,1.5,2.39627031553016,2.91663997451432,4.08685396749431,2.65645514502224,FALSE,3.44590464143414
"CAN","cpi",0.2,1987,3,1987,NA,0,4.04364265970187,4.56401231868603,4.23980729277887,4.30382748919395,TRUE,0.52036965898416
"CAN","cpi",0.2,1987,3,1987,NA,0.5,3.34726561410348,3.86763527308764,4.23980729277887,3.60745044359556,FALSE,1.45079970821223
"CAN","cpi",0.2,1987,3,1986,NA,1,3.22935911326856,3.74972877225272,4.23980729277887,3.48954394276064,FALSE,1.74556596029954
"CAN","cpi",0.2,1987,3,1986,NA,1.5,2.79043131873494,3.3108009777191,4.23980729277887,3.05061614822702,FALSE,2.84288544663358
"CAN","cpi",0.2,1988,3,1988,NA,0,3.70632717925761,4.22669683824177,3.92899537638065,3.96651200874969,TRUE,0.52036965898416
"CAN","cpi",0.2,1988,3,1988,NA,0.5,3.01569951614008,3.53606917512424,3.92899537638065,3.27588434563216,FALSE,1.50268516212521
"CAN","cpi",0.2,1988,3,1987,NA,1,3.10539370289064,3.6257633618748,3.92899537638065,3.36557853238272,FALSE,1.27844969524881
"CAN","cpi",0.2,1988,3,1987,NA,1.5,1.96872183039285,2.48909148937701,3.92899537638065,2.22890665988493,FALSE,4.12012937649326
"CAN","cpi",0.2,1989,3,1989,NA,0,4.94682931069321,4.97765313420914,4.82821664544208,4.96224122245117,FALSE,0.327355486643763
"CAN","cpi",0.2,1989,3,1989,NA,0.5,3.89227698813469,4.41264664711885,4.82821664544208,4.15246181762677,FALSE,1.55929465479222
"CAN","cpi",0.2,1989,3,1988,NA,1,3.09043293824777,3.61080259723193,4.82821664544208,3.35061776773985,FALSE,3.56390477950953
"CAN","cpi",0.2,1989,3,1988,NA,1.5,1.77274727686621,2.29311693585037,4.82821664544208,2.03293210635829,FALSE,6.85811893296343
"CAN","cpi",0.2,1990,3,1990,NA,0,4.47194133884721,4.51039331032087,4.64347549432717,4.49116732458404,FALSE,0.371157431489407
"CAN","cpi",0.2,1990,3,1990,NA,0.5,4.54616650950933,5.06653616849349,4.64347549432717,4.80635133900141,TRUE,0.52036965898416
"CAN","cpi",0.2,1990,3,1989,NA,1,4.19314447576993,4.71351413475409,4.64347549432717,4.45332930526201,TRUE,0.52036965898416
"CAN","cpi",0.2,1990,3,1989,NA,1.5,2.67975660347723,3.20012626246139,4.64347549432717,2.93994143296931,FALSE,4.1287427386486
"CAN","cpi",0.2,1991,3,1991,NA,0,5.33964802138639,5.85363504885982,5.4258100696218,5.5966415351231,TRUE,0.513987027473426
"CAN","cpi",0.2,1991,3,1991,NA,0.5,7.78546692641908,8.29945395389251,5.4258100696218,8.0424604401558,FALSE,6.41312916946664
"CAN","cpi",0.2,1991,3,1990,NA,1,2.75067034016201,3.26465736763544,5.4258100696218,3.00766385389873,FALSE,5.91686878243932
"CAN","cpi",0.2,1991,3,1990,NA,1.5,3.16761971377265,3.68160674124608,5.4258100696218,3.42461322750937,FALSE,4.87449534841271
"CAN","cpi",0.2,1992,3,1992,NA,0,1.44349029185172,1.47887572714059,1.47496888572843,1.46118300949616,TRUE,0.0353854352888727
"CAN","cpi",0.2,1992,3,1992,NA,0.5,1.11496626668719,1.3609700844822,1.47496888572843,1.2379681755847,FALSE,0.531000820910584
"CAN","cpi",0.2,1992,3,1991,NA,1,1.65078435726128,2.09388870103092,1.47496888572843,1.8723365291461,FALSE,0.882643022601758
"CAN","cpi",0.2,1992,3,1991,NA,1.5,6.67778479650456,7.12088914027419,1.47496888572843,6.89933696838937,FALSE,13.4501441207099
"CAN","cpi",0.2,1993,3,1993,NA,0,1.78228542516737,1.82212592595069,1.84351085411351,1.80220567555903,FALSE,0.0933028211903698
"CAN","cpi",0.2,1993,3,1993,NA,0.5,2.09393401200767,2.34243595257924,1.84351085411351,2.21818498229346,FALSE,0.874559835306966
"CAN","cpi",0.2,1993,3,1992,NA,1,1.13627776014487,1.56780822361753,1.84351085411351,1.3520429918812,FALSE,1.12078703971262
"CAN","cpi",0.2,1993,3,1992,NA,1.5,0.717720255600527,1.14925071907319,1.84351085411351,0.933485487336859,FALSE,2.16718080107347
"CAN","cpi",0.2,1994,3,1994,NA,0,0.00573137128455203,0.398487943689831,0.161630694655448,0.202109657487191,TRUE,0.392756572405279
"CAN","cpi",0.2,1994,3,1994,NA,0.5,-0.769017993665417,-0.376261421260138,0.161630694655448,-0.572639707462777,FALSE,1.73748686219424
"CAN","cpi",0.2,1994,3,1993,NA,1,0.931130364970724,1.35108029656599,0.161630694655448,1.14110533076836,FALSE,2.34369910738346
"CAN","cpi",0.2,1994,3,1993,NA,1.5,1.4402596571616,1.86020958875687,0.161630694655448,1.65023462295923,FALSE,3.61652233786064
"CAN","cpi",0.2,1995,3,1995,NA,0,2.12935603692382,2.16766895332245,2.11688403676572,2.14851249512314,FALSE,0.0694929167938967
"CAN","cpi",0.2,1995,3,1995,NA,0.5,2.47895921351282,2.72248965267203,2.11688403676572,2.60072443309243,FALSE,1.14871838102698
"CAN","cpi",0.2,1995,3,1994,NA,1,1.22657680654616,1.64090264629767,2.11688403676572,1.43373972642191,FALSE,1.60427931592163
"CAN","cpi",0.2,1995,3,1994,NA,1.5,-1.47327625412153,-1.05895041437002,2.11688403676572,-1.26611333424577,FALSE,8.35391196759084
"CAN","cpi",0.2,1996,3,1996,NA,0,1.41780370626596,1.45550170223481,1.55309584667184,1.43665270425039,FALSE,0.281683357061432
"CAN","cpi",0.2,1996,3,1996,NA,0.5,1.09884995381106,1.36667665348968,1.55309584667184,1.23276330365037,FALSE,0.733874682634034
"CAN","cpi",0.2,1996,3,1995,NA,1,0.521452952955372,0.938053565832456,1.55309584667184,0.729753259393914,FALSE,1.95420631497555
"CAN","cpi",0.2,1996,3,1995,NA,1.5,2.11074808542689,2.52734869830398,1.55309584667184,2.31904839186543,FALSE,1.81073120976471
"CAN","cpi",0.2,1997,3,1997,NA,0,1.65601822874137,1.70297134573054,1.60528783555959,1.67949478723595,FALSE,0.173779099943615
"CAN","cpi",0.2,1997,3,1997,NA,0.5,1.79862467806487,2.06721516390327,1.60528783555959,1.93291992098407,FALSE,0.751932592101596
"CAN","cpi",0.2,1997,3,1996,NA,1,0.442899124305219,0.78636177893669,1.60528783555959,0.614630451620954,FALSE,2.39077779618873
"CAN","cpi",0.2,1997,3,1996,NA,1.5,0.735788804901535,1.18853432349621,1.60528783555959,0.962161564198873,FALSE,1.49462929875313
"CAN","cpi",0.2,1998,3,1998,NA,0,0.78832782364505,1.14579953713053,0.988908029337191,0.967063680387792,TRUE,0.357471713485482
"CAN","cpi",0.2,1998,3,1998,NA,0.5,1.17023874192063,1.52771045540611,0.988908029337191,1.34897459866337,FALSE,0.810798494944071
"CAN","cpi",0.2,1998,3,1997,NA,1,0.613954102503388,0.97142581598887,0.988908029337191,0.792689959246129,FALSE,0.401177246856285
"CAN","cpi",0.2,1998,3,1997,NA,1.5,0.945700535403546,1.62197947213538,0.988908029337191,1.28384000376946,TRUE,0.676278936731832
"CAN","cpi",0.2,1999,3,1999,NA,0,1.57181807997713,1.96547459791494,1.7107350135213,1.76864633894604,TRUE,0.39365651793781
"CAN","cpi",0.2,1999,3,1999,NA,0.5,0.535271451631626,0.928927969569435,1.7107350135213,0.732099710600531,FALSE,2.34817412781746
"CAN","cpi",0.2,1999,3,1998,NA,1,0.172224312990725,0.565880830928534,1.7107350135213,0.369052571959629,FALSE,3.25579197441971
"CAN","cpi",0.2,1999,3,1998,NA,1.5,0.817714150820468,1.71922598964212,1.7107350135213,1.26847007023129,TRUE,0.901511838821652
"CAN","cpi",0.2,2000,3,2000,NA,0,2.4947855543167,2.91037065916399,2.6718361971244,2.70257810674034,TRUE,0.415585104847281
"CAN","cpi",0.2,2000,3,2000,NA,0.5,1.75169050638512,2.1672756112324,2.6718361971244,1.95948305880876,FALSE,1.67698656957728
"CAN","cpi",0.2,2000,3,1999,NA,1,1.90136179036791,2.42173144935207,2.6718361971244,2.16154661985999,FALSE,1.14563152841499
"CAN","cpi",0.2,2000,3,1999,NA,1.5,0.0582767653630406,0.94729099076448,2.6718361971244,0.50278387806376,FALSE,5.20037724130124
"CAN","cpi",0.2,2001,3,2001,NA,0,2.53562218319242,2.92746880452932,2.47906219852806,2.73154549386087,FALSE,0.533246582997792
"CAN","cpi",0.2,2001,3,2001,NA,0.5,1.46269497197081,1.85454159330771,2.47906219852806,1.65861828263926,FALSE,1.95314813438779
"CAN","cpi",0.2,2001,3,2000,NA,1,2.64541564722141,3.03726226855831,2.47906219852806,2.84133895788986,FALSE,0.807730243070279
"CAN","cpi",0.2,2001,3,2000,NA,1.5,0.727915331477223,1.55591175748216,2.47906219852806,1.14191354447969,FALSE,3.1358725286197
"CAN","cpi",0.2,2002,3,2002,NA,0,2.29418537887416,2.33146517042991,2.20880570551249,2.31282527465204,FALSE,0.250728974959933
"CAN","cpi",0.2,2002,3,2002,NA,0.5,1.07223680441617,1.42240216826569,2.20880570551249,1.24731948634093,FALSE,2.31617420696651
"CAN","cpi",0.2,2002,3,2001,NA,1,0.476123668922181,0.914859412851569,2.20880570551249,0.695491540886875,FALSE,3.67360147558168
"CAN","cpi",0.2,2002,3,2001,NA,1.5,0.0810239448315448,0.871099292811135,2.20880570551249,0.47606161882134,FALSE,4.13434137973297
"CAN","cpi",0.2,2003,3,2003,NA,0,2.7385705714633,2.77063737409319,2.71189071546809,2.75460397277825,FALSE,0.0987664426179242
"CAN","cpi",0.2,2003,3,2003,NA,0.5,3.90078487843218,4.42115453741634,2.71189071546809,4.16096970792426,FALSE,3.4926050663944
"CAN","cpi",0.2,2003,3,2002,NA,1,3.01773425239263,3.53810391137679,2.71189071546809,3.27791908188471,FALSE,1.2849785012955
"CAN","cpi",0.2,2003,3,2002,NA,1.5,1.14115958122577,1.89544067391224,2.71189071546809,1.51830012756901,FALSE,2.79540619657609
"CAN","cpi",0.2,2004,3,2004,NA,0,1.75071454968467,1.7723475283541,1.83151661303942,1.76153103901938,FALSE,0.16955569038274
"CAN","cpi",0.2,2004,3,2004,NA,0.5,1.12927121531364,1.6496408742978,1.83151661303942,1.38945604480572,FALSE,0.975059005838224
"CAN","cpi",0.2,2004,3,2003,NA,1,0.758561362103892,1.27893102108805,1.83151661303942,1.01874619159597,FALSE,1.90183363886259
"CAN","cpi",0.2,2004,3,2003,NA,1.5,2.73086876155203,3.25123842053619,1.83151661303942,2.99105359104411,FALSE,2.76875003026567
"CAN","cpi",0.2,2005,3,2005,NA,0,2.3403464377032,2.36090318514314,2.18071628336509,2.35062481142317,FALSE,0.419632133285208
"CAN","cpi",0.2,2005,3,2005,NA,0.5,1.19509889173822,1.71546855072238,2.18071628336509,1.4552837212303,FALSE,1.68348899059093
"CAN","cpi",0.2,2005,3,2004,NA,1,0.53630188253169,1.05667154151585,2.18071628336509,0.79648671202377,FALSE,3.33048151360726
"CAN","cpi",0.2,2005,3,2004,NA,1.5,0.876624684015891,1.39699434300005,2.18071628336509,1.13680951350797,FALSE,2.47967450989676
"CAN","cpi",0.2,2006,3,2006,NA,0,1.80429559375143,2.32466525273559,1.97519342012289,2.06448042324351,TRUE,0.52036965898416
"CAN","cpi",0.2,2006,3,2006,NA,0.5,1.51054831170997,2.03091797069413,1.97519342012289,1.77073314120205,TRUE,0.52036965898416
"CAN","cpi",0.2,2006,3,2005,NA,1,2.32789721769733,2.84826687668149,1.97519342012289,2.58808204718941,FALSE,1.40212915292027
"CAN","cpi",0.2,2006,3,2005,NA,1.5,0.501890439424648,1.02226009840881,1.97519342012289,0.762075268916728,FALSE,2.90270296326935
"CAN","cpi",0.2,2007,3,2007,NA,0,2.08287023497226,2.13327657518728,2.10062087284572,2.10807340507977,TRUE,0.0504063402150239
"CAN","cpi",0.2,2007,3,2007,NA,0.5,1.95632329171898,2.23888213677452,2.10062087284572,2.09760271424675,TRUE,0.282558845055539
"CAN","cpi",0.2,2007,3,2006,NA,1,0.178677629131792,0.699047288115952,2.10062087284572,0.438862458623872,FALSE,4.02430362080859
"CAN","cpi",0.2,2007,3,2006,NA,1.5,0.820707148260168,1.34107680724433,2.10062087284572,1.08089197775225,FALSE,2.41922982298765
"CAN","cpi",0.2,2008,3,2008,NA,0,2.89473965241268,2.93459541521071,2.31447335265955,2.9146675338117,FALSE,1.49052151218085
"CAN","cpi",0.2,2008,3,2008,NA,0.5,0.816467993127809,1.2747869113075,2.31447335265955,1.04562745221765,FALSE,3.05753502155983
"CAN","cpi",0.2,2008,3,2007,NA,1,0.13587072129633,0.594189639476016,2.31447335265955,0.365030180386173,FALSE,4.75902820113853
"CAN","cpi",0.2,2008,3,2007,NA,1.5,1.8119144354315,2.27023335361119,2.31447335265955,2.04107389452134,FALSE,0.5689189158006
"CAN","cpi",0.2,2009,3,2009,NA,0,0.253862116272853,0.291375556160006,0.284533874408197,0.272618836216429,TRUE,0.0375134398871531
"CAN","cpi",0.2,2009,3,2009,NA,0.5,-0.945103228113073,-0.669749448922997,0.284533874408197,-0.807426338518035,FALSE,2.66106208751806
"CAN","cpi",0.2,2009,3,2008,NA,1,3.02337211815777,3.54374177714193,0.284533874408197,3.28355694764985,FALSE,7.3674652683581
"CAN","cpi",0.2,2009,3,2008,NA,1.5,0.443192125746832,0.963561784730993,0.284533874408197,0.703376955238912,FALSE,0.917015287330748
"CAN","cpi",0.2,2010,3,2010,NA,0,1.70902623521217,1.7451344928013,1.75525687020327,1.72708036400674,FALSE,0.0614142010940598
"CAN","cpi",0.2,2010,3,2010,NA,0.5,1.32931374184197,1.51555158212134,1.75525687020327,1.42243266198166,FALSE,0.785501060484191
"CAN","cpi",0.2,2010,3,2009,NA,1,0.234452873875775,0.797206000283141,1.75525687020327,0.515829437079458,FALSE,2.95788030120769
"CAN","cpi",0.2,2010,3,2009,NA,1.5,-0.947776195210476,-0.38502306880311,1.75525687020327,-0.666399632006793,FALSE,5.91345297392332
"CAN","cpi",0.2,2011,3,2011,NA,0,2.80716948598503,2.85025288858193,2.85717434028225,2.82871118728348,FALSE,0.0603870318476873
"CAN","cpi",0.2,2011,3,2011,NA,0.5,2.48190827871503,2.70420464018582,2.85717434028225,2.59305645945043,FALSE,0.60472061171185
"CAN","cpi",0.2,2011,3,2010,NA,1,1.30214611329452,1.86175087294838,2.85717434028225,1.58194849312145,FALSE,3.04816342798853
"CAN","cpi",0.2,2011,3,2010,NA,1.5,0.728859937750311,1.28846469740417,2.85717434028225,1.00866231757724,FALSE,4.48137886684905
"CAN","cpi",0.2,2012,3,2012,NA,0,1.4428774649159,1.49075756399164,1.50118536134935,1.46681751445377,FALSE,0.0739495924700009
"CAN","cpi",0.2,2012,3,2012,NA,0.5,1.51586729471119,1.76146464650392,1.50118536134935,1.63866597060755,FALSE,0.282302185197338
"CAN","cpi",0.2,2012,3,2011,NA,1,0.569630083700193,1.12685101427467,1.50118536134935,0.848240548987433,FALSE,1.49305679826116
"CAN","cpi",0.2,2012,3,2011,NA,1.5,1.40523252659791,1.96245345717239,1.50118536134935,1.68384299188515,TRUE,0.557220930574479
"CAN","cpi",0.2,2013,3,2013,NA,0,1.01481857951785,1.04684372876471,0.931270594714462,1.03083115414128,FALSE,0.240895111255325
"CAN","cpi",0.2,2013,3,2013,NA,0.5,0.864590919694615,1.1390903442359,0.931270594714462,1.00184063196526,TRUE,0.274499424541287
"CAN","cpi",0.2,2013,3,2012,NA,1,-0.416167382002193,-0.128924599742579,0.931270594714462,-0.272545990872386,FALSE,2.93773076840222
"CAN","cpi",0.2,2013,3,2012,NA,1.5,0.698423974643991,1.21879363362815,0.931270594714462,0.958608804136071,TRUE,0.52036965898416
"CAN","cpi",0.2,2014,3,2014,NA,0,1.97024158310535,2.00202398710868,1.87639912240215,1.98613278510701,FALSE,0.26638855576133
"CAN","cpi",0.2,2014,3,2014,NA,0.5,1.83163121950223,2.0728464829738,1.87639912240215,1.95223885123801,TRUE,0.241215263471566
"CAN","cpi",0.2,2014,3,2013,NA,1,0.559955850435819,0.817361524131874,1.87639912240215,0.688658687283847,FALSE,2.90499966937175
"CAN","cpi",0.2,2014,3,2013,NA,1.5,0.631409370392421,1.15177902937658,1.87639912240215,0.891594199884501,FALSE,2.33191989154808
"CAN","cpi",0.2,2015,3,2015,NA,0,1.22510443178033,1.26773289576475,1.11090953952792,1.24641866377254,FALSE,0.328115694615451
"CAN","cpi",0.2,2015,3,2015,NA,0.5,0.0480249998031509,0.348209324376245,1.11090953952792,0.198117162089698,FALSE,2.20693486245227
"CAN","cpi",0.2,2015,3,2014,NA,1,0.382013910310219,0.682198234883314,1.11090953952792,0.532106072596766,FALSE,1.3719625861846
"CAN","cpi",0.2,2015,3,2014,NA,1.5,1.5501743728606,2.07054403184476,1.11090953952792,1.81035920235268,FALSE,1.61853174231586
"CAN","cpi",0.2,2016,3,2016,NA,0,1.41912297531479,1.46457617257699,1.41168586698797,1.44184957394589,FALSE,0.0640459680792572
"CAN","cpi",0.2,2016,3,2016,NA,0.5,0.693898152263957,0.992301942548287,1.41168586698797,0.843100047406122,FALSE,1.34686360138353
"CAN","cpi",0.2,2016,3,2015,NA,1,1.08564664256056,1.38405043284489,1.41168586698797,1.23484853770273,FALSE,0.367492375642007
"CAN","cpi",0.2,2016,3,2015,NA,1.5,-0.152722077314797,0.367647581669363,1.41168586698797,0.107462752177283,FALSE,3.13046537228067
"CAN","cpi",0.2,2017,3,2017,NA,0,1.49907444390117,1.5357240688923,1.57888581671161,1.51739925639673,FALSE,0.144553994539411
"CAN","cpi",0.2,2017,3,2017,NA,0.5,1.67231392736624,2.0910914581915,1.57888581671161,1.88170269277887,FALSE,0.652347807461837
"CAN","cpi",0.2,2017,3,2016,NA,1,0.208949581342615,0.627727112167873,1.57888581671161,0.418338346755244,FALSE,2.7966742921846
"CAN","cpi",0.2,2017,3,2016,NA,1.5,0.26539125784521,0.785760916829371,1.57888581671161,0.52557608733729,FALSE,2.50318190868976
"CAN","cpi",0.2,2018,3,2018,NA,0,2.39233908191401,2.41988848978909,2.23316270166586,2.40611378585155,FALSE,0.425490358495453
"CAN","cpi",0.2,2018,3,2018,NA,0.5,2.48145187300877,2.76268854347531,2.23316270166586,2.62207020824204,FALSE,0.901959598823816
"CAN","cpi",0.2,2018,3,2017,NA,1,0.263494765372899,0.544731435839441,2.23316270166586,0.40411310060617,FALSE,4.50231483503259
"CAN","cpi",0.2,2018,3,2017,NA,1.5,1.27769041765718,1.79806007664135,2.23316270166586,1.53787524714926,FALSE,1.60812622154544
"CAN","cpi",0.2,2019,3,2019,NA,0,1.98774217820458,2.0351146196979,1.91921619871868,2.01142839895124,FALSE,0.218687390208063
"CAN","cpi",0.2,2019,3,2019,NA,0.5,1.37850625427059,1.65916790654114,1.91921619871868,1.51883708040586,FALSE,0.930782382714413
"CAN","cpi",0.2,2019,3,2018,NA,1,1.27909901488321,1.55976066715376,1.91921619871868,1.41942984101848,FALSE,1.17930048118286
"CAN","cpi",0.2,2019,3,2018,NA,1.5,1.80086688140804,2.3212365403922,1.91921619871868,2.06105171090012,TRUE,0.52036965898416
"CAN","cpi",0.2,2020,3,2020,NA,0,0.514461291284256,0.937898414297893,0.71139989671781,0.726179852791075,TRUE,0.423437123013637
"CAN","cpi",0.2,2020,3,2020,NA,0.5,0.860540888973705,1.28397801198734,0.71139989671781,1.07225945048052,FALSE,0.796289603653374
"CAN","cpi",0.2,2020,3,2019,NA,1,0.807421081771246,1.23085820478488,0.71139989671781,1.01913964327806,FALSE,0.663490085647227
"CAN","cpi",0.2,2020,3,2019,NA,1.5,0.967431624013102,1.48780128299726,0.71139989671781,1.22761645350518,FALSE,1.16044897722239
"CAN","cpi",0.2,2021,3,2021,NA,0,3.2902249634402,3.32955010037764,3.31148121717802,3.30988753190892,TRUE,0.0393251369374443
"CAN","cpi",0.2,2021,3,2021,NA,0.5,2.22971924916862,2.75008890815278,3.31148121717802,2.4899040786607,FALSE,1.92385043154726
"CAN","cpi",0.2,2021,3,2020,NA,1,0.937721875041024,1.45809153402518,3.31148121717802,1.1979067045331,FALSE,5.15384386686626
"CAN","cpi",0.2,2021,3,2020,NA,1.5,0.410441981498572,0.930811640482733,3.31148121717802,0.670626810990653,FALSE,6.47204360072239
"CAN","cpi",0.2,2022,3,2022,NA,0,6.28537306229648,6.80574272128064,6.50977236228281,6.54555789178856,TRUE,0.52036965898416
"CAN","cpi",0.2,2022,3,2022,NA,0.5,5.70450515656995,6.22487481555411,6.50977236228281,5.96468998606203,FALSE,1.23261352580591
"CAN","cpi",0.2,2022,3,2021,NA,1,3.16086781873773,3.68123747772189,6.50977236228281,3.42105264822981,FALSE,7.59170687038647
"CAN","cpi",0.2,2022,3,2021,NA,1.5,1.67257782934754,2.1929474883317,6.50977236228281,1.93276265883962,FALSE,11.3124318438619
"CAN","cpi",0.2,2023,3,2023,NA,0,3.953968121165,3.98980558372135,3.78831288758619,3.97188685244318,FALSE,0.449975546503373
"CAN","cpi",0.2,2023,3,2023,NA,0.5,2.57901527405422,3.09938493303838,3.78831288758619,2.8392001035463,FALSE,2.24268954535369
"CAN","cpi",0.2,2023,3,2022,NA,1,2.6086650854055,3.12903474438966,3.78831288758619,2.86884991489758,FALSE,2.16856501697548
"CAN","cpi",0.2,2023,3,2022,NA,1.5,3.76079650472848,4.30554844558971,3.78831288758619,4.03317247515909,TRUE,0.544751940861236
"CAN","cpi",0.2,2024,3,2023,NA,1,2.63928271230154,3.1596523712857,NA,2.89946754179362,NA,NA
"CAN","cpi",0.2,2024,3,2023,NA,1.5,0.904183234422733,1.45564980122028,NA,1.17991651782151,NA,NA
"CAN","cpi",0.3,1959,3,1959,NA,0,0.845674611030624,1.5334173719929,1.19382698397654,1.18954599151176,TRUE,0.687742760962277
"CAN","cpi",0.3,1959,3,1959,NA,0.5,0.201436946679786,0.889179707642063,1.19382698397654,0.545308327160925,FALSE,1.55816355048936
"CAN","cpi",0.3,1959,3,1958,NA,1,0.73635964873484,1.52954263624608,1.19382698397654,1.13295114249046,TRUE,0.793182987511244
"CAN","cpi",0.3,1959,3,1958,NA,1.5,-0.349427771509532,1.78427194766811,1.19382698397654,0.717422088079289,TRUE,2.13369971917764
"CAN","cpi",0.3,1960,3,1960,NA,0,0.976321647791187,1.07090443739836,1.34209404870695,1.02361304259477,FALSE,0.869410250488869
"CAN","cpi",0.3,1960,3,1960,NA,0.5,0.475303024125073,0.821918991302241,1.34209404870695,0.648611007713657,FALSE,1.83283041690491
"CAN","cpi",0.3,1960,3,1959,NA,1,1.65172704946631,3.10161041424641,1.34209404870695,2.37666873185636,FALSE,2.33454908123541
"CAN","cpi",0.3,1960,3,1959,NA,1.5,-1.24585276795215,0.547668408817596,1.34209404870695,-0.349092179567277,FALSE,4.06330871931076
"CAN","cpi",0.3,1961,3,1961,NA,0,0.94606250850146,1.07236445337868,1.00921348094007,1.00921348094007,TRUE,0.126301944877222
"CAN","cpi",0.3,1961,3,1961,NA,0.5,0.888223744298519,1.13020321758162,1.00921348094007,1.00921348094007,TRUE,0.241979473283104
"CAN","cpi",0.3,1961,3,1960,NA,1,-0.412879116761455,0.52042004196852,1.00921348094007,0.0537704626035329,FALSE,2.32985184150584
"CAN","cpi",0.3,1961,3,1960,NA,1.5,-0.798965965521387,0.134333193208589,1.00921348094007,-0.332316386156399,FALSE,3.43295712367707
"CAN","cpi",0.3,1962,3,1962,NA,0,1.02266231544496,1.10809790965163,1.04957947883042,1.0653801125483,TRUE,0.0854355942066722
"CAN","cpi",0.3,1962,3,1962,NA,0.5,-0.152363347650399,0.152363347650399,1.04957947883042,0,FALSE,2.86820135581513
"CAN","cpi",0.3,1962,3,1961,NA,1,-0.422400886630619,0.422400886630619,1.04957947883042,0,FALSE,2.6367406081178
"CAN","cpi",0.3,1962,3,1961,NA,1.5,-0.422400886630619,0.422400886630619,1.04957947883042,0,FALSE,2.6367406081178
"CAN","cpi",0.3,1963,3,1963,NA,0,1.78796670029485,1.87253238525211,1.60677118395228,1.83024954277348,FALSE,0.602267160221733
"CAN","cpi",0.3,1963,3,1963,NA,0.5,0.724436481671542,0.949220947563466,1.60677118395228,0.836828714617504,FALSE,2.10349942700283
"CAN","cpi",0.3,1963,3,1962,NA,1,1.23861285926177,1.98008915464475,1.60677118395228,1.60935100695326,TRUE,0.74147629538298
"CAN","cpi",0.3,1963,3,1962,NA,1.5,-0.37073814769149,0.37073814769149,1.60677118395228,0,FALSE,4.27299925612811
"CAN","cpi",0.3,1964,3,1964,NA,0,1.89862486527154,2.00526810358895,1.88764670034376,1.95194648443024,FALSE,0.13800942382535
"CAN","cpi",0.3,1964,3,1964,NA,0.5,1.19252487772389,1.35363145914407,1.88764670034376,1.27307816843398,FALSE,1.68686441341929
"CAN","cpi",0.3,1964,3,1963,NA,1,2.87979262914135,3.52365402360882,1.88764670034376,3.20172332637508,FALSE,3.47856404817486
"CAN","cpi",0.3,1964,3,1963,NA,1.5,-0.321930697233737,0.321930697233737,1.88764670034376,0,FALSE,5.11733568906754
"CAN","cpi",0.3,1965,3,1965,NA,0,2.24516812230677,2.35083566708969,2.29538304394236,2.29800189469823,TRUE,0.105667544782915
"CAN","cpi",0.3,1965,3,1965,NA,0.5,1.32999219683148,1.45887216830503,2.29538304394236,1.39443218256826,FALSE,2.51891104472304
"CAN","cpi",0.3,1965,3,1964,NA,1,1.18135739723895,1.78020996355002,2.29538304394236,1.48078368039448,FALSE,2.07077565314632
"CAN","cpi",0.3,1965,3,1964,NA,1.5,-0.0061688836220713,0.592683682688993,2.29538304394236,0.293257399533461,FALSE,5.46370788417782
"CAN","cpi",0.3,1966,3,1966,NA,0,3.73269467357217,3.81753069132476,3.72486065470629,3.77511268244847,FALSE,0.107218928797968
"CAN","cpi",0.3,1966,3,1966,NA,0.5,3.26784230459696,3.48703208997147,3.72486065470629,3.37743719728421,FALSE,0.898699970331136
"CAN","cpi",0.3,1966,3,1965,NA,1,1.68220839231929,2.28753107057159,3.72486065470629,1.98486973144544,FALSE,4.71197863292287
"CAN","cpi",0.3,1966,3,1965,NA,1.5,0.275979494874891,0.881302173127184,3.72486065470629,0.578640834001038,FALSE,8.72977548276402
"CAN","cpi",0.3,1967,3,1967,NA,0,3.6529497185216,3.71456569577057,3.49360316391996,3.68375770714608,FALSE,0.516891847539371
"CAN","cpi",0.3,1967,3,1967,NA,0.5,1.96008740514386,2.26100675582132,3.49360316391996,2.11054708048259,FALSE,3.82262337381644
"CAN","cpi",0.3,1967,3,1966,NA,1,1.72031077772606,2.31975537294397,3.49360316391996,2.02003307533501,FALSE,3.95329542657788
"CAN","cpi",0.3,1967,3,1966,NA,1.5,1.41586306618778,2.01530766140568,3.49360316391996,1.71558536379673,FALSE,4.82314603097299
"CAN","cpi",0.3,1968,3,1968,NA,0,4.03588417881478,4.10583017757237,3.95128347779386,4.07085717819357,FALSE,0.311662287388792
"CAN","cpi",0.3,1968,3,1968,NA,0.5,3.1940140261237,3.82063063940633,3.95128347779386,3.50732233276501,FALSE,0.999910437246991
"CAN","cpi",0.3,1968,3,1967,NA,1,3.3497284863756,3.97634509965824,3.95128347779386,3.66303679301692,TRUE,0.626616613282638
"CAN","cpi",0.3,1968,3,1967,NA,1.5,0.521573212403734,1.14818982568637,3.95128347779386,0.834881519045053,FALSE,8.63545561930403
"CAN","cpi",0.3,1969,3,1969,NA,0,4.48732718390942,4.56332561625564,4.42679496126681,4.52532640008253,FALSE,0.248947639896523
"CAN","cpi",0.3,1969,3,1969,NA,0.5,2.29431471409119,3.08749770160243,4.42679496126681,2.69090620784681,FALSE,4.61974658655233
"CAN","cpi",0.3,1969,3,1968,NA,1,3.68134783387828,4.47453082138952,4.42679496126681,4.0779393276339,TRUE,0.793182987511244
"CAN","cpi",0.3,1969,3,1968,NA,1.5,1.21562721959896,2.00881020711021,4.42679496126681,1.61221871335458,FALSE,7.70171085653013
"CAN","cpi",0.3,1970,3,1970,NA,0,3.52904222087542,3.58852988784416,3.28128405769805,3.55878605435979,FALSE,0.767368133189809
"CAN","cpi",0.3,1970,3,1970,NA,0.5,3.35310128027942,4.14628426779066,3.28128405769805,3.74969277403504,FALSE,0.99837505202945
"CAN","cpi",0.3,1970,3,1969,NA,1,2.71527458907046,3.5084575765817,3.28128405769805,3.11186608282608,TRUE,0.793182987511244
"CAN","cpi",0.3,1970,3,1969,NA,1.5,0.368350483504016,1.16153347101526,3.28128405769805,0.764941977259638,FALSE,6.84961323517635
"CAN","cpi",0.3,1971,3,1971,NA,0,2.77520485819752,2.8550862075799,2.64123406634756,2.81514553288871,FALSE,0.462655040382264
"CAN","cpi",0.3,1971,3,1971,NA,0.5,0.720145813909591,1.51332880142083,2.64123406634756,1.11673730766521,FALSE,4.01576945873046
"CAN","cpi",0.3,1971,3,1970,NA,1,1.52384301084833,2.31702599835957,2.64123406634756,1.92043450460395,FALSE,1.71949175319122
"CAN","cpi",0.3,1971,3,1970,NA,1.5,1.30534925825039,2.09853224576164,2.64123406634756,1.70194075200601,FALSE,2.34375961775675
"CAN","cpi",0.3,1972,3,1972,NA,0,4.699847549432,5.39672769368747,4.83230569625923,5.04828762155974,TRUE,0.696880144255479
"CAN","cpi",0.3,1972,3,1972,NA,0.5,3.74758378146943,4.44446392572491,4.83230569625923,4.09602385359717,FALSE,1.80499948863924
"CAN","cpi",0.3,1972,3,1971,NA,1,3.81968104420942,4.5165611884649,4.83230569625923,4.16812111633716,FALSE,1.59900730938214
"CAN","cpi",0.3,1972,3,1971,NA,1.5,0.295438511595467,1.08862149910671,4.83230569625923,0.692030005351089,FALSE,11.4894235508042
"CAN","cpi",0.3,1973,3,1973,NA,0,6.96547170880808,7.53645093573158,7.12388603531779,7.25096132226983,TRUE,0.5709792269235
"CAN","cpi",0.3,1973,3,1973,NA,0.5,5.01897055943907,5.58994978636257,7.12388603531779,5.30446017290082,FALSE,4.95365422393843
"CAN","cpi",0.3,1973,3,1972,NA,1,4.6372707444609,5.2082499713844,7.12388603531779,4.92276035792265,FALSE,6.04422512387603
"CAN","cpi",0.3,1973,3,1972,NA,1.5,1.39528729698641,2.18847028449765,7.12388603531779,1.79187879074203,FALSE,14.8943708469973
"CAN","cpi",0.3,1974,3,1974,NA,0,9.77331808327884,10.5245043370232,10.2717243737774,10.148911210151,TRUE,0.751186253744329
"CAN","cpi",0.3,1974,3,1974,NA,0.5,7.52886976557833,8.28005601932266,10.2717243737774,7.90446289245049,FALSE,6.44166726647222
"CAN","cpi",0.3,1974,3,1973,NA,1,6.92916784069392,7.68035409443825,10.2717243737774,7.30476096756609,FALSE,8.15510133757052
"CAN","cpi",0.3,1974,3,1973,NA,1.5,2.16973760208128,2.96292058959253,10.2717243737774,2.5663290958369,FALSE,21.6754795137538
"CAN","cpi",0.3,1975,3,1975,NA,0,10.1346142025144,10.2147000182442,10.0232981493341,10.1746571103793,FALSE,0.398131681959098
"CAN","cpi",0.3,1975,3,1975,NA,0.5,7.67493157538902,8.46811456290027,10.0232981493341,8.07152306914465,FALSE,5.23656466303654
"CAN","cpi",0.3,1975,3,1974,NA,1,7.42218634193578,8.21536932944702,10.0232981493341,7.8187778356914,FALSE,5.95869390147438
"CAN","cpi",0.3,1975,3,1974,NA,1.5,3.19305431440408,4.10523117960463,10.0232981493341,3.64914274700436,FALSE,17.8209396358562
"CAN","cpi",0.3,1976,3,1976,NA,0,7.1527329252639,7.2271699356122,7.22784311401172,7.18995143043805,FALSE,0.0763603772040601
"CAN","cpi",0.3,1976,3,1976,NA,0.5,6.21674214909746,7.0099251366087,7.22784311401172,6.61333364285308,FALSE,1.41580578009129
"CAN","cpi",0.3,1976,3,1975,NA,1,8.18837958214737,8.98156256965862,7.22784311401172,8.584971075903,FALSE,3.53757289647027
"CAN","cpi",0.3,1976,3,1975,NA,1.5,2.75079420620029,3.54397719371153,7.22784311401172,3.14738569995591,FALSE,11.3185141883689
"CAN","cpi",0.3,1977,3,1977,NA,0,7.45955386342615,7.54398502665277,7.58101410153764,7.50176944503946,FALSE,0.190228520040553
"CAN","cpi",0.3,1977,3,1977,NA,0.5,6.00912489451312,6.80230788202436,7.58101410153764,6.40571638826874,FALSE,3.01805790040634
"CAN","cpi",0.3,1977,3,1976,NA,1,3.65250136701452,4.44568435452576,7.58101410153764,4.04909286077014,FALSE,9.75126797897376
"CAN","cpi",0.3,1977,3,1976,NA,1.5,2.1977359835193,2.99091897103054,7.58101410153764,2.59432747727492,FALSE,13.9077405032458
"CAN","cpi",0.3,1978,3,1978,NA,0,8.19445698008587,8.98763996759712,8.50208927062595,8.59104847384149,TRUE,0.793182987511244
"CAN","cpi",0.3,1978,3,1978,NA,0.5,6.94454759357932,7.73773058109057,8.50208927062595,7.34113908733495,FALSE,2.97706495761233
"CAN","cpi",0.3,1978,3,1977,NA,1,5.48243719142589,6.27562017893713,8.50208927062595,5.87902868518151,FALSE,7.15452324947929
"CAN","cpi",0.3,1978,3,1977,NA,1.5,3.49634336466652,4.28952635217776,8.50208927062595,3.89293485842214,FALSE,12.8290770402203
"CAN","cpi",0.3,1979,3,1979,NA,0,8.08992260768214,8.88310559519338,8.65147652410481,8.48651410143776,TRUE,0.793182987511244
"CAN","cpi",0.3,1979,3,1979,NA,0.5,7.06527597689311,7.85845896440435,8.65147652410481,7.46186747064873,FALSE,3.05894744379827
"CAN","cpi",0.3,1979,3,1978,NA,1,6.54026909004106,7.33345207755231,8.65147652410481,6.93686058379669,FALSE,4.5589671205184
"CAN","cpi",0.3,1979,3,1978,NA,1.5,3.52137952671717,4.31456251422842,8.65147652410481,3.9179710204728,FALSE,13.1843658728724
"CAN","cpi",0.3,1980,3,1980,NA,0,9.04051978779656,9.83370277530781,9.5171912664748,9.43711128155219,TRUE,0.793182987511244
"CAN","cpi",0.3,1980,3,1980,NA,0.5,7.49484927110289,8.28803225861413,9.5171912664748,7.89144076485851,FALSE,4.30506586711315
"CAN","cpi",0.3,1980,3,1979,NA,1,5.29728645336241,6.09046944087366,9.5171912664748,5.69387794711803,FALSE,10.5838167749431
"CAN","cpi",0.3,1980,3,1979,NA,1.5,3.87539898881176,4.668581976323,9.5171912664748,4.27199048256738,FALSE,14.6463523879449
"CAN","cpi",0.3,1981,3,1981,NA,0,11.2209472653984,12.0141302529096,11.5813425032741,11.617538759154,TRUE,0.793182987511244
"CAN","cpi",0.3,1981,3,1981,NA,0.5,10.9072344163351,11.7004174038463,11.5813425032741,11.3038259100907,TRUE,0.793182987511244
"CAN","cpi",0.3,1981,3,1980,NA,1,7.83263323214882,8.62581621966007,11.5813425032741,8.22922472590444,FALSE,9.23754379783717
"CAN","cpi",0.3,1981,3,1980,NA,1.5,4.13389426455736,4.96247308637507,11.5813425032741,4.54818367546621,FALSE,19.7396342986722
"CAN","cpi",0.3,1982,3,1982,NA,0,9.78980571857922,10.5829887060905,10.1124203763629,10.1863972123348,TRUE,0.793182987511244
"CAN","cpi",0.3,1982,3,1982,NA,0.5,8.98352440792402,9.77670739543526,10.1124203763629,9.38011590167964,FALSE,1.75236293301892
"CAN","cpi",0.3,1982,3,1981,NA,1,8.53115810127142,9.32434108878267,10.1124203763629,8.92774959502704,FALSE,3.04483809488347
"CAN","cpi",0.3,1982,3,1981,NA,1.5,7.19587294877017,8.11788827005897,10.1124203763629,7.65688060941457,FALSE,6.62067848215731
"CAN","cpi",0.3,1983,3,1983,NA,0,5.39572300561554,6.18890599312678,5.67091787896303,5.79231449937116,TRUE,0.793182987511244
"CAN","cpi",0.3,1983,3,1983,NA,0.5,4.09276337374977,4.88594636126101,5.67091787896303,4.48935486750539,FALSE,3.03595875237417
"CAN","cpi",0.3,1983,3,1982,NA,1,6.24789432415331,7.11932254909851,5.67091787896303,6.68360843662591,FALSE,2.51993235406028
"CAN","cpi",0.3,1983,3,1982,NA,1.5,5.36921525097168,6.24064347591688,5.67091787896303,5.80492936344428,TRUE,0.871428224945198
"CAN","cpi",0.3,1984,3,1984,NA,0,3.87257704262442,4.50011143296438,4.19799576814029,4.1863442377944,TRUE,0.62753439033996
"CAN","cpi",0.3,1984,3,1984,NA,0.5,4.05992199518217,4.68745638552213,4.19799576814029,4.37368919035215,TRUE,0.62753439033996
"CAN","cpi",0.3,1984,3,1983,NA,1,4.42864836487777,5.22183135238902,4.19799576814029,4.8252398586334,FALSE,1.4521904067612
"CAN","cpi",0.3,1984,3,1983,NA,1.5,1.07201895971584,2.20101804218623,4.19799576814029,1.63651850095104,FALSE,6.83464972805341
"CAN","cpi",0.3,1985,3,1985,NA,0,3.47829814037916,4.27148112789041,3.86444262005169,3.87488963413478,TRUE,0.793182987511243
"CAN","cpi",0.3,1985,3,1985,NA,0.5,3.27295310792712,4.06613609543836,3.86444262005169,3.66954460168274,TRUE,0.793182987511243
"CAN","cpi",0.3,1985,3,1984,NA,1,2.12101764850969,2.91420063602093,3.86444262005169,2.51760914226531,FALSE,3.50816008474199
"CAN","cpi",0.3,1985,3,1984,NA,1.5,2.34809773627223,3.14128072378348,3.86444262005169,2.74468923002786,FALSE,2.85935983399186
"CAN","cpi",0.3,1986,3,1986,NA,0,3.69350231645215,4.48668530396339,4.08685396749431,4.09009381020777,TRUE,0.793182987511244
"CAN","cpi",0.3,1986,3,1986,NA,0.5,3.79208594276466,4.58526893027591,4.08685396749431,4.18867743652029,TRUE,0.793182987511244
"CAN","cpi",0.3,1986,3,1985,NA,1,2.56687387319074,3.36005686070198,4.08685396749431,2.96346536694636,FALSE,2.86974614977504
"CAN","cpi",0.3,1986,3,1985,NA,1.5,2.25986365126662,3.05304663877786,4.08685396749431,2.65645514502224,FALSE,3.74691821241539
"CAN","cpi",0.3,1987,3,1987,NA,0,3.90723599543833,4.70041898294957,4.23980729277887,4.30382748919395,TRUE,0.793182987511244
"CAN","cpi",0.3,1987,3,1987,NA,0.5,3.21085894983994,4.00404193735119,4.23980729277887,3.60745044359556,FALSE,1.4667982887332
"CAN","cpi",0.3,1987,3,1986,NA,1,3.09295244900502,3.88613543651626,4.23980729277887,3.48954394276064,FALSE,1.80367400540442
"CAN","cpi",0.3,1987,3,1986,NA,1.5,2.6540246544714,3.44720764198265,4.23980729277887,3.05061614822702,FALSE,3.0577534183576
"CAN","cpi",0.3,1988,3,1988,NA,0,3.56992051499406,4.36310350250531,3.92899537638065,3.96651200874969,TRUE,0.793182987511244
"CAN","cpi",0.3,1988,3,1988,NA,0.5,2.87929285187653,3.67247583938778,3.92899537638065,3.27588434563216,FALSE,1.52609595034803
"CAN","cpi",0.3,1988,3,1987,NA,1,2.96898703862709,3.76217002613834,3.92899537638065,3.36557853238272,FALSE,1.26982684534643
"CAN","cpi",0.3,1988,3,1987,NA,1.5,1.83231516612931,2.62549815364056,3.92899537638065,2.22890665988493,FALSE,4.51746076676867
"CAN","cpi",0.3,1989,3,1989,NA,0,4.93864357277092,4.98583887213143,4.82821664544208,4.96224122245117,FALSE,0.362700806014343
"CAN","cpi",0.3,1989,3,1989,NA,0.5,3.75587032387115,4.5490533113824,4.82821664544208,4.15246181762677,FALSE,1.59079251339605
"CAN","cpi",0.3,1989,3,1988,NA,1,2.95402627398423,3.74720926149547,4.82821664544208,3.35061776773985,FALSE,3.88177551307297
"CAN","cpi",0.3,1989,3,1988,NA,1.5,1.63634061260267,2.42952360011391,4.82821664544208,2.03293210635829,FALSE,7.64659168844886
"CAN","cpi",0.3,1990,3,1990,NA,0,4.46186160105307,4.52047304811502,4.64347549432717,4.49116732458404,FALSE,0.410047007668103
"CAN","cpi",0.3,1990,3,1990,NA,0.5,4.40975984524579,5.20294283275704,4.64347549432717,4.80635133900141,TRUE,0.793182987511244
"CAN","cpi",0.3,1990,3,1989,NA,1,4.05673781150639,4.84992079901764,4.64347549432717,4.45332930526201,TRUE,0.793182987511244
"CAN","cpi",0.3,1990,3,1989,NA,1.5,2.54334993921369,3.33653292672494,4.64347549432717,2.93994143296931,FALSE,4.52730460923191
"CAN","cpi",0.3,1991,3,1991,NA,0,5.20435972286515,5.98892334738106,5.4258100696218,5.5966415351231,TRUE,0.784563624515904
"CAN","cpi",0.3,1991,3,1991,NA,0.5,7.65017862789784,8.43474225241375,5.4258100696218,8.0424604401558,FALSE,7.13990236244747
"CAN","cpi",0.3,1991,3,1990,NA,1,2.61538204164077,3.39994566615668,5.4258100696218,3.00766385389873,FALSE,6.57274763441624
"CAN","cpi",0.3,1991,3,1990,NA,1.5,3.03233141525142,3.81689503976732,5.4258100696218,3.42461322750937,FALSE,5.38146370981441
"CAN","cpi",0.3,1992,3,1992,NA,0,1.43414773100694,1.48821828798538,1.47496888572843,1.46118300949616,TRUE,0.0540705569784405
"CAN","cpi",0.3,1992,3,1992,NA,0.5,1.04937713063926,1.42655922053014,1.47496888572843,1.2379681755847,FALSE,0.515495419028866
"CAN","cpi",0.3,1992,3,1991,NA,1,1.53381132303582,2.21086173525638,1.47496888572843,1.8723365291461,FALSE,0.84517166167024
"CAN","cpi",0.3,1992,3,1991,NA,1.5,6.5608117622791,7.23786217449965,1.47496888572843,6.89933696838937,FALSE,15.2080300595082
"CAN","cpi",0.3,1993,3,1993,NA,0,1.77184186889806,1.83256948222,1.84351085411351,1.80220567555903,FALSE,0.0919886758748252
"CAN","cpi",0.3,1993,3,1993,NA,0.5,2.02767883054579,2.40869113404112,1.84351085411351,2.21818498229346,FALSE,0.907206521873265
"CAN","cpi",0.3,1993,3,1992,NA,1,1.022390534978,1.68169544878439,1.84351085411351,1.3520429918812,FALSE,1.12163464331816
"CAN","cpi",0.3,1993,3,1992,NA,1.5,0.603833030433663,1.26313794424006,1.84351085411351,0.933485487336859,FALSE,2.31751322773055
"CAN","cpi",0.3,1994,3,1994,NA,0,-0.0978180223839181,0.502037337358301,0.161630694655448,0.202109657487191,TRUE,0.599855359742219
"CAN","cpi",0.3,1994,3,1994,NA,0.5,-0.872567387333887,-0.272712027591668,0.161630694655448,-0.572639707462777,FALSE,1.84083456616255
"CAN","cpi",0.3,1994,3,1993,NA,1,0.82033072229596,1.46187993924076,0.161630694655448,1.14110533076836,FALSE,2.52354929591769
"CAN","cpi",0.3,1994,3,1993,NA,1.5,1.32946001448683,1.97100923143163,0.161630694655448,1.65023462295923,FALSE,3.97820441646304
"CAN","cpi",0.3,1995,3,1995,NA,0,2.11931248502022,2.17771250522605,2.11688403676572,2.14851249512314,FALSE,0.0653384437901351
"CAN","cpi",0.3,1995,3,1995,NA,0.5,2.41402952563645,2.78741934054841,2.11688403676572,2.60072443309243,FALSE,1.2223769259712
"CAN","cpi",0.3,1995,3,1994,NA,1,1.1172766500517,1.75020280279212,2.11688403676572,1.43373972642191,FALSE,1.6805868212364
"CAN","cpi",0.3,1995,3,1994,NA,1.5,-1.58257641061598,-0.949650257875562,2.11688403676572,-1.26611333424577,FALSE,9.39445270885836
"CAN","cpi",0.3,1996,3,1996,NA,0,1.40792104087073,1.46538436763004,1.55309584667184,1.43665270425039,FALSE,0.308067552593031
"CAN","cpi",0.3,1996,3,1996,NA,0.5,1.02744243664347,1.43808417065727,1.55309584667184,1.23276330365037,FALSE,0.739246522626875
"CAN","cpi",0.3,1996,3,1995,NA,1,0.411546300166067,1.04796021862176,1.55309584667184,0.729753259393914,FALSE,2.07965857002736
"CAN","cpi",0.3,1996,3,1995,NA,1.5,2.00084143263759,2.63725535109328,1.55309584667184,2.31904839186543,FALSE,1.91568702121496
"CAN","cpi",0.3,1997,3,1997,NA,0,1.64371021278638,1.71527936168553,1.60528783555959,1.67949478723595,FALSE,0.181347369547118
"CAN","cpi",0.3,1997,3,1997,NA,0.5,1.72701352147902,2.13882632048912,1.60528783555959,1.93291992098407,FALSE,0.759600473065612
"CAN","cpi",0.3,1997,3,1996,NA,1,0.351645439067592,0.877615464174317,1.60528783555959,0.614630451620954,FALSE,2.60503394335037
"CAN","cpi",0.3,1997,3,1996,NA,1.5,0.615078534303448,1.3092445940943,1.60528783555959,0.962161564198873,FALSE,1.54000389254883
"CAN","cpi",0.3,1998,3,1998,NA,0,0.693797114059913,1.24033024671567,0.988908029337191,0.967063680387792,TRUE,0.546533132655758
"CAN","cpi",0.3,1998,3,1998,NA,0.5,1.07570803233549,1.62224116499125,0.988908029337191,1.34897459866337,FALSE,0.794533141222322
"CAN","cpi",0.3,1998,3,1997,NA,1,0.51942339291825,1.06595652557401,0.988908029337191,0.792689959246129,TRUE,0.546533132655758
"CAN","cpi",0.3,1998,3,1997,NA,1.5,0.765392150008418,1.80228785753051,0.988908029337191,1.28384000376946,TRUE,1.03689570752209
"CAN","cpi",0.3,1999,3,1999,NA,0,1.46796928576035,2.06932339213173,1.7107350135213,1.76864633894604,TRUE,0.601354106371377
"CAN","cpi",0.3,1999,3,1999,NA,0.5,0.431422657414842,1.03277676378622,1.7107350135213,0.732099710600531,FALSE,2.53837767704303
"CAN","cpi",0.3,1999,3,1998,NA,1,0.0683755187739409,0.669729625145318,1.7107350135213,0.369052571959629,FALSE,3.57565521601703
"CAN","cpi",0.3,1999,3,1998,NA,1.5,0.578176008937792,1.9587641315248,1.7107350135213,1.26847007023129,TRUE,1.380588122587
"CAN","cpi",0.3,2000,3,2000,NA,0,2.38514965461945,3.02000655886124,2.6718361971244,2.70257810674034,TRUE,0.63485690424179
"CAN","cpi",0.3,2000,3,2000,NA,0.5,1.64205460668786,2.27691151092965,2.6718361971244,1.95948305880876,FALSE,1.76321315051249
"CAN","cpi",0.3,2000,3,1999,NA,1,1.76495512610436,2.55813811361561,2.6718361971244,2.16154661985999,FALSE,1.11803465467922
"CAN","cpi",0.3,2000,3,1999,NA,1.5,-0.177951815241002,1.18351957136852,2.6718361971244,0.50278387806376,FALSE,5.61380460305489
"CAN","cpi",0.3,2001,3,2001,NA,0,2.43206103269817,3.03102995502357,2.47906219852806,2.73154549386087,TRUE,0.59896892232539
"CAN","cpi",0.3,2001,3,2001,NA,0.5,1.35913382147656,1.95810274380195,2.47906219852806,1.65861828263926,FALSE,2.08742450725713
"CAN","cpi",0.3,2001,3,2000,NA,1,2.54185449672717,3.14082341905256,2.47906219852806,2.84133895788986,FALSE,0.778375488608551
"CAN","cpi",0.3,2001,3,2000,NA,1.5,0.507242297706101,1.77658479125328,2.47906219852806,1.14191354447969,FALSE,3.27642080004656
"CAN","cpi",0.3,2002,3,2002,NA,0,2.28425336617787,2.3413971831262,2.20880570551249,2.31282527465204,FALSE,0.272708561706572
"CAN","cpi",0.3,2002,3,2002,NA,0.5,0.979041744878892,1.51559722780297,2.20880570551249,1.24731948634093,FALSE,2.51715113352271
"CAN","cpi",0.3,2002,3,2001,NA,1,0.361116042537084,1.02986703923667,2.20880570551249,0.695491540886875,FALSE,4.03714718605907
"CAN","cpi",0.3,2002,3,2001,NA,1.5,-0.129624653841554,1.08174789148423,2.20880570551249,0.47606161882134,FALSE,4.43153772826365
"CAN","cpi",0.3,2003,3,2003,NA,0,2.73002097292794,2.77918697262856,2.71189071546809,2.75460397277825,FALSE,0.100966735300188
"CAN","cpi",0.3,2003,3,2003,NA,0.5,3.76437821416864,4.55756120167989,2.71189071546809,4.16096970792426,FALSE,3.80029012665568
"CAN","cpi",0.3,2003,3,2002,NA,1,2.88132758812909,3.67451057564033,2.71189071546809,3.27791908188471,FALSE,1.27728833797123
"CAN","cpi",0.3,2003,3,2002,NA,1.5,0.940054388428235,2.09654586670978,2.71189071546809,1.51830012756901,FALSE,2.914619617591
"CAN","cpi",0.3,2004,3,2004,NA,0,1.74494680024976,1.778115277789,1.83151661303942,1.76153103901938,FALSE,0.185743721111865
"CAN","cpi",0.3,2004,3,2004,NA,0.5,0.992864551050095,1.78604753856134,1.83151661303942,1.38945604480572,FALSE,0.923094628877197
"CAN","cpi",0.3,2004,3,2003,NA,1,0.62215469784035,1.41533768535159,1.83151661303942,1.01874619159597,FALSE,1.9822656380479
"CAN","cpi",0.3,2004,3,2003,NA,1.5,2.59446209728848,3.38764508479973,1.83151661303942,2.99105359104411,FALSE,2.97302722822285
"CAN","cpi",0.3,2005,3,2005,NA,0,2.33486563128066,2.36638399156568,2.18071628336509,2.35062481142317,FALSE,0.471945068615211
"CAN","cpi",0.3,2005,3,2005,NA,0.5,1.05869222747468,1.85187521498592,2.18071628336509,1.4552837212303,FALSE,1.73272889716601
"CAN","cpi",0.3,2005,3,2004,NA,1,0.399895218268148,1.19307820577939,2.18071628336509,0.79648671202377,FALSE,3.61500606632753
"CAN","cpi",0.3,2005,3,2004,NA,1.5,0.740218019752349,1.53340100726359,2.18071628336509,1.13680951350797,FALSE,2.64265520494409
"CAN","cpi",0.3,2006,3,2006,NA,0,1.66788892948789,2.46107191699914,1.97519342012289,2.06448042324351,TRUE,0.793182987511243
"CAN","cpi",0.3,2006,3,2006,NA,0.5,1.37414164744643,2.16732463495767,1.97519342012289,1.77073314120205,TRUE,0.793182987511244
"CAN","cpi",0.3,2006,3,2005,NA,1,2.19149055343379,2.98467354094503,1.97519342012289,2.58808204718941,FALSE,1.41117479697096
"CAN","cpi",0.3,2006,3,2005,NA,1.5,0.365483775161106,1.15866676267235,1.97519342012289,0.762075268916728,FALSE,3.12611629451278
"CAN","cpi",0.3,2007,3,2007,NA,0,2.06965701124225,2.14648979891729,2.10062087284572,2.10807340507977,TRUE,0.076832787675035
"CAN","cpi",0.3,2007,3,2007,NA,0.5,1.88139680533299,2.31380862316051,2.10062087284572,2.09760271424675,TRUE,0.432411817827519
"CAN","cpi",0.3,2007,3,2006,NA,1,0.04227096486825,0.835453952379494,2.10062087284572,0.438862458623872,FALSE,4.40794561741475
"CAN","cpi",0.3,2007,3,2006,NA,1.5,0.684300483996626,1.47748347150787,2.10062087284572,1.08089197775225,FALSE,2.57357556276225
"CAN","cpi",0.3,2008,3,2008,NA,0,2.88429209544794,2.94504297217545,2.31447335265955,2.9146675338117,FALSE,1.68880442755148
"CAN","cpi",0.3,2008,3,2008,NA,0.5,0.695827381289762,1.39542752314554,2.31447335265955,1.04562745221765,FALSE,3.32544536903866
"CAN","cpi",0.3,2008,3,2007,NA,1,0.0152301094582823,0.714830251314064,2.31447335265955,0.365030180386173,FALSE,5.27000900284289
"CAN","cpi",0.3,2008,3,2007,NA,1.5,1.69127382359345,2.39087396544923,2.31447335265955,2.04107389452134,TRUE,0.699600141855781
"CAN","cpi",0.3,2009,3,2009,NA,0,0.243860344209158,0.301377328223701,0.284533874408197,0.272618836216429,TRUE,0.057516984014543
"CAN","cpi",0.3,2009,3,2009,NA,0.5,-1.01848658559066,-0.596366091445412,0.284533874408197,-0.807426338518035,FALSE,2.93897753944127
"CAN","cpi",0.3,2009,3,2008,NA,1,2.88696545389423,3.68014844140547,0.284533874408197,3.28355694764985,FALSE,8.22870178604277
"CAN","cpi",0.3,2009,3,2008,NA,1.5,0.306785461483291,1.09996844899453,0.284533874408197,0.703376955238912,FALSE,0.856758950582939
"CAN","cpi",0.3,2010,3,2010,NA,0,1.69939911055738,1.75476161745609,1.75525687020327,1.72708036400674,FALSE,0.0567775147477999
"CAN","cpi",0.3,2010,3,2010,NA,0.5,1.27965931309024,1.56520601087308,1.75525687020327,1.42243266198166,FALSE,0.828549153011966
"CAN","cpi",0.3,2010,3,2009,NA,1,0.0865080604754275,0.945150813683489,1.75525687020327,0.515829437079458,FALSE,3.17323148612173
"CAN","cpi",0.3,2010,3,2009,NA,1.5,-1.09572100861082,-0.237078255402762,1.75525687020327,-0.666399632006793,FALSE,6.55102882636816
"CAN","cpi",0.3,2011,3,2011,NA,0,2.79568265956232,2.86173971500464,2.85717434028225,2.82871118728348,TRUE,0.0660570554423217
"CAN","cpi",0.3,2011,3,2011,NA,0.5,2.42263998594562,2.76347293295523,2.85717434028225,2.59305645945043,FALSE,0.608551253658219
"CAN","cpi",0.3,2011,3,2010,NA,1,1.15499463171032,2.00890235453257,2.85717434028225,1.58194849312145,FALSE,3.27754196782132
"CAN","cpi",0.3,2011,3,2010,NA,1.5,0.581708456166116,1.43561617898836,2.85717434028225,1.00866231757724,FALSE,4.9155024693762
"CAN","cpi",0.3,2012,3,2012,NA,0,1.43011175111351,1.50352327779404,1.50118536134935,1.46681751445377,TRUE,0.0734115266805304
"CAN","cpi",0.3,2012,3,2012,NA,0.5,1.45038652996481,1.8269454112503,1.50118536134935,1.63866597060755,TRUE,0.376558881285484
"CAN","cpi",0.3,2012,3,2011,NA,1,0.422961331272902,1.27351976670196,1.50118536134935,0.848240548987433,FALSE,1.50103156299301
"CAN","cpi",0.3,2012,3,2011,NA,1.5,1.25856377417062,2.10912220959968,1.50118536134935,1.68384299188515,TRUE,0.850558435429062
"CAN","cpi",0.3,2013,3,2013,NA,0,1.00628008653943,1.05538222174313,0.931270594714462,1.03083115414128,FALSE,0.263414968989317
"CAN","cpi",0.3,2013,3,2013,NA,0.5,0.791686880587809,1.21199438334271,0.931270594714462,1.00184063196526,TRUE,0.420307502754899
"CAN","cpi",0.3,2013,3,2012,NA,1,-0.492751583390936,-0.0523403983538361,0.931270594714462,-0.272545990872386,FALSE,3.25072830808938
"CAN","cpi",0.3,2013,3,2012,NA,1.5,0.562017310380449,1.35520029789169,0.931270594714462,0.958608804136071,TRUE,0.793182987511244
"CAN","cpi",0.3,2014,3,2014,NA,0,1.96176781046723,2.0104977597468,1.87639912240215,1.98613278510701,FALSE,0.29264048660837
"CAN","cpi",0.3,2014,3,2014,NA,0.5,1.76731879998581,2.13715890249022,1.87639912240215,1.95223885123801,TRUE,0.369840102504414
"CAN","cpi",0.3,2014,3,2013,NA,1,0.491326770192728,0.885990604374965,1.87639912240215,0.688658687283847,FALSE,3.22440245711705
"CAN","cpi",0.3,2014,3,2013,NA,1.5,0.495002706128879,1.28818569364012,1.87639912240215,0.891594199884501,FALSE,2.47379278397418
"CAN","cpi",0.3,2015,3,2015,NA,0,1.21373890034732,1.27909842719775,1.11090953952792,1.24641866377254,FALSE,0.359157700620166
"CAN","cpi",0.3,2015,3,2015,NA,0.5,-0.0308429323670771,0.427077256546473,1.11090953952792,0.198117162089698,FALSE,2.41172671171767
"CAN","cpi",0.3,2015,3,2014,NA,1,0.303145978139991,0.761066167053542,1.11090953952792,0.532106072596766,FALSE,1.45747268169748
"CAN","cpi",0.3,2015,3,2014,NA,1.5,1.41376770859706,2.2069506961083,1.11090953952792,1.81035920235268,FALSE,1.6584920419945
"CAN","cpi",0.3,2016,3,2016,NA,0,1.40700431810952,1.47669482978226,1.41168586698797,1.44184957394589,TRUE,0.0696905116727335
"CAN","cpi",0.3,2016,3,2016,NA,0.5,0.615504943237258,1.07069515157499,1.41168586698797,0.843100047406122,FALSE,1.42944939523196
"CAN","cpi",0.3,2016,3,2015,NA,1,1.00725343353387,1.46244364187159,1.41168586698797,1.23484853770273,TRUE,0.455190208337728
"CAN","cpi",0.3,2016,3,2015,NA,1.5,-0.289128741578339,0.504054245932905,1.41168586698797,0.107462752177283,FALSE,3.3864161905257
"CAN","cpi",0.3,2017,3,2017,NA,0,1.48930298075399,1.54549553203948,1.57888581671161,1.51739925639673,FALSE,0.151593364634441
"CAN","cpi",0.3,2017,3,2017,NA,0.5,1.56182686826964,2.20157851728811,1.57888581671161,1.88170269277887,TRUE,0.639751649018467
"CAN","cpi",0.3,2017,3,2016,NA,1,0.0984625222460107,0.738214171264478,1.57888581671161,0.418338346755244,FALSE,3.04167063601028
"CAN","cpi",0.3,2017,3,2016,NA,1.5,0.128984593581669,0.922167581092912,1.57888581671161,0.52557608733729,FALSE,2.66952080356467
"CAN","cpi",0.3,2018,3,2018,NA,0,2.38499390378891,2.42723366791419,2.23316270166586,2.40611378585155,FALSE,0.476043198762564
"CAN","cpi",0.3,2018,3,2018,NA,0.5,2.40763573342503,2.83650468305905,2.23316270166586,2.62207020824204,FALSE,0.92736332608879
"CAN","cpi",0.3,2018,3,2017,NA,1,0.189678625789156,0.618547575423185,2.23316270166586,0.40411310060617,FALSE,5.0420550246131
"CAN","cpi",0.3,2018,3,2017,NA,1.5,1.14128375339364,1.93446674090489,2.23316270166586,1.53787524714926,FALSE,1.64660001825688
"CAN","cpi",0.3,2019,3,2019,NA,0,1.97511181523754,2.04774498266493,1.91921619871868,2.01142839895124,FALSE,0.232334928909853
"CAN","cpi",0.3,2019,3,2019,NA,0.5,1.30484342509895,1.73283073571277,1.91921619871868,1.51883708040586,FALSE,0.960517204916423
"CAN","cpi",0.3,2019,3,2018,NA,1,1.20543618571158,1.63342349632539,1.91921619871868,1.41942984101848,FALSE,1.24453788888036
"CAN","cpi",0.3,2019,3,2018,NA,1.5,1.6644602171445,2.45764320465574,1.91921619871868,2.06105171090012,TRUE,0.793182987511244
"CAN","cpi",0.3,2020,3,2020,NA,0,0.403120806693212,1.04923889888894,0.71139989671781,0.726179852791075,TRUE,0.646118092195726
"CAN","cpi",0.3,2020,3,2020,NA,0.5,0.749200404382661,1.39531849657839,0.71139989671781,1.07225945048052,FALSE,0.754119542666726
"CAN","cpi",0.3,2020,3,2019,NA,1,0.696080597180202,1.34219868937593,0.71139989671781,1.01913964327806,TRUE,0.646118092195726
"CAN","cpi",0.3,2020,3,2019,NA,1.5,0.831024959749561,1.6242079472608,0.71139989671781,1.22761645350518,FALSE,1.13496888188767
"CAN","cpi",0.3,2021,3,2021,NA,0,3.27991650164053,3.33985856217731,3.31148121717802,3.30988753190892,TRUE,0.0599420605367786
"CAN","cpi",0.3,2021,3,2021,NA,0.5,2.09331258490508,2.88649557241633,3.31148121717802,2.4899040786607,FALSE,2.00742768683038
"CAN","cpi",0.3,2021,3,2020,NA,1,0.801315210777482,1.59449819828873,3.31148121717802,1.1979067045331,FALSE,5.69884875576638
"CAN","cpi",0.3,2021,3,2020,NA,1.5,0.274035317235031,1.06721830474627,3.31148121717802,0.670626810990653,FALSE,7.20536273731624
"CAN","cpi",0.3,2022,3,2022,NA,0,6.14896639803294,6.94214938554418,6.50977236228281,6.54555789178856,TRUE,0.793182987511244
"CAN","cpi",0.3,2022,3,2022,NA,0.5,5.56809849230641,6.36128147981765,6.50977236228281,5.96468998606203,FALSE,1.21744265169741
"CAN","cpi",0.3,2022,3,2021,NA,1,3.02446115447419,3.81764414198543,6.50977236228281,3.42105264822981,FALSE,8.48497790264662
"CAN","cpi",0.3,2022,3,2021,NA,1.5,1.536171165084,2.32935415259524,6.50977236228281,1.93276265883962,FALSE,12.73723501519
"CAN","cpi",0.3,2023,3,2023,NA,0,3.94457389796505,3.9991998069213,3.78831288758619,3.97188685244318,FALSE,0.501085938610129
"CAN","cpi",0.3,2023,3,2023,NA,0.5,2.44260860979068,3.23579159730192,3.78831288758619,2.8392001035463,FALSE,2.37181524546631
"CAN","cpi",0.3,2023,3,2022,NA,1,2.47225842114196,3.26544140865321,3.78831288758619,2.86884991489758,FALSE,2.28710149874834
"CAN","cpi",0.3,2023,3,2022,NA,1.5,3.61555563212017,4.45078931819802,3.78831288758619,4.03317247515909,TRUE,0.835233686077856
"CAN","cpi",0.3,2024,3,2023,NA,1,2.50287604803799,3.29605903554924,NA,2.89946754179362,NA,NA
"CAN","cpi",0.3,2024,3,2023,NA,1.5,0.75715211921577,1.60268091642724,NA,1.17991651782151,NA,NA
"CAN","cpi",0.4,1959,3,1959,NA,0,0.718233694270494,1.66085828875303,1.19382698397654,1.18954599151176,TRUE,0.942624594482538
"CAN","cpi",0.4,1959,3,1959,NA,0.5,0.0739960299196558,1.01662062440219,1.19382698397654,0.545308327160925,FALSE,1.53331245973036
"CAN","cpi",0.4,1959,3,1958,NA,1,0.591423103735446,1.67447918124548,1.19382698397654,1.13295114249046,TRUE,1.08305607751003
"CAN","cpi",0.4,1959,3,1958,NA,1.5,-0.75229435267294,2.18713852883152,1.19382698397654,0.717422088079289,TRUE,2.93943288150446
"CAN","cpi",0.4,1960,3,1960,NA,0,0.958921007171411,1.08830507801813,1.34209404870695,1.02361304259477,FALSE,0.975347306476117
"CAN","cpi",0.4,1960,3,1960,NA,0.5,0.409858018711128,0.887363996716185,1.34209404870695,0.648611007713657,FALSE,1.99327281797428
"CAN","cpi",0.4,1960,3,1959,NA,1,1.38072819866314,3.37260926504958,1.34209404870695,2.37666873185636,FALSE,2.1206615662404
"CAN","cpi",0.4,1960,3,1959,NA,1.5,-1.58448980213045,0.8863054429959,1.34209404870695,-0.349092179567277,FALSE,3.99009059749653
"CAN","cpi",0.4,1961,3,1961,NA,0,0.922983637918714,1.09544332396143,1.00921348094007,1.00921348094007,TRUE,0.172459686042716
"CAN","cpi",0.4,1961,3,1961,NA,0.5,0.842535289528109,1.17589167235203,1.00921348094007,1.00921348094007,TRUE,0.333356382823926
"CAN","cpi",0.4,1961,3,1960,NA,1,-0.589096528190436,0.696637453397502,1.00921348094007,0.0537704626035329,FALSE,2.3276540733965
