isdrw/probabilistic-benchmark-forecasts/results/t_quantiles_prediction/mean 0 assumption/t_prediction_arima1_1_0_2026-02-17_10-22-02.csv
"country","target","tau","target_year","target_quarter","forecast_year","forecast_quarter","horizon","lower_bound","upper_bound","truth_value","prediction","covered","IS"
"CAN","cpi",0.1,1959,3,1959,NA,0,1.06790690067259,1.32568727925913,1.19382698397654,1.19679708996586,TRUE,0.257780378586547
"CAN","cpi",0.1,1959,3,1959,NA,0.5,0.492403490002255,0.817948499651564,1.19382698397654,0.655175994826909,FALSE,1.16083053037148
"CAN","cpi",0.1,1959,3,1958,NA,1,1.49933611036477,2.01944104595485,1.19382698397654,1.75938857815981,FALSE,1.19901410534171
"CAN","cpi",0.1,1959,3,1958,NA,1.5,1.51491414233446,2.03501907792454,1.19382698397654,1.7749666101295,FALSE,1.23363195416323
"CAN","cpi",0.1,1960,3,1960,NA,0,0.927017898323323,1.13558703190365,1.34209404870695,1.03130246511349,FALSE,0.667473615365436
"CAN","cpi",0.1,1960,3,1960,NA,0.5,0.64131808634208,0.849887219922411,1.34209404870695,0.745602653132245,FALSE,1.30236208643487
"CAN","cpi",0.1,1960,3,1959,NA,1,2.94883263976252,3.72291510630623,1.34209404870695,3.33587387303437,FALSE,4.34461266888941
"CAN","cpi",0.1,1960,3,1959,NA,1.5,-0.735501530632632,0.0846633420568528,1.34209404870695,-0.32541909428789,FALSE,3.61445533191193
"CAN","cpi",0.1,1961,3,1961,NA,0,0.918230248515501,1.10019671336464,1.00921348094007,1.00921348094007,TRUE,0.181966464849142
"CAN","cpi",0.1,1961,3,1961,NA,0.5,1.22042808265672,1.40239454750586,1.00921348094007,1.31141131508129,FALSE,0.651332246441696
"CAN","cpi",0.1,1961,3,1960,NA,1,-0.125017231204971,0.412269042544895,1.00921348094007,0.143625905669962,FALSE,1.86382947018359
"CAN","cpi",0.1,1961,3,1960,NA,1.5,-0.608754561027153,-0.0714682872772869,1.00921348094007,-0.34011142415222,FALSE,2.93880131423289
"CAN","cpi",0.1,1962,3,1962,NA,0,1.01563509335829,1.20702487125923,1.04957947883042,1.11132998230876,TRUE,0.191389777900936
"CAN","cpi",0.1,1962,3,1962,NA,0.5,-0.0956948889504679,0.095694888950468,1.04957947883042,1.64134322488006e-44,FALSE,2.31113331096748
"CAN","cpi",0.1,1962,3,1961,NA,1,-0.271566102698293,0.271566102698293,1.04957947883042,-9.44308782563385e-19,FALSE,2.27205081902352
"CAN","cpi",0.1,1962,3,1961,NA,1.5,0.482818145992458,1.02595035138904,1.04957947883042,0.754384248690751,FALSE,0.595641377488521
"CAN","cpi",0.1,1963,3,1963,NA,0,1.76883739900863,1.94315281876465,1.60677118395228,1.85599510888664,FALSE,0.534462564325686
"CAN","cpi",0.1,1963,3,1963,NA,0.5,0.845142583759414,1.01945800351544,1.60677118395228,0.932300293637426,FALSE,1.47945582072679
"CAN","cpi",0.1,1963,3,1962,NA,1,2.43073536933709,2.90423507753746,1.60677118395228,2.66748522343727,FALSE,2.30453123127771
"CAN","cpi",0.1,1963,3,1962,NA,1.5,-0.236749854100184,0.236749854100184,1.60677118395228,4.10321927477868e-44,FALSE,3.51799155231615
"CAN","cpi",0.1,1964,3,1964,NA,0,1.96954796853089,2.00833512284915,1.88764670034376,1.98894154569002,FALSE,0.220789972511892
"CAN","cpi",0.1,1964,3,1964,NA,0.5,1.34468647986683,1.42286517507505,1.88764670034376,1.38377582747094,FALSE,1.11102652913869
"CAN","cpi",0.1,1964,3,1963,NA,1,4.58397533976103,4.84175571834758,1.88764670034376,4.71286552905431,FALSE,6.24962179951382
"CAN","cpi",0.1,1964,3,1963,NA,1.5,0.0438217744310181,0.433737571913636,1.88764670034376,0.238779673172327,FALSE,3.62082497177178
"CAN","cpi",0.1,1965,3,1965,NA,0,2.33534238470247,2.3745478255086,2.29538304394236,2.35494510510554,FALSE,0.128003975828605
"CAN","cpi",0.1,1965,3,1965,NA,0.5,1.52321053276513,1.59768739642964,2.29538304394236,1.56044896459738,FALSE,1.62491163591499
"CAN","cpi",0.1,1965,3,1964,NA,1,2.2982171296928,2.55599750827934,2.29538304394236,2.42710731898607,FALSE,0.264078346920859
"CAN","cpi",0.1,1965,3,1964,NA,1.5,0.65950205543785,0.977129460368382,2.29538304394236,0.818315757903116,FALSE,3.2470798128727
"CAN","cpi",0.1,1966,3,1966,NA,0,3.82945287041731,3.86382985738291,3.72486065470629,3.84664136390011,FALSE,0.266804132990092
"CAN","cpi",0.1,1966,3,1966,NA,0.5,3.81172727398942,3.88210073061663,3.72486065470629,3.84691400230302,FALSE,0.263410388367495
"CAN","cpi",0.1,1966,3,1965,NA,1,3.23798696554993,3.38937297624435,3.72486065470629,3.31367997089714,FALSE,0.896914185054282
"CAN","cpi",0.1,1966,3,1965,NA,1.5,1.40581081878792,1.55719682948234,3.72486065470629,1.48150382413513,FALSE,4.9684167334143
"CAN","cpi",0.1,1967,3,1967,NA,0,3.75472420795958,3.78253517330325,3.49360316391996,3.76862969063141,FALSE,0.608079952098379
"CAN","cpi",0.1,1967,3,1967,NA,0.5,2.29707344458334,2.42641496995543,3.49360316391996,2.36174420726938,FALSE,2.50087084529327
"CAN","cpi",0.1,1967,3,1966,NA,1,3.3909791168181,3.5736977922827,3.49360316391996,3.4823384545504,TRUE,0.182718675464601
"CAN","cpi",0.1,1967,3,1966,NA,1.5,4.20121766670392,4.38393634216852,3.49360316391996,4.29257700443622,FALSE,1.75519534831785
"CAN","cpi",0.1,1968,3,1968,NA,0,4.09719148512075,4.12961454006465,3.95128347779386,4.1134030125927,FALSE,0.356663071225884
"CAN","cpi",0.1,1968,3,1968,NA,0.5,3.78947988247459,3.99500879240407,3.95128347779386,3.89224433743933,TRUE,0.205528909929473
"CAN","cpi",0.1,1968,3,1967,NA,1,5.75320266012754,5.95873157005702,3.95128347779386,5.85596711509228,FALSE,4.20979375955989
"CAN","cpi",0.1,1968,3,1967,NA,1.5,2.03910649653934,2.24463540646881,3.95128347779386,2.14187095150408,FALSE,3.99808017954068
"CAN","cpi",0.1,1969,3,1969,NA,0,4.62638904575464,4.6588722571717,4.42679496126681,4.64263065146317,FALSE,0.476025621390002
"CAN","cpi",0.1,1969,3,1969,NA,0.5,2.93310473948444,3.19088511807099,4.42679496126681,3.06199492877772,FALSE,3.00424669679949
"CAN","cpi",0.1,1969,3,1968,NA,1,5.92693359819302,6.18471397677957,4.42679496126681,6.05582378748629,FALSE,3.59142179397811
"CAN","cpi",0.1,1969,3,1968,NA,1.5,3.74338466189995,4.0011650404865,4.42679496126681,3.87227485119322,FALSE,1.20362464698725
"CAN","cpi",0.1,1970,3,1970,NA,0,3.57595311596006,3.60397638252839,3.28128405769805,3.58996474924422,FALSE,0.682843396039469
"CAN","cpi",0.1,1970,3,1970,NA,0.5,4.04291250723424,4.30069288582079,3.28128405769805,4.17180269652751,FALSE,1.95028804422253
"CAN","cpi",0.1,1970,3,1969,NA,1,5.30976477535711,5.56754515394365,3.28128405769805,5.43865496465038,FALSE,4.76551530671779
"CAN","cpi",0.1,1970,3,1969,NA,1.5,2.18783712050539,2.44561749909194,3.28128405769805,2.31672730979866,FALSE,2.11481717548902
"CAN","cpi",0.1,1971,3,1971,NA,0,2.87924767616064,2.90924712020008,2.64123406634756,2.89424739818036,FALSE,0.558918576957396
"CAN","cpi",0.1,1971,3,1971,NA,0.5,0.962548596473208,1.18813128279792,2.64123406634756,1.07533993963556,FALSE,3.45469998310169
"CAN","cpi",0.1,1971,3,1970,NA,1,2.86881830817507,3.09440099449979,2.64123406634756,2.98160965133743,FALSE,0.731325445941404
"CAN","cpi",0.1,1971,3,1970,NA,1.5,4.04429126374888,4.26987395007359,2.64123406634756,4.15708260691123,FALSE,3.34348756943875
"CAN","cpi",0.1,1972,3,1972,NA,0,4.9743247077255,5.23210508631205,4.83230569625923,5.10321489701878,FALSE,0.573378181844935
"CAN","cpi",0.1,1972,3,1972,NA,0.5,4.44637765545146,4.70415803403801,4.83230569625923,4.57526784474473,FALSE,0.542552961300378
"CAN","cpi",0.1,1972,3,1971,NA,1,6.43844117585332,6.69622155443987,4.83230569625923,6.5673313651466,FALSE,3.82697033324009
"CAN","cpi",0.1,1972,3,1971,NA,1.5,1.07238073587519,1.33016111446174,4.83230569625923,1.20127092516847,FALSE,8.04032389369208
"CAN","cpi",0.1,1973,3,1973,NA,0,7.23379730187545,7.491577680462,7.12388603531779,7.36268749116872,FALSE,0.502027637603571
"CAN","cpi",0.1,1973,3,1973,NA,0.5,5.76543974144989,6.02322012003644,7.12388603531779,5.89432993074317,FALSE,2.70370463476732
"CAN","cpi",0.1,1973,3,1972,NA,1,7.24250917108773,7.50028954967427,7.12388603531779,7.371399360381,FALSE,0.521387346964185
"CAN","cpi",0.1,1973,3,1972,NA,1.5,4.37435652352802,4.63213690211457,7.12388603531779,4.50324671282129,FALSE,5.79500067459371
"CAN","cpi",0.1,1974,3,1974,NA,0,10.1933979439297,10.4511783225162,10.2717243737774,10.3222881332229,TRUE,0.257780378586549
"CAN","cpi",0.1,1974,3,1974,NA,0.5,8.71823884007042,8.97601921865697,10.2717243737774,8.8471290293637,FALSE,3.1371251677431
"CAN","cpi",0.1,1974,3,1973,NA,1,10.859550093244,11.1173304718305,10.2717243737774,10.9884402825372,FALSE,1.56405975517887
"CAN","cpi",0.1,1974,3,1973,NA,1.5,6.06665833150395,6.3244387100905,10.2717243737774,6.19554852079723,FALSE,9.02952629789081
"CAN","cpi",0.1,1975,3,1975,NA,0,10.2535304701631,10.2758578703088,10.0232981493341,10.2646941702359,FALSE,0.533954779765638
"CAN","cpi",0.1,1975,3,1975,NA,0.5,9.08966369275991,9.34744407134646,10.0232981493341,9.21855388205318,FALSE,1.75967832967024
"CAN","cpi",0.1,1975,3,1974,NA,1,11.8616242040971,12.1194045826836,10.0232981493341,11.9905143933903,FALSE,4.34294938917087
"CAN","cpi",0.1,1975,3,1974,NA,1.5,8.55120110201097,8.80898148059751,10.0232981493341,8.68009129130424,FALSE,2.9562618646679
"CAN","cpi",0.1,1976,3,1976,NA,0,7.12494048392895,7.3827208625155,7.22784311401172,7.25383067322222,TRUE,0.257780378586547
"CAN","cpi",0.1,1976,3,1976,NA,0.5,7.28658656675444,7.54436694534099,7.22784311401172,7.41547675604771,FALSE,0.388321384681486
"CAN","cpi",0.1,1976,3,1975,NA,1,11.786260868821,12.0440412474075,7.22784311401172,11.9151510581142,FALSE,10.387597611496
"CAN","cpi",0.1,1976,3,1975,NA,1.5,7.88442519190359,8.14220557049014,7.22784311401172,8.01331538119686,FALSE,1.71685166279071
"CAN","cpi",0.1,1977,3,1977,NA,0,7.4897811076168,7.74756148620335,7.58101410153764,7.61867129691007,TRUE,0.257780378586547
"CAN","cpi",0.1,1977,3,1977,NA,0.5,6.89398853060505,7.1517689091916,7.58101410153764,7.02287871989832,FALSE,1.21165858379999
"CAN","cpi",0.1,1977,3,1976,NA,1,5.7352318972193,6.01000618030546,7.58101410153764,5.87261903876238,FALSE,3.76590299693546
"CAN","cpi",0.1,1977,3,1976,NA,1.5,6.01583930869786,6.29061359178402,7.58101410153764,6.15322645024094,FALSE,3.14233097142755
"CAN","cpi",0.1,1978,3,1978,NA,0,8.55236388315678,8.81014426174332,8.50208927062595,8.68125407245005,FALSE,0.36950173976617
"CAN","cpi",0.1,1978,3,1978,NA,0.5,7.99619723400895,8.2539776125955,8.50208927062595,8.12508742330222,FALSE,0.809139618654218
"CAN","cpi",0.1,1978,3,1977,NA,1,8.49892546659695,8.78744987046228,8.50208927062595,8.64318766852961,TRUE,0.288524403865324
"CAN","cpi",0.1,1978,3,1977,NA,1.5,7.51602716603237,7.8045515698977,8.50208927062595,7.66028936796504,FALSE,1.83860818326143
"CAN","cpi",0.1,1979,3,1979,NA,0,8.4818692748046,8.73964965339115,8.65147652410481,8.61075946409788,TRUE,0.257780378586549
"CAN","cpi",0.1,1979,3,1979,NA,0.5,7.97173816345244,8.22951854203899,8.65147652410481,8.10062835274572,FALSE,1.19546478317726
"CAN","cpi",0.1,1979,3,1978,NA,1,9.44082530142639,9.72444446793941,8.65147652410481,9.5826348846829,FALSE,2.03772756056098
"CAN","cpi",0.1,1979,3,1978,NA,1.5,7.80002886350877,8.08364803002178,8.65147652410481,7.94183844676527,FALSE,1.5454602644753
"CAN","cpi",0.1,1980,3,1980,NA,0,9.40220027820958,9.65998065679613,9.5171912664748,9.53109046750286,TRUE,0.257780378586549
"CAN","cpi",0.1,1980,3,1980,NA,0.5,8.55674595986094,8.81452633844749,9.5171912664748,8.68563614915422,FALSE,1.81925799642501
"CAN","cpi",0.1,1980,3,1979,NA,1,8.18946922242278,8.46150546090888,9.5171912664748,8.32548734166583,FALSE,2.61800469529925
"CAN","cpi",0.1,1980,3,1979,NA,1.5,7.84445290171816,8.11648914020426,9.5171912664748,7.98047102096121,FALSE,3.3847076301984
"CAN","cpi",0.1,1981,3,1981,NA,0,11.5800657882297,11.8378461668162,11.5813425032741,11.708955977523,TRUE,0.257780378586549
"CAN","cpi",0.1,1981,3,1981,NA,0.5,11.9975061014517,12.2552864800382,11.5813425032741,12.1263962907449,FALSE,1.18258837453662
"CAN","cpi",0.1,1981,3,1980,NA,1,10.8291785461553,11.1407017844504,11.5813425032741,10.9849401653028,FALSE,1.29072483568125
"CAN","cpi",0.1,1981,3,1980,NA,1.5,8.47159063350893,8.783113871804,11.5813425032741,8.62735225265647,FALSE,6.52980908600649
"CAN","cpi",0.1,1982,3,1982,NA,0,10.1820847854729,10.4398651640595,10.1124203763629,10.3109749747662,FALSE,0.412590176608733
"CAN","cpi",0.1,1982,3,1982,NA,0.5,9.97079347270641,10.228573851293,10.1124203763629,10.0996836619997,TRUE,0.257780378586549
"CAN","cpi",0.1,1982,3,1981,NA,1,11.4737521100994,11.7652069297311,10.1124203763629,11.6194795199153,FALSE,3.31663645015723
"CAN","cpi",0.1,1982,3,1981,NA,1.5,12.5737082663284,12.8651630859601,10.1124203763629,12.7194356761443,FALSE,5.76098346399938
"CAN","cpi",0.1,1983,3,1983,NA,0,5.69875721432707,5.95653759291362,5.67091787896303,5.82764740362034,FALSE,0.319645568284404
"CAN","cpi",0.1,1983,3,1983,NA,0.5,4.84654925865003,5.10432963723658,5.67091787896303,4.97543944794331,FALSE,1.51686536020089
"CAN","cpi",0.1,1983,3,1982,NA,1,9.08192058242244,9.39364735122268,5.67091787896303,9.23778396682256,FALSE,7.89173277648781
"CAN","cpi",0.1,1983,3,1982,NA,1.5,9.63283805733842,9.94456482613865,5.67091787896303,9.78870144173853,FALSE,9.11599383185664
"CAN","cpi",0.1,1984,3,1984,NA,0,4.08468518363994,4.34246556222648,4.19799576814029,4.21357537293321,TRUE,0.257780378586547
"CAN","cpi",0.1,1984,3,1984,NA,0.5,4.51369914134238,4.77147951992893,4.19799576814029,4.64258933063566,FALSE,0.959343430146757
"CAN","cpi",0.1,1984,3,1983,NA,1,6.0024863594189,6.26026673800545,4.19799576814029,6.13137654871218,FALSE,4.26775947031681
"CAN","cpi",0.1,1984,3,1983,NA,1.5,3.33943419667579,3.59721457526234,4.19799576814029,3.46832438596907,FALSE,1.5928496960931
"CAN","cpi",0.1,1985,3,1985,NA,0,3.79020306830891,4.04798344689545,3.86444262005169,3.91909325760218,TRUE,0.257780378586547
"CAN","cpi",0.1,1985,3,1985,NA,0.5,3.76261169265711,4.02039207124366,3.86444262005169,3.89150188195039,TRUE,0.257780378586547
"CAN","cpi",0.1,1985,3,1984,NA,1,3.16508056047708,3.42286093906363,3.86444262005169,3.29397074977035,FALSE,1.23907300300447
"CAN","cpi",0.1,1985,3,1984,NA,1.5,4.33772015830512,4.59550053689167,3.86444262005169,4.4666103475984,FALSE,1.30950824137195
"CAN","cpi",0.1,1986,3,1986,NA,0,3.97699835136262,4.23477872994917,4.08685396749431,4.1058885406559,TRUE,0.257780378586547
"CAN","cpi",0.1,1986,3,1986,NA,0.5,4.28112387229421,4.53890425088076,4.08685396749431,4.41001406158749,FALSE,0.689491278141887
"CAN","cpi",0.1,1986,3,1985,NA,1,3.86414860390114,4.12192898248769,4.08685396749431,3.99303879319441,TRUE,0.257780378586547
"CAN","cpi",0.1,1986,3,1985,NA,1.5,3.99784881788378,4.4486776597343,4.08685396749431,4.22326323880904,TRUE,0.450828841850512
"CAN","cpi",0.1,1987,3,1987,NA,0,4.23087699551555,4.48865737410209,4.23980729277887,4.35976718480882,TRUE,0.257780378586547
"CAN","cpi",0.1,1987,3,1987,NA,0.5,3.78047302465441,4.03825340324096,4.23980729277887,3.90936321394769,FALSE,0.705677910893015
"CAN","cpi",0.1,1987,3,1986,NA,1,4.20210640222127,4.45988678080782,4.23980729277887,4.33099659151455,TRUE,0.257780378586547
"CAN","cpi",0.1,1987,3,1986,NA,1.5,4.62358103106888,4.88136140965543,4.23980729277887,4.75247122036215,FALSE,1.1106109081199
"CAN","cpi",0.1,1988,3,1988,NA,0,3.88380541223081,4.14158579081736,3.92899537638065,4.01269560152408,TRUE,0.257780378586547
"CAN","cpi",0.1,1988,3,1988,NA,0.5,3.34186576985008,3.59964614843662,3.92899537638065,3.47075595914335,FALSE,0.989667551795502
"CAN","cpi",0.1,1988,3,1987,NA,1,4.45273419565739,4.71051457424393,3.92899537638065,4.58162438495066,FALSE,1.42164442142373
"CAN","cpi",0.1,1988,3,1987,NA,1.5,3.61871895878622,4.00857656785394,3.92899537638065,3.81364776332008,TRUE,0.389857609067716
"CAN","cpi",0.1,1989,3,1989,NA,0,5.01446919298219,5.03343722447996,4.82821664544208,5.02395320873108,FALSE,0.432862581586911
"CAN","cpi",0.1,1989,3,1989,NA,0.5,4.23900828915825,4.4967886677448,4.82821664544208,4.36789847845152,FALSE,0.994286995691616
"CAN","cpi",0.1,1989,3,1988,NA,1,4.31105750034896,4.6121937363701,4.82821664544208,4.46162561835953,FALSE,0.781187145069979
"CAN","cpi",0.1,1989,3,1988,NA,1.5,3.12090184666022,3.43586120562,4.82821664544208,3.27838152614011,FALSE,3.4090825585644
"CAN","cpi",0.1,1990,3,1990,NA,0,4.50985691407177,4.52940565631957,4.64347549432717,4.51963128519567,FALSE,0.273037271153576
"CAN","cpi",0.1,1990,3,1990,NA,0.5,4.85545408069077,5.11323445927732,4.64347549432717,4.98434426998405,FALSE,0.728843903838999
"CAN","cpi",0.1,1990,3,1989,NA,1,5.75948227368917,6.07601651109304,4.64347549432717,5.9177493923911,FALSE,2.79654930265275
"CAN","cpi",0.1,1990,3,1989,NA,1.5,4.34332802443616,4.78038914333403,4.64347549432717,4.56185858388509,TRUE,0.437061118897869
"CAN","cpi",0.1,1991,3,1991,NA,0,5.4951774386612,5.75295781724775,5.4258100696218,5.62406762795447,FALSE,0.411930087562999
"CAN","cpi",0.1,1991,3,1991,NA,0.5,8.26283064904439,8.52061102763094,5.4258100696218,8.39172083833767,FALSE,6.5622705550812
"CAN","cpi",0.1,1991,3,1990,NA,1,3.74028597622569,3.99806635481224,5.4258100696218,3.86917616551897,FALSE,3.43054418927445
"CAN","cpi",0.1,1991,3,1990,NA,1.5,4.9060450827304,5.33972487437385,5.4258100696218,5.12288497855213,FALSE,0.624980225527773
"CAN","cpi",0.1,1992,3,1992,NA,0,1.46904036578518,1.49217149401864,1.47496888572843,1.48060592990191,TRUE,0.0231311282334574
"CAN","cpi",0.1,1992,3,1992,NA,0.5,1.1114490097552,1.23252529507544,1.47496888572843,1.17198715241532,FALSE,0.659839820104668
"CAN","cpi",0.1,1992,3,1991,NA,1,2.40559733258864,2.63489322887528,1.47496888572843,2.52024528073196,FALSE,2.29735911153154
"CAN","cpi",0.1,1992,3,1991,NA,1.5,10.0386897610593,10.2679856573459,1.47496888572843,10.1533377092026,FALSE,19.2597867303552
"CAN","cpi",0.1,1993,3,1993,NA,0,1.71166851075888,1.89357437575429,1.84351085411351,1.80262144325658,TRUE,0.181905864995407
"CAN","cpi",0.1,1993,3,1993,NA,0.5,2.25146022308811,2.43336608808351,1.84351085411351,2.34241315558581,FALSE,1.08846001827228
"CAN","cpi",0.1,1993,3,1992,NA,1,1.71411837943557,1.92200054881611,1.84351085411351,1.81805946412584,TRUE,0.207882169380533
"CAN","cpi",0.1,1993,3,1992,NA,1.5,1.03632251633614,1.24420468571668,1.84351085411351,1.14026360102641,FALSE,1.53967365470684
"CAN","cpi",0.1,1994,3,1994,NA,0,0.0675438413750007,0.259689415341654,0.161630694655448,0.163616628358327,TRUE,0.192145573966653
"CAN","cpi",0.1,1994,3,1994,NA,0.5,-0.481212885012706,-0.289067311046053,0.161630694655448,-0.385140098029379,FALSE,1.19369669774776
"CAN","cpi",0.1,1994,3,1993,NA,1,1.27515446736409,1.47434009530357,0.161630694655448,1.37474728133383,FALSE,2.67368290062534
"CAN","cpi",0.1,1994,3,1993,NA,1.5,2.4972633391455,2.69644896708498,0.161630694655448,2.59685615311524,FALSE,5.38948039347294
"CAN","cpi",0.1,1995,3,1995,NA,0,2.09863381598627,2.28849514787959,2.11688403676572,2.19356448193293,TRUE,0.189861331893322
"CAN","cpi",0.1,1995,3,1995,NA,0.5,2.58257836948181,2.77243970137513,2.11688403676572,2.67750903542847,FALSE,1.22473762681798
"CAN","cpi",0.1,1995,3,1994,NA,1,1.23932554130403,1.44252682079994,2.11688403676572,1.34092618105198,FALSE,1.70177287053097
"CAN","cpi",0.1,1995,3,1994,NA,1.5,-1.41558485730846,-1.21238357781255,2.11688403676572,-1.3139842175605,FALSE,7.60157375633649
"CAN","cpi",0.1,1996,3,1996,NA,0,1.38610236761352,1.5780278804409,1.55309584667184,1.48206512402721,TRUE,0.191925512827383
"CAN","cpi",0.1,1996,3,1996,NA,0.5,1.14002405233893,1.33194956516631,1.55309584667184,1.23598680875262,FALSE,0.683361693950791
"CAN","cpi",0.1,1996,3,1995,NA,1,1.22569918441003,1.43397004281691,1.55309584667184,1.32983461361347,FALSE,0.472994866973395
"CAN","cpi",0.1,1996,3,1995,NA,1.5,3.32167063029792,3.5299414887048,1.55309584667184,3.42580605950136,FALSE,4.1384370442426
"CAN","cpi",0.1,1997,3,1997,NA,0,1.59471301072919,1.78628763766808,1.60528783555959,1.69050032419864,TRUE,0.191574626938895
"CAN","cpi",0.1,1997,3,1997,NA,0.5,2.02400457637973,2.21557920331862,1.60528783555959,2.11979188984917,FALSE,1.12205627320586
"CAN","cpi",0.1,1997,3,1996,NA,1,1.08148812651327,1.30899357096056,1.60528783555959,1.19524084873691,FALSE,0.885937143556255
"CAN","cpi",0.1,1997,3,1996,NA,1.5,1.24185631639738,1.46936176084467,1.60528783555959,1.35560903862103,FALSE,0.529563388258227
"CAN","cpi",0.1,1998,3,1998,NA,0,0.881936759381581,1.07823928248147,0.988908029337191,0.980088020931525,TRUE,0.196302523099887
"CAN","cpi",0.1,1998,3,1998,NA,0.5,1.21263220991247,1.40893473301236,0.988908029337191,1.31078347146242,FALSE,0.693467368822738
"CAN","cpi",0.1,1998,3,1997,NA,1,0.967556664150836,1.16385918725072,0.988908029337191,1.06570792570078,TRUE,0.196302523099887
"CAN","cpi",0.1,1998,3,1997,NA,1.5,2.155455431115,2.35175795421488,0.988908029337191,2.25360669266494,FALSE,2.78863008260612
"CAN","cpi",0.1,1999,3,1999,NA,0,1.71736767386383,1.91685823299906,1.7107350135213,1.81711295343144,FALSE,0.21422980434085
"CAN","cpi",0.1,1999,3,1999,NA,0.5,0.688642286156929,0.88813284529216,1.7107350135213,0.788387565724544,FALSE,2.0274953774222
"CAN","cpi",0.1,1999,3,1998,NA,1,0.446476303560851,0.704256682147399,1.7107350135213,0.575366492854125,FALSE,2.49439889275076
"CAN","cpi",0.1,1999,3,1998,NA,1.5,1.53074707291524,1.84359246129592,1.7107350135213,1.68716976710558,TRUE,0.312845388380677
"CAN","cpi",0.1,2000,3,2000,NA,0,2.62674186433566,2.83324611019428,2.6718361971244,2.72999398726497,TRUE,0.20650424585862
"CAN","cpi",0.1,2000,3,2000,NA,0.5,1.96473655132598,2.1712407971846,2.6718361971244,2.06798867425529,FALSE,1.31893846794705
"CAN","cpi",0.1,2000,3,1999,NA,1,2.96263377132979,3.22041414991634,2.6718361971244,3.09152396062306,FALSE,0.90399721015408
"CAN","cpi",0.1,2000,3,1999,NA,1.5,0.682364140220575,1.00335957030749,2.6718361971244,0.842861855264031,FALSE,4.02872126745783
"CAN","cpi",0.1,2001,3,2001,NA,0,2.73733645643639,2.94683285733582,2.47906219852806,2.84208465688611,FALSE,0.78343919625127
"CAN","cpi",0.1,2001,3,2001,NA,0.5,1.7816364855794,1.99113288647883,2.47906219852806,1.88638468602912,FALSE,1.29378376100883
"CAN","cpi",0.1,2001,3,2000,NA,1,3.56900335097187,3.82678372955842,2.47906219852806,3.69789354026514,FALSE,2.67987182846167
"CAN","cpi",0.1,2001,3,2000,NA,1.5,1.69465283370246,2.04167121706014,2.47906219852806,1.8681620253813,FALSE,1.3189983421753
"CAN","cpi",0.1,2002,3,2002,NA,0,2.36549673080795,2.38649458311718,2.20880570551249,2.37599565696257,FALSE,0.369200130743593
"CAN","cpi",0.1,2002,3,2002,NA,0.5,0.831262898181321,0.995890337194242,2.20880570551249,0.913576617687781,FALSE,2.85999492416458
"CAN","cpi",0.1,2002,3,2001,NA,1,1.8084506315615,2.06623101014805,2.20880570551249,1.93734082085477,FALSE,0.57461303495197
"CAN","cpi",0.1,2002,3,2001,NA,1.5,1.04061673419309,1.40473929493469,2.20880570551249,1.22267801456389,FALSE,2.15093680647003
"CAN","cpi",0.1,2003,3,2003,NA,0,2.72236723747473,2.7426704899584,2.71189071546809,2.73251886371656,FALSE,0.0435844124984255
"CAN","cpi",0.1,2003,3,2003,NA,0.5,4.18786665740092,4.44564703598746,2.71189071546809,4.31675684669419,FALSE,3.53772691621505
"CAN","cpi",0.1,2003,3,2002,NA,1,4.48973390647214,4.74751428505869,2.71189071546809,4.61862409576541,FALSE,4.20854302526221
"CAN","cpi",0.1,2003,3,2002,NA,1.5,1.16546731907358,1.56570593426563,2.71189071546809,1.3655866266696,FALSE,2.94731590675307
"CAN","cpi",0.1,2004,3,2004,NA,0,1.82003040326223,1.83978160345327,1.83151661303942,1.82990600335775,TRUE,0.0197512001910338
"CAN","cpi",0.1,2004,3,2004,NA,0.5,1.31093599826636,1.56871637685291,1.83151661303942,1.43982618755963,FALSE,0.841780903445473
"CAN","cpi",0.1,2004,3,2003,NA,1,0.900577983934865,1.15835836252141,1.83151661303942,1.02946817322814,FALSE,1.7536876019599
"CAN","cpi",0.1,2004,3,2003,NA,1.5,4.51760500194715,4.7753853805337,1.83151661303942,4.64649519124043,FALSE,6.22686568727039
"CAN","cpi",0.1,2005,3,2005,NA,0,2.37571537639092,2.39337099752578,2.18071628336509,2.38454318695835,FALSE,0.450986938970041
"CAN","cpi",0.1,2005,3,2005,NA,0.5,1.47727668526331,1.73505706384986,2.18071628336509,1.60616687455658,FALSE,1.24813419973151
"CAN","cpi",0.1,2005,3,2004,NA,1,1.52292771836103,1.78070809694758,2.18071628336509,1.65181790765431,FALSE,1.14668745951435
"CAN","cpi",0.1,2005,3,2004,NA,1.5,1.63370280618196,1.89148318476851,2.18071628336509,1.76259299547523,FALSE,0.900520597690067
"CAN","cpi",0.1,2006,3,2006,NA,0,2.12452421256034,2.14817847946095,1.97519342012289,2.13635134601064,FALSE,0.355500472317174
"CAN","cpi",0.1,2006,3,2006,NA,0.5,1.68823157169566,1.88546996584232,1.97519342012289,1.78685076876899,FALSE,0.396623848103469
"CAN","cpi",0.1,2006,3,2005,NA,1,3.40377824983102,3.6059208019705,1.97519342012289,3.50484952590076,FALSE,3.37677550704645
"CAN","cpi",0.1,2006,3,2005,NA,1.5,1.33924823371685,1.59702861230339,1.97519342012289,1.46813842301012,FALSE,1.09814661818542
"CAN","cpi",0.1,2007,3,2007,NA,0,2.19121349470931,2.21829001808231,2.10062087284572,2.20475175639581,FALSE,0.228393460847646
"CAN","cpi",0.1,2007,3,2007,NA,0.5,1.92062237416609,2.04993256063567,2.10062087284572,1.98527746740088,FALSE,0.241950880269694
"CAN","cpi",0.1,2007,3,2006,NA,1,1.11851212953355,1.3762925081201,2.10062087284572,1.24740231882683,FALSE,1.86739896686571
"CAN","cpi",0.1,2007,3,2006,NA,1.5,1.47608189061139,1.73386226919793,2.10062087284572,1.60497207990466,FALSE,1.07279949780386
"CAN","cpi",0.1,2008,3,2008,NA,0,3.00666408638898,3.02868743519232,2.31447335265955,3.01767576079065,FALSE,1.56022497931317
"CAN","cpi",0.1,2008,3,2008,NA,0.5,0.963152703257979,1.11209458094266,2.31447335265955,1.03762364210032,FALSE,2.82089470372222
"CAN","cpi",0.1,2008,3,2007,NA,1,1.31273434024533,1.49308992513703,2.31447335265955,1.40291213269118,FALSE,2.0056520904973
"CAN","cpi",0.1,2008,3,2007,NA,1.5,2.60916987405861,2.78952545895031,2.31447335265955,2.69934766650446,FALSE,0.835236743556267
"CAN","cpi",0.1,2009,3,2009,NA,0,0.309356568641898,0.334095894026914,0.284533874408197,0.321726231334406,FALSE,0.0799008681265727
"CAN","cpi",0.1,2009,3,2009,NA,0.5,-1.39023212662063,-1.25964527905907,0.284533874408197,-1.32493870283985,FALSE,3.56209607748882
"CAN","cpi",0.1,2009,3,2008,NA,1,4.96417485408052,5.18804000427041,0.284533874408197,5.07610742917547,FALSE,10.6230673272395
"CAN","cpi",0.1,2009,3,2008,NA,1.5,0.899133015195963,1.12299816538585,0.284533874408197,1.01106559029091,FALSE,1.58964101860715
"CAN","cpi",0.1,2010,3,2010,NA,0,1.74310894307746,1.76554299065102,1.75525687020327,1.75432596686424,TRUE,0.0224340475735572
"CAN","cpi",0.1,2010,3,2010,NA,0.5,1.42644194136484,1.56045065874685,1.75525687020327,1.49344630005585,FALSE,0.566911409507383
"CAN","cpi",0.1,2010,3,2009,NA,1,0.999931711428376,1.26027569907507,1.75525687020327,1.13010370525173,FALSE,1.36030214570936
"CAN","cpi",0.1,2010,3,2009,NA,1.5,-2.38936383709053,-2.12901984944383,1.75525687020327,-2.25919184326718,FALSE,8.89207003130692
"CAN","cpi",0.1,2011,3,2011,NA,0,2.89541193992592,2.92123450720757,2.85717434028225,2.90832322356675,FALSE,0.110795010934263
"CAN","cpi",0.1,2011,3,2011,NA,0.5,2.7547484126958,2.87515230018548,2.85717434028225,2.81495035644064,TRUE,0.120403887489687
"CAN","cpi",0.1,2011,3,2010,NA,1,2.11884851857164,2.38106398004273,2.85717434028225,2.24995624930718,FALSE,1.32023848422557
"CAN","cpi",0.1,2011,3,2010,NA,1.5,1.56010445231563,1.82231991378673,2.85717434028225,1.69121218305118,FALSE,2.56189196479447
"CAN","cpi",0.1,2012,3,2012,NA,0,1.49558319874978,1.5216042150354,1.50118536134935,1.50859370689259,TRUE,0.0260210162856276
"CAN","cpi",0.1,2012,3,2012,NA,0.5,1.6990312384612,1.80347405903264,1.50118536134935,1.75125264874692,FALSE,0.544100325264441
"CAN","cpi",0.1,2012,3,2011,NA,1,1.79522315047108,1.89966597104252,1.50118536134935,1.8474445607568,FALSE,0.757860129730853
"CAN","cpi",0.1,2012,3,2011,NA,1.5,2.99191457769643,3.14660658336507,1.50118536134935,3.06926058053075,FALSE,3.46742359755105
"CAN","cpi",0.1,2013,3,2013,NA,0,1.04687920483351,1.06543269449048,0.931270594714462,1.05615594966199,FALSE,0.27546151214374
"CAN","cpi",0.1,2013,3,2013,NA,0.5,0.962869444581489,1.08548928451708,0.931270594714462,1.02417936454929,FALSE,0.192839506306764
"CAN","cpi",0.1,2013,3,2012,NA,1,0.00727459860831937,0.129894438543911,0.931270594714462,0.0685845185761151,FALSE,1.90345574253682
"CAN","cpi",0.1,2013,3,2012,NA,1.5,1.55849637652038,1.87984279781512,0.931270594714462,1.71916958716775,FALSE,1.71518149197456
"CAN","cpi",0.1,2014,3,2014,NA,0,2.05553866112009,2.07220085078165,1.87639912240215,2.06386975595087,FALSE,0.414750053479206
"CAN","cpi",0.1,2014,3,2014,NA,0.5,1.89156996986828,1.96273425454596,1.87639912240215,1.92715211220712,FALSE,0.104877279046856
"CAN","cpi",0.1,2014,3,2013,NA,1,1.07814109205589,1.14930537673357,1.87639912240215,1.11372323439473,FALSE,1.68692816394119
"CAN","cpi",0.1,2014,3,2013,NA,1.5,1.2275771621967,1.57323060260577,1.87639912240215,1.40040388240124,FALSE,1.0193612621788
"CAN","cpi",0.1,2015,3,2015,NA,0,1.29637333591592,1.31828222690865,1.11090953952792,1.30732778141228,FALSE,0.434050660743841
"CAN","cpi",0.1,2015,3,2015,NA,0.5,0.0561032620042689,0.110402817406899,1.11090953952792,0.0832530397055839,FALSE,2.27764782678267
"CAN","cpi",0.1,2015,3,2014,NA,1,1.40678858909555,1.46108814449818,1.11090953952792,1.43393836679687,FALSE,0.711808554441824
"CAN","cpi",0.1,2015,3,2014,NA,1.5,2.53121429200754,2.81983260298494,1.11090953952792,2.67552344749624,FALSE,3.44485109426546
"CAN","cpi",0.1,2016,3,2016,NA,0,1.4979117130815,1.51991901014882,1.41168586698797,1.50891536161516,FALSE,0.21362028838629
"CAN","cpi",0.1,2016,3,2016,NA,0.5,0.708329439995922,0.86537404404251,1.41168586698797,0.786851742019216,FALSE,1.37107087725871
"CAN","cpi",0.1,2016,3,2015,NA,1,2.07808019431862,2.2351247983652,1.41168586698797,2.15660249634191,FALSE,1.63792088700359
"CAN","cpi",0.1,2016,3,2015,NA,1.5,-0.252765967760871,0.0183253967493653,1.41168586698797,-0.117220285505753,FALSE,3.36744796504046
"CAN","cpi",0.1,2017,3,2017,NA,0,1.53946761253333,1.558159131882,1.57888581671161,1.54881337220766,FALSE,0.0647508189700315
"CAN","cpi",0.1,2017,3,2017,NA,0.5,1.80095361956792,2.02578633879904,1.57888581671161,1.91336997918348,FALSE,0.718316725578468
"CAN","cpi",0.1,2017,3,2016,NA,1,1.07527219709698,1.30010491632811,1.57888581671161,1.18768855671255,FALSE,0.844345831194468
"CAN","cpi",0.1,2017,3,2016,NA,1.5,0.502671178827399,0.826312226851401,1.57888581671161,0.6644917028394,FALSE,1.99602680326891
"CAN","cpi",0.1,2018,3,2018,NA,0,2.43543034782856,2.45503077372668,2.23316270166586,2.44523056077762,FALSE,0.469084084037459
"CAN","cpi",0.1,2018,3,2018,NA,0.5,2.72060412701473,2.88252620036033,2.23316270166586,2.80156516368753,FALSE,1.24512524078754
"CAN","cpi",0.1,2018,3,2017,NA,1,0.739230219953071,0.901152293298669,2.23316270166586,0.82019125662587,FALSE,3.12194520305046
"CAN","cpi",0.1,2018,3,2017,NA,1.5,2.2621312788665,2.60299862579482,2.23316270166586,2.43256495233066,FALSE,0.405241962929753
"CAN","cpi",0.1,2019,3,2019,NA,0,2.0726683576278,2.09711901288214,1.91921619871868,2.08489368525497,FALSE,0.365455452830161
"CAN","cpi",0.1,2019,3,2019,NA,0.5,1.38069939940565,1.56293981240304,1.91921619871868,1.47181960590434,FALSE,0.973965715921045
"CAN","cpi",0.1,2019,3,2018,NA,1,2.09011895864261,2.27235937164,1.91921619871868,2.1812391651413,FALSE,0.562024323939445
"CAN","cpi",0.1,2019,3,2018,NA,1.5,3.42710904024893,3.75985090045279,1.91921619871868,3.59347997035086,FALSE,3.6836148413822
"CAN","cpi",0.1,2020,3,2020,NA,0,0.57636689548485,0.807899585884436,0.71139989671781,0.692133240684643,TRUE,0.231532690399586
"CAN","cpi",0.1,2020,3,2020,NA,0.5,0.939814188411685,1.17134687881127,0.71139989671781,1.05558053361148,FALSE,0.739120005274863
"CAN","cpi",0.1,2020,3,2019,NA,1,1.89910341459353,2.13063610499312,0.71139989671781,2.01486975979332,FALSE,2.87087384123452
"CAN","cpi",0.1,2020,3,2019,NA,1.5,1.58258822678386,1.9627921052909,0.71139989671781,1.77269016603738,FALSE,2.31617794532049
"CAN","cpi",0.1,2021,3,2021,NA,0,3.36280843651173,3.38540947928981,3.31148121717802,3.37410895790077,FALSE,0.136661530186313
"CAN","cpi",0.1,2021,3,2021,NA,0.5,2.55301775050755,2.8107981290941,3.31148121717802,2.68190793980083,FALSE,1.37040946321749
"CAN","cpi",0.1,2021,3,2020,NA,1,1.06358447691251,1.32136485549906,3.31148121717802,1.19247466620579,FALSE,4.68026118231758
"CAN","cpi",0.1,2021,3,2020,NA,1.5,0.79792403664201,1.1902710123254,3.31148121717802,0.994097524483704,FALSE,5.10614743091145
"CAN","cpi",0.1,2022,3,2022,NA,0,6.58326363909701,6.84104401768356,6.50977236228281,6.71215382839029,FALSE,0.421094327062557
"CAN","cpi",0.1,2022,3,2022,NA,0.5,6.2926528728123,6.55043325139885,6.50977236228281,6.42154306210558,TRUE,0.257780378586547
"CAN","cpi",0.1,2022,3,2021,NA,1,4.84310434364608,5.10088472223263,6.50977236228281,4.97199453293936,FALSE,3.38864180092028
"CAN","cpi",0.1,2022,3,2021,NA,1.5,3.32812819881027,3.58590857739681,6.50977236228281,3.45701838810354,FALSE,6.75525545611098
"CAN","cpi",0.1,2023,3,2023,NA,0,3.91323165217072,4.17101203075727,3.78831288758619,4.042121841464,FALSE,0.535377633218841
"CAN","cpi",0.1,2023,3,2023,NA,0.5,2.93108173864864,3.18886211723519,3.78831288758619,3.05997192794191,FALSE,1.58989320158878
"CAN","cpi",0.1,2023,3,2022,NA,1,5.15462746732547,5.41240784591201,3.78831288758619,5.28351765661874,FALSE,3.29403500022938
"CAN","cpi",0.1,2023,3,2022,NA,1.5,7.15863697443384,7.41641735302039,3.78831288758619,7.28752716372712,FALSE,7.74738946047022
"CAN","cpi",0.1,2024,3,2023,NA,1,4.24904676995388,4.50682714854043,NA,4.37793695924716,NA,NA
"CAN","cpi",0.1,2024,3,2023,NA,1.5,2.2400896481144,2.49787002670095,NA,2.36897983740768,NA,NA
"CAN","cpi",0.2,1959,3,1959,NA,0,0.936612260473779,1.45698191945794,1.19382698397654,1.19679708996586,TRUE,0.52036965898416
"CAN","cpi",0.2,1959,3,1959,NA,0.5,0.32659445851279,0.983757531141028,1.19382698397654,0.655175994826909,FALSE,1.18233670471702
"CAN","cpi",0.2,1959,3,1958,NA,1,1.23443235485649,2.28434480146314,1.19382698397654,1.75938857815981,FALSE,1.15142587380652
"CAN","cpi",0.2,1959,3,1958,NA,1.5,1.25001038682617,2.29992283343282,1.19382698397654,1.7749666101295,FALSE,1.19037095373073
"CAN","cpi",0.2,1960,3,1960,NA,0,0.820517821647844,1.24208710857913,1.34209404870695,1.03130246511349,FALSE,0.671586637250835
"CAN","cpi",0.2,1960,3,1960,NA,0.5,0.534818009666601,0.956387296597889,1.34209404870695,0.745602653132245,FALSE,1.38583616720394
"CAN","cpi",0.2,1960,3,1959,NA,1,2.55457113899845,4.1171766070703,1.34209404870695,3.33587387303437,FALSE,4.59379819380059
"CAN","cpi",0.2,1960,3,1959,NA,1.5,-1.15601407878488,0.505175890209105,1.34209404870695,-0.32541909428789,FALSE,3.75348536523861
"CAN","cpi",0.2,1961,3,1961,NA,0,0.825369814780494,1.19305714709965,1.00921348094007,1.00921348094007,TRUE,0.367687332319156
"CAN","cpi",0.2,1961,3,1961,NA,0.5,1.12756764892171,1.49525498124087,1.00921348094007,1.31141131508129,FALSE,0.663572752273262
"CAN","cpi",0.2,1961,3,1960,NA,1,-0.399560156070325,0.686811967410249,1.00921348094007,0.143625905669962,FALSE,1.89237590730513
"CAN","cpi",0.2,1961,3,1960,NA,1.5,-0.883297485892508,0.203074637588067,1.00921348094007,-0.34011142415222,FALSE,3.10171923186059
"CAN","cpi",0.2,1962,3,1962,NA,0,0.9179431659622,1.30471679865532,1.04957947883042,1.11132998230876,TRUE,0.386773632693125
"CAN","cpi",0.2,1962,3,1962,NA,0.5,-0.193386816346563,0.193386816346563,1.04957947883042,1.64134322488006e-44,FALSE,2.52725528890276
"CAN","cpi",0.2,1962,3,1961,NA,1,-0.549117765754974,0.549117765754974,1.04957947883042,-9.44308782563385e-19,FALSE,2.34938981419855
"CAN","cpi",0.2,1962,3,1961,NA,1.5,0.205266482935778,1.30350201444572,1.04957947883042,0.754384248690751,TRUE,1.09823553150995
"CAN","cpi",0.2,1963,3,1963,NA,0,1.67989978686142,2.03209043091187,1.60677118395228,1.85599510888664,FALSE,0.535012151323287
"CAN","cpi",0.2,1963,3,1963,NA,0.5,0.7562049716122,1.10839561566265,1.60677118395228,0.932300293637426,FALSE,1.59812956477453
"CAN","cpi",0.2,1963,3,1962,NA,1,2.18868761987437,3.14628282700018,1.60677118395228,2.66748522343727,FALSE,2.41238629693102
"CAN","cpi",0.2,1963,3,1962,NA,1.5,-0.478797603562907,0.478797603562907,1.60677118395228,4.10321927477868e-44,FALSE,3.77752915809926
"CAN","cpi",0.2,1964,3,1964,NA,0,1.94979260352416,2.02809048785589,1.88764670034376,1.98894154569002,FALSE,0.233662642282729
"CAN","cpi",0.2,1964,3,1964,NA,0.5,1.30460292663512,1.46294872830676,1.88764670034376,1.38377582747094,FALSE,1.22009073176414
"CAN","cpi",0.2,1964,3,1963,NA,1,4.45268069956223,4.97305035854639,1.88764670034376,4.71286552905431,FALSE,6.93295465703033
"CAN","cpi",0.2,1964,3,1963,NA,1.5,-0.155645018793346,0.633204365138,1.88764670034376,0.238779673172327,FALSE,3.92495522194575
"CAN","cpi",0.2,1965,3,1965,NA,0,2.31537397487741,2.39451623533367,2.29538304394236,2.35494510510554,FALSE,0.129119587793882
"CAN","cpi",0.2,1965,3,1965,NA,0.5,1.48502497183607,1.63587295735869,2.29538304394236,1.56044896459738,FALSE,1.79962320198178
"CAN","cpi",0.2,1965,3,1964,NA,1,2.16692248949399,2.68729214847815,2.29538304394236,2.42710731898607,TRUE,0.52036965898416
"CAN","cpi",0.2,1965,3,1964,NA,1.5,0.497725677901677,1.13890583790455,2.29538304394236,0.818315757903116,FALSE,3.53237317509738
"CAN","cpi",0.2,1966,3,1966,NA,0,3.81194343496636,3.88133929283386,3.72486065470629,3.84664136390011,FALSE,0.287102808517679
"CAN","cpi",0.2,1966,3,1966,NA,0.5,3.77564559998215,3.9181824046239,3.72486065470629,3.84691400230302,FALSE,0.269499167831397
"CAN","cpi",0.2,1966,3,1965,NA,1,3.16080565332873,3.46655428846555,3.72486065470629,3.31367997089714,FALSE,0.951514550738664
"CAN","cpi",0.2,1966,3,1965,NA,1.5,1.32862950656672,1.63437814170354,3.72486065470629,1.48150382413513,FALSE,5.53195491764369
"CAN","cpi",0.2,1967,3,1967,NA,0,3.74047545791311,3.79678392334971,3.49360316391996,3.76862969063141,FALSE,0.673489200419485
"CAN","cpi",0.2,1967,3,1967,NA,0.5,2.23119057438658,2.49229784015218,3.49360316391996,2.36174420726938,FALSE,2.76437057518504
"CAN","cpi",0.2,1967,3,1966,NA,1,3.29773301184407,3.66694389725673,3.49360316391996,3.4823384545504,TRUE,0.369210885412662
"CAN","cpi",0.2,1967,3,1966,NA,1.5,4.10797156172989,4.47718244714255,3.49360316391996,4.29257700443622,FALSE,1.90513187993749
"CAN","cpi",0.2,1968,3,1968,NA,0,4.08061992375847,4.14618610142693,3.95128347779386,4.1134030125927,FALSE,0.388907292579991
"CAN","cpi",0.2,1968,3,1968,NA,0.5,3.68468420805716,4.09980446682151,3.95128347779386,3.89224433743933,TRUE,0.41512025876435
"CAN","cpi",0.2,1968,3,1967,NA,1,5.64840698571011,6.06352724447446,3.95128347779386,5.85596711509228,FALSE,4.65792902855497
"CAN","cpi",0.2,1968,3,1967,NA,1.5,1.9343108221219,2.34943108088625,3.95128347779386,2.14187095150408,FALSE,4.41975125103337
"CAN","cpi",0.2,1969,3,1969,NA,0,4.60978742644204,4.6754738764843,4.42679496126681,4.64263065146317,FALSE,0.52316761298032
"CAN","cpi",0.2,1969,3,1969,NA,0.5,2.80181009928564,3.3221797582698,4.42679496126681,3.06199492877772,FALSE,3.2819076664767
"CAN","cpi",0.2,1969,3,1968,NA,1,5.79563895799421,6.31600861697837,4.42679496126681,6.05582378748629,FALSE,3.94247965080265
"CAN","cpi",0.2,1969,3,1968,NA,1.5,3.61209002170114,4.1324596806853,4.42679496126681,3.87227485119322,FALSE,1.25620786043794
"CAN","cpi",0.2,1970,3,1970,NA,0,3.56159303292544,3.618336465563,3.28128405769805,3.58996474924422,FALSE,0.757515870706054
"CAN","cpi",0.2,1970,3,1970,NA,0.5,3.91161786703543,4.43198752601959,3.28128405769805,4.17180269652751,FALSE,2.09620418232763
"CAN","cpi",0.2,1970,3,1969,NA,1,5.1784701351583,5.69883979414246,3.28128405769805,5.43865496465038,FALSE,5.2633348526348
"CAN","cpi",0.2,1970,3,1969,NA,1.5,2.05654248030658,2.57691213929074,3.28128405769805,2.31672730979866,FALSE,2.28129945500242
"CAN","cpi",0.2,1971,3,1971,NA,0,2.86387870850386,2.92461608785687,2.64123406634756,2.89424739818036,FALSE,0.617348984743747
"CAN","cpi",0.2,1971,3,1971,NA,0.5,0.847511646143191,1.30316823312794,2.64123406634756,1.07533993963556,FALSE,3.80082117003381
"CAN","cpi",0.2,1971,3,1970,NA,1,2.75378135784506,3.2094379448298,2.64123406634756,2.98160965133743,FALSE,0.737024815728482
"CAN","cpi",0.2,1971,3,1970,NA,1.5,3.92925431341886,4.38491090040361,2.64123406634756,4.15708260691123,FALSE,3.675707204663
"CAN","cpi",0.2,1972,3,1972,NA,0,4.8430300675267,5.36339972651086,4.83230569625923,5.10321489701878,FALSE,0.54718058715283
"CAN","cpi",0.2,1972,3,1972,NA,0.5,4.31508301525265,4.83545267423681,4.83230569625923,4.57526784474473,TRUE,0.52036965898416
"CAN","cpi",0.2,1972,3,1971,NA,1,6.30714653565452,6.82751619463868,4.83230569625923,6.5673313651466,FALSE,4.20747175747238
"CAN","cpi",0.2,1972,3,1971,NA,1.5,0.941086095676386,1.46145575466055,4.83230569625923,1.20127092516847,FALSE,8.94749451298087
"CAN","cpi",0.2,1973,3,1973,NA,0,7.10250266167664,7.6228723206608,7.12388603531779,7.36268749116872,TRUE,0.52036965898416
"CAN","cpi",0.2,1973,3,1973,NA,0.5,5.63414510125109,6.15451476023525,7.12388603531779,5.89432993074317,FALSE,2.94379784669052
"CAN","cpi",0.2,1973,3,1972,NA,1,7.11121453088892,7.63158418987308,7.12388603531779,7.371399360381,TRUE,0.52036965898416
"CAN","cpi",0.2,1973,3,1972,NA,1.5,4.24306188332921,4.76343154231337,7.12388603531779,4.50324671282129,FALSE,6.4215058914952
"CAN","cpi",0.2,1974,3,1974,NA,0,10.0621033037308,10.582472962715,10.2717243737774,10.3222881332229,TRUE,0.520369658984162
"CAN","cpi",0.2,1974,3,1974,NA,0.5,8.58694419987162,9.10731385885578,10.2717243737774,8.8471290293637,FALSE,3.43139594628826
"CAN","cpi",0.2,1974,3,1973,NA,1,10.7282554530452,11.2486251120293,10.2717243737774,10.9884402825372,FALSE,1.66169735715351
"CAN","cpi",0.2,1974,3,1973,NA,1.5,5.93536369130514,6.45573335028931,10.2717243737774,6.19554852079723,FALSE,10.0603472177044
"CAN","cpi",0.2,1975,3,1975,NA,0,10.2421585108822,10.2872298295897,10.0232981493341,10.2646941702359,FALSE,0.592222222577671
"CAN","cpi",0.2,1975,3,1975,NA,0.5,8.9583690525611,9.47873871154527,10.0232981493341,9.21855388205318,FALSE,1.8817682534563
"CAN","cpi",0.2,1975,3,1974,NA,1,11.7303295638983,12.2506992228824,10.0232981493341,11.9905143933903,FALSE,4.7879481953945
"CAN","cpi",0.2,1975,3,1974,NA,1.5,8.41990646181216,8.94027612079632,10.0232981493341,8.68009129130424,FALSE,3.22792473032866
"CAN","cpi",0.2,1976,3,1976,NA,0,6.99364584373014,7.5140155027143,7.22784311401172,7.25383067322222,TRUE,0.52036965898416
"CAN","cpi",0.2,1976,3,1976,NA,0.5,7.15529192655563,7.67566158553979,7.22784311401172,7.41547675604771,TRUE,0.52036965898416
"CAN","cpi",0.2,1976,3,1975,NA,1,11.6549662286222,12.1753358876063,7.22784311401172,11.9151510581142,FALSE,11.5881774455103
"CAN","cpi",0.2,1976,3,1975,NA,1.5,7.75313055170478,8.27350021068895,7.22784311401172,8.01331538119686,FALSE,1.83358825321683
"CAN","cpi",0.2,1977,3,1977,NA,0,7.35848646741799,7.87885612640215,7.58101410153764,7.61867129691007,TRUE,0.52036965898416
"CAN","cpi",0.2,1977,3,1977,NA,0.5,6.76269389040624,7.2830635493904,7.58101410153764,7.02287871989832,FALSE,1.26524603935226
"CAN","cpi",0.2,1977,3,1976,NA,1,5.59513015744494,6.15010792007982,7.58101410153764,5.87261903876238,FALSE,4.13224321627945
"CAN","cpi",0.2,1977,3,1976,NA,1.5,5.8757375689235,6.43071533155838,7.58101410153764,6.15322645024094,FALSE,3.43072468758305
"CAN","cpi",0.2,1978,3,1978,NA,0,8.42106924295797,8.94143890194213,8.50208927062595,8.68125407245005,TRUE,0.520369658984162
"CAN","cpi",0.2,1978,3,1978,NA,0.5,7.86490259381014,8.3852722527943,8.50208927062595,8.12508742330222,FALSE,0.812412203563274
"CAN","cpi",0.2,1978,3,1977,NA,1,8.3516860438168,8.93468929324243,8.50208927062595,8.64318766852961,TRUE,0.583003249425634
"CAN","cpi",0.2,1978,3,1977,NA,1.5,7.36878774325222,7.95179099267785,8.50208927062595,7.66028936796504,FALSE,1.95874894429587
"CAN","cpi",0.2,1979,3,1979,NA,0,8.3505746346058,8.87094429358996,8.65147652410481,8.61075946409788,TRUE,0.520369658984162
"CAN","cpi",0.2,1979,3,1979,NA,0.5,7.84044352325364,8.3608131822378,8.65147652410481,8.10062835274572,FALSE,1.24702801365169
"CAN","cpi",0.2,1979,3,1978,NA,1,9.2960393002982,9.8692304690676,8.65147652410481,9.5826348846829,FALSE,2.18459810925288
"CAN","cpi",0.2,1979,3,1978,NA,1.5,7.65524286238058,8.22843403114997,8.65147652410481,7.94183844676527,FALSE,1.63079740115649
"CAN","cpi",0.2,1980,3,1980,NA,0,9.27090563801078,9.79127529699494,9.5171912664748,9.53109046750286,TRUE,0.520369658984162
"CAN","cpi",0.2,1980,3,1980,NA,0.5,8.42545131966214,8.9458209786463,9.5171912664748,8.68563614915422,FALSE,1.94879537855541
"CAN","cpi",0.2,1980,3,1979,NA,1,8.05046859957011,8.60050608376154,9.5171912664748,8.32548734166583,FALSE,2.84175044097456
"CAN","cpi",0.2,1980,3,1979,NA,1.5,7.7054522788655,8.25548976305693,9.5171912664748,7.98047102096121,FALSE,3.70429124273611
"CAN","cpi",0.2,1981,3,1981,NA,0,11.4487711480309,11.969140807015,11.5813425032741,11.708955977523,TRUE,0.520369658984162
"CAN","cpi",0.2,1981,3,1981,NA,0.5,11.8662114612529,12.386581120237,11.5813425032741,12.1263962907449,FALSE,1.23254205393097
"CAN","cpi",0.2,1981,3,1980,NA,1,10.6703612402437,11.2995190903619,11.5813425032741,10.9849401653028,FALSE,1.33371638239875
"CAN","cpi",0.2,1981,3,1980,NA,1.5,8.31277332759737,8.94193117771556,11.5813425032741,8.62735225265647,FALSE,7.22768616401464
"CAN","cpi",0.2,1982,3,1982,NA,0,10.0507901452741,10.5711598042583,10.1124203763629,10.3109749747662,TRUE,0.520369658984162
"CAN","cpi",0.2,1982,3,1982,NA,0.5,9.8394988325076,10.3598684914918,10.1124203763629,10.0996836619997,TRUE,0.520369658984162
"CAN","cpi",0.2,1982,3,1981,NA,1,11.3249036228714,11.9140554169592,10.1124203763629,11.6194795199153,FALSE,3.62035991035888
"CAN","cpi",0.2,1982,3,1981,NA,1.5,12.4248597791003,13.0140115731882,10.1124203763629,12.7194356761443,FALSE,6.3702503009313
"CAN","cpi",0.2,1983,3,1983,NA,0,5.56746257412826,6.08783223311242,5.67091787896303,5.82764740362034,TRUE,0.52036965898416
"CAN","cpi",0.2,1983,3,1983,NA,0.5,4.71525461845123,5.23562427743539,5.67091787896303,4.97543944794331,FALSE,1.60860366280328
"CAN","cpi",0.2,1983,3,1982,NA,1,8.92298559906106,9.55258233458407,5.67091787896303,9.23778396682256,FALSE,8.75976603576807
"CAN","cpi",0.2,1983,3,1982,NA,1.5,9.47390307397703,10.1034998095,5.67091787896303,9.78870144173853,FALSE,10.137059723058
"CAN","cpi",0.2,1984,3,1984,NA,0,3.95339054344113,4.47376020242529,4.19799576814029,4.21357537293321,TRUE,0.52036965898416
"CAN","cpi",0.2,1984,3,1984,NA,0.5,4.38240450114358,4.90277416012774,4.19799576814029,4.64258933063566,FALSE,0.98139149149238
"CAN","cpi",0.2,1984,3,1983,NA,1,5.8711917192201,6.39156137820426,4.19799576814029,6.13137654871218,FALSE,4.70335953668369
"CAN","cpi",0.2,1984,3,1983,NA,1.5,3.20813955647699,3.72850921546115,4.19799576814029,3.46832438596907,FALSE,1.69408604068202
"CAN","cpi",0.2,1985,3,1985,NA,0,3.6589084281101,4.17927808709426,3.86444262005169,3.91909325760218,TRUE,0.52036965898416
"CAN","cpi",0.2,1985,3,1985,NA,0.5,3.63131705245831,4.15168671144247,3.86444262005169,3.89150188195039,TRUE,0.52036965898416
"CAN","cpi",0.2,1985,3,1984,NA,1,3.03378592027827,3.55415557926243,3.86444262005169,3.29397074977035,FALSE,1.29608726095731
"CAN","cpi",0.2,1985,3,1984,NA,1.5,4.20642551810632,4.72679517709048,3.86444262005169,4.4666103475984,FALSE,1.37532690412072
"CAN","cpi",0.2,1986,3,1986,NA,0,3.84570371116382,4.36607337014798,4.08685396749431,4.1058885406559,TRUE,0.52036965898416
"CAN","cpi",0.2,1986,3,1986,NA,0.5,4.14982923209541,4.67019889107957,4.08685396749431,4.41001406158749,FALSE,0.677807820486901
"CAN","cpi",0.2,1986,3,1985,NA,1,3.73285396370233,4.25322362268649,4.08685396749431,3.99303879319441,TRUE,0.52036965898416
"CAN","cpi",0.2,1986,3,1985,NA,1.5,3.76822928319862,4.67829719441946,4.08685396749431,4.22326323880904,TRUE,0.910067911220834
"CAN","cpi",0.2,1987,3,1987,NA,0,4.09958235531674,4.6199520143009,4.23980729277887,4.35976718480882,TRUE,0.52036965898416
"CAN","cpi",0.2,1987,3,1987,NA,0.5,3.64917838445561,4.16954804343977,4.23980729277887,3.90936321394769,FALSE,0.69601778233192
"CAN","cpi",0.2,1987,3,1986,NA,1,4.07081176202247,4.59118142100663,4.23980729277887,4.33099659151455,TRUE,0.52036965898416
"CAN","cpi",0.2,1987,3,1986,NA,1.5,4.49228639087007,5.01265604985423,4.23980729277887,4.75247122036215,FALSE,1.15156740421217
"CAN","cpi",0.2,1988,3,1988,NA,0,3.752510772032,4.27288043101616,3.92899537638065,4.01269560152408,TRUE,0.52036965898416
"CAN","cpi",0.2,1988,3,1988,NA,0.5,3.21057112965127,3.73094078863543,3.92899537638065,3.47075595914335,FALSE,1.01550612834722
"CAN","cpi",0.2,1988,3,1987,NA,1,4.32143955545858,4.84180921444274,3.92899537638065,4.58162438495066,FALSE,1.50148010667898
"CAN","cpi",0.2,1988,3,1987,NA,1.5,3.41937121142055,4.20792431521961,3.92899537638065,3.81364776332008,TRUE,0.788553103799062
"CAN","cpi",0.2,1989,3,1989,NA,0,5.00480825259396,5.04309816486819,4.82821664544208,5.02395320873108,FALSE,0.47976893015394
"CAN","cpi",0.2,1989,3,1989,NA,0.5,4.10771364895944,4.6280833079436,4.82821664544208,4.36789847845152,FALSE,1.02070300273035
"CAN","cpi",0.2,1989,3,1988,NA,1,4.15768052892852,4.76557070779054,4.82821664544208,4.46162561835953,FALSE,0.764505022990864
"CAN","cpi",0.2,1989,3,1988,NA,1.5,2.9594168001643,3.59734625211591,4.82821664544208,3.27838152614011,FALSE,3.71510543526702
"CAN","cpi",0.2,1990,3,1990,NA,0,4.49990020171905,4.5393623686723,4.64347549432717,4.51963128519567,FALSE,0.299744981090434
"CAN","cpi",0.2,1990,3,1990,NA,0.5,4.72415944049197,5.24452909947613,4.64347549432717,4.98434426998405,FALSE,0.722079524396152
"CAN","cpi",0.2,1990,3,1989,NA,1,5.59826267645519,6.23723610832702,4.64347549432717,5.9177493923911,FALSE,3.02594138719187
"CAN","cpi",0.2,1990,3,1989,NA,1.5,4.12072068679175,5.00299648097843,4.64347549432717,4.56185858388509,TRUE,0.882275794186675
"CAN","cpi",0.2,1991,3,1991,NA,0,5.36388279846239,5.88425245744655,5.4258100696218,5.62406762795447,TRUE,0.52036965898416
"CAN","cpi",0.2,1991,3,1991,NA,0.5,8.13153600884558,8.65190566782975,5.4258100696218,8.39172083833767,FALSE,7.28468450704363
"CAN","cpi",0.2,1991,3,1990,NA,1,3.60899133602689,4.12936099501105,5.4258100696218,3.86917616551897,FALSE,3.76149234551103
"CAN","cpi",0.2,1991,3,1990,NA,1.5,4.68515974924352,5.56061020786073,5.4258100696218,5.12288497855213,TRUE,0.875450458617209
"CAN","cpi",0.2,1992,3,1992,NA,0,1.45725904567286,1.50395281413097,1.47496888572843,1.48060592990191,TRUE,0.0466937684581059
"CAN","cpi",0.2,1992,3,1992,NA,0.5,1.04937112888489,1.29460317594575,1.47496888572843,1.17198715241532,FALSE,0.696146321517568
"CAN","cpi",0.2,1992,3,1991,NA,1,2.28847029042024,2.75202027104368,1.47496888572843,2.52024528073196,FALSE,2.49730349235296
"CAN","cpi",0.2,1992,3,1991,NA,1.5,9.92156271889086,10.3851126995143,1.47496888572843,10.1533377092026,FALSE,21.5800345635295
"CAN","cpi",0.2,1993,3,1993,NA,0,1.61883914760463,1.98640373890853,1.84351085411351,1.80262144325658,TRUE,0.367564591303905
"CAN","cpi",0.2,1993,3,1993,NA,0.5,2.15863085993386,2.52619545123776,1.84351085411351,2.34241315558581,FALSE,1.15536460585477
"CAN","cpi",0.2,1993,3,1992,NA,1,1.60797052104664,2.02814840720504,1.84351085411351,1.81805946412584,TRUE,0.420177886158393
"CAN","cpi",0.2,1993,3,1992,NA,1.5,0.930174657947213,1.35035254410561,1.84351085411351,1.14026360102641,FALSE,1.65307366117816
"CAN","cpi",0.2,1994,3,1994,NA,0,-0.0305355955817461,0.3577688522984,0.161630694655448,0.163616628358327,TRUE,0.388304447880147
"CAN","cpi",0.2,1994,3,1994,NA,0.5,-0.579292321969453,-0.190987874089306,0.161630694655448,-0.385140098029379,FALSE,1.26985086974203
"CAN","cpi",0.2,1994,3,1993,NA,1,1.17346547440973,1.57602908825792,0.161630694655448,1.37474728133383,FALSE,2.9321505632339
"CAN","cpi",0.2,1994,3,1993,NA,1.5,2.39557434619115,2.79813796003933,0.161630694655448,2.59685615311524,FALSE,5.98742274268744
"CAN","cpi",0.2,1995,3,1995,NA,0,2.00172554898186,2.385403414884,2.11688403676572,2.19356448193293,TRUE,0.383677865902149
"CAN","cpi",0.2,1995,3,1995,NA,0.5,2.4856701024774,2.86934796837954,2.11688403676572,2.67750903542847,FALSE,1.30564303018135
"CAN","cpi",0.2,1995,3,1994,NA,1,1.13557765516281,1.54627470694116,2.11688403676572,1.34092618105198,FALSE,1.83722037633974
"CAN","cpi",0.2,1995,3,1994,NA,1.5,-1.51933274344967,-1.10863569167133,2.11688403676572,-1.3139842175605,FALSE,8.47449637287095
"CAN","cpi",0.2,1996,3,1996,NA,0,1.28813575976407,1.67599448829035,1.55309584667184,1.48206512402721,TRUE,0.387858728526277
"CAN","cpi",0.2,1996,3,1996,NA,0.5,1.04205744448948,1.42991617301576,1.55309584667184,1.23598680875262,FALSE,0.695807912666494
"CAN","cpi",0.2,1996,3,1995,NA,1,1.11935203851398,1.54031718871297,1.55309584667184,1.32983461361347,FALSE,0.452911795096182
"CAN","cpi",0.2,1996,3,1995,NA,1.5,3.21532348440186,3.63628863460085,1.55309584667184,3.42580605950136,FALSE,4.57653424452404
"CAN","cpi",0.2,1997,3,1997,NA,0,1.49692630807197,1.8840743403253,1.60528783555959,1.69050032419864,TRUE,0.387148032253338
"CAN","cpi",0.2,1997,3,1997,NA,0.5,1.92621787372251,2.31336590597584,1.60528783555959,2.11979188984917,FALSE,1.18947312766062
"CAN","cpi",0.2,1997,3,1996,NA,1,0.965279079604578,1.42520261786925,1.60528783555959,1.19524084873691,FALSE,0.910136582490531
"CAN","cpi",0.2,1997,3,1996,NA,1.5,1.12564726948869,1.58557080775336,1.60528783555959,1.35560903862103,FALSE,0.50921610778025
"CAN","cpi",0.2,1998,3,1998,NA,0,0.781725983555342,1.17845005830771,0.988908029337191,0.980088020931525,TRUE,0.396724074752365
"CAN","cpi",0.2,1998,3,1998,NA,0.5,1.11242143408623,1.5091455088386,0.988908029337191,1.31078347146242,FALSE,0.705507586624975
"CAN","cpi",0.2,1998,3,1997,NA,1,0.867345888324597,1.26406996307696,0.988908029337191,1.06570792570078,TRUE,0.396724074752365
"CAN","cpi",0.2,1998,3,1997,NA,1.5,2.05524465528876,2.45196873004112,0.988908029337191,2.25360669266494,FALSE,3.06256563963128
"CAN","cpi",0.2,1999,3,1999,NA,0,1.61552233747365,2.01870356938923,1.7107350135213,1.81711295343144,TRUE,0.40318123191558
"CAN","cpi",0.2,1999,3,1999,NA,0.5,0.586796949766754,0.989978181682334,1.7107350135213,0.788387565724544,FALSE,2.20507331151298
"CAN","cpi",0.2,1999,3,1998,NA,1,0.315181663362045,0.835551322346205,1.7107350135213,0.575366492854125,FALSE,2.70832888692189
"CAN","cpi",0.2,1999,3,1998,NA,1.5,1.37034589526636,2.0039936389448,1.7107350135213,1.68716976710558,TRUE,0.633647743678443
"CAN","cpi",0.2,2000,3,2000,NA,0,2.52130049088732,2.93868748364262,2.6718361971244,2.72999398726497,TRUE,0.417386992755295
"CAN","cpi",0.2,2000,3,2000,NA,0.5,1.85929517787765,2.27668217063294,2.6718361971244,2.06798867425529,FALSE,1.40527205898394
"CAN","cpi",0.2,2000,3,1999,NA,1,2.83133913113098,3.35170879011514,2.6718361971244,3.09152396062306,FALSE,0.919126994000619
"CAN","cpi",0.2,2000,3,1999,NA,1.5,0.517784296891707,1.16793941363635,2.6718361971244,0.842861855264031,FALSE,4.40989707546476
"CAN","cpi",0.2,2001,3,2001,NA,0,2.63036095395793,3.05380835981428,2.47906219852806,2.84208465688611,FALSE,0.801694294431021
"CAN","cpi",0.2,2001,3,2001,NA,0.5,1.67466098310095,2.09810838895729,2.47906219852806,1.88638468602912,FALSE,1.37583192978327
"CAN","cpi",0.2,2001,3,2000,NA,1,3.43770871077306,3.95807836975722,2.47906219852806,3.69789354026514,FALSE,2.91698593959666
"CAN","cpi",0.2,2001,3,2000,NA,1.5,1.51673057745794,2.21959347330466,2.47906219852806,1.8681620253813,FALSE,1.35153470890524
"CAN","cpi",0.2,2002,3,2002,NA,0,2.35473077304225,2.39726054088288,2.20880570551249,2.37599565696257,FALSE,0.40734243666504
"CAN","cpi",0.2,2002,3,2002,NA,0.5,0.746855596454181,1.08029763892138,2.20880570551249,0.913576617687781,FALSE,3.15471220894496
"CAN","cpi",0.2,2002,3,2001,NA,1,1.67715599136269,2.19752565034685,2.20880570551249,1.93734082085477,FALSE,0.548569796898244
"CAN","cpi",0.2,2002,3,2001,NA,1.5,0.853924873866193,1.59143115526159,2.20880570551249,1.22267801456389,FALSE,2.28094265702264
"CAN","cpi",0.2,2003,3,2003,NA,0,2.71195741291142,2.75308031452171,2.71189071546809,2.73251886371656,FALSE,0.041289645218614
"CAN","cpi",0.2,2003,3,2003,NA,0.5,4.05657201720211,4.57694167618627,2.71189071546809,4.31675684669419,FALSE,3.88207291331921
"CAN","cpi",0.2,2003,3,2002,NA,1,4.35843926627333,4.87880892525749,2.71189071546809,4.61862409576541,FALSE,4.63674103599727
"CAN","cpi",0.2,2003,3,2002,NA,1.5,0.96025814034902,1.77091511299019,2.71189071546809,1.3655866266696,FALSE,3.16309597883592
"CAN","cpi",0.2,2004,3,2004,NA,0,1.80990362534481,1.84990838137069,1.83151661303942,1.82990600335775,TRUE,0.0400047560258767
"CAN","cpi",0.2,2004,3,2004,NA,0.5,1.17964135806755,1.70001101705171,1.83151661303942,1.43982618755963,FALSE,0.849133648953436
"CAN","cpi",0.2,2004,3,2003,NA,1,0.769283343736058,1.28965300272022,1.83151661303942,1.02946817322814,FALSE,1.87502868478217
"CAN","cpi",0.2,2004,3,2003,NA,1.5,4.38631036174835,4.90668002073251,1.83151661303942,4.64649519124043,FALSE,6.90735403075647
"CAN","cpi",0.2,2005,3,2005,NA,0,2.36666303767239,2.40242333624431,2.18071628336509,2.38454318695835,FALSE,0.500627184340173
"CAN","cpi",0.2,2005,3,2005,NA,0.5,1.3459820450645,1.86635170404866,2.18071628336509,1.60616687455658,FALSE,1.30628110727523
"CAN","cpi",0.2,2005,3,2004,NA,1,1.39163307816223,1.91200273714639,2.18071628336509,1.65181790765431,FALSE,1.19215352453092
"CAN","cpi",0.2,2005,3,2004,NA,1.5,1.50240816598315,2.02277782496731,2.18071628336509,1.76259299547523,FALSE,0.915215804978603
"CAN","cpi",0.2,2006,3,2006,NA,0,2.11243534399969,2.16026734802159,1.97519342012289,2.13635134601064,FALSE,0.390936813713922
"CAN","cpi",0.2,2006,3,2006,NA,0.5,1.58777263011573,1.98592890742225,1.97519342012289,1.78685076876899,TRUE,0.398156277306513
"CAN","cpi",0.2,2006,3,2005,NA,1,3.30082017912898,3.70887887267254,1.97519342012289,3.50484952590076,FALSE,3.7221255910588
"CAN","cpi",0.2,2006,3,2005,NA,1.5,1.20795359351804,1.7283232525022,1.97519342012289,1.46813842301012,FALSE,1.13754507803588
"CAN","cpi",0.2,2007,3,2007,NA,0,2.17742267628634,2.23208083650529,2.10062087284572,2.20475175639581,FALSE,0.246662668820489
"CAN","cpi",0.2,2007,3,2007,NA,0.5,1.85432283144603,2.11623210335573,2.10062087284572,1.98527746740088,TRUE,0.261909271909705
"CAN","cpi",0.2,2007,3,2006,NA,1,0.987217489334747,1.50758714831891,2.10062087284572,1.24740231882683,FALSE,2.0029539703012
"CAN","cpi",0.2,2007,3,2006,NA,1.5,1.34478725041258,1.86515690939674,2.10062087284572,1.60497207990466,FALSE,1.10902956760662
"CAN","cpi",0.2,2008,3,2008,NA,0,2.99542153834116,3.03992998324013,2.31447335265955,3.01767576079065,FALSE,1.74687890910299
"CAN","cpi",0.2,2008,3,2008,NA,0.5,0.886929103348489,1.18831818085215,2.31447335265955,1.03762364210032,FALSE,3.11677700702217
"CAN","cpi",0.2,2008,3,2007,NA,1,1.22069983219701,1.58512443318535,2.31447335265955,1.40291213269118,FALSE,2.18779689967384
"CAN","cpi",0.2,2008,3,2007,NA,1.5,2.51713536601029,2.88155996699862,2.31447335265955,2.69934766650446,FALSE,0.871079634365179
"CAN","cpi",0.2,2009,3,2009,NA,0,0.296672293682515,0.346780168986296,0.284533874408197,0.321726231334406,FALSE,0.0804539234895759
"CAN","cpi",0.2,2009,3,2009,NA,0.5,-1.45718623530271,-1.19269117037699,0.284533874408197,-1.32493870283985,FALSE,3.95755767688868
"CAN","cpi",0.2,2009,3,2008,NA,1,4.84983224825603,5.30238261009491,0.284533874408197,5.07610742917547,FALSE,11.8657962964585
"CAN","cpi",0.2,2009,3,2008,NA,1.5,0.784790409371469,1.23734077121035,0.284533874408197,1.01106559029091,FALSE,1.70319169924706
"CAN","cpi",0.2,2010,3,2010,NA,0,1.73160662345288,1.7770453102756,1.75525687020327,1.75432596686424,TRUE,0.0454386868227123
"CAN","cpi",0.2,2010,3,2010,NA,0.5,1.3577333815406,1.62915921857109,1.75525687020327,1.49344630005585,FALSE,0.586669966110935
"CAN","cpi",0.2,2010,3,2009,NA,1,0.866647409647,1.39356000085645,1.75525687020327,1.13010370525173,FALSE,1.4311547645765
"CAN","cpi",0.2,2010,3,2009,NA,1.5,-2.5226481388719,-1.99573554766245,1.75525687020327,-2.25919184326718,FALSE,9.90439363587376
"CAN","cpi",0.2,2011,3,2011,NA,0,2.8821722683318,2.93447417880169,2.85717434028225,2.90832322356675,FALSE,0.11479673059378
"CAN","cpi",0.2,2011,3,2011,NA,0.5,2.69301528168557,2.93688543119571,2.85717434028225,2.81495035644064,TRUE,0.243870149510139
"CAN","cpi",0.2,2011,3,2010,NA,1,1.98451131634193,2.51540118227244,2.85717434028225,2.24995624930718,FALSE,1.38532276095503
"CAN","cpi",0.2,2011,3,2010,NA,1.5,1.42576725008593,1.95665711601643,2.85717434028225,1.69121218305118,FALSE,2.78218292659504
"CAN","cpi",0.2,2012,3,2012,NA,0,1.48224177895951,1.53494563482567,1.50118536134935,1.50859370689259,TRUE,0.0527038558661599
"CAN","cpi",0.2,2012,3,2012,NA,0.5,1.64548161926002,1.85702367823381,1.50118536134935,1.75125264874692,FALSE,0.572282703750476
"CAN","cpi",0.2,2012,3,2011,NA,1,1.7416735312699,1.9532155902437,1.50118536134935,1.8474445607568,FALSE,0.812762483775191
"CAN","cpi",0.2,2012,3,2011,NA,1.5,2.91260134245728,3.22591981860422,1.50118536134935,3.06926058053075,FALSE,3.84185842891677
"CAN","cpi",0.2,2013,3,2013,NA,0,1.03736651357768,1.0749453857463,0.931270594714462,1.05615594966199,FALSE,0.302818669326674
"CAN","cpi",0.2,2013,3,2013,NA,0.5,0.900172672129778,1.14818605696879,0.931270594714462,1.02417936454929,TRUE,0.248013384839013
"CAN","cpi",0.2,2013,3,2012,NA,1,-0.0554221738433917,0.192591210995622,0.931270594714462,0.0685845185761151,FALSE,2.09471184413611
"CAN","cpi",0.2,2013,3,2012,NA,1.5,1.39385199009556,2.04448718423994,0.931270594714462,1.71916958716775,FALSE,1.80708868259713
"CAN","cpi",0.2,2014,3,2014,NA,0,2.04699567169724,2.0807438402045,1.87639912240215,2.06386975595087,FALSE,0.460239541744988
"CAN","cpi",0.2,2014,3,2014,NA,0.5,1.85508282480303,1.99922139961121,1.87639912240215,1.92715211220712,TRUE,0.144138574808181
"CAN","cpi",0.2,2014,3,2013,NA,1,1.04165394699064,1.18579252179882,1.87639912240215,1.11372323439473,FALSE,1.8706550763165
"CAN","cpi",0.2,2014,3,2013,NA,1.5,1.0508657795993,1.74994198520318,1.87639912240215,1.40040388240124,FALSE,1.01521904860131
"CAN","cpi",0.2,2015,3,2015,NA,0,1.28514027304609,1.32951528977847,1.11090953952792,1.30732778141228,FALSE,0.479951850527816
"CAN","cpi",0.2,2015,3,2015,NA,0.5,0.028262951883429,0.138243127527739,1.11090953952792,0.0832530397055839,FALSE,2.54164620564476
"CAN","cpi",0.2,2015,3,2014,NA,1,1.37894827897471,1.48892845461902,1.11090953952792,1.43393836679687,FALSE,0.780077024261303
"CAN","cpi",0.2,2015,3,2014,NA,1.5,2.38323475102267,2.96781214396981,1.11090953952792,2.67552344749624,FALSE,3.76539042168403
"CAN","cpi",0.2,2016,3,2016,NA,0,1.48662819573532,1.53120252749501,1.41168586698797,1.50891536161516,FALSE,0.231930153628069
"CAN","cpi",0.2,2016,3,2016,NA,0.5,0.628246870248691,0.94545661378974,1.41168586698797,0.786851742019216,FALSE,1.48278287653661
"CAN","cpi",0.2,2016,3,2015,NA,1,1.99799762457139,2.31520736811243,1.41168586698797,2.15660249634191,FALSE,1.7829891374996
"CAN","cpi",0.2,2016,3,2015,NA,1.5,-0.391668407982537,0.157227836971031,1.41168586698797,-0.117220285505753,FALSE,3.6850413199959
"CAN","cpi",0.2,2017,3,2017,NA,0,1.52988415109542,1.56774259331991,1.57888581671161,1.54881337220766,FALSE,0.0657165007037473
"CAN","cpi",0.2,2017,3,2017,NA,0.5,1.68611492455869,2.14062503380827,1.57888581671161,1.91336997918348,FALSE,0.722582878867271
"CAN","cpi",0.2,2017,3,2016,NA,1,0.960433502087755,1.41494361133734,1.57888581671161,1.18768855671255,FALSE,0.864365622685271
"CAN","cpi",0.2,2017,3,2016,NA,1.5,0.337402853155777,0.991580552523023,1.57888581671161,0.6644917028394,FALSE,2.12244085983872
"CAN","cpi",0.2,2018,3,2018,NA,0,2.4253808744681,2.46508024708714,2.23316270166586,2.44523056077762,FALSE,0.520244804624643
"CAN","cpi",0.2,2018,3,2018,NA,0.5,2.63802079539418,2.96510953198089,2.23316270166586,2.80156516368753,FALSE,1.3392339709075
"CAN","cpi",0.2,2018,3,2017,NA,1,0.656646888332516,0.983735624919224,2.23316270166586,0.82019125662587,FALSE,3.4506564284533
"CAN","cpi",0.2,2018,3,2017,NA,1.5,2.08828134435943,2.7768485603019,2.23316270166586,2.43256495233066,TRUE,0.688567215942466
"CAN","cpi",0.2,2019,3,2019,NA,0,2.06013208877826,2.10965528173168,1.91921619871868,2.08489368525497,FALSE,0.401812918102366
"CAN","cpi",0.2,2019,3,2019,NA,0.5,1.28769850777282,1.65594070403586,1.91921619871868,1.47181960590434,FALSE,1.02643093297009
"CAN","cpi",0.2,2019,3,2018,NA,1,1.99711806700978,2.36536026327282,1.91921619871868,2.1812391651413,FALSE,0.56299686699079
"CAN","cpi",0.2,2019,3,2018,NA,1.5,3.25727071420655,3.92968922649518,1.91921619871868,3.59347997035086,FALSE,4.01755480100829
"CAN","cpi",0.2,2020,3,2020,NA,0,0.458238638374348,0.926027842994938,0.71139989671781,0.692133240684643,TRUE,0.467789204620591
"CAN","cpi",0.2,2020,3,2020,NA,0.5,0.821685931301183,1.28947513592177,0.71139989671781,1.05558053361148,FALSE,0.743504291079021
"CAN","cpi",0.2,2020,3,2019,NA,1,1.78097515748303,2.24876436210362,0.71139989671781,2.01486975979332,FALSE,3.14172735653364
"CAN","cpi",0.2,2020,3,2019,NA,1.5,1.38893992932815,2.15644040274661,0.71139989671781,1.77269016603738,FALSE,2.46135055494432
"CAN","cpi",0.2,2021,3,2021,NA,0,3.35129710350828,3.39692081229326,3.31148121717802,3.37410895790077,FALSE,0.145163424610617
"CAN","cpi",0.2,2021,3,2021,NA,0.5,2.42172311030875,2.94209276929291,3.31148121717802,2.68190793980083,FALSE,1.44384077869695
"CAN","cpi",0.2,2021,3,2020,NA,1,0.932289836713706,1.45265949569787,3.31148121717802,1.19247466620579,FALSE,5.16742396268456
"CAN","cpi",0.2,2021,3,2020,NA,1.5,0.598090925650804,1.3901041233166,3.31148121717802,0.994097524483704,FALSE,5.59545593231935
"CAN","cpi",0.2,2022,3,2022,NA,0,6.45196899889821,6.97233865788237,6.50977236228281,6.71215382839029,TRUE,0.52036965898416
"CAN","cpi",0.2,2022,3,2022,NA,0.5,6.1613582326135,6.68172789159766,6.50977236228281,6.42154306210558,TRUE,0.52036965898416
"CAN","cpi",0.2,2022,3,2021,NA,1,4.71180970344728,5.23217936243144,6.50977236228281,4.97199453293936,FALSE,3.71435215861259
"CAN","cpi",0.2,2022,3,2021,NA,1.5,3.19683355861146,3.71720321759562,6.50977236228281,3.45701838810354,FALSE,7.50179252070213
"CAN","cpi",0.2,2023,3,2023,NA,0,3.78193701197192,4.30230667095608,3.78831288758619,4.042121841464,TRUE,0.52036965898416
"CAN","cpi",0.2,2023,3,2023,NA,0.5,2.79978709844983,3.32015675743399,3.78831288758619,3.05997192794191,FALSE,1.69075998436466
"CAN","cpi",0.2,2023,3,2022,NA,1,5.02333282712666,5.54370248611082,3.78831288758619,5.28351765661874,FALSE,3.60791950783533
"CAN","cpi",0.2,2023,3,2022,NA,1.5,7.02734233423504,7.5477119932192,3.78831288758619,7.28752716372712,FALSE,8.61794327560627
"CAN","cpi",0.2,2024,3,2023,NA,1,4.11775212975508,4.63812178873924,NA,4.37793695924716,NA,NA
"CAN","cpi",0.2,2024,3,2023,NA,1.5,2.1087950079156,2.62916466689976,NA,2.36897983740768,NA,NA
"CAN","cpi",0.3,1959,3,1959,NA,0,0.800205596210237,1.59338858372148,1.19382698397654,1.19679708996586,TRUE,0.793182987511244
"CAN","cpi",0.3,1959,3,1959,NA,0.5,0.154329567455554,1.15602242219826,1.19382698397654,0.655175994826909,FALSE,1.10970588839493
"CAN","cpi",0.3,1959,3,1958,NA,1,0.959214435944836,2.55956272037479,1.19382698397654,1.75938857815981,TRUE,1.60034828442995
"CAN","cpi",0.3,1959,3,1958,NA,1.5,0.974792467914522,2.57514075234448,1.19382698397654,1.7749666101295,TRUE,1.60034828442995
"CAN","cpi",0.3,1960,3,1960,NA,0,0.709286429098644,1.35331850112833,1.34209404870695,1.03130246511349,TRUE,0.644032072029689
"CAN","cpi",0.3,1960,3,1960,NA,0.5,0.423586617117401,1.06761868914709,1.34209404870695,0.745602653132245,FALSE,1.42824738505786
"CAN","cpi",0.3,1960,3,1959,NA,1,2.14495886476295,4.52678888130579,1.34209404870695,3.33587387303437,FALSE,4.67572949098856
"CAN","cpi",0.3,1960,3,1959,NA,1.5,-1.59891783472821,0.948079646152433,1.34209404870695,-0.32541909428789,FALSE,3.6727529167507
"CAN","cpi",0.3,1961,3,1961,NA,0,0.728504340952638,1.28992262092751,1.00921348094007,1.00921348094007,TRUE,0.561418279974867
"CAN","cpi",0.3,1961,3,1961,NA,0.5,1.03070217509386,1.59212045506873,1.00921348094007,1.31141131508129,FALSE,0.622814548985687
"CAN","cpi",0.3,1961,3,1960,NA,1,-0.686714170023608,0.973965981363532,1.00921348094007,0.143625905669962,FALSE,1.7613872930344
"CAN","cpi",0.3,1961,3,1960,NA,1.5,-1.17045149984579,0.490228651541349,1.00921348094007,-0.34011142415222,FALSE,3.1434939496692
"CAN","cpi",0.3,1962,3,1962,NA,0,0.815988933906522,1.406671030711,1.04957947883042,1.11132998230876,TRUE,0.59068209680448
"CAN","cpi",0.3,1962,3,1962,NA,0.5,-0.29534104840224,0.29534104840224,1.04957947883042,1.64134322488006e-44,FALSE,2.74564904088498
"CAN","cpi",0.3,1962,3,1961,NA,1,-0.839465153709676,0.839465153709676,1.04957947883042,-9.44308782563385e-19,FALSE,2.27925695062146
"CAN","cpi",0.3,1962,3,1961,NA,1.5,-0.0850809050189248,1.59384940240043,1.04957947883042,0.754384248690751,TRUE,1.67893030741935
"CAN","cpi",0.3,1963,3,1963,NA,0,1.58716601474559,2.1248242030277,1.60677118395228,1.85599510888664,TRUE,0.53765818828211
"CAN","cpi",0.3,1963,3,1963,NA,0.5,0.66347119949637,1.20112938777848,1.60677118395228,0.932300293637426,FALSE,1.69663474877869
"CAN","cpi",0.3,1963,3,1962,NA,1,1.93530994538589,3.39966050148865,1.60677118395228,2.66748522343727,FALSE,2.40303273162736
"CAN","cpi",0.3,1963,3,1962,NA,1.5,-0.73217527805138,0.73217527805138,1.60677118395228,4.10321927477868e-44,FALSE,3.96319600153391
"CAN","cpi",0.3,1964,3,1964,NA,0,1.92926805326227,2.04861503811778,1.88764670034376,1.98894154569002,FALSE,0.23826513605125
"CAN","cpi",0.3,1964,3,1964,NA,0.5,1.26238502765473,1.50516662728715,1.88764670034376,1.38377582747094,FALSE,1.3355818083656
"CAN","cpi",0.3,1964,3,1963,NA,1,4.31627403529868,5.10945702280993,1.88764670034376,4.71286552905431,FALSE,7.7321182302396
"CAN","cpi",0.3,1964,3,1963,NA,1.5,-0.364760296562927,0.842319642907581,1.88764670034376,0.238779673172327,FALSE,4.19372867500245
"CAN","cpi",0.3,1965,3,1965,NA,0,2.29462808478806,2.41526212542301,2.29538304394236,2.35494510510554,TRUE,0.120634040634949
"CAN","cpi",0.3,1965,3,1965,NA,0.5,1.44480612834949,1.67609180084528,2.29538304394236,1.56044896459738,FALSE,2.00068922420173
"CAN","cpi",0.3,1965,3,1964,NA,1,2.03051582523045,2.82369881274169,2.29538304394236,2.42710731898607,TRUE,0.793182987511243
"CAN","cpi",0.3,1965,3,1964,NA,1.5,0.329650454244914,1.30698106156132,2.29538304394236,0.818315757903116,FALSE,3.80133627126223
"CAN","cpi",0.3,1966,3,1966,NA,0,3.79375163827645,3.89953108952377,3.72486065470629,3.84664136390011,FALSE,0.302610832876355
"CAN","cpi",0.3,1966,3,1966,NA,0.5,3.73764266996553,3.95618533464052,3.72486065470629,3.84691400230302,FALSE,0.255062708272816
"CAN","cpi",0.3,1966,3,1965,NA,1,3.08045417376542,3.54690576802886,3.72486065470629,3.31367997089714,FALSE,0.974894127627522
"CAN","cpi",0.3,1966,3,1965,NA,1.5,1.24827802700342,1.71472962126685,3.72486065470629,1.48150382413513,FALSE,6.20968311837612
"CAN","cpi",0.3,1967,3,1967,NA,0,3.72549055057167,3.81176883069116,3.49360316391996,3.76862969063141,FALSE,0.748813670552943
"CAN","cpi",0.3,1967,3,1967,NA,0.5,2.16273034731742,2.56075806722135,3.49360316391996,2.36174420726938,FALSE,3.0632994247571
"CAN","cpi",0.3,1967,3,1966,NA,1,3.20046133077918,3.76421557832162,3.49360316391996,3.4823384545504,TRUE,0.56375424754244
"CAN","cpi",0.3,1967,3,1966,NA,1.5,4.010699880665,4.57445412820744,3.49360316391996,4.29257700443622,FALSE,2.04117343824256
"CAN","cpi",0.3,1968,3,1968,NA,0,4.0632789389615,4.1635270862239,3.95128347779386,4.1134030125927,FALSE,0.420235179169955
"CAN","cpi",0.3,1968,3,1968,NA,0.5,3.57556115222648,4.20892752265218,3.95128347779386,3.89224433743933,TRUE,0.633366370425705
"CAN","cpi",0.3,1968,3,1967,NA,1,5.53928392987943,6.17265030030513,3.95128347779386,5.85596711509228,FALSE,5.17051051924162
"CAN","cpi",0.3,1968,3,1967,NA,1.5,1.82518776629122,2.45855413671693,3.95128347779386,2.14187095150408,FALSE,4.89830734493122
"CAN","cpi",0.3,1969,3,1969,NA,0,4.59241647360018,4.69284482932616,4.42679496126681,4.64263065146317,FALSE,0.57363267667845
"CAN","cpi",0.3,1969,3,1969,NA,0.5,2.6654034350221,3.45858642253334,4.42679496126681,3.06199492877772,FALSE,3.55949309817831
"CAN","cpi",0.3,1969,3,1968,NA,1,5.65923229373067,6.45241528124191,4.42679496126681,6.05582378748629,FALSE,4.31443250883654
"CAN","cpi",0.3,1969,3,1968,NA,1.5,3.4756833574376,4.26886634494885,4.42679496126681,3.87227485119322,FALSE,1.24440760556258
"CAN","cpi",0.3,1970,3,1970,NA,0,3.54648548875166,3.63344400973679,3.28128405769805,3.58996474924422,FALSE,0.844676895424023
"CAN","cpi",0.3,1970,3,1970,NA,0.5,3.77521120277189,4.56839419028314,3.28128405769805,4.17180269652751,FALSE,2.20440340200795
"CAN","cpi",0.3,1970,3,1969,NA,1,5.04206347089476,5.835246458406,3.28128405769805,5.43865496465038,FALSE,5.82398131093042
"CAN","cpi",0.3,1970,3,1969,NA,1.5,1.92013581604304,2.71331880355428,3.28128405769805,2.31672730979866,FALSE,2.41594085649342
"CAN","cpi",0.3,1971,3,1971,NA,0,2.84771794757758,2.94077684878315,2.64123406634756,2.89424739818036,FALSE,0.683012847577043
"CAN","cpi",0.3,1971,3,1971,NA,0.5,0.727689970623604,1.42298990864752,2.64123406634756,1.07533993963556,FALSE,4.1759975314526
"CAN","cpi",0.3,1971,3,1970,NA,1,2.63395968232547,3.32925962034939,2.64123406634756,2.98160965133743,TRUE,0.695299938023919
"CAN","cpi",0.3,1971,3,1970,NA,1.5,3.80943263789928,4.5047325759232,2.64123406634756,4.15708260691123,FALSE,4.03301014245739
"CAN","cpi",0.3,1972,3,1972,NA,0,4.70662340326316,5.4998063907744,4.83230569625923,5.10321489701878,TRUE,0.793182987511244
"CAN","cpi",0.3,1972,3,1972,NA,0.5,4.17867635098911,4.97185933850035,4.83230569625923,4.57526784474473,TRUE,0.793182987511244
"CAN","cpi",0.3,1972,3,1971,NA,1,6.17073987139098,6.96392285890222,4.83230569625923,6.5673313651466,FALSE,4.61728063074481
"CAN","cpi",0.3,1972,3,1971,NA,1.5,0.804679431412844,1.59786241892409,4.83230569625923,1.20127092516847,FALSE,10.0344494941831
"CAN","cpi",0.3,1973,3,1973,NA,0,6.9660959974131,7.75927898492435,7.12388603531779,7.36268749116872,TRUE,0.793182987511244
"CAN","cpi",0.3,1973,3,1973,NA,0.5,5.49773843698755,6.29092142449879,7.12388603531779,5.89432993074317,FALSE,3.17308187556553
"CAN","cpi",0.3,1973,3,1972,NA,1,6.97480786662538,7.76799085413662,7.12388603531779,7.371399360381,TRUE,0.793182987511244
"CAN","cpi",0.3,1973,3,1972,NA,1.5,4.10665521906567,4.89983820657692,7.12388603531779,4.50324671282129,FALSE,7.14760535534231
"CAN","cpi",0.3,1974,3,1974,NA,0,9.9256966394673,10.7188796269785,10.2717243737774,10.3222881332229,TRUE,0.793182987511244
"CAN","cpi",0.3,1974,3,1974,NA,0.5,8.45053753560808,9.24372052311932,10.2717243737774,8.8471290293637,FALSE,3.73033684653438
"CAN","cpi",0.3,1974,3,1973,NA,1,10.5918487887816,11.3850317762929,10.2717243737774,10.9884402825372,FALSE,1.70782417323752
"CAN","cpi",0.3,1974,3,1973,NA,1.5,5.7989570270416,6.59214001455285,10.2717243737774,6.19554852079723,FALSE,11.3062811567243
"CAN","cpi",0.3,1975,3,1975,NA,0,10.230343778542,10.2990445619299,10.0232981493341,10.2646941702359,FALSE,0.660259723981811
"CAN","cpi",0.3,1975,3,1975,NA,0.5,8.82196238829756,9.61514537580881,10.0232981493341,9.21855388205318,FALSE,1.95933376901214
"CAN","cpi",0.3,1975,3,1974,NA,1,11.5939228996347,12.387105887146,10.0232981493341,11.9905143933903,FALSE,5.28068227408437
"CAN","cpi",0.3,1975,3,1974,NA,1.5,8.28349979754862,9.07668278505986,10.0232981493341,8.68009129130424,FALSE,3.49779831400912
"CAN","cpi",0.3,1976,3,1976,NA,0,6.8572391794666,7.65042216697784,7.22784311401172,7.25383067322222,TRUE,0.793182987511244
"CAN","cpi",0.3,1976,3,1976,NA,0.5,7.01888526229209,7.81206824980333,7.22784311401172,7.41547675604771,TRUE,0.793182987511244
"CAN","cpi",0.3,1976,3,1975,NA,1,11.5185595643586,12.3117425518699,7.22784311401172,11.9151510581142,FALSE,13.0523728456453
"CAN","cpi",0.3,1976,3,1975,NA,1.5,7.61672388744124,8.40990687495249,7.22784311401172,8.01331538119686,FALSE,1.90427091159561
"CAN","cpi",0.3,1977,3,1977,NA,0,7.22207980315445,8.01526279066569,7.58101410153764,7.61867129691007,TRUE,0.793182987511244
"CAN","cpi",0.3,1977,3,1977,NA,0.5,6.6262872261427,7.41947021365394,7.58101410153764,7.02287871989832,FALSE,1.25473695289324
"CAN","cpi",0.3,1977,3,1976,NA,1,5.44924718442104,6.29599089310371,7.58101410153764,5.87261903876238,FALSE,4.51823858992248
"CAN","cpi",0.3,1977,3,1976,NA,1.5,5.7298545958996,6.57659830458227,7.58101410153764,6.15322645024094,FALSE,3.71650312855516
"CAN","cpi",0.3,1978,3,1978,NA,0,8.28466257869443,9.07784556620567,8.50208927062595,8.68125407245005,TRUE,0.793182987511244
"CAN","cpi",0.3,1978,3,1978,NA,0.5,7.7284959295466,8.52167891705784,8.50208927062595,8.12508742330222,TRUE,0.793182987511244
"CAN","cpi",0.3,1978,3,1977,NA,1,8.1980971297691,9.08827820729013,8.50208927062595,8.64318766852961,TRUE,0.890181077521039
"CAN","cpi",0.3,1978,3,1977,NA,1.5,7.21519882920451,8.10537990672555,8.50208927062595,7.66028936796504,FALSE,2.02363640295073
"CAN","cpi",0.3,1979,3,1979,NA,0,8.21416797034225,9.0073509578535,8.65147652410481,8.61075946409788,TRUE,0.793182987511244
"CAN","cpi",0.3,1979,3,1979,NA,0.5,7.7040368589901,8.49721984650134,8.65147652410481,8.10062835274572,FALSE,1.23391635209259
"CAN","cpi",0.3,1979,3,1978,NA,1,9.14490177721816,10.0203679921476,8.65147652410481,9.5826348846829,FALSE,2.2852526523962
"CAN","cpi",0.3,1979,3,1978,NA,1.5,7.50410533930053,8.37957155423002,8.65147652410481,7.94183844676527,FALSE,1.65233755742889
"CAN","cpi",0.3,1980,3,1980,NA,0,9.13449897374723,9.92768196125848,9.5171912664748,9.53109046750286,TRUE,0.793182987511244
"CAN","cpi",0.3,1980,3,1980,NA,0.5,8.28904465539859,9.08222764290984,9.5171912664748,8.68563614915422,FALSE,2.03593619769684
"CAN","cpi",0.3,1980,3,1979,NA,1,7.90509305549174,8.74588162783992,9.5171912664748,8.32548734166583,FALSE,3.04453039701926
"CAN","cpi",0.3,1980,3,1979,NA,1.5,7.56007673478712,8.4008653071353,9.5171912664748,7.98047102096121,FALSE,4.03029131331817
"CAN","cpi",0.3,1981,3,1981,NA,0,11.3123644837673,12.1055474712786,11.5813425032741,11.708955977523,TRUE,0.793182987511244
"CAN","cpi",0.3,1981,3,1981,NA,0.5,11.7298047969893,12.5229877845006,11.5813425032741,12.1263962907449,FALSE,1.21736096955463
"CAN","cpi",0.3,1981,3,1980,NA,1,10.5050378187001,11.4648425119055,11.5813425032741,10.9849401653028,FALSE,1.29266181140144
"CAN","cpi",0.3,1981,3,1980,NA,1.5,8.14744990605376,9.10725459925917,11.5813425032741,8.62735225265647,FALSE,8.02862727610532
"CAN","cpi",0.3,1982,3,1982,NA,0,9.91438348101058,10.7075664685218,10.1124203763629,10.3109749747662,TRUE,0.793182987511244
"CAN","cpi",0.3,1982,3,1982,NA,0.5,9.70309216824406,10.4962751557553,10.1124203763629,10.0996836619997,TRUE,0.793182987511244
"CAN","cpi",0.3,1982,3,1981,NA,1,11.1693902354748,12.0695688043558,10.1124203763629,11.6194795199153,FALSE,3.92009245205767
"CAN","cpi",0.3,1982,3,1981,NA,1.5,12.2693463917037,13.1695249605848,10.1124203763629,12.7194356761443,FALSE,7.06282432699757
"CAN","cpi",0.3,1983,3,1983,NA,0,5.43105590986472,6.22423889737597,5.67091787896303,5.82764740362034,TRUE,0.793182987511244
"CAN","cpi",0.3,1983,3,1983,NA,0.5,4.57884795418769,5.37203094169893,5.67091787896303,4.97543944794331,FALSE,1.64714566540868
"CAN","cpi",0.3,1983,3,1982,NA,1,8.75750970949012,9.718058224155,5.67091787896303,9.23778396682256,FALSE,9.77938231617084
"CAN","cpi",0.3,1983,3,1982,NA,1.5,9.30842718440609,10.268975699071,5.67091787896303,9.78870144173853,FALSE,11.3534322445022
"CAN","cpi",0.3,1984,3,1984,NA,0,3.81698387917759,4.61016686668883,4.19799576814029,4.21357537293321,TRUE,0.793182987511244
"CAN","cpi",0.3,1984,3,1984,NA,0.5,4.24599783688003,5.03918082439128,4.19799576814029,4.64258933063566,FALSE,0.930331755339089
"CAN","cpi",0.3,1984,3,1983,NA,1,5.73478505495656,6.5279680424678,4.19799576814029,6.13137654871218,FALSE,5.18400952127201
"CAN","cpi",0.3,1984,3,1983,NA,1.5,3.07173289221344,3.86491587972469,4.19799576814029,3.46832438596907,FALSE,1.74483981155582
"CAN","cpi",0.3,1985,3,1985,NA,0,3.52250176384656,4.3156847513578,3.86444262005169,3.91909325760218,TRUE,0.793182987511243
"CAN","cpi",0.3,1985,3,1985,NA,0.5,3.49491038819476,4.28809337570601,3.86444262005169,3.89150188195039,TRUE,0.793182987511244
"CAN","cpi",0.3,1985,3,1984,NA,1,2.89737925601473,3.69056224352598,3.86444262005169,3.29397074977035,FALSE,1.28998406329901
"CAN","cpi",0.3,1985,3,1984,NA,1.5,4.07001885384277,4.86320184135402,3.86444262005169,4.4666103475984,FALSE,1.38054365548576
"CAN","cpi",0.3,1986,3,1986,NA,0,3.70929704690028,4.50248003441152,4.08685396749431,4.1058885406559,TRUE,0.793182987511244
"CAN","cpi",0.3,1986,3,1986,NA,0.5,4.01342256783187,4.80660555534311,4.08685396749431,4.41001406158749,TRUE,0.793182987511244
"CAN","cpi",0.3,1986,3,1985,NA,1,3.59644729943879,4.38963028695003,4.08685396749431,3.99303879319441,TRUE,0.793182987511244
"CAN","cpi",0.3,1986,3,1985,NA,1.5,3.52966939432028,4.9168570832978,4.08685396749431,4.22326323880904,TRUE,1.38718768897752
"CAN","cpi",0.3,1987,3,1987,NA,0,3.9631756910532,4.75635867856444,4.23980729277887,4.35976718480882,TRUE,0.793182987511244
"CAN","cpi",0.3,1987,3,1987,NA,0.5,3.51277172019206,4.30595470770331,4.23980729277887,3.90936321394769,TRUE,0.793182987511244
"CAN","cpi",0.3,1987,3,1986,NA,1,3.93440509775893,4.72758808527017,4.23980729277887,4.33099659151455,TRUE,0.793182987511244
"CAN","cpi",0.3,1987,3,1986,NA,1.5,4.35587972660653,5.14906271411778,4.23980729277887,4.75247122036215,FALSE,1.12481851273313
"CAN","cpi",0.3,1988,3,1988,NA,0,3.61610410776846,4.40928709527971,3.92899537638065,4.01269560152408,TRUE,0.793182987511244
"CAN","cpi",0.3,1988,3,1988,NA,0.5,3.07416446538773,3.86734745289897,3.92899537638065,3.47075595914335,FALSE,0.969319911744619
"CAN","cpi",0.3,1988,3,1987,NA,1,4.18503289119504,4.97821587870628,3.92899537638065,4.58162438495066,FALSE,1.52471874412377
"CAN","cpi",0.3,1988,3,1987,NA,1.5,3.21057360080826,4.41672192583189,3.92899537638065,3.81364776332008,TRUE,1.20614832502363
"CAN","cpi",0.3,1989,3,1989,NA,0,4.99477115854342,5.05313525891873,4.82821664544208,5.02395320873108,FALSE,0.534234137807722
"CAN","cpi",0.3,1989,3,1989,NA,0.5,3.9713069846959,4.76448997220714,4.82821664544208,4.36789847845152,FALSE,0.975259196753909
"CAN","cpi",0.3,1989,3,1988,NA,1,3.99833174656675,4.92491949015231,4.82821664544208,4.46162561835953,TRUE,0.926587743585557
"CAN","cpi",0.3,1989,3,1988,NA,1.5,2.78933309175656,3.76742996052365,4.82821664544208,3.27838152614011,FALSE,4.00891596853402
"CAN","cpi",0.3,1990,3,1990,NA,0,4.48955581967108,4.54970675072027,4.64347549432717,4.51963128519567,FALSE,0.328061627068914
"CAN","cpi",0.3,1990,3,1990,NA,0.5,4.58775277622843,5.38093576373967,4.64347549432717,4.98434426998405,TRUE,0.793182987511244
"CAN","cpi",0.3,1990,3,1989,NA,1,5.43076591162687,6.40473287315534,4.64347549432717,5.9177493923911,FALSE,3.22336815381332
"CAN","cpi",0.3,1990,3,1989,NA,1.5,3.88944584009461,5.23427132767557,4.64347549432717,4.56185858388509,TRUE,1.34482548758096
"CAN","cpi",0.3,1991,3,1991,NA,0,5.22747613419885,6.02065912171009,5.4258100696218,5.62406762795447,TRUE,0.793182987511244
"CAN","cpi",0.3,1991,3,1991,NA,0.5,7.99512934458204,8.78831233209329,5.4258100696218,8.39172083833767,FALSE,8.13409520168338
"CAN","cpi",0.3,1991,3,1990,NA,1,3.47258467176334,4.26576765927459,5.4258100696218,3.86917616551897,FALSE,4.10758987421755
"CAN","cpi",0.3,1991,3,1990,NA,1.5,4.45567352708318,5.79009643002107,5.4258100696218,5.12288497855213,TRUE,1.33442290293789
"CAN","cpi",0.3,1992,3,1992,NA,0,1.44501901382762,1.51619284597621,1.47496888572843,1.48060592990191,TRUE,0.0711738321485922
"CAN","cpi",0.3,1992,3,1992,NA,0.5,0.983987761089395,1.35998654374125,1.47496888572843,1.17198715241532,FALSE,0.704519759758101
"CAN","cpi",0.3,1992,3,1991,NA,1,2.16604607389521,2.8744444875687,1.47496888572843,2.52024528073196,FALSE,2.68290466557858
"CAN","cpi",0.3,1992,3,1991,NA,1.5,9.79913850236584,10.5075369160393,1.47496888572843,10.1533377092026,FALSE,24.4917401754946
"CAN","cpi",0.3,1993,3,1993,NA,0,1.52200639878576,2.0832364877274,1.84351085411351,1.80262144325658,TRUE,0.561230088941643
"CAN","cpi",0.3,1993,3,1993,NA,0.5,2.06179811111499,2.62302820005663,1.84351085411351,2.34241315558581,FALSE,1.18490796608872
"CAN","cpi",0.3,1993,3,1992,NA,1,1.49711010149863,2.13900882675305,1.84351085411351,1.81805946412584,TRUE,0.641898725254422
"CAN","cpi",0.3,1993,3,1992,NA,1.5,0.819314238399198,1.46121296365362,1.84351085411351,1.14026360102641,FALSE,1.73417841228268
"CAN","cpi",0.3,1994,3,1994,NA,0,-0.132897971081967,0.460131227798622,0.161630694655448,0.163616628358327,TRUE,0.593029198880589
"CAN","cpi",0.3,1994,3,1994,NA,0.5,-0.681654697469674,-0.0886254985890846,0.161630694655448,-0.385140098029379,FALSE,1.30804689386497
"CAN","cpi",0.3,1994,3,1993,NA,1,1.06730134337177,1.68219321929588,0.161630694655448,1.37474728133383,FALSE,3.20252230082789
"CAN","cpi",0.3,1994,3,1993,NA,1.5,2.28941021515319,2.9043020910773,0.161630694655448,2.59685615311524,FALSE,6.69426193448909
"CAN","cpi",0.3,1995,3,1995,NA,0,1.90059670521099,2.48653225865487,2.11688403676572,2.19356448193293,TRUE,0.585935553443888
"CAN","cpi",0.3,1995,3,1995,NA,0.5,2.38454125870653,2.97047681215041,2.11688403676572,2.67750903542847,FALSE,1.35067047327478
"CAN","cpi",0.3,1995,3,1994,NA,1,1.02724500019006,1.65460736191391,2.11688403676572,1.34092618105198,FALSE,1.94815286130044
"CAN","cpi",0.3,1995,3,1994,NA,1.5,-1.62766539842243,-1.00030303669857,2.11688403676572,-1.3139842175605,FALSE,9.53361114305039
"CAN","cpi",0.3,1996,3,1996,NA,0,1.18589222122989,1.77823802682453,1.55309584667184,1.48206512402721,TRUE,0.592345805594647
"CAN","cpi",0.3,1996,3,1996,NA,0.5,0.939813905955294,1.53215971154994,1.55309584667184,1.23598680875262,FALSE,0.652163334514366
"CAN","cpi",0.3,1996,3,1995,NA,1,1.00828171991347,1.65138750731347,1.55309584667184,1.32983461361347,TRUE,0.643105787399998
"CAN","cpi",0.3,1996,3,1995,NA,1.5,3.10425316580136,3.74735895320136,1.55309584667184,3.42580605950136,FALSE,5.07498384205576
"CAN","cpi",0.3,1997,3,1997,NA,0,1.39487225421714,1.98612839418014,1.60528783555959,1.69050032419864,TRUE,0.591256139963001
"CAN","cpi",0.3,1997,3,1997,NA,0.5,1.82416381986767,2.41541995983067,1.60528783555959,2.11979188984917,FALSE,1.21661609512895
"CAN","cpi",0.3,1997,3,1996,NA,1,0.843821739217373,1.54665995825645,1.60528783555959,1.19524084873691,FALSE,0.870346439905192
"CAN","cpi",0.3,1997,3,1996,NA,1.5,1.00418992910149,1.70702814814057,1.60528783555959,1.35560903862103,TRUE,0.70283821903908
"CAN","cpi",0.3,1998,3,1998,NA,0,0.677118780892093,1.28305726097096,0.988908029337191,0.980088020931525,TRUE,0.605938480078863
"CAN","cpi",0.3,1998,3,1998,NA,0.5,1.00781423142299,1.61375271150185,0.988908029337191,1.31078347146242,FALSE,0.659956200323992
"CAN","cpi",0.3,1998,3,1997,NA,1,0.762738685661348,1.36867716574021,0.988908029337191,1.06570792570078,TRUE,0.605938480078863
"CAN","cpi",0.3,1998,3,1997,NA,1.5,1.95063745262551,2.55657593270437,0.988908029337191,2.25360669266494,FALSE,3.3537368323312
"CAN","cpi",0.3,1999,3,1999,NA,0,1.50919353811545,2.12503236874743,1.7107350135213,1.81711295343144,TRUE,0.615838830631978
"CAN","cpi",0.3,1999,3,1999,NA,0.5,0.480468150408555,1.09630698104053,1.7107350135213,0.788387565724544,FALSE,2.37134749486273
"CAN","cpi",0.3,1999,3,1998,NA,1,0.178774999098503,0.971957986609747,1.7107350135213,0.575366492854125,FALSE,2.90397449297281
"CAN","cpi",0.3,1999,3,1998,NA,1.5,1.20140376892415,2.17293576528701,1.7107350135213,1.68716976710558,TRUE,0.971531996362867
"CAN","cpi",0.3,2000,3,2000,NA,0,2.41118417477946,3.04880379975048,2.6718361971244,2.72999398726497,TRUE,0.637619624971026
"CAN","cpi",0.3,2000,3,2000,NA,0.5,1.74917886176978,2.38679848674081,2.6718361971244,2.06798867425529,FALSE,1.45201308320986
"CAN","cpi",0.3,2000,3,1999,NA,1,2.69493246686744,3.48811545437869,2.6718361971244,3.09152396062306,FALSE,0.85917232963422
"CAN","cpi",0.3,2000,3,1999,NA,1.5,0.344441001707736,1.34128270882033,2.6718361971244,0.842861855264031,FALSE,4.79842310226709
"CAN","cpi",0.3,2001,3,2001,NA,0,2.51862882040888,3.16554049336333,2.47906219852806,2.84208465688611,FALSE,0.759959164042502
"CAN","cpi",0.3,2001,3,2001,NA,0.5,1.56292884955189,2.20984052250634,2.47906219852806,1.88638468602912,FALSE,1.41611646158793
"CAN","cpi",0.3,2001,3,2000,NA,1,3.30130204650952,4.09448503402076,2.47906219852806,3.69789354026514,FALSE,3.14243969602969
"CAN","cpi",0.3,2001,3,2000,NA,1.5,1.32933442030907,2.40698963045352,2.47906219852806,1.8681620253813,FALSE,1.28357683321457
"CAN","cpi",0.3,2002,3,2002,NA,0,2.34339155581388,2.40859975811125,2.20880570551249,2.37599565696257,FALSE,0.449739203158497
"CAN","cpi",0.3,2002,3,2002,NA,0.5,0.657953823776386,1.16919941159918,2.20880570551249,0.913576617687781,FALSE,3.48154928471796
"CAN","cpi",0.3,2002,3,2001,NA,1,1.54074932709915,2.33393231461039,2.20880570551249,1.93734082085477,TRUE,0.793182987511243
"CAN","cpi",0.3,2002,3,2001,NA,1.5,0.657292153853061,1.78806387527472,2.20880570551249,1.22267801456389,FALSE,2.3328912363867
"CAN","cpi",0.3,2003,3,2003,NA,0,2.70099329205923,2.7640444353739,2.71189071546809,2.73251886371656,TRUE,0.0630511433146657
"CAN","cpi",0.3,2003,3,2003,NA,0.5,3.92016535293857,4.71334834044981,2.71189071546809,4.31675684669419,FALSE,4.2453962374269
"CAN","cpi",0.3,2003,3,2002,NA,1,4.22203260200979,5.01521558952104,2.71189071546809,4.61862409576541,FALSE,5.10787409191611
"CAN","cpi",0.3,2003,3,2002,NA,1.5,0.744122102529182,1.98705115081002,2.71189071546809,1.3655866266696,FALSE,3.31389923301817
"CAN","cpi",0.3,2004,3,2004,NA,0,1.79923762264183,1.86057438407367,1.83151661303942,1.82990600335775,TRUE,0.0613367614318419
"CAN","cpi",0.3,2004,3,2004,NA,0.5,1.04323469380401,1.83641768131525,1.83151661303942,1.43982618755963,TRUE,0.793182987511244
"CAN","cpi",0.3,2004,3,2003,NA,1,0.632876679472516,1.42605966698376,1.83151661303942,1.02946817322814,FALSE,1.95163140481314
"CAN","cpi",0.3,2004,3,2003,NA,1.5,4.2499036974848,5.04308668499605,1.83151661303942,4.64649519124043,FALSE,7.70286037164091
"CAN","cpi",0.3,2005,3,2005,NA,0,2.35712868528237,2.41195768863434,2.18071628336509,2.38454318695835,FALSE,0.558864437401332
"CAN","cpi",0.3,2005,3,2005,NA,0.5,1.20957538080096,2.0027583683122,2.18071628336509,1.60616687455658,FALSE,1.30163417337663
"CAN","cpi",0.3,2005,3,2004,NA,1,1.25522641389868,2.04840940140993,2.18071628336509,1.65181790765431,FALSE,1.17120265024028
"CAN","cpi",0.3,2005,3,2004,NA,1.5,1.36600150171961,2.15918448923086,2.18071628336509,1.76259299547523,FALSE,0.854702399323345
"CAN","cpi",0.3,2006,3,2006,NA,0,2.09978718763204,2.17291550438925,1.97519342012289,2.13635134601064,FALSE,0.429110509640508
"CAN","cpi",0.3,2006,3,2006,NA,0.5,1.48340226819072,2.09029926934726,1.97519342012289,1.78685076876899,TRUE,0.606897001156534
"CAN","cpi",0.3,2006,3,2005,NA,1,3.19385057949324,3.81584847230828,1.97519342012289,3.50484952590076,FALSE,4.10387549101606
"CAN","cpi",0.3,2006,3,2005,NA,1.5,1.0715469292545,1.86472991676574,1.97519342012289,1.46813842301012,FALSE,1.10879299710309
"CAN","cpi",0.3,2007,3,2007,NA,0,2.16309490528446,2.24640860750716,2.10062087284572,2.20475175639581,FALSE,0.26181093776196
"CAN","cpi",0.3,2007,3,2007,NA,0.5,1.78449300920394,2.18606192559782,2.10062087284572,1.98527746740088,TRUE,0.401568916393881
"CAN","cpi",0.3,2007,3,2006,NA,1,0.850810825071205,1.64399381258245,2.10062087284572,1.24740231882683,FALSE,2.0978317311206
"CAN","cpi",0.3,2007,3,2006,NA,1.5,1.20838058614904,2.00156357366028,2.10062087284572,1.60497207990466,FALSE,1.07620384232679
"CAN","cpi",0.3,2008,3,2008,NA,0,2.98368647336339,3.0516650482179,2.31447335265955,3.01767576079065,FALSE,1.98001606257976
"CAN","cpi",0.3,2008,3,2008,NA,0.5,0.806952866685882,1.26829441751476,2.31447335265955,1.03762364210032,FALSE,3.45042422267115
"CAN","cpi",0.3,2008,3,2007,NA,1,1.12470426246684,1.68112000291552,2.31447335265955,1.40291213269118,FALSE,2.36599673971734
"CAN","cpi",0.3,2008,3,2007,NA,1.5,2.42113979628011,2.9775555367288,2.31447335265955,2.69934766650446,FALSE,0.861177007936007
"CAN","cpi",0.3,2009,3,2009,NA,0,0.283312613821322,0.360139848847489,0.284533874408197,0.321726231334406,TRUE,0.076827235026167
"CAN","cpi",0.3,2009,3,2009,NA,0.5,-1.52770547745478,-1.12217192822491,0.284533874408197,-1.32493870283985,FALSE,4.42469298532447
"CAN","cpi",0.3,2009,3,2008,NA,1,4.73034073212322,5.42187412622771,0.284533874408197,5.07610742917547,FALSE,13.3938387018617
"CAN","cpi",0.3,2009,3,2008,NA,1.5,0.665298893238665,1.35683228734315,0.284533874408197,1.01106559029091,FALSE,1.77943344790582
"CAN","cpi",0.3,2010,3,2010,NA,0,1.71949183499729,1.78916009873119,1.75525687020327,1.75432596686424,TRUE,0.0696682637338943
"CAN","cpi",0.3,2010,3,2010,NA,0.5,1.28536626825153,1.70152633186017,1.75525687020327,1.49344630005585,FALSE,0.569675887446076
"CAN","cpi",0.3,2010,3,2009,NA,1,0.72669536747855,1.5335120430249,1.75525687020327,1.13010370525173,FALSE,1.44037332462741
"CAN","cpi",0.3,2010,3,2009,NA,1.5,-2.66260018104035,-1.855783505494,1.75525687020327,-2.25919184326718,FALSE,11.1240748918243
"CAN","cpi",0.3,2011,3,2011,NA,0,2.86822761839862,2.94841882873487,2.85717434028225,2.90832322356675,FALSE,0.111772004954469
"CAN","cpi",0.3,2011,3,2011,NA,0.5,2.62799502079036,3.00190569209092,2.85717434028225,2.81495035644064,TRUE,0.373910671300567
"CAN","cpi",0.3,2011,3,2010,NA,1,1.84324868800487,2.6566638106095,2.85717434028225,2.24995624930718,FALSE,1.38630235024105
"CAN","cpi",0.3,2011,3,2010,NA,1.5,1.28450462174886,2.09791974435349,2.85717434028225,1.69121218305118,FALSE,2.98271396811535
"CAN","cpi",0.3,2012,3,2012,NA,0,1.46818996300137,1.54899745078381,1.50118536134935,1.50859370689259,TRUE,0.0808074877824474
"CAN","cpi",0.3,2012,3,2012,NA,0.5,1.58908062105497,1.91342467643886,1.50118536134935,1.75125264874692,FALSE,0.57547336882853
"CAN","cpi",0.3,2012,3,2011,NA,1,1.68527253306485,2.00961658844875,1.50118536134935,1.8474445607568,FALSE,0.85030740314249
"CAN","cpi",0.3,2012,3,2011,NA,1.5,2.82906488215951,3.30945627890199,1.50118536134935,3.06926058053075,FALSE,4.27433288477152
"CAN","cpi",0.3,2013,3,2013,NA,0,1.02734729606599,1.084964603258,0.931270594714462,1.05615594966199,FALSE,0.332122168196372
"CAN","cpi",0.3,2013,3,2013,NA,0.5,0.834509833919746,1.21384889517882,0.931270594714462,1.02417936454929,TRUE,0.379339061259078
"CAN","cpi",0.3,2013,3,2012,NA,1,-0.121085012053424,0.258254049205654,0.931270594714462,0.0685845185761151,FALSE,2.30224347699853
"CAN","cpi",0.3,2013,3,2012,NA,1.5,1.22069082455345,2.21764834978205,0.931270594714462,1.71916958716775,FALSE,1.82387246762571
"CAN","cpi",0.3,2014,3,2014,NA,0,2.0379977901382,2.08974172176354,1.87639912240215,2.06386975595087,FALSE,0.513454410871201
"CAN","cpi",0.3,2014,3,2014,NA,0.5,1.81665283344116,2.03765139097308,1.87639912240215,1.92715211220712,TRUE,0.220998557531918
"CAN","cpi",0.3,2014,3,2013,NA,1,1.00322395562877,1.22422251316069,1.87639912240215,1.11372323439473,FALSE,2.0843602982218
"CAN","cpi",0.3,2014,3,2013,NA,1.5,0.865849358438018,1.93495840636446,1.87639912240215,1.40040388240124,TRUE,1.06910904792644
"CAN","cpi",0.3,2015,3,2015,NA,0,1.27330907857245,1.34134648425211,1.11090953952792,1.30732778141228,FALSE,0.532036088664046
"CAN","cpi",0.3,2015,3,2015,NA,0.5,-0.00105978289185431,0.167565862303022,1.11090953952792,0.0832530397055839,FALSE,2.86389329440886
"CAN","cpi",0.3,2015,3,2014,NA,1,1.34962554419943,1.51825118939431,1.11090953952792,1.43393836679687,FALSE,0.850671372827774
"CAN","cpi",0.3,2015,3,2014,NA,1.5,2.22737568143496,3.12367121355753,1.11090953952792,2.67552344749624,FALSE,4.08619879471412
"CAN","cpi",0.3,2016,3,2016,NA,0,1.47474386021469,1.54308686301564,1.41168586698797,1.50891536161516,FALSE,0.24850869773444
"CAN","cpi",0.3,2016,3,2016,NA,0.5,0.544839648684619,1.02886383535381,1.41168586698797,0.786851742019216,FALSE,1.57780141990963
"CAN","cpi",0.3,2016,3,2015,NA,1,1.91459040300731,2.39861458967651,1.41168586698797,2.15660249634191,FALSE,1.92089428958162
"CAN","cpi",0.3,2016,3,2015,NA,1.5,-0.537770406290532,0.303329835279027,1.41168586698797,-0.117220285505753,FALSE,4.00783176073796
"CAN","cpi",0.3,2017,3,2017,NA,0,1.51979039507211,1.57783634934321,1.57888581671161,1.54881337220766,FALSE,0.0610444324665216
"CAN","cpi",0.3,2017,3,2017,NA,0.5,1.56610090377253,2.26063905459442,1.57888581671161,1.91336997918348,TRUE,0.694538150821893
"CAN","cpi",0.3,2017,3,2016,NA,1,0.840419481301599,1.53495763212349,1.57888581671161,1.18768855671255,FALSE,0.820047249645093
"CAN","cpi",0.3,2017,3,2016,NA,1.5,0.164775806912076,1.16420759876672,1.57888581671161,0.6644917028394,FALSE,2.18422670026861
"CAN","cpi",0.3,2018,3,2018,NA,0,2.41479629259019,2.47566482896505,2.23316270166586,2.44523056077762,FALSE,0.579821653301525
"CAN","cpi",0.3,2018,3,2018,NA,0.5,2.55197965284182,3.05115067453324,2.23316270166586,2.80156516368753,FALSE,1.41007659647988
"CAN","cpi",0.3,2018,3,2017,NA,1,0.570605745780159,1.06977676747158,2.23316270166586,0.82019125662587,FALSE,3.82313083367507
"CAN","cpi",0.3,2018,3,2017,NA,1.5,1.9071533437931,2.95797656086823,2.23316270166586,2.43256495233066,TRUE,1.05082321707513
"CAN","cpi",0.3,2019,3,2019,NA,0,2.04692829597022,2.12285907453972,1.91921619871868,2.08489368525497,FALSE,0.440822485002473
"CAN","cpi",0.3,2019,3,2019,NA,0.5,1.19068509702663,1.75295411478205,1.91921619871868,1.47181960590434,FALSE,1.03730354328865
"CAN","cpi",0.3,2019,3,2018,NA,1,1.90010465626359,2.46237367401901,1.91921619871868,2.1812391651413,TRUE,0.562269017755418
"CAN","cpi",0.3,2019,3,2018,NA,1.5,3.08003681692234,4.10692312377938,1.91921619871868,3.59347997035086,FALSE,4.34351664458179
"CAN","cpi",0.3,2020,3,2020,NA,0,0.335073074235345,1.04919340713394,0.71139989671781,0.692133240684643,TRUE,0.714120332898596
"CAN","cpi",0.3,2020,3,2020,NA,0.5,0.69852036716218,1.41264070006078,0.71139989671781,1.05558053361148,TRUE,0.714120332898596
"CAN","cpi",0.3,2020,3,2019,NA,1,1.65780959334403,2.37192992624262,0.71139989671781,2.01486975979332,FALSE,3.41814803754493
"CAN","cpi",0.3,2020,3,2019,NA,1.5,1.18775183622511,2.35762849584965,0.71139989671781,1.77269016603738,FALSE,2.53088220107398
"CAN","cpi",0.3,2021,3,2021,NA,0,3.33933757085828,3.40888034494325,3.31148121717802,3.37410895790077,FALSE,0.149132356028567
"CAN","cpi",0.3,2021,3,2021,NA,0.5,2.2853164460452,3.07849943355645,3.31148121717802,2.68190793980083,FALSE,1.45884522643003
"CAN","cpi",0.3,2021,3,2020,NA,1,0.795883172450164,1.58906615996141,3.31148121717802,1.19247466620579,FALSE,5.714368865273
"CAN","cpi",0.3,2021,3,2020,NA,1.5,0.390477210129428,1.59771783883798,3.31148121717802,0.994097524483704,FALSE,6.10370742396582
"CAN","cpi",0.3,2022,3,2022,NA,0,6.31556233463467,7.10874532214591,6.50977236228281,6.71215382839029,TRUE,0.793182987511244
"CAN","cpi",0.3,2022,3,2022,NA,0.5,6.02495156834995,6.8181345558612,6.50977236228281,6.42154306210558,TRUE,0.793182987511244
"CAN","cpi",0.3,2022,3,2021,NA,1,4.57540303918374,5.36858602669498,6.50977236228281,4.97199453293936,FALSE,4.05371537490505
"CAN","cpi",0.3,2022,3,2021,NA,1.5,3.06042689434792,3.85360988185916,6.50977236228281,3.45701838810354,FALSE,8.38221864586452
"CAN","cpi",0.3,2023,3,2023,NA,0,3.64553034770837,4.43871333521962,3.78831288758619,4.042121841464,TRUE,0.793182987511244
"CAN","cpi",0.3,2023,3,2023,NA,0.5,2.66338043418629,3.45656342169753,3.78831288758619,3.05997192794191,FALSE,1.74103860433598
"CAN","cpi",0.3,2023,3,2022,NA,1,4.88692616286312,5.68010915037436,3.78831288758619,5.28351765661874,FALSE,3.93207805973103
"CAN","cpi",0.3,2023,3,2022,NA,1.5,6.89093566997149,7.68411865748274,3.78831288758619,7.28752716372712,FALSE,9.65781950861211
"CAN","cpi",0.3,2024,3,2023,NA,1,3.98134546549154,4.77452845300278,NA,4.37793695924716,NA,NA
"CAN","cpi",0.3,2024,3,2023,NA,1.5,1.97238834365206,2.7655713311633,NA,2.36897983740768,NA,NA
"CAN","cpi",0.4,1959,3,1959,NA,0,0.655269051210843,1.73832512872087,1.19382698397654,1.19679708996586,TRUE,1.08305607751003
"CAN","cpi",0.4,1959,3,1959,NA,0.5,-0.028707517054444,1.33905950670826,1.19382698397654,0.655175994826909,TRUE,1.36776702376271
"CAN","cpi",0.4,1959,3,1958,NA,1,0.666786389966735,2.85199076635289,1.19382698397654,1.75938857815981,TRUE,2.18520437638615
"CAN","cpi",0.4,1959,3,1958,NA,1.5,0.682364421936422,2.86756879832258,1.19382698397654,1.7749666101295,TRUE,2.18520437638615
"CAN","cpi",0.4,1960,3,1960,NA,0,0.590098583589493,1.47250634663748,1.34209404870695,1.03130246511349,TRUE,0.88240776304799
"CAN","cpi",0.4,1960,3,1960,NA,0.5,0.30439877160825,1.18680653465624,1.34209404870695,0.745602653132245,FALSE,1.40003280988369
"CAN","cpi",0.4,1960,3,1959,NA,1,1.70973241789129,4.96201532817746,1.34209404870695,3.33587387303437,FALSE,4.47774414090063
"CAN","cpi",0.4,1960,3,1959,NA,1.5,-2.07981969647175,1.42898150789597,1.34209404870695,-0.32541909428789,TRUE,3.50880120436773
"CAN","cpi",0.4,1961,3,1961,NA,0,0.624914911501254,1.39351205037889,1.00921348094007,1.00921348094007,TRUE,0.768597138877635
"CAN","cpi",0.4,1961,3,1961,NA,0.5,0.927112745642474,1.69570988452011,1.00921348094007,1.31141131508129,TRUE,0.768597138877635
"CAN","cpi",0.4,1961,3,1960,NA,1,-0.995110289374265,1.28236210071419,1.00921348094007,0.143625905669962,TRUE,2.27747239008845
"CAN","cpi",0.4,1961,3,1960,NA,1.5,-1.47884761919645,0.798624770892007,1.00921348094007,-0.34011142415222,FALSE,2.97943475691534
