isdrw/probabilistic-benchmark-forecasts/results/t_quantiles_prediction/mean 0 assumption/t_prediction_arima_auto_2026-02-17_10-22-02.csv
"country","target","tau","target_year","target_quarter","forecast_year","forecast_quarter","horizon","lower_bound","upper_bound","truth_value","prediction","covered","IS"
"CAN","cpi",0.1,1959,3,1959,NA,0,1.18110136278322,1.31872296584265,1.19382698397654,1.24991216431293,TRUE,0.137621603059429
"CAN","cpi",0.1,1959,3,1959,NA,0.5,0.369028930060612,0.506650533120042,1.19382698397654,0.437839731590327,FALSE,1.66468038274054
"CAN","cpi",0.1,1959,3,1958,NA,1,1.49073218500575,2.02652307271317,1.19382698397654,1.75862762885946,FALSE,1.19558022332789
"CAN","cpi",0.1,1959,3,1958,NA,1.5,1.50617628328394,2.04196717099137,1.19382698397654,1.77407172713766,FALSE,1.22990044172388
"CAN","cpi",0.1,1960,3,1960,NA,0,0.954422002386765,1.09280408280278,1.34209404870695,1.02361304259477,FALSE,0.692359782425286
"CAN","cpi",0.1,1960,3,1960,NA,0.5,0.469792439973653,0.608174520389667,1.34209404870695,0.53898348018166,FALSE,1.76931436556554
"CAN","cpi",0.1,1960,3,1959,NA,1,3.82870354760115,4.0864839261877,1.34209404870695,3.95759373689442,FALSE,5.7835792650181
"CAN","cpi",0.1,1960,3,1959,NA,1.5,-1.00236700469816,-0.744586626111611,1.34209404870695,-0.873476815404885,FALSE,4.89484854485002
"CAN","cpi",0.1,1961,3,1961,NA,0,0.938219033512982,1.08020792836716,1.00921348094007,1.00921348094007,TRUE,0.14198889485418
"CAN","cpi",0.1,1961,3,1961,NA,0.5,0.938219033512982,1.08020792836716,1.00921348094007,1.00921348094007,TRUE,0.14198889485418
"CAN","cpi",0.1,1961,3,1960,NA,1,-0.0751197266897408,0.182660651896807,1.00921348094007,0.0537704626035329,FALSE,2.09456444312714
"CAN","cpi",0.1,1961,3,1960,NA,1.5,-0.991071988233309,-0.733291609646761,1.00921348094007,-0.862181798940035,FALSE,4.13001391322395
"CAN","cpi",0.1,1962,3,1962,NA,0,1.03017214788992,1.17447590673964,1.04957947883042,1.10232402731478,TRUE,0.144303758849717
"CAN","cpi",0.1,1962,3,1962,NA,0.5,-0.0721518794248585,0.0721518794248585,1.04957947883042,0,FALSE,2.31636509086207
"CAN","cpi",0.1,1962,3,1961,NA,1,-0.0926004052467944,0.0926004052467946,1.04957947883042,0,FALSE,2.31182097401275
"CAN","cpi",0.1,1962,3,1961,NA,1.5,-0.0926004052467944,0.0926004052467945,1.04957947883042,0,FALSE,2.31182097401275
"CAN","cpi",0.1,1963,3,1963,NA,0,1.89623362432047,1.93360096630356,1.60677118395228,1.91491729531202,FALSE,0.68061720946795
"CAN","cpi",0.1,1963,3,1963,NA,0.5,0.817224637323187,0.856432791911821,1.60677118395228,0.836828714617504,FALSE,1.70662680356744
"CAN","cpi",0.1,1963,3,1962,NA,1,2.45757190260554,2.67065790569733,1.60677118395228,2.56411490415144,FALSE,2.1037542667657
"CAN","cpi",0.1,1963,3,1962,NA,1.5,-0.106543001545893,0.106543001545893,1.60677118395228,0,FALSE,3.54692640843932
"CAN","cpi",0.1,1964,3,1964,NA,0,1.91402730062253,2.06351782829843,1.88764670034376,1.98877256446048,FALSE,0.208114083850943
"CAN","cpi",0.1,1964,3,1964,NA,0.5,1.30894479843813,1.45843532611402,1.88764670034376,1.38369006227607,FALSE,1.10329358151976
"CAN","cpi",0.1,1964,3,1963,NA,1,5.29352376980576,5.48736203713936,1.88764670034376,5.39044290347256,FALSE,7.76245397724915
"CAN","cpi",0.1,1964,3,1963,NA,1.5,-0.0969191336668018,0.0969191336668019,1.88764670034376,0,FALSE,4.17323285994907
"CAN","cpi",0.1,1965,3,1965,NA,0,2.26509673958107,2.4260442087989,2.29538304394236,2.34557047418999,TRUE,0.160947469217828
"CAN","cpi",0.1,1965,3,1965,NA,0.5,1.53032074495763,1.69126821417545,2.29538304394236,1.61079447956654,FALSE,1.50342486869983
"CAN","cpi",0.1,1965,3,1964,NA,1,2.33751499562222,2.51286224797472,2.29538304394236,2.42518862179847,FALSE,0.26897381164108
"CAN","cpi",0.1,1965,3,1964,NA,1.5,0.730428926140149,0.905776178492649,2.29538304394236,0.818102552316399,FALSE,3.26336250890741
"CAN","cpi",0.1,1966,3,1966,NA,0,3.80122514313956,3.83899461413461,3.72486065470629,3.82010987863709,FALSE,0.207468334180099
"CAN","cpi",0.1,1966,3,1966,NA,0.5,3.95854910901275,4.02391886889852,3.72486065470629,3.99123398895563,FALSE,0.584677436122347
"CAN","cpi",0.1,1966,3,1965,NA,1,3.11145687515365,3.30298449976342,3.72486065470629,3.20722068745854,FALSE,1.12903019114948
"CAN","cpi",0.1,1966,3,1965,NA,1.5,1.5108744340147,1.70240205862447,3.72486065470629,1.60663824631958,FALSE,4.68588006034715
"CAN","cpi",0.1,1967,3,1967,NA,0,3.75400577298105,3.78137121359159,3.49360316391996,3.76768849328632,FALSE,0.606037905190743
"CAN","cpi",0.1,1967,3,1967,NA,0.5,2.3450131992186,2.4698962891766,3.49360316391996,2.4074547441976,FALSE,2.39978725605435
"CAN","cpi",0.1,1967,3,1966,NA,1,3.08413810216411,3.27792835924156,3.49360316391996,3.18103323070284,FALSE,0.673067600807223
"CAN","cpi",0.1,1967,3,1966,NA,1.5,4.55438647633376,4.7481767334112,3.49360316391996,4.65128160487248,FALSE,2.55108650688588
"CAN","cpi",0.1,1968,3,1968,NA,0,4.15789875000874,4.18786016343918,3.95128347779386,4.17287945672396,FALSE,0.489106462796842
"CAN","cpi",0.1,1968,3,1968,NA,0.5,3.96453788817211,4.17740622742494,3.95128347779386,4.07097205779852,FALSE,0.242322584537829
"CAN","cpi",0.1,1968,3,1967,NA,1,5.73878265161207,5.9516509908649,3.95128347779386,5.84521682123848,FALSE,4.18508872551552
"CAN","cpi",0.1,1968,3,1967,NA,1.5,2.14922441277585,2.36209275202868,3.95128347779386,2.25565858240226,FALSE,3.74440328539767
"CAN","cpi",0.1,1969,3,1969,NA,0,4.45073028278643,4.48720645869143,4.42679496126681,4.46896837073893,FALSE,0.0896657792819205
"CAN","cpi",0.1,1969,3,1969,NA,0.5,2.86473590075617,3.06750448715813,4.42679496126681,2.96612019395715,FALSE,3.22341408442126
"CAN","cpi",0.1,1969,3,1968,NA,1,6.62349200720709,6.82626059360905,4.42679496126681,6.72487630040807,FALSE,5.08431757738035
"CAN","cpi",0.1,1969,3,1968,NA,1.5,4.21526023624443,4.41802882264638,4.42679496126681,4.31664452944541,FALSE,0.222248894447358
"CAN","cpi",0.1,1970,3,1970,NA,0,3.5207823632923,3.53316794829498,3.28128405769805,3.52697515579364,FALSE,0.544604041878807
"CAN","cpi",0.1,1970,3,1970,NA,0.5,4.5248206634759,4.78260104206244,3.28128405769805,4.65371085276917,FALSE,3.02119505809288
"CAN","cpi",0.1,1970,3,1969,NA,1,4.3985885615838,4.65636894017035,3.28128405769805,4.52747875087707,FALSE,2.74067927611044
"CAN","cpi",0.1,1970,3,1969,NA,1.5,1.95084828353802,2.20862866212457,3.28128405769805,2.07973847283129,FALSE,2.6414590354165
"CAN","cpi",0.1,1971,3,1971,NA,0,2.82276435994551,2.85588215588829,2.64123406634756,2.8393232579169,FALSE,0.436518448382665
"CAN","cpi",0.1,1971,3,1971,NA,0.5,1.97941161701921,2.15443169709093,2.64123406634756,2.06692165705507,FALSE,1.25680312286423
"CAN","cpi",0.1,1971,3,1970,NA,1,2.5477853536018,2.7343345380681,2.64123406634756,2.64105994583495,TRUE,0.186549184466304
"CAN","cpi",0.1,1971,3,1970,NA,1.5,4.54650179677152,4.73305098123783,2.64123406634756,4.63977638900468,FALSE,4.42047747429733
"CAN","cpi",0.1,1972,3,1972,NA,0,4.93002649085963,5.13093557290475,4.83230569625923,5.03048103188219,FALSE,0.418066403379339
"CAN","cpi",0.1,1972,3,1972,NA,0.5,4.96660450253716,5.16751358458228,4.83230569625923,5.06705904355972,FALSE,0.499350873773844
"CAN","cpi",0.1,1972,3,1971,NA,1,5.81646148604494,6.01737056809006,4.83230569625923,5.9169160270675,FALSE,2.38792194823558
"CAN","cpi",0.1,1972,3,1971,NA,1.5,2.99231041339015,3.19321949543527,4.83230569625923,3.09276495441271,FALSE,3.84332286165392
"CAN","cpi",0.1,1973,3,1973,NA,0,6.88314836761295,7.10214675624993,7.12388603531779,6.99264756193144,FALSE,0.267307897676672
"CAN","cpi",0.1,1973,3,1973,NA,0.5,5.36519976980005,5.58419815843703,7.12388603531779,5.47469896411854,FALSE,3.64052700392756
"CAN","cpi",0.1,1973,3,1972,NA,1,6.58112364315988,6.80012203179686,7.12388603531779,6.69062283747837,FALSE,0.938473952016824
"CAN","cpi",0.1,1973,3,1972,NA,1.5,4.62224324154637,4.84124163018335,7.12388603531779,4.73174243586486,FALSE,5.29154151115796
"CAN","cpi",0.1,1974,3,1974,NA,0,9.83620583994131,10.0524245713393,10.2717243737774,9.94431520564033,FALSE,0.70355162570487
"CAN","cpi",0.1,1974,3,1974,NA,0.5,8.22975605181508,8.44597478321311,10.2717243737774,8.3378654175141,FALSE,4.27344004376316
"CAN","cpi",0.1,1974,3,1973,NA,1,7.05901486065217,7.2752335920502,10.2717243737774,7.16712422635118,FALSE,6.8750871352363
"CAN","cpi",0.1,1974,3,1973,NA,1.5,3.94363812608153,4.15985685747956,10.2717243737774,4.05174749178054,FALSE,13.7981465453933
"CAN","cpi",0.1,1975,3,1975,NA,0,10.0771113584564,10.1092533654993,10.0232981493341,10.0931823619779,FALSE,0.151726916203527
"CAN","cpi",0.1,1975,3,1975,NA,0.5,8.87392112082901,9.09142840111756,10.0232981493341,8.98267476097328,FALSE,2.28832894299202
"CAN","cpi",0.1,1975,3,1974,NA,1,7.67504458216112,7.89255186244968,10.0232981493341,7.7837982223054,FALSE,4.95249902892065
"CAN","cpi",0.1,1975,3,1974,NA,1.5,5.65056241294091,5.86806969322947,10.0232981493341,5.75931605308519,FALSE,9.45134829385445
"CAN","cpi",0.1,1976,3,1976,NA,0,7.05584125398192,7.08971784505242,7.22784311401172,7.07277954951717,FALSE,0.340821633202267
"CAN","cpi",0.1,1976,3,1976,NA,0.5,8.46200041508999,8.71978079367654,7.22784311401172,8.59089060438327,FALSE,3.0003521587605
"CAN","cpi",0.1,1976,3,1975,NA,1,10.2507138734121,10.5775816636163,7.22784311401172,10.4141477685142,FALSE,7.04435836664942
"CAN","cpi",0.1,1976,3,1975,NA,1.5,6.2670769662465,6.59394475645073,7.22784311401172,6.43051086134862,FALSE,1.73553080700642
"CAN","cpi",0.1,1977,3,1977,NA,0,7.42412132735444,7.68190170594099,7.58101410153764,7.55301151664772,TRUE,0.257780378586547
"CAN","cpi",0.1,1977,3,1977,NA,0.5,7.8527683109256,8.11054868951215,7.58101410153764,7.98165850021887,FALSE,0.861678621670892
"CAN","cpi",0.1,1977,3,1976,NA,1,3.59245630214274,3.85023668072929,7.58101410153764,3.72134649143602,FALSE,8.54839686927177
"CAN","cpi",0.1,1977,3,1976,NA,1.5,7.87383025546286,8.13161063404941,7.58101410153764,8.00272044475614,FALSE,0.908482942864811
"CAN","cpi",0.1,1978,3,1978,NA,0,8.54238821429515,8.8001685928817,8.50208927062595,8.67127840358843,FALSE,0.347333586740346
"CAN","cpi",0.1,1978,3,1978,NA,0.5,8.24993712889602,8.50771750748257,8.50208927062595,8.3788273181893,TRUE,0.257780378586549
"CAN","cpi",0.1,1978,3,1977,NA,1,7.41894809486723,7.67672847345378,8.50208927062595,7.54783828416051,FALSE,2.09191548341358
"CAN","cpi",0.1,1978,3,1977,NA,1.5,9.59673737412895,9.8545177527155,8.50208927062595,9.72562756342223,FALSE,2.69033171970435
"CAN","cpi",0.1,1979,3,1979,NA,0,8.43487371303142,8.69265409161797,8.65147652410481,8.56376390232469,TRUE,0.257780378586549
"CAN","cpi",0.1,1979,3,1979,NA,0.5,8.16710266037437,8.42488303896092,8.65147652410481,8.29599284966764,FALSE,0.761321456684088
"CAN","cpi",0.1,1979,3,1978,NA,1,9.07422481579591,9.33200519438246,8.65147652410481,9.20311500508918,FALSE,1.19722102678899
"CAN","cpi",0.1,1979,3,1978,NA,1.5,8.42757891223597,8.68535929082252,8.65147652410481,8.55646910152924,TRUE,0.257780378586549
"CAN","cpi",0.1,1980,3,1980,NA,0,9.37517703177604,9.63295741036258,9.5171912664748,9.50406722106931,TRUE,0.257780378586549
"CAN","cpi",0.1,1980,3,1980,NA,0.5,8.44909895405764,8.70687933264419,9.5171912664748,8.57798914335092,FALSE,2.05847356487678
"CAN","cpi",0.1,1980,3,1979,NA,1,8.04986184781488,8.30764222640143,9.5171912664748,8.17875203710815,FALSE,2.94566713430515
"CAN","cpi",0.1,1980,3,1979,NA,1.5,8.26315747132784,8.52093784991439,9.5171912664748,8.39204766062112,FALSE,2.47167685983189
"CAN","cpi",0.1,1981,3,1981,NA,0,11.5824977091266,11.8402780877132,11.5813425032741,11.7113878984199,FALSE,0.260347502703236
"CAN","cpi",0.1,1981,3,1981,NA,0.5,12.0867294859835,12.34450986457,11.5813425032741,12.2156196752767,FALSE,1.38086256238503
"CAN","cpi",0.1,1981,3,1980,NA,1,10.9207951530091,11.1785755315957,11.5813425032741,11.0496853423024,FALSE,1.15281809342762
"CAN","cpi",0.1,1981,3,1980,NA,1.5,8.20920773245567,8.46698811104222,11.5813425032741,8.33809792174894,FALSE,7.17856791687971
"CAN","cpi",0.1,1982,3,1982,NA,0,10.2361467992252,10.2771868309943,10.1124203763629,10.2566668151097,FALSE,0.315987638129592
"CAN","cpi",0.1,1982,3,1982,NA,0.5,9.97964540806123,10.2374257866478,10.1124203763629,10.1085355973545,TRUE,0.257780378586549
"CAN","cpi",0.1,1982,3,1981,NA,1,11.6420984938307,11.8998788724172,10.1124203763629,11.770988683124,FALSE,3.65706508407041
"CAN","cpi",0.1,1982,3,1981,NA,1.5,12.7412348458348,12.9990152244214,10.1124203763629,12.8701250351281,FALSE,6.0995903107463
"CAN","cpi",0.1,1983,3,1983,NA,0,5.711213754755,5.75081052854279,5.67091787896303,5.7310121416489,FALSE,0.129143164436602
"CAN","cpi",0.1,1983,3,1983,NA,0.5,4.78453997080326,5.04232034938981,5.67091787896303,4.91343016009654,FALSE,1.65466377763816
"CAN","cpi",0.1,1983,3,1982,NA,1,9.05611130936729,9.31389168795384,5.67091787896303,9.18500149866057,FALSE,7.78043244615157
"CAN","cpi",0.1,1983,3,1982,NA,1.5,9.55783282640039,9.81561320498694,5.67091787896303,9.68672301569366,FALSE,8.89536915066956
"CAN","cpi",0.1,1984,3,1984,NA,0,NA,NA,4.19799576814029,NA,NA,NA
"CAN","cpi",0.1,1984,3,1984,NA,0.5,5.7288166709513,5.98659704953784,4.19799576814029,5.85770686024457,FALSE,3.65960460705546
"CAN","cpi",0.1,1984,3,1983,NA,1,5.55655226690991,5.97451489301866,4.19799576814029,5.76553357996429,FALSE,3.43697706781902
"CAN","cpi",0.1,1984,3,1983,NA,1.5,2.71081836641733,3.12878099252607,4.19799576814029,2.9197996794717,FALSE,2.79399546080699
"CAN","cpi",0.1,1985,3,1985,NA,0,3.83620309171447,3.87215671099309,3.86444262005169,3.85417990135378,TRUE,0.0359536192786134
"CAN","cpi",0.1,1985,3,1985,NA,0.5,4.09101023453571,4.34879061312226,3.86444262005169,4.21990042382899,FALSE,0.761263966328817
"CAN","cpi",0.1,1985,3,1984,NA,1,NA,NA,3.86444262005169,NA,NA,NA
"CAN","cpi",0.1,1985,3,1984,NA,1.5,8.50110641376028,8.75888679234683,3.86444262005169,8.62999660305356,FALSE,10.561477697939
"CAN","cpi",0.1,1986,3,1986,NA,0,3.90882370270665,4.1666040812932,4.08685396749431,4.03771389199993,TRUE,0.257780378586547
"CAN","cpi",0.1,1986,3,1986,NA,0.5,4.25330313574201,4.51108351432856,4.08685396749431,4.38219332503529,FALSE,0.627667419136996
"CAN","cpi",0.1,1986,3,1985,NA,1,3.24960957151522,3.50738995010176,4.08685396749431,3.37849976080849,FALSE,1.54547819501443
"CAN","cpi",0.1,1986,3,1985,NA,1.5,4.82420839971629,5.08198877830284,4.08685396749431,4.95309858900956,FALSE,1.89634578352427
"CAN","cpi",0.1,1987,3,1987,NA,0,NA,NA,4.23980729277887,NA,NA,NA
"CAN","cpi",0.1,1987,3,1987,NA,0.5,4.00453142150758,4.26231180009412,4.23980729277887,4.13342161080085,TRUE,0.257780378586547
"CAN","cpi",0.1,1987,3,1986,NA,1,3.53251969235471,3.79030007094126,4.23980729277887,3.66140988164798,FALSE,1.25668531600347
"CAN","cpi",0.1,1987,3,1986,NA,1.5,4.67353749214187,4.93131787072841,4.23980729277887,4.80242768143514,FALSE,1.22162526605987
"CAN","cpi",0.1,1988,3,1988,NA,0,3.84278424690582,4.04487899300137,3.92899537638065,3.9438316199536,TRUE,0.202094746095553
"CAN","cpi",0.1,1988,3,1988,NA,0.5,3.25314478036035,3.4552395264559,3.92899537638065,3.35419215340812,FALSE,1.25488552370612
"CAN","cpi",0.1,1988,3,1987,NA,1,NA,NA,3.92899537638065,NA,NA,NA
"CAN","cpi",0.1,1988,3,1987,NA,1.5,3.76572910597119,4.02350948455774,3.92899537638065,3.89461929526446,TRUE,0.257780378586547
"CAN","cpi",0.1,1989,3,1989,NA,0,4.94030225909159,4.96230410876511,4.82821664544208,4.95130318392835,FALSE,0.27108099111689
"CAN","cpi",0.1,1989,3,1989,NA,0.5,4.10135923817746,4.35913961676401,4.82821664544208,4.23024942747073,FALSE,1.30017377564893
"CAN","cpi",0.1,1989,3,1988,NA,1,3.92952775673835,4.1873081353249,4.82821664544208,4.05841794603162,FALSE,1.68202151218028
"CAN","cpi",0.1,1989,3,1988,NA,1.5,2.46895337008972,2.72673374867627,4.82821664544208,2.597843559383,FALSE,4.92774237139945
"CAN","cpi",0.1,1990,3,1990,NA,0,4.34580482997302,4.60358520855957,4.64347549432717,4.4746950192663,FALSE,0.346425458070104
"CAN","cpi",0.1,1990,3,1990,NA,0.5,4.83598149973151,5.09376187831806,4.64347549432717,4.96487168902479,FALSE,0.685571501707309
"CAN","cpi",0.1,1990,3,1989,NA,1,5.30982355039749,5.56760392898403,4.64347549432717,5.43871373969076,FALSE,1.73855383652058
"CAN","cpi",0.1,1990,3,1989,NA,1.5,3.24436381094482,3.50214418953137,4.64347549432717,3.3732540002381,FALSE,2.79407216702166
"CAN","cpi",0.1,1991,3,1991,NA,0,5.5986347008132,5.62243269803444,5.4258100696218,5.61053369942382,FALSE,0.407852733202141
"CAN","cpi",0.1,1991,3,1991,NA,0.5,7.69310276548267,7.95088314406922,5.4258100696218,7.82199295477594,FALSE,5.29620859161071
"CAN","cpi",0.1,1991,3,1990,NA,1,3.53827799454769,3.79605837313424,5.4258100696218,3.66716818384097,FALSE,3.87945081522556
"CAN","cpi",0.1,1991,3,1990,NA,1.5,4.69592929734837,4.95370967593491,5.4258100696218,4.82481948664164,FALSE,1.3068923645574
"CAN","cpi",0.1,1992,3,1992,NA,0,NA,NA,1.47496888572843,NA,NA,NA
"CAN","cpi",0.1,1992,3,1992,NA,0.5,NA,NA,1.47496888572843,NA,NA,NA
"CAN","cpi",0.1,1992,3,1991,NA,1,2.63891552303886,2.89669590162541,1.47496888572843,2.76780571233213,FALSE,2.8443284614986
"CAN","cpi",0.1,1992,3,1991,NA,1.5,7.02049163730842,7.27827201589497,1.47496888572843,7.14938182660169,FALSE,12.5811642709865
"CAN","cpi",0.1,1993,3,1993,NA,0,NA,NA,NA,NA,NA,NA
"CAN","cpi",0.1,1993,3,1993,NA,0.5,NA,NA,NA,NA,NA,NA
"CAN","cpi",0.1,1993,3,1992,NA,1,NA,NA,NA,NA,NA,NA
"CAN","cpi",0.1,1993,3,1992,NA,1.5,NA,NA,NA,NA,NA,NA
"CAN","cpi",0.1,1994,3,1994,NA,0,NA,NA,NA,NA,NA,NA
"CAN","cpi",0.1,1994,3,1994,NA,0.5,NA,NA,NA,NA,NA,NA
"CAN","cpi",0.1,1994,3,1993,NA,1,NA,NA,NA,NA,NA,NA
"CAN","cpi",0.1,1994,3,1993,NA,1.5,NA,NA,NA,NA,NA,NA
"CAN","cpi",0.1,1995,3,1995,NA,0,NA,NA,2.11688403676572,NA,NA,NA
"CAN","cpi",0.1,1995,3,1995,NA,0.5,2.39048792143757,2.64826830002412,2.11688403676572,2.51937811073084,FALSE,0.865789011190669
"CAN","cpi",0.1,1995,3,1994,NA,1,0.590506221528671,0.848286600115219,2.11688403676572,0.719396410821945,FALSE,3.07688579336543
"CAN","cpi",0.1,1995,3,1994,NA,1.5,-1.17543622854156,-0.917655849955009,2.11688403676572,-1.04654603924828,FALSE,7.00120234907705
"CAN","cpi",0.1,1996,3,1996,NA,0,1.29891729427699,1.55669767286353,1.55309584667184,1.42780748357026,TRUE,0.257780378586547
"CAN","cpi",0.1,1996,3,1996,NA,0.5,NA,NA,1.55309584667184,NA,NA,NA
"CAN","cpi",0.1,1996,3,1995,NA,1,NA,NA,1.55309584667184,NA,NA,NA
"CAN","cpi",0.1,1996,3,1995,NA,1.5,2.79343252246119,3.05121290104774,1.55309584667184,2.92232271175447,FALSE,3.01408410256288
"CAN","cpi",0.1,1997,3,1997,NA,0,1.6378302011814,1.83288675496094,1.60528783555959,1.73535847807117,FALSE,0.267372921828009
"CAN","cpi",0.1,1997,3,1997,NA,0.5,2.01325535908819,2.20831191286773,1.60528783555959,2.11078363597796,FALSE,1.10165105050976
"CAN","cpi",0.1,1997,3,1996,NA,1,0.856071148014283,1.11385152660083,1.60528783555959,0.984961337307556,FALSE,1.34986106516157
"CAN","cpi",0.1,1997,3,1996,NA,1.5,NA,NA,1.60528783555959,NA,NA,NA
"CAN","cpi",0.1,1998,3,1998,NA,0,0.933009356753775,1.13716007094043,0.988908029337191,1.0350847138471,TRUE,0.204150714186651
"CAN","cpi",0.1,1998,3,1998,NA,0.5,1.58326119727774,1.7874119114644,0.988908029337191,1.68533655437107,FALSE,1.52493553183233
"CAN","cpi",0.1,1998,3,1997,NA,1,2.12270565405429,2.38048603264084,0.988908029337191,2.25159584334757,FALSE,2.77733065573566
"CAN","cpi",0.1,1998,3,1997,NA,1.5,2.15657643098298,2.62317990653855,0.988908029337191,2.38987816876076,FALSE,3.06142214587954
"CAN","cpi",0.1,1999,3,1999,NA,0,1.76036292266095,1.79200584652828,1.7107350135213,1.77618438459462,FALSE,0.141927166399896
"CAN","cpi",0.1,1999,3,1999,NA,0.5,0.951381897810326,1.10680306202028,1.7107350135213,1.0290924799153,FALSE,1.49749216754555
"CAN","cpi",0.1,1999,3,1998,NA,1,1.72288525134877,1.98066562993532,1.7107350135213,1.85177544064205,FALSE,0.284780907092054
"CAN","cpi",0.1,1999,3,1998,NA,1.5,2.6691927007506,3.22372191499186,1.7107350135213,2.94645730787123,FALSE,2.68443518586194
"CAN","cpi",0.1,2000,3,2000,NA,0,2.69438689335648,2.72612146376651,2.6718361971244,2.7102541785615,FALSE,0.081847228703546
"CAN","cpi",0.1,2000,3,2000,NA,0.5,2.25836648039033,2.42973754767678,2.6718361971244,2.34405201403356,FALSE,0.709368066058933
"CAN","cpi",0.1,2000,3,1999,NA,1,2.94653917851882,3.20431955710537,2.6718361971244,3.07542936781209,FALSE,0.868231448351925
"CAN","cpi",0.1,2000,3,1999,NA,1.5,2.14920016872396,2.40698054731051,2.6718361971244,2.27809035801724,FALSE,0.846348489284078
"CAN","cpi",0.1,2001,3,2001,NA,0,2.69269405515801,2.85823764452902,2.47906219852806,2.77546584984351,FALSE,0.640281048548665
"CAN","cpi",0.1,2001,3,2001,NA,0.5,2.35289576034554,2.51843934971655,2.47906219852806,2.43566755503104,TRUE,0.165543589371008
"CAN","cpi",0.1,2001,3,2000,NA,1,3.56069676390515,3.8184771424917,2.47906219852806,3.68958695319843,FALSE,2.66141274609119
"CAN","cpi",0.1,2001,3,2000,NA,1.5,2.76281815061219,3.26259764363127,2.47906219852806,3.01270789712173,FALSE,1.13034827542825
"CAN","cpi",0.1,2002,3,2002,NA,0,2.25671051231387,2.28721418741314,2.20880570551249,2.27196234986351,FALSE,0.136958801324572
"CAN","cpi",0.1,2002,3,2002,NA,0.5,1.50169955803862,1.6652086817439,2.20880570551249,1.58345411989126,FALSE,1.3715025098577
"CAN","cpi",0.1,2002,3,2001,NA,1,2.1362140491657,2.39399442775225,2.20880570551249,2.26510423845898,TRUE,0.257780378586547
"CAN","cpi",0.1,2002,3,2001,NA,1.5,2.85006791735389,3.1910929482263,2.20880570551249,3.02058043279009,FALSE,1.76605216829775
"CAN","cpi",0.1,2003,3,2003,NA,0,2.71051689643621,2.71601715597714,2.71189071546809,2.71326702620668,TRUE,0.00550025954092348
"CAN","cpi",0.1,2003,3,2003,NA,0.5,4.40282386490319,4.62582912056673,2.71189071546809,4.51432649273496,FALSE,3.98063447663044
"CAN","cpi",0.1,2003,3,2002,NA,1,3.74468018963061,3.96768544529414,2.71189071546809,3.85618281746238,FALSE,2.51809297602469
"CAN","cpi",0.1,2003,3,2002,NA,1.5,2.28252127066007,2.50552652632361,2.71189071546809,2.39402389849184,FALSE,0.681592342651267
"CAN","cpi",0.1,2004,3,2004,NA,0,1.77068551264019,1.77865153502011,1.83151661303942,1.77466852383015,FALSE,0.125443973533957
"CAN","cpi",0.1,2004,3,2004,NA,0.5,1.42977311341595,1.67543558962277,1.83151661303942,1.55260435151936,FALSE,0.592509194910493
"CAN","cpi",0.1,2004,3,2003,NA,1,1.67132668787944,1.91698916408626,1.83151661303942,1.79415792598285,TRUE,0.245662476206823
"CAN","cpi",0.1,2004,3,2003,NA,1.5,4.14416148735375,4.38982396356057,1.83151661303942,4.26699272545716,FALSE,5.38487330801643
"CAN","cpi",0.1,2005,3,2005,NA,0,2.33452550377648,2.35238156568259,2.18071628336509,2.34345353472953,FALSE,0.359654329486973
"CAN","cpi",0.1,2005,3,2005,NA,0.5,1.41475072989362,1.59167603645297,2.18071628336509,1.50321338317329,FALSE,1.48590363303073
"CAN","cpi",0.1,2005,3,2004,NA,1,1.51183394274653,1.76904531149814,2.18071628336509,1.64043962712234,FALSE,1.17203575067816
"CAN","cpi",0.1,2005,3,2004,NA,1.5,1.90532715675652,2.16253852550814,2.18071628336509,2.03393284113233,FALSE,0.297606386211508
"CAN","cpi",0.1,2006,3,2006,NA,0,2.08219092429182,2.10809661356132,1.97519342012289,2.09514376892657,FALSE,0.26367792075602
"CAN","cpi",0.1,2006,3,2006,NA,0.5,2.00762047969341,2.18110479228704,1.97519342012289,2.09436263599022,FALSE,0.245544444972572
"CAN","cpi",0.1,2006,3,2005,NA,1,2.82940101678733,3.08718139537388,1.97519342012289,2.9582912060806,FALSE,2.15601948228531
"CAN","cpi",0.1,2006,3,2005,NA,1.5,1.51339490531646,1.78432433429966,1.97519342012289,1.64885961980806,FALSE,0.695082953034813
"CAN","cpi",0.1,2007,3,2007,NA,0,2.09436800352134,2.11930443852481,2.10062087284572,2.10683622102307,TRUE,0.0249364350034655
"CAN","cpi",0.1,2007,3,2007,NA,0.5,2.09961793214351,2.25298010952354,2.10062087284572,2.17629902083353,TRUE,0.153362177380025
"CAN","cpi",0.1,2007,3,2006,NA,1,1.37972673780528,1.63750711639183,2.10062087284572,1.50861692709856,FALSE,1.28692205959519
"CAN","cpi",0.1,2007,3,2006,NA,1.5,2.03029597421078,2.28807635279733,2.10062087284572,2.15918616350405,TRUE,0.257780378586547
"CAN","cpi",0.1,2008,3,2008,NA,0,2.86129163775217,2.88029746522439,2.31447335265955,2.87079455148828,FALSE,1.23415757212248
"CAN","cpi",0.1,2008,3,2008,NA,0.5,1.2398671727186,1.38023912118673,2.31447335265955,1.31005314695267,FALSE,2.21644801840773
"CAN","cpi",0.1,2008,3,2007,NA,1,1.3414203105334,1.59920068911995,2.31447335265955,1.47031049982668,FALSE,1.84727518645233
"CAN","cpi",0.1,2008,3,2007,NA,1.5,2.33564176413067,2.59342214271722,2.31447335265955,2.46453195342394,FALSE,0.304821292966807
"CAN","cpi",0.1,2009,3,2009,NA,0,0.17976420849858,0.194480484200863,0.284533874408197,0.187122346349721,FALSE,0.21483492060747
"CAN","cpi",0.1,2009,3,2009,NA,0.5,-0.139405488700745,-0.00609303539248857,0.284533874408197,-0.0727492620466167,FALSE,0.779150030643114
"CAN","cpi",0.1,2009,3,2008,NA,1,3.68891007427624,3.94669045286279,0.284533874408197,3.81780026356951,FALSE,7.82306082273775
"CAN","cpi",0.1,2009,3,2008,NA,1.5,1.55786133701092,1.81564171559747,0.284533874408197,1.68675152630419,FALSE,3.08739696214815
"CAN","cpi",0.1,2010,3,2010,NA,0,1.59725783599001,1.62073349328079,1.75525687020327,1.6089956646354,FALSE,0.322416494896302
"CAN","cpi",0.1,2010,3,2010,NA,0.5,1.86296827996104,1.95922177056262,1.75525687020327,1.91109502526183,FALSE,0.335612178952177
"CAN","cpi",0.1,2010,3,2009,NA,1,0.885083003463174,1.09950857352633,1.75525687020327,0.992295788494754,FALSE,1.67164400712302
"CAN","cpi",0.1,2010,3,2009,NA,1.5,0.756212863522594,1.01399324210914,1.75525687020327,0.885103052815867,FALSE,1.90503288546239
"CAN","cpi",0.1,2011,3,2011,NA,0,2.85036098685691,2.88294729438505,2.85717434028225,2.86665414062098,TRUE,0.032586307528141
"CAN","cpi",0.1,2011,3,2011,NA,0.5,2.71599457289783,2.81567306499759,2.85717434028225,2.76583381894771,FALSE,0.191903548287881
"CAN","cpi",0.1,2011,3,2010,NA,1,1.28798576060077,1.49790712279362,2.85717434028225,1.39294644169719,FALSE,3.23051517883425
"CAN","cpi",0.1,2011,3,2010,NA,1.5,1.5375699248272,1.74749128702005,2.85717434028225,1.64253060592363,FALSE,2.6758837027755
"CAN","cpi",0.1,2012,3,2012,NA,0,1.51204623395303,1.54440398303485,1.50118536134935,1.52822510849394,FALSE,0.0564930215344576
"CAN","cpi",0.1,2012,3,2012,NA,0.5,1.87549878738557,1.97308165207021,1.50118536134935,1.92429021972789,FALSE,0.929390478098476
"CAN","cpi",0.1,2012,3,2011,NA,1,1.87084217820511,2.12806267073646,1.50118536134935,1.99945242447079,FALSE,1.07868008554416
"CAN","cpi",0.1,2012,3,2011,NA,1.5,2.35289932771394,2.61011982024529,1.50118536134935,2.48150957397962,FALSE,2.14991819556378
"CAN","cpi",0.1,2013,3,2013,NA,0,1.04615200512159,1.06645826334262,0.931270594714462,1.05630513423211,FALSE,0.275598281347986
"CAN","cpi",0.1,2013,3,2013,NA,0.5,1.10922614181564,1.230042949283,0.931270594714462,1.16963454554932,FALSE,0.516273578803311
"CAN","cpi",0.1,2013,3,2012,NA,1,0.970263774985333,1.20709800758951,0.931270594714462,1.08868089128742,FALSE,0.323485744317223
"CAN","cpi",0.1,2013,3,2012,NA,1.5,2.01684160601199,2.27462198459854,0.931270594714462,2.14573179530527,FALSE,2.67016040369218
"CAN","cpi",0.1,2014,3,2014,NA,0,1.98598456741007,2.01127241549225,1.87639912240215,1.99862849145116,FALSE,0.268811059210893
"CAN","cpi",0.1,2014,3,2014,NA,0.5,1.74109300124416,1.84354652040959,1.87639912240215,1.79231976082687,FALSE,0.175459301371121
"CAN","cpi",0.1,2014,3,2013,NA,1,1.28643949553442,1.52686030086353,1.87639912240215,1.40664989819898,FALSE,1.01717374208159
"CAN","cpi",0.1,2014,3,2013,NA,1.5,1.38547102848565,1.6432514070722,1.87639912240215,1.51436121777893,FALSE,0.775886412653106
"CAN","cpi",0.1,2015,3,2015,NA,0,1.19576547537972,1.22484753311587,1.11090953952792,1.2103065042478,FALSE,0.217650804073492
"CAN","cpi",0.1,2015,3,2015,NA,0.5,0.352506142692576,0.564588488743542,1.11090953952792,0.458547315718059,FALSE,1.4261291255718
"CAN","cpi",0.1,2015,3,2014,NA,1,1.46450664125586,1.67658898730683,1.11090953952792,1.57054781428135,FALSE,0.997853683224181
"CAN","cpi",0.1,2015,3,2014,NA,1.5,1.75340090611829,2.01118128470484,1.11090953952792,1.88229109541157,FALSE,1.68553897100961
"CAN","cpi",0.1,2016,3,2016,NA,0,1.40397683798625,1.42863651145359,1.41168586698797,1.41630667471992,TRUE,0.0246596734673372
"CAN","cpi",0.1,2016,3,2016,NA,0.5,1.06427346793584,1.29516969792267,1.41168586698797,1.17972158292925,FALSE,0.489821050131935
"CAN","cpi",0.1,2016,3,2015,NA,1,1.74841754552328,1.97931377551012,1.41168586698797,1.8638656605167,FALSE,0.979188848954205
"CAN","cpi",0.1,2016,3,2015,NA,1.5,0.941339837857587,1.19912021644413,1.41168586698797,1.07023002715086,FALSE,0.730148490906172
"CAN","cpi",0.1,2017,3,2017,NA,0,1.49365051768354,1.51620333525164,1.57888581671161,1.50492692646759,FALSE,0.161847220812478
"CAN","cpi",0.1,2017,3,2017,NA,0.5,1.97094611248365,2.21078625315918,1.57888581671161,2.09086618282141,FALSE,1.11108524239117
"CAN","cpi",0.1,2017,3,2016,NA,1,1.02660043319048,1.26644057386601,1.57888581671161,1.14652050352824,FALSE,0.934162902554647
"CAN","cpi",0.1,2017,3,2016,NA,1.5,1.13899065593699,1.39677103452354,1.57888581671161,1.26788084523026,FALSE,0.662479894560044
"CAN","cpi",0.1,2018,3,2018,NA,0,2.40156374062363,2.42478700929803,2.23316270166586,2.41317537496083,FALSE,0.397447799691672
"CAN","cpi",0.1,2018,3,2018,NA,0.5,2.41834204688907,2.63784033940483,2.23316270166586,2.52809119314695,FALSE,0.631007948567343
"CAN","cpi",0.1,2018,3,2017,NA,1,1.05825187290309,1.27775016541884,2.23316270166586,1.16800101916097,FALSE,2.34263726195357
"CAN","cpi",0.1,2018,3,2017,NA,1.5,1.94409383330766,2.20187421189421,2.23316270166586,2.07298402260093,FALSE,0.327310355856884
"CAN","cpi",0.1,2019,3,2019,NA,0,NA,NA,1.91921619871868,NA,NA,NA
"CAN","cpi",0.1,2019,3,2019,NA,0.5,1.35867265795606,1.58790346811039,1.91921619871868,1.47328806303322,FALSE,0.965481322617203
"CAN","cpi",0.1,2019,3,2018,NA,1,2.12008740538616,2.34931821554049,1.91921619871868,2.23470281046333,FALSE,0.675611269415396
"CAN","cpi",0.1,2019,3,2018,NA,1.5,2.19141543638185,2.4491958149684,1.91921619871868,2.32030562567512,FALSE,0.86266757339359
"CAN","cpi",0.1,2020,3,2020,NA,0,0.544698447420323,0.802478826006871,0.71139989671781,0.673588636713597,TRUE,0.257780378586548
"CAN","cpi",0.1,2020,3,2020,NA,0.5,NA,NA,0.71139989671781,NA,NA,NA
"CAN","cpi",0.1,2020,3,2019,NA,1,NA,NA,0.71139989671781,NA,NA,NA
"CAN","cpi",0.1,2020,3,2019,NA,1.5,1.64816473008577,1.90594510867232,0.71139989671781,1.77705491937904,FALSE,2.33948000829312
"CAN","cpi",0.1,2021,3,2021,NA,0,3.12367447617792,3.38145485476447,3.31148121717802,3.2525646654712,TRUE,0.257780378586547
"CAN","cpi",0.1,2021,3,2021,NA,0.5,2.03884461573366,2.29662499432021,3.31148121717802,2.16773480502693,FALSE,2.51301642938169
"CAN","cpi",0.1,2021,3,2020,NA,1,1.48181755546994,1.73959793405649,3.31148121717802,1.61070774476322,FALSE,3.75085434107884
"CAN","cpi",0.1,2021,3,2020,NA,1.5,NA,NA,3.31148121717802,NA,NA,NA
"CAN","cpi",0.1,2022,3,2022,NA,0,6.45793872871556,6.7157191073021,6.50977236228281,6.58682891800883,TRUE,0.257780378586547
"CAN","cpi",0.1,2022,3,2022,NA,0.5,5.46011494251571,5.71789532110225,6.50977236228281,5.58900513180898,FALSE,2.01750713676556
"CAN","cpi",0.1,2022,3,2021,NA,1,3.22708057593265,3.4848609545192,6.50977236228281,3.35597076522593,FALSE,6.97980572917235
"CAN","cpi",0.1,2022,3,2021,NA,1.5,1.76569203237098,2.02347241095753,6.50977236228281,1.89458222166426,FALSE,10.2273358259761
"CAN","cpi",0.1,2023,3,2023,NA,0,3.84619808789081,4.07823314042401,3.78831288758619,3.96221561415741,FALSE,0.360668830987909
"CAN","cpi",0.1,2023,3,2023,NA,0.5,3.496179530403,3.72821458293621,3.78831288758619,3.6121970566696,FALSE,0.365586840644282
"CAN","cpi",0.1,2023,3,2022,NA,1,5.3701677298742,5.6022027824074,3.78831288758619,5.4861852561408,FALSE,3.74726803539545
"CAN","cpi",0.1,2023,3,2022,NA,1.5,3.73955322632275,3.97158827885596,3.78831288758619,3.85557075258935,TRUE,0.232035052533202
"CAN","cpi",0.1,2024,3,2023,NA,1,4.60902854643083,4.83658765164394,NA,4.72280809903739,NA,NA
"CAN","cpi",0.1,2024,3,2023,NA,1.5,4.25327554352458,4.48083464873768,NA,4.36705509613113,NA,NA
"CAN","cpi",0.2,1959,3,1959,NA,0,1.11097729761213,1.38884703101373,1.19382698397654,1.24991216431293,TRUE,0.277869733401596
"CAN","cpi",0.2,1959,3,1959,NA,0.5,0.298904864889529,0.576774598291125,1.19382698397654,0.437839731590327,FALSE,1.82050069761513
"CAN","cpi",0.2,1959,3,1958,NA,1,1.21783914245121,2.29941611526772,1.19382698397654,1.75862762885946,FALSE,1.14160736900317
"CAN","cpi",0.2,1959,3,1958,NA,1.5,1.2332832407294,2.31486021354591,1.19382698397654,1.77407172713766,FALSE,1.18021761469866
"CAN","cpi",0.2,1960,3,1960,NA,0,0.883908027477191,1.16331805771235,1.34209404870695,1.02361304259477,FALSE,0.726350007721658
"CAN","cpi",0.2,1960,3,1960,NA,0.5,0.399278465064079,0.67868849529924,1.34209404870695,0.53898348018166,FALSE,1.93792391375444
"CAN","cpi",0.2,1960,3,1959,NA,1,3.69740890740234,4.2177785663865,1.34209404870695,3.95759373689442,FALSE,6.40865680572264
"CAN","cpi",0.2,1960,3,1959,NA,1.5,-1.13366164489696,-0.613291985912804,1.34209404870695,-0.873476815404885,FALSE,5.40883474553355
"CAN","cpi",0.2,1961,3,1961,NA,0,0.865855783194755,1.15257117868539,1.00921348094007,1.00921348094007,TRUE,0.286715395490632
"CAN","cpi",0.2,1961,3,1961,NA,0.5,0.865855783194755,1.15257117868539,1.00921348094007,1.00921348094007,TRUE,0.286715395490632
"CAN","cpi",0.2,1961,3,1960,NA,1,-0.206414366888547,0.313955292095613,1.00921348094007,0.0537704626035329,FALSE,2.25851513109531
"CAN","cpi",0.2,1961,3,1960,NA,1.5,-1.12236662843212,-0.601996969447955,1.00921348094007,-0.862181798940035,FALSE,4.54839578495423
"CAN","cpi",0.2,1962,3,1962,NA,0,0.956622027236469,1.24802602739309,1.04957947883042,1.10232402731478,TRUE,0.291404000156621
"CAN","cpi",0.2,1962,3,1962,NA,0.5,-0.145702000078311,0.145702000078311,1.04957947883042,0,FALSE,2.55109769703688
"CAN","cpi",0.2,1962,3,1961,NA,1,-0.187119143273829,0.187119143273829,1.04957947883042,0,FALSE,2.53038912543912
"CAN","cpi",0.2,1962,3,1961,NA,1.5,-0.187119143273829,0.187119143273829,1.04957947883042,0,FALSE,2.53038912543912
"CAN","cpi",0.2,1963,3,1963,NA,0,1.87720140880525,1.95263318181878,1.60677118395228,1.91491729531202,FALSE,0.751507335145947
"CAN","cpi",0.2,1963,3,1963,NA,0.5,0.797121946335767,0.876535482899241,1.60677118395228,0.836828714617504,FALSE,1.90500278919608
"CAN","cpi",0.2,1963,3,1962,NA,1,2.34875594973104,2.77947385857183,1.60677118395228,2.56411490415144,FALSE,2.28567982328769
"CAN","cpi",0.2,1963,3,1962,NA,1.5,-0.215358954420392,0.215358954420392,1.60677118395228,0,FALSE,3.90924848267051
"CAN","cpi",0.2,1964,3,1964,NA,0,1.83781783494176,2.1397272939792,1.88764670034376,1.98877256446048,TRUE,0.301909459037442
"CAN","cpi",0.2,1964,3,1964,NA,0.5,1.23273533275735,1.5346447917948,1.88764670034376,1.38369006227607,FALSE,1.18441423040985
"CAN","cpi",0.2,1964,3,1963,NA,1,5.19457646002895,5.58630934691617,1.88764670034376,5.39044290347256,FALSE,8.65905728610019
"CAN","cpi",0.2,1964,3,1963,NA,1.5,-0.195866443443611,0.195866443443611,1.88764670034376,0,FALSE,4.62118352913759
"CAN","cpi",0.2,1965,3,1965,NA,0,2.18301310415436,2.50812784422561,2.29538304394236,2.34557047418999,TRUE,0.325114740071248
"CAN","cpi",0.2,1965,3,1965,NA,0.5,1.44823710953092,1.77335184960216,2.29538304394236,1.61079447956654,FALSE,1.63019272592173
"CAN","cpi",0.2,1965,3,1964,NA,1,2.24804834526713,2.60232889832981,2.29538304394236,2.42518862179847,TRUE,0.354280553062682
"CAN","cpi",0.2,1965,3,1964,NA,1.5,0.640962275785058,0.99524282884774,2.29538304394236,0.818102552316399,FALSE,3.60463109079922
"CAN","cpi",0.2,1966,3,1966,NA,0,3.78198806739234,3.85823168988183,3.72486065470629,3.82010987863709,FALSE,0.219062154204619
"CAN","cpi",0.2,1966,3,1966,NA,0.5,3.92503291584597,4.0574350620653,3.72486065470629,3.99123398895563,FALSE,0.632832799068528
"CAN","cpi",0.2,1966,3,1965,NA,1,3.01369427139392,3.40074710352315,3.72486065470629,3.20722068745854,FALSE,1.19733671008708
"CAN","cpi",0.2,1966,3,1965,NA,1.5,1.41311183025497,1.8001646623842,3.72486065470629,1.60663824631958,FALSE,5.19879281293446
"CAN","cpi",0.2,1967,3,1967,NA,0,3.73997504386106,3.79540194271158,3.49360316391996,3.76768849328632,FALSE,0.67135659870327
"CAN","cpi",0.2,1967,3,1967,NA,0.5,2.28122862544706,2.53368086294815,3.49360316391996,2.4074547441976,FALSE,2.65225798993062
"CAN","cpi",0.2,1967,3,1966,NA,1,2.98521540806621,3.37685105333946,3.49360316391996,3.18103323070284,FALSE,0.683515921724493
"CAN","cpi",0.2,1967,3,1966,NA,1.5,4.45546378223585,4.84709942750911,3.49360316391996,4.65128160487248,FALSE,2.79628719106299
"CAN","cpi",0.2,1968,3,1968,NA,0,4.14253702125466,4.20322189219326,3.95128347779386,4.17287945672396,FALSE,0.538818729590604
"CAN","cpi",0.2,1968,3,1968,NA,0.5,3.85597916289804,4.285964952699,3.95128347779386,4.07097205779852,TRUE,0.429985789800964
"CAN","cpi",0.2,1968,3,1967,NA,1,5.630223926338,6.06020971613896,3.95128347779386,5.84521682123848,FALSE,4.62733691116132
"CAN","cpi",0.2,1968,3,1967,NA,1.5,2.04066568750178,2.47065147730275,3.95128347779386,2.25565858240226,FALSE,4.13156579102874
"CAN","cpi",0.2,1969,3,1969,NA,0,4.43211259978083,4.50582414169703,4.42679496126681,4.46896837073893,FALSE,0.0870056382012359
"CAN","cpi",0.2,1969,3,1969,NA,0.5,2.76135549138962,3.17088489652468,4.42679496126681,2.96612019395715,FALSE,3.5493045669904
"CAN","cpi",0.2,1969,3,1968,NA,1,6.52011159784054,6.9296410029756,4.42679496126681,6.72487630040807,FALSE,5.64282099656937
"CAN","cpi",0.2,1969,3,1968,NA,1.5,4.11187982687787,4.52140923201294,4.42679496126681,4.31664452944541,TRUE,0.409529405135062
"CAN","cpi",0.2,1970,3,1970,NA,0,3.51443206217205,3.53951824941524,3.28128405769805,3.52697515579364,FALSE,0.607956198428196
"CAN","cpi",0.2,1970,3,1970,NA,0.5,4.39352602327709,4.91389568226125,3.28128405769805,4.65371085276917,FALSE,3.30097457293177
"CAN","cpi",0.2,1970,3,1969,NA,1,4.26729392138499,4.78766358036915,3.28128405769805,4.52747875087707,FALSE,2.98539431820152
"CAN","cpi",0.2,1970,3,1969,NA,1.5,1.81955364333921,2.33992330232337,3.28128405769805,2.07973847283129,FALSE,2.87377154742084
"CAN","cpi",0.2,1971,3,1971,NA,0,2.80583028244006,2.87281623339374,2.64123406634756,2.8393232579169,FALSE,0.478476491184928
"CAN","cpi",0.2,1971,3,1971,NA,0.5,1.89023498866199,2.24360832544816,2.64123406634756,2.06692165705507,FALSE,1.34743768903468
"CAN","cpi",0.2,1971,3,1970,NA,1,2.45257528119309,2.82954461047681,2.64123406634756,2.64105994583495,TRUE,0.376969329283715
"CAN","cpi",0.2,1971,3,1970,NA,1.5,4.45129172436282,4.82826105364653,2.64123406634756,4.63977638900468,FALSE,4.90211347432186
"CAN","cpi",0.2,1972,3,1972,NA,0,4.82758548534287,5.2333765784215,4.83230569625923,5.03048103188219,TRUE,0.405791093078632
"CAN","cpi",0.2,1972,3,1972,NA,0.5,4.8641634970204,5.26995459009903,4.83230569625923,5.06705904355972,FALSE,0.485435594981556
"CAN","cpi",0.2,1972,3,1971,NA,1,5.71402048052818,6.11981157360681,4.83230569625923,5.9169160270675,FALSE,2.61007805375101
"CAN","cpi",0.2,1972,3,1971,NA,1.5,2.8898694078734,3.29566050095203,4.83230569625923,3.09276495441271,FALSE,4.24740408134664
"CAN","cpi",0.2,1973,3,1973,NA,0,6.77151947506231,7.21377564880057,7.12388603531779,6.99264756193144,TRUE,0.442256173738253
"CAN","cpi",0.2,1973,3,1973,NA,0.5,5.25357087724941,5.69582705098767,7.12388603531779,5.47469896411854,FALSE,4.01240363456356
"CAN","cpi",0.2,1973,3,1972,NA,1,6.46949475060924,6.9117509243475,7.12388603531779,6.69062283747837,FALSE,0.972593951163986
"CAN","cpi",0.2,1973,3,1972,NA,1.5,4.51061434899573,4.95287052273398,7.12388603531779,4.73174243586486,FALSE,5.86979495519777
"CAN","cpi",0.2,1974,3,1974,NA,0,9.72600212516586,10.1626282861148,10.2717243737774,9.94431520564033,FALSE,0.709366380105498
"CAN","cpi",0.2,1974,3,1974,NA,0.5,8.11955233703963,8.55617849798857,10.2717243737774,8.3378654175141,FALSE,4.72549085042107
"CAN","cpi",0.2,1974,3,1973,NA,1,6.94881114587672,7.38543730682565,10.2717243737774,7.16712422635118,FALSE,7.65234382832835
"CAN","cpi",0.2,1974,3,1973,NA,1.5,3.83343441130608,4.27006057225501,10.2717243737774,4.05174749178054,FALSE,15.4407856647549
"CAN","cpi",0.2,1975,3,1975,NA,0,10.0606355098846,10.1257292140711,10.0232981493341,10.0931823619779,FALSE,0.15843710556271
"CAN","cpi",0.2,1975,3,1975,NA,0.5,8.76298393119904,9.20236559074753,10.0232981493341,8.98267476097328,FALSE,2.49171305601497
"CAN","cpi",0.2,1975,3,1974,NA,1,7.56410739253115,8.00348905207965,10.0232981493341,7.7837982223054,FALSE,5.48890440268468
"CAN","cpi",0.2,1975,3,1974,NA,1.5,5.53962522331094,5.97900688285944,10.0232981493341,5.75931605308519,FALSE,10.5501098257352
"CAN","cpi",0.2,1976,3,1976,NA,0,7.03850244899273,7.10705665004161,7.22784311401172,7.07277954951717,FALSE,0.370520360974144
"CAN","cpi",0.2,1976,3,1976,NA,0.5,8.33070577489119,8.85107543387535,7.22784311401172,8.59089060438327,FALSE,3.27752631118284
"CAN","cpi",0.2,1976,3,1975,NA,1,10.0842311133868,10.7440644236415,7.22784311401172,10.4141477685142,FALSE,7.80080330869244
"CAN","cpi",0.2,1976,3,1975,NA,1.5,6.10059420622125,6.76042751647598,7.22784311401172,6.43051086134862,FALSE,1.82837230409407
"CAN","cpi",0.2,1977,3,1977,NA,0,7.29282668715564,7.8131963461398,7.58101410153764,7.55301151664772,TRUE,0.52036965898416
"CAN","cpi",0.2,1977,3,1977,NA,0.5,7.72147367072679,8.24184332971095,7.58101410153764,7.98165850021887,FALSE,0.871518581957031
"CAN","cpi",0.2,1977,3,1976,NA,1,3.46116166194394,3.9815313209281,7.58101410153764,3.72134649143602,FALSE,9.51907661050802
"CAN","cpi",0.2,1977,3,1976,NA,1.5,7.74253561526405,8.26290527424822,7.58101410153764,8.00272044475614,FALSE,0.92417344330019
"CAN","cpi",0.2,1978,3,1978,NA,0,8.41109357409635,8.93146323308051,8.50208927062595,8.67127840358843,TRUE,0.520369658984162
"CAN","cpi",0.2,1978,3,1978,NA,0.5,8.11864248869722,8.63901214768138,8.50208927062595,8.3788273181893,TRUE,0.520369658984162
"CAN","cpi",0.2,1978,3,1977,NA,1,7.28765345466843,7.80802311365259,8.50208927062595,7.54783828416051,FALSE,2.25553505141756
"CAN","cpi",0.2,1978,3,1977,NA,1.5,9.46544273393015,9.98581239291431,8.50208927062595,9.72562756342223,FALSE,2.92875331724467
"CAN","cpi",0.2,1979,3,1979,NA,0,8.30357907283261,8.82394873181678,8.65147652410481,8.56376390232469,TRUE,0.520369658984162
"CAN","cpi",0.2,1979,3,1979,NA,0.5,8.03580802017556,8.55617767915972,8.65147652410481,8.29599284966764,FALSE,0.758616771346877
"CAN","cpi",0.2,1979,3,1978,NA,1,8.9429301755971,9.46329983458126,8.65147652410481,9.20311500508918,FALSE,1.24900378771489
"CAN","cpi",0.2,1979,3,1978,NA,1.5,8.29628427203716,8.81665393102132,8.65147652410481,8.55646910152924,TRUE,0.520369658984162
"CAN","cpi",0.2,1980,3,1980,NA,0,9.24388239157723,9.76425205056139,9.5171912664748,9.50406722106931,TRUE,0.520369658984162
"CAN","cpi",0.2,1980,3,1980,NA,0.5,8.31780431385884,8.838173972843,9.5171912664748,8.57798914335092,FALSE,2.21791289306365
"CAN","cpi",0.2,1980,3,1979,NA,1,7.91856720761607,8.43893686660023,9.5171912664748,8.17875203710815,FALSE,3.21600565867057
"CAN","cpi",0.2,1980,3,1979,NA,1.5,8.13186283112904,8.6522324901132,9.5171912664748,8.39204766062112,FALSE,2.68276659988816
"CAN","cpi",0.2,1981,3,1981,NA,0,11.4512030689278,11.971572727912,11.5813425032741,11.7113878984199,TRUE,0.520369658984162
"CAN","cpi",0.2,1981,3,1981,NA,0.5,11.9554348457846,12.4758045047688,11.5813425032741,12.2156196752767,FALSE,1.45560051526044
"CAN","cpi",0.2,1981,3,1980,NA,1,10.7895005128103,11.3098701717945,11.5813425032741,11.0496853423024,FALSE,1.19905048768335
"CAN","cpi",0.2,1981,3,1980,NA,1.5,8.07791309225686,8.59828275124102,11.5813425032741,8.33809792174894,FALSE,7.97801903906695
"CAN","cpi",0.2,1982,3,1982,NA,0,10.2152439817399,10.2980896484795,10.1124203763629,10.2566668151097,FALSE,0.339904680182031
"CAN","cpi",0.2,1982,3,1982,NA,0.5,9.84835076786242,10.3687204268466,10.1124203763629,10.1085355973545,TRUE,0.520369658984162
"CAN","cpi",0.2,1982,3,1981,NA,1,11.5108038536319,12.031173512616,10.1124203763629,11.770988683124,FALSE,4.01632835215648
"CAN","cpi",0.2,1982,3,1981,NA,1.5,12.609940205636,13.1303098646202,10.1124203763629,12.8701250351281,FALSE,6.76416923216686
"CAN","cpi",0.2,1983,3,1983,NA,0,5.691046028274,5.77097825502379,5.67091787896303,5.7310121416489,FALSE,0.130252600027203
"CAN","cpi",0.2,1983,3,1983,NA,0.5,4.65324533060446,5.17361498958862,5.67091787896303,4.91343016009654,FALSE,1.76362688242021
"CAN","cpi",0.2,1983,3,1982,NA,1,8.92481666916849,9.44518632815265,5.67091787896303,9.18500149866057,FALSE,8.65511663449779
"CAN","cpi",0.2,1983,3,1982,NA,1.5,9.42653818620158,9.94690784518574,5.67091787896303,9.68672301569366,FALSE,9.90942042708053
"CAN","cpi",0.2,1984,3,1984,NA,0,NA,NA,4.19799576814029,NA,NA,NA
"CAN","cpi",0.2,1984,3,1984,NA,0.5,5.59752203075249,6.11789168973665,4.19799576814029,5.85770686024457,FALSE,4.01918531551467
"CAN","cpi",0.2,1984,3,1983,NA,1,5.34367240028705,6.18739475964152,4.19799576814029,5.76553357996429,FALSE,3.70791393972137
"CAN","cpi",0.2,1984,3,1983,NA,1.5,2.49793849979447,3.34166085914894,4.19799576814029,2.9197996794717,FALSE,2.98455963183284
"CAN","cpi",0.2,1985,3,1985,NA,0,3.81789092407428,3.89046887863328,3.86444262005169,3.85417990135378,TRUE,0.0725779545590077
"CAN","cpi",0.2,1985,3,1985,NA,0.5,3.95971559433691,4.48008525332107,3.86444262005169,4.21990042382899,FALSE,0.758552094697197
"CAN","cpi",0.2,1985,3,1984,NA,1,NA,NA,3.86444262005169,NA,NA,NA
"CAN","cpi",0.2,1985,3,1984,NA,1.5,8.36981177356147,8.89018143254564,3.86444262005169,8.62999660305356,FALSE,11.7837925427586
"CAN","cpi",0.2,1986,3,1986,NA,0,3.77752906250785,4.29789872149201,4.08685396749431,4.03771389199993,TRUE,0.52036965898416
"CAN","cpi",0.2,1986,3,1986,NA,0.5,4.12200849554321,4.64237815452737,4.08685396749431,4.38219332503529,FALSE,0.608255979106399
"CAN","cpi",0.2,1986,3,1985,NA,1,3.11831493131641,3.63868459030057,4.08685396749431,3.37849976080849,FALSE,1.64079310196851
"CAN","cpi",0.2,1986,3,1985,NA,1.5,4.69291375951748,5.21328341850164,4.08685396749431,4.95309858900956,FALSE,2.03551913904209
"CAN","cpi",0.2,1987,3,1987,NA,0,NA,NA,4.23980729277887,NA,NA,NA
"CAN","cpi",0.2,1987,3,1987,NA,0.5,3.87323678130877,4.39360644029293,4.23980729277887,4.13342161080085,TRUE,0.52036965898416
"CAN","cpi",0.2,1987,3,1986,NA,1,3.4012250521559,3.92159471114006,4.23980729277887,3.66140988164798,FALSE,1.31590111308118
"CAN","cpi",0.2,1987,3,1986,NA,1.5,4.54224285194306,5.06261251092722,4.23980729277887,4.80242768143514,FALSE,1.27645855689463
"CAN","cpi",0.2,1988,3,1988,NA,0,3.73977328368832,4.14788995621888,3.92899537638065,3.9438316199536,TRUE,0.408116672530559
"CAN","cpi",0.2,1988,3,1988,NA,0.5,3.15013381714284,3.5582504896734,3.92899537638065,3.35419215340812,FALSE,1.33497888929869
"CAN","cpi",0.2,1988,3,1987,NA,1,NA,NA,3.92899537638065,NA,NA,NA
"CAN","cpi",0.2,1988,3,1987,NA,1.5,3.63443446577238,4.15480412475654,3.92899537638065,3.89461929526446,TRUE,0.52036965898416
"CAN","cpi",0.2,1989,3,1989,NA,0,4.92909611162439,4.97351025623232,4.82821664544208,4.95130318392835,FALSE,0.296612810063709
"CAN","cpi",0.2,1989,3,1989,NA,0.5,3.97006459797865,4.49043425696281,4.82821664544208,4.23024942747073,FALSE,1.36482563018232
"CAN","cpi",0.2,1989,3,1988,NA,1,3.79823311653954,4.3186027755237,4.82821664544208,4.05841794603162,FALSE,1.79440433378009
"CAN","cpi",0.2,1989,3,1988,NA,1.5,2.33765872989092,2.85802838887508,4.82821664544208,2.597843559383,FALSE,5.44584030040166
"CAN","cpi",0.2,1990,3,1990,NA,0,4.21451018977422,4.73487984875838,4.64347549432717,4.4746950192663,TRUE,0.52036965898416
"CAN","cpi",0.2,1990,3,1990,NA,0.5,4.70468685953271,5.22505651851687,4.64347549432717,4.96487168902479,FALSE,0.673398071998001
"CAN","cpi",0.2,1990,3,1989,NA,1,5.17852891019868,5.69889856918284,4.64347549432717,5.43871373969076,FALSE,1.85800319866294
"CAN","cpi",0.2,1990,3,1989,NA,1.5,3.11306917074602,3.63343882973018,4.64347549432717,3.3732540002381,FALSE,3.04546132047664
"CAN","cpi",0.2,1991,3,1991,NA,0,5.58651372597505,5.63455367287259,5.4258100696218,5.61053369942382,FALSE,0.449799087780678
"CAN","cpi",0.2,1991,3,1991,NA,0.5,7.56180812528386,8.08217778426802,5.4258100696218,7.82199295477594,FALSE,5.86036479813933
"CAN","cpi",0.2,1991,3,1990,NA,1,3.40698335434889,3.92735301333305,5.4258100696218,3.66716818384097,FALSE,4.26651229970603
"CAN","cpi",0.2,1991,3,1990,NA,1.5,4.56463465714956,5.08500431613372,5.4258100696218,4.82481948664164,FALSE,1.37238404270435
"CAN","cpi",0.2,1992,3,1992,NA,0,NA,NA,1.47496888572843,NA,NA,NA
"CAN","cpi",0.2,1992,3,1992,NA,0.5,NA,NA,1.47496888572843,NA,NA,NA
"CAN","cpi",0.2,1992,3,1991,NA,1,2.50762088284005,3.02799054182421,1.47496888572843,2.76780571233213,FALSE,3.10199965176321
"CAN","cpi",0.2,1992,3,1991,NA,1.5,6.88919699710961,7.40956665609377,1.47496888572843,7.14938182660169,FALSE,14.0559399374371
"CAN","cpi",0.2,1993,3,1993,NA,0,NA,NA,NA,NA,NA,NA
"CAN","cpi",0.2,1993,3,1993,NA,0.5,NA,NA,NA,NA,NA,NA
"CAN","cpi",0.2,1993,3,1992,NA,1,NA,NA,NA,NA,NA,NA
"CAN","cpi",0.2,1993,3,1992,NA,1.5,NA,NA,NA,NA,NA,NA
"CAN","cpi",0.2,1994,3,1994,NA,0,NA,NA,NA,NA,NA,NA
"CAN","cpi",0.2,1994,3,1994,NA,0.5,NA,NA,NA,NA,NA,NA
"CAN","cpi",0.2,1994,3,1993,NA,1,NA,NA,NA,NA,NA,NA
"CAN","cpi",0.2,1994,3,1993,NA,1.5,NA,NA,NA,NA,NA,NA
"CAN","cpi",0.2,1995,3,1995,NA,0,NA,NA,2.11688403676572,NA,NA,NA
"CAN","cpi",0.2,1995,3,1995,NA,0.5,2.25919328123876,2.77956294022292,2.11688403676572,2.51937811073084,FALSE,0.876142770166781
"CAN","cpi",0.2,1995,3,1994,NA,1,0.459211581329865,0.979581240314025,2.11688403676572,0.719396410821945,FALSE,3.36362665011339
"CAN","cpi",0.2,1995,3,1994,NA,1.5,-1.30673086874036,-0.786361209756203,2.11688403676572,-1.04654603924828,FALSE,7.77848277528896
"CAN","cpi",0.2,1996,3,1996,NA,0,1.16762265407818,1.68799231306234,1.55309584667184,1.42780748357026,TRUE,0.52036965898416
"CAN","cpi",0.2,1996,3,1996,NA,0.5,NA,NA,1.55309584667184,NA,NA,NA
"CAN","cpi",0.2,1996,3,1995,NA,1,NA,NA,1.55309584667184,NA,NA,NA
"CAN","cpi",0.2,1996,3,1995,NA,1.5,2.66213788226239,3.18250754124655,1.55309584667184,2.92232271175447,FALSE,3.29297474796052
"CAN","cpi",0.2,1997,3,1997,NA,0,1.53825825512131,1.93245870102104,1.60528783555959,1.73535847807117,TRUE,0.394200445899731
"CAN","cpi",0.2,1997,3,1997,NA,0.5,1.91368341302809,2.30788385892783,1.60528783555959,2.11078363597796,FALSE,1.16518938957099
"CAN","cpi",0.2,1997,3,1996,NA,1,0.724776507815476,1.24514616679964,1.60528783555959,0.984961337307556,FALSE,1.42072383088405
"CAN","cpi",0.2,1997,3,1996,NA,1.5,NA,NA,1.60528783555959,NA,NA,NA
"CAN","cpi",0.2,1998,3,1998,NA,0,0.828774679219263,1.24139474847494,0.988908029337191,1.0350847138471,TRUE,0.412620069255676
"CAN","cpi",0.2,1998,3,1998,NA,0.5,1.47902651974323,1.89164658899891,0.988908029337191,1.68533655437107,FALSE,1.63791629527078
"CAN","cpi",0.2,1998,3,1997,NA,1,1.99141101385549,2.51178067283965,0.988908029337191,2.25159584334757,FALSE,3.0266271202799
"CAN","cpi",0.2,1998,3,1997,NA,1.5,1.91734085406885,2.86241548345268,0.988908029337191,2.38987816876076,FALSE,3.26615669121298
"CAN","cpi",0.2,1999,3,1999,NA,0,1.74424631081182,1.80812245837741,1.7107350135213,1.77618438459462,FALSE,0.147654390791903
"CAN","cpi",0.2,1999,3,1999,NA,0.5,0.871694810524572,1.18649014930603,1.7107350135213,1.0290924799153,FALSE,1.62540749931962
"CAN","cpi",0.2,1999,3,1998,NA,1,1.59159061114997,2.11196027013413,1.7107350135213,1.85177544064205,TRUE,0.52036965898416
"CAN","cpi",0.2,1999,3,1998,NA,1.5,2.38610319779521,3.50681141794725,1.7107350135213,2.94645730787123,FALSE,2.80912868083682
"CAN","cpi",0.2,2000,3,2000,NA,0,2.67822360340131,2.74228475372169,2.6718361971244,2.7102541785615,FALSE,0.0800296660126487
"CAN","cpi",0.2,2000,3,2000,NA,0.5,2.170501605188,2.51760242287911,2.6718361971244,2.34405201403356,FALSE,0.732685253304328
"CAN","cpi",0.2,2000,3,1999,NA,1,2.81524453832001,3.33561419730417,2.6718361971244,3.07542936781209,FALSE,0.878890511973194
"CAN","cpi",0.2,2000,3,1999,NA,1.5,2.01790552852516,2.53827518750932,2.6718361971244,2.27809035801724,FALSE,0.854272183021866
"CAN","cpi",0.2,2001,3,2001,NA,0,2.60825391037375,2.94267778931328,2.47906219852806,2.77546584984351,FALSE,0.657403158553742
"CAN","cpi",0.2,2001,3,2001,NA,0.5,2.26845561556128,2.60287949450081,2.47906219852806,2.43566755503104,TRUE,0.334423878939529
"CAN","cpi",0.2,2001,3,2000,NA,1,3.42940212370635,3.94977178269051,2.47906219852806,3.68958695319843,FALSE,2.89621947192987
"CAN","cpi",0.2,2001,3,2000,NA,1.5,2.50727874682049,3.51813704742297,2.47906219852806,3.01270789712173,FALSE,1.08139967133355
"CAN","cpi",0.2,2002,3,2002,NA,0,2.24117415121122,2.30275054851579,2.20880570551249,2.27196234986351,FALSE,0.142497511551407
"CAN","cpi",0.2,2002,3,2002,NA,0.5,1.4178656356835,1.74904260409902,2.20880570551249,1.58345411989126,FALSE,1.48058472194919
"CAN","cpi",0.2,2002,3,2001,NA,1,2.0049194089669,2.52528906795106,2.20880570551249,2.26510423845898,TRUE,0.52036965898416
"CAN","cpi",0.2,2002,3,2001,NA,1.5,2.67521855536451,3.36594231021567,2.20880570551249,3.02058043279009,FALSE,1.85675587948123
"CAN","cpi",0.2,2003,3,2003,NA,0,2.70769681936138,2.71883723305197,2.71189071546809,2.71326702620668,TRUE,0.0111404136905833
"CAN","cpi",0.2,2003,3,2003,NA,0.5,4.28906776932931,4.73958521614062,2.71189071546809,4.51432649273496,FALSE,4.39346008146436
"CAN","cpi",0.2,2003,3,2002,NA,1,3.63092409405672,4.08144154086803,2.71189071546809,3.85618281746238,FALSE,2.74810089328289
"CAN","cpi",0.2,2003,3,2002,NA,1.5,2.16876517508619,2.6192826218975,2.71189071546809,2.39402389849184,FALSE,0.682037680737791
"CAN","cpi",0.2,2004,3,2004,NA,0,1.76660119681399,1.7827358508463,1.83151661303942,1.77466852383015,FALSE,0.138086559515113
"CAN","cpi",0.2,2004,3,2004,NA,0.5,1.30440027362152,1.80080842941719,1.83151661303942,1.55260435151936,FALSE,0.57317861485124
"CAN","cpi",0.2,2004,3,2003,NA,1,1.54595384808501,2.04236200388068,1.83151661303942,1.79415792598285,TRUE,0.49640815579567
"CAN","cpi",0.2,2004,3,2003,NA,1.5,4.01878864755932,4.51519680335499,1.83151661303942,4.26699272545716,FALSE,5.96458824209542
"CAN","cpi",0.2,2005,3,2005,NA,0,2.32537039564867,2.3615366738104,2.18071628336509,2.34345353472953,FALSE,0.397801558870676
"CAN","cpi",0.2,2005,3,2005,NA,0.5,1.32463780278046,1.68178896356612,2.18071628336509,1.50321338317329,FALSE,1.60446946028308
"CAN","cpi",0.2,2005,3,2004,NA,1,1.38039416072544,1.90048509351924,2.18071628336509,1.64043962712234,FALSE,1.22066890740844
"CAN","cpi",0.2,2005,3,2004,NA,1.5,1.77388737473543,2.29397830752923,2.18071628336509,2.03393284113233,TRUE,0.520090932793802
"CAN","cpi",0.2,2006,3,2006,NA,0,2.06899644389579,2.12129109395735,1.97519342012289,2.09514376892657,FALSE,0.286802209493819
"CAN","cpi",0.2,2006,3,2006,NA,0.5,1.91926014549338,2.26946512648706,1.97519342012289,2.09436263599022,TRUE,0.350204980993681
"CAN","cpi",0.2,2006,3,2005,NA,1,2.69810637658852,3.21847603557268,1.97519342012289,2.9582912060806,FALSE,2.32765205014825
"CAN","cpi",0.2,2006,3,2005,NA,1.5,1.37459142253777,1.92312781707835,1.97519342012289,1.64885961980806,FALSE,0.678700402151919
"CAN","cpi",0.2,2007,3,2007,NA,0,2.08166719099413,2.13200525105202,2.10062087284572,2.10683622102307,TRUE,0.0503380600578858
"CAN","cpi",0.2,2007,3,2007,NA,0.5,2.02124618836214,2.33135185330491,2.10062087284572,2.17629902083353,TRUE,0.310105664942764
"CAN","cpi",0.2,2007,3,2006,NA,1,1.24843209760648,1.76880175659064,2.10062087284572,1.50861692709856,FALSE,1.34991744962187
"CAN","cpi",0.2,2007,3,2006,NA,1.5,1.89900133401197,2.41937099299613,2.10062087284572,2.15918616350405,TRUE,0.52036965898416
"CAN","cpi",0.2,2008,3,2008,NA,0,2.85158127363463,2.89000782934193,2.31447335265955,2.87079455148828,FALSE,1.38119635814499
"CAN","cpi",0.2,2008,3,2008,NA,0.5,1.1680662555401,1.45204003836523,2.31447335265955,1.31005314695267,FALSE,2.44005706856093
"CAN","cpi",0.2,2008,3,2007,NA,1,1.2101256703346,1.73049532931876,2.31447335265955,1.47031049982668,FALSE,1.98031471733615
"CAN","cpi",0.2,2008,3,2007,NA,1.5,2.20434712393186,2.72471678291602,2.31447335265955,2.46453195342394,TRUE,0.52036965898416
"CAN","cpi",0.2,2009,3,2009,NA,0,0.172218922421422,0.202025770278021,0.284533874408197,0.187122346349721,FALSE,0.236077108182039
"CAN","cpi",0.2,2009,3,2009,NA,0.5,-0.207757062034107,0.0622585379408735,0.284533874408197,-0.0727492620466167,FALSE,0.82570394114329
"CAN","cpi",0.2,2009,3,2008,NA,1,3.55761543407743,4.07798509306159,0.284533874408197,3.81780026356951,FALSE,8.70307355815725
"CAN","cpi",0.2,2009,3,2008,NA,1.5,1.42656669681211,1.94693635579627,0.284533874408197,1.68675152630419,FALSE,3.37545171499395
"CAN","cpi",0.2,2010,3,2010,NA,0,1.58522146526064,1.63276986401015,1.75525687020327,1.6089956646354,FALSE,0.35376591423231
"CAN","cpi",0.2,2010,3,2010,NA,0.5,1.81361747020411,2.00857258031955,1.75525687020327,1.91109502526183,FALSE,0.340856610117536
"CAN","cpi",0.2,2010,3,2009,NA,1,0.775222194837347,1.20936938215216,1.75525687020327,0.992295788494754,FALSE,1.79886590744259
"CAN","cpi",0.2,2010,3,2009,NA,1.5,0.624918223323787,1.14528788230795,1.75525687020327,0.885103052815867,FALSE,2.04529212872247
"CAN","cpi",0.2,2011,3,2011,NA,0,2.83365343003532,2.89965485120664,2.85717434028225,2.86665414062098,TRUE,0.0660014211713209
"CAN","cpi",0.2,2011,3,2011,NA,0.5,2.66488770633405,2.86677993156137,2.85717434028225,2.76583381894771,TRUE,0.201892225227323
"CAN","cpi",0.2,2011,3,2010,NA,1,1.18058354637498,1.6053093370194,2.85717434028225,1.39294644169719,FALSE,3.55438829880153
"CAN","cpi",0.2,2011,3,2010,NA,1.5,1.43016771060142,1.85489350124584,2.85717434028225,1.64253060592363,FALSE,2.93042788823544
"CAN","cpi",0.2,2012,3,2012,NA,0,1.4954558629533,1.56099435403458,1.50118536134935,1.52822510849394,TRUE,0.0655384910812762
"CAN","cpi",0.2,2012,3,2012,NA,0.5,1.82546638481513,2.02311405464065,1.50118536134935,1.92429021972789,FALSE,1.00835022848998
"CAN","cpi",0.2,2012,3,2011,NA,1,1.73962254164202,2.25928230729956,1.50118536134935,1.99945242447079,FALSE,1.11575271638922
"CAN","cpi",0.2,2012,3,2011,NA,1.5,2.22167969115085,2.74133945680839,1.50118536134935,2.48150957397962,FALSE,2.32089559016129
"CAN","cpi",0.2,2013,3,2013,NA,0,1.03574063946537,1.07686962899884,0.931270594714462,1.05630513423211,FALSE,0.302304101410744
"CAN","cpi",0.2,2013,3,2013,NA,0.5,1.04728129967539,1.29198779142325,0.931270594714462,1.16963454554932,FALSE,0.534733254150182
"CAN","cpi",0.2,2013,3,2012,NA,1,0.848865335736954,1.32849644683789,0.931270594714462,1.08868089128742,TRUE,0.479631111100934
"CAN","cpi",0.2,2013,3,2012,NA,1.5,1.88554696581319,2.40591662479735,0.931270594714462,2.14573179530527,FALSE,2.90606058673098
"CAN","cpi",0.2,2014,3,2014,NA,0,1.97301905548872,2.0242379274136,1.87639912240215,1.99862849145116,FALSE,0.292768704641308
"CAN","cpi",0.2,2014,3,2014,NA,0.5,1.68856333087418,1.89607619077957,1.87639912240215,1.79231976082687,TRUE,0.207512859905397
"CAN","cpi",0.2,2014,3,2013,NA,1,1.16325495858272,1.65004483781524,1.87639912240215,1.40664989819898,FALSE,1.0526755906998
"CAN","cpi",0.2,2014,3,2013,NA,1.5,1.25417638828685,1.77454604727101,1.87639912240215,1.51436121777893,FALSE,0.775002346812023
"CAN","cpi",0.2,2015,3,2015,NA,0,1.1808546073197,1.23975840117589,1.11090953952792,1.2103065042478,FALSE,0.233766463335649
"CAN","cpi",0.2,2015,3,2015,NA,0.5,0.244204781937004,0.672889849499114,1.11090953952792,0.458547315718059,FALSE,1.52373429263412
"CAN","cpi",0.2,2015,3,2014,NA,1,1.35620528050029,1.7848903480624,1.11090953952792,1.57054781428135,FALSE,1.04192441999305
"CAN","cpi",0.2,2015,3,2014,NA,1.5,1.62210626591949,2.14247592490365,1.11090953952792,1.88229109541157,FALSE,1.79836147496309
"CAN","cpi",0.2,2016,3,2016,NA,0,1.39133340192644,1.4412799475134,1.41168586698797,1.41630667471992,TRUE,0.049946545586959
"CAN","cpi",0.2,2016,3,2016,NA,0.5,0.946325907327093,1.41311725853141,1.41168586698797,1.17972158292925,TRUE,0.46679135120432
"CAN","cpi",0.2,2016,3,2015,NA,1,1.63046998491454,2.09726133611886,1.41168586698797,1.8638656605167,FALSE,1.01375164602076
"CAN","cpi",0.2,2016,3,2015,NA,1.5,0.81004519765878,1.33041485664294,1.41168586698797,1.07023002715086,FALSE,0.723547184846723
"CAN","cpi",0.2,2017,3,2017,NA,0,1.48208730265279,1.52776655028239,1.57888581671161,1.50492692646759,FALSE,0.17347741370265
"CAN","cpi",0.2,2017,3,2017,NA,0.5,1.84841285599913,2.3333195096437,1.57888581671161,2.09086618282141,FALSE,1.15872425186336
"CAN","cpi",0.2,2017,3,2016,NA,1,0.904067176705961,1.38897383035053,1.57888581671161,1.14652050352824,FALSE,0.959686619547278
"CAN","cpi",0.2,2017,3,2016,NA,1.5,1.00769601573818,1.52806567472234,1.57888581671161,1.26788084523026,FALSE,0.647420013957328
"CAN","cpi",0.2,2018,3,2018,NA,0,2.38965677385161,2.43669397607005,2.23316270166586,2.41317537496083,FALSE,0.438272382682821
"CAN","cpi",0.2,2018,3,2018,NA,0.5,2.30623840363066,2.74994398266324,2.23316270166586,2.52809119314695,FALSE,0.626394833944587
"CAN","cpi",0.2,2018,3,2017,NA,1,0.946148229644679,1.38985380867725,2.23316270166586,1.16800101916097,FALSE,2.55197781150409
"CAN","cpi",0.2,2018,3,2017,NA,1.5,1.81279919310885,2.33316885209301,2.23316270166586,2.07298402260093,TRUE,0.52036965898416
"CAN","cpi",0.2,2019,3,2019,NA,0,NA,NA,1.91921619871868,NA,NA,NA
"CAN","cpi",0.2,2019,3,2019,NA,0.5,1.24157898656012,1.70499713950632,1.91921619871868,1.47328806303322,FALSE,0.998965800977094
"CAN","cpi",0.2,2019,3,2018,NA,1,2.00299373399023,2.46641188693642,1.91921619871868,2.23470281046333,FALSE,0.672861991125061
"CAN","cpi",0.2,2019,3,2018,NA,1.5,2.06012079618304,2.5804904551672,1.91921619871868,2.32030562567512,FALSE,0.872631152645067
"CAN","cpi",0.2,2020,3,2020,NA,0,0.413403807221517,0.933773466205677,0.71139989671781,0.673588636713597,TRUE,0.52036965898416
"CAN","cpi",0.2,2020,3,2020,NA,0.5,NA,NA,0.71139989671781,NA,NA,NA
"CAN","cpi",0.2,2020,3,2019,NA,1,NA,NA,0.71139989671781,NA,NA,NA
"CAN","cpi",0.2,2020,3,2019,NA,1.5,1.51687008988696,2.03723974887112,0.71139989671781,1.77705491937904,FALSE,2.53404514190704
"CAN","cpi",0.2,2021,3,2021,NA,0,2.99237983597912,3.51274949496328,3.31148121717802,3.2525646654712,TRUE,0.52036965898416
"CAN","cpi",0.2,2021,3,2021,NA,0.5,1.90754997553485,2.42791963451901,3.31148121717802,2.16773480502693,FALSE,2.72927361563168
"CAN","cpi",0.2,2021,3,2020,NA,1,1.35052291527114,1.8708925742553,3.31148121717802,1.61070774476322,FALSE,4.12184126629097
"CAN","cpi",0.2,2021,3,2020,NA,1.5,NA,NA,3.31148121717802,NA,NA,NA
"CAN","cpi",0.2,2022,3,2022,NA,0,6.32664408851675,6.84701374750091,6.50977236228281,6.58682891800883,TRUE,0.52036965898416
"CAN","cpi",0.2,2022,3,2022,NA,0.5,5.3288203023169,5.84918996130106,6.50977236228281,5.58900513180898,FALSE,2.17182566143853
"CAN","cpi",0.2,2022,3,2021,NA,1,3.09578593573385,3.61615559471801,6.50977236228281,3.35597076522593,FALSE,7.75441157789617
"CAN","cpi",0.2,2022,3,2021,NA,1.5,1.63439739217218,2.15476705115634,6.50977236228281,1.89458222166426,FALSE,11.4078829368003
"CAN","cpi",0.2,2023,3,2023,NA,0,3.72769874168612,4.1967324866287,3.78831288758619,3.96221561415741,TRUE,0.469033744942573
"CAN","cpi",0.2,2023,3,2023,NA,0.5,3.37768018419832,3.84671392914089,3.78831288758619,3.6121970566696,TRUE,0.469033744942573
"CAN","cpi",0.2,2023,3,2022,NA,1,5.25166838366952,5.72070212861209,3.78831288758619,5.4861852561408,FALSE,4.12742248515088
"CAN","cpi",0.2,2023,3,2022,NA,1.5,3.62105388011807,4.09008762506064,3.78831288758619,3.85557075258935,TRUE,0.469033744942573
"CAN","cpi",0.2,2024,3,2023,NA,1,4.49285942588462,4.95275677219016,NA,4.72280809903739,NA,NA
"CAN","cpi",0.2,2024,3,2023,NA,1.5,4.13710642297836,4.5970037692839,NA,4.36705509613113,NA,NA
"CAN","cpi",0.3,1959,3,1959,NA,0,1.03805884528868,1.46176548333718,1.19382698397654,1.24991216431293,TRUE,0.4237066380485
"CAN","cpi",0.3,1959,3,1959,NA,0.5,0.225986412566077,0.649693050614577,1.19382698397654,0.437839731590327,FALSE,1.97837501908268
"CAN","cpi",0.3,1959,3,1958,NA,1,0.934320869510066,2.58293438820886,1.19382698397654,1.75862762885946,TRUE,1.64861351869879
"CAN","cpi",0.3,1959,3,1958,NA,1.5,0.94976496778826,2.59837848648705,1.19382698397654,1.77407172713766,TRUE,1.64861351869879
"CAN","cpi",0.3,1960,3,1960,NA,0,0.810578903728083,1.23664718146146,1.34209404870695,1.02361304259477,FALSE,0.727345041291922
"CAN","cpi",0.3,1960,3,1960,NA,0.5,0.32594934131497,0.752017619048349,1.34209404870695,0.53898348018166,FALSE,2.11200093390081
"CAN","cpi",0.3,1960,3,1959,NA,1,3.5610022431388,4.35418523065005,1.34209404870695,3.95759373689442,FALSE,7.13292068588796
"CAN","cpi",0.3,1960,3,1959,NA,1.5,-1.27006830916051,-0.476885321649262,1.34209404870695,-0.873476815404885,FALSE,5.99026690281471
"CAN","cpi",0.3,1961,3,1961,NA,0,0.790578914894706,1.22784804698544,1.00921348094007,1.00921348094007,TRUE,0.437269132090732
"CAN","cpi",0.3,1961,3,1961,NA,0.5,0.790578914894706,1.22784804698544,1.00921348094007,1.00921348094007,TRUE,0.437269132090732
"CAN","cpi",0.3,1961,3,1960,NA,1,-0.342821031152089,0.450361956359155,1.00921348094007,0.0537704626035329,FALSE,2.38990162917101
"CAN","cpi",0.3,1961,3,1960,NA,1.5,-1.25877329269566,-0.465590305184413,1.00921348094007,-0.862181798940035,FALSE,5.00690809072406
"CAN","cpi",0.3,1962,3,1962,NA,0,0.88009509081931,1.32455296381025,1.04957947883042,1.10232402731478,TRUE,0.444457872990938
"CAN","cpi",0.3,1962,3,1962,NA,0.5,-0.222228936495469,0.222228936495469,1.04957947883042,0,FALSE,2.8083165653765
"CAN","cpi",0.3,1962,3,1961,NA,1,-0.285731221816962,0.285731221816962,1.04957947883042,0,FALSE,2.75388603510093
"CAN","cpi",0.3,1962,3,1961,NA,1.5,-0.285731221816962,0.285731221816962,1.04957947883042,0,FALSE,2.75388603510093
"CAN","cpi",0.3,1963,3,1963,NA,0,1.85742816423072,1.97240642639331,1.60677118395228,1.91491729531202,FALSE,0.83114106295812
"CAN","cpi",0.3,1963,3,1963,NA,0.5,0.775948838940948,0.89770859029406,1.60677118395228,0.836828714617504,FALSE,2.14765287609089
"CAN","cpi",0.3,1963,3,1962,NA,1,2.23508536655281,2.89314444175007,1.60677118395228,2.56411490415144,FALSE,2.4532424540559
"CAN","cpi",0.3,1963,3,1962,NA,1.5,-0.32902953759863,0.32902953759863,1.60677118395228,0,FALSE,4.30874949335056
"CAN","cpi",0.3,1964,3,1964,NA,0,1.75848995023869,2.21905517868227,1.88764670034376,1.98877256446048,TRUE,0.460565228443577
"CAN","cpi",0.3,1964,3,1964,NA,0.5,1.15340744805429,1.61397267649786,1.88764670034376,1.38369006227607,FALSE,1.24249101086043
"CAN","cpi",0.3,1964,3,1963,NA,1,5.09129999972109,5.68958580722403,1.88764670034376,5.39044290347256,FALSE,9.75158094858102
"CAN","cpi",0.3,1964,3,1963,NA,1.5,-0.299142903751469,0.299142903751469,1.88764670034376,0,FALSE,5.13686808348091
"CAN","cpi",0.3,1965,3,1965,NA,0,2.09749826532839,2.59364268305158,2.29538304394236,2.34557047418999,TRUE,0.49614441772319
"CAN","cpi",0.3,1965,3,1965,NA,0.5,1.36272227070494,1.85886668842813,2.29538304394236,1.61079447956654,FALSE,1.74333400490668
"CAN","cpi",0.3,1965,3,1964,NA,1,2.15475736502437,2.69561987857257,2.29538304394236,2.42518862179847,TRUE,0.540862513548199
"CAN","cpi",0.3,1965,3,1964,NA,1.5,0.547671295542299,1.0885338090905,2.29538304394236,0.818102552316399,FALSE,3.98900318455351
"CAN","cpi",0.3,1966,3,1966,NA,0,3.76200188997962,3.87821786729455,3.72486065470629,3.82010987863709,FALSE,0.22233379238159
"CAN","cpi",0.3,1966,3,1966,NA,0.5,3.88973207190275,4.09273590600852,3.72486065470629,3.99123398895563,FALSE,0.674065026095655
"CAN","cpi",0.3,1966,3,1965,NA,1,2.91166559964067,3.50277577527641,3.72486065470629,3.20722068745854,FALSE,1.22563840257826
"CAN","cpi",0.3,1966,3,1965,NA,1.5,1.31108315850171,1.90219333413745,3.72486065470629,1.60663824631958,FALSE,5.7987310915467
"CAN","cpi",0.3,1967,3,1967,NA,0,3.72519721463057,3.81017977194207,3.49360316391996,3.76768849328632,FALSE,0.746679845056103
"CAN","cpi",0.3,1967,3,1967,NA,0.5,2.21457676040738,2.60033272798782,3.49360316391996,2.4074547441976,FALSE,2.93795721310083
"CAN","cpi",0.3,1967,3,1966,NA,1,2.88196487415862,3.48010158724705,3.49360316391996,3.18103323070284,FALSE,0.636712646439594
"CAN","cpi",0.3,1967,3,1966,NA,1.5,4.35221324832826,4.95034996141669,3.49360316391996,4.65128160487248,FALSE,3.05130838282644
"CAN","cpi",0.3,1968,3,1968,NA,0,4.12635732009506,4.21940159335285,3.95128347779386,4.17287945672396,FALSE,0.593255251261237
"CAN","cpi",0.3,1968,3,1968,NA,0.5,3.74289268346555,4.3990514321315,3.95128347779386,4.07097205779852,TRUE,0.656158748665948
"CAN","cpi",0.3,1968,3,1967,NA,1,5.51713744690551,6.17329619557146,3.95128347779386,5.84521682123848,FALSE,5.13002723184209
"CAN","cpi",0.3,1968,3,1967,NA,1.5,1.92757920806929,2.58373795673524,3.95128347779386,2.25565858240226,FALSE,4.56343166597629
"CAN","cpi",0.3,1969,3,1969,NA,0,4.4126853154862,4.52525142599166,4.42679496126681,4.46896837073893,TRUE,0.112566110505464
"CAN","cpi",0.3,1969,3,1969,NA,0.5,2.6537230598208,3.2785173280935,4.42679496126681,2.96612019395715,FALSE,3.90558750591075
"CAN","cpi",0.3,1969,3,1968,NA,1,6.41247916627172,7.03727343454442,4.42679496126681,6.72487630040807,FALSE,6.29817771114386
"CAN","cpi",0.3,1969,3,1968,NA,1.5,4.00424739530906,4.62904166358175,4.42679496126681,4.31664452944541,TRUE,0.624794268272698
"CAN","cpi",0.3,1970,3,1970,NA,0,3.5077436239081,3.54620668767918,3.28128405769805,3.52697515579364,FALSE,0.685490395799815
"CAN","cpi",0.3,1970,3,1970,NA,0.5,4.25711935901355,5.05030234652479,3.28128405769805,4.65371085276917,FALSE,3.58128384841268
"CAN","cpi",0.3,1970,3,1969,NA,1,4.13088725712145,4.92407024463269,3.28128405769805,4.52747875087707,FALSE,3.22062070014954
"CAN","cpi",0.3,1970,3,1969,NA,1.5,1.68314697907567,2.47632996658692,3.28128405769805,2.07973847283129,FALSE,3.09305181925733
"CAN","cpi",0.3,1971,3,1971,NA,0,2.78809390136408,2.89055261446972,2.64123406634756,2.8393232579169,FALSE,0.522058241724262
"CAN","cpi",0.3,1971,3,1971,NA,0.5,1.79751303941946,2.33633027469069,2.64123406634756,2.06692165705507,FALSE,1.40997092571944
"CAN","cpi",0.3,1971,3,1970,NA,1,2.35323505649689,2.92888483517301,2.64123406634756,2.64105994583495,TRUE,0.57564977867612
"CAN","cpi",0.3,1971,3,1970,NA,1.5,4.35195149966662,4.92760127834274,2.64123406634756,4.63977638900468,FALSE,5.46341387387342
"CAN","cpi",0.3,1972,3,1972,NA,0,4.72091261765836,5.34004944610601,4.83230569625923,5.03048103188219,TRUE,0.619136828447653
"CAN","cpi",0.3,1972,3,1972,NA,0.5,4.75749062933589,5.37662745778354,4.83230569625923,5.06705904355972,TRUE,0.619136828447653
"CAN","cpi",0.3,1972,3,1971,NA,1,5.60734761284367,6.22648444129132,4.83230569625923,5.9169160270675,FALSE,2.8335423044032
"CAN","cpi",0.3,1972,3,1971,NA,1.5,2.78319654018888,3.40233336863654,4.83230569625923,3.09276495441271,FALSE,4.70477205022677
"CAN","cpi",0.3,1973,3,1973,NA,0,6.65535593959004,7.32993918427284,7.12388603531779,6.99264756193144,TRUE,0.674583244682799
"CAN","cpi",0.3,1973,3,1973,NA,0.5,5.13740734177714,5.81199058645994,7.12388603531779,5.47469896411854,FALSE,4.42285595570523
"CAN","cpi",0.3,1973,3,1972,NA,1,6.35333121513697,7.02791445981977,7.12388603531779,6.69062283747837,FALSE,0.948787746105714
"CAN","cpi",0.3,1973,3,1972,NA,1.5,4.39445081352346,5.06903405820626,7.12388603531779,4.73174243586486,FALSE,6.54558889357289
"CAN","cpi",0.3,1974,3,1974,NA,0,9.61133965450673,10.2772907567739,10.2717243737774,9.94431520564033,TRUE,0.665951102267201
"CAN","cpi",0.3,1974,3,1974,NA,0.5,8.0048898663805,8.6708409686477,10.2717243737774,8.3378654175141,FALSE,5.23990368835212
"CAN","cpi",0.3,1974,3,1973,NA,1,6.83414867521758,7.50009977748478,10.2717243737774,7.16712422635118,FALSE,8.58487852024616
"CAN","cpi",0.3,1974,3,1973,NA,1.5,3.71877194064695,4.38472304291415,10.2717243737774,4.05174749178054,FALSE,17.4859549047337
"CAN","cpi",0.3,1975,3,1975,NA,0,10.043290838105,10.1430738858507,10.0232981493341,10.0931823619779,FALSE,0.156905015662517
"CAN","cpi",0.3,1975,3,1975,NA,0.5,8.64739234032281,9.31795718162375,10.0232981493341,8.98267476097328,FALSE,2.68582474904485
"CAN","cpi",0.3,1975,3,1974,NA,1,7.44851580165493,8.11908064295587,10.0232981493341,7.7837982223054,FALSE,6.11118628809594
"CAN","cpi",0.3,1975,3,1974,NA,1.5,5.42403363243472,6.09459847373566,10.0232981493341,5.75931605308519,FALSE,11.8954210572965
"CAN","cpi",0.3,1976,3,1976,NA,0,7.02030597680119,7.12525312223315,7.22784311401172,7.07277954951717,FALSE,0.398061407656431
"CAN","cpi",0.3,1976,3,1976,NA,0.5,8.19429911062765,8.98748209813889,7.22784311401172,8.59089060438327,FALSE,3.55448583498533
"CAN","cpi",0.3,1976,3,1975,NA,1,9.91126626182815,10.9170292752002,7.22784311401172,10.4141477685142,FALSE,8.67268629284756
"CAN","cpi",0.3,1976,3,1975,NA,1.5,5.9276293546626,6.93339236803463,7.22784311401172,6.43051086134862,FALSE,1.84705085902085
"CAN","cpi",0.3,1977,3,1977,NA,0,7.1564200228921,7.94960301040334,7.58101410153764,7.55301151664772,TRUE,0.793182987511244
"CAN","cpi",0.3,1977,3,1977,NA,0.5,7.58506700646325,8.37824999397449,7.58101410153764,7.98165850021887,FALSE,0.804762715870119
"CAN","cpi",0.3,1977,3,1976,NA,1,3.3247549976804,4.11793798519164,7.58101410153764,3.72134649143602,FALSE,10.6876861770713
"CAN","cpi",0.3,1977,3,1976,NA,1.5,7.60612895100051,8.39931193851176,7.58101410153764,8.00272044475614,FALSE,0.864939700262302
"CAN","cpi",0.3,1978,3,1978,NA,0,8.27468690983281,9.06786989734405,8.50208927062595,8.67127840358843,TRUE,0.793182987511244
"CAN","cpi",0.3,1978,3,1978,NA,0.5,7.98223582443368,8.77541881194492,8.50208927062595,8.3788273181893,TRUE,0.793182987511244
"CAN","cpi",0.3,1978,3,1977,NA,1,7.15124679040489,7.94442977791613,8.50208927062595,7.54783828416051,FALSE,2.38649582382501
"CAN","cpi",0.3,1978,3,1977,NA,1.5,9.32903606966661,10.1222190571779,8.50208927062595,9.72562756342223,FALSE,3.15588812762742
"CAN","cpi",0.3,1979,3,1979,NA,0,8.16717240856907,8.96035539608032,8.65147652410481,8.56376390232469,TRUE,0.793182987511244
"CAN","cpi",0.3,1979,3,1979,NA,0.5,7.89940135591202,8.69258434342327,8.65147652410481,8.29599284966764,TRUE,0.793182987511244
"CAN","cpi",0.3,1979,3,1978,NA,1,8.80652351133356,9.5997064988448,8.65147652410481,9.20311500508918,FALSE,1.23617437959339
"CAN","cpi",0.3,1979,3,1978,NA,1.5,8.15987760777362,8.95306059528487,8.65147652410481,8.55646910152924,TRUE,0.793182987511244
"CAN","cpi",0.3,1980,3,1980,NA,0,9.10747572731369,9.90065871482493,9.5171912664748,9.50406722106931,TRUE,0.793182987511244
"CAN","cpi",0.3,1980,3,1980,NA,0.5,8.1813976495953,8.97458063710654,9.5171912664748,8.57798914335092,FALSE,2.34349907142054
"CAN","cpi",0.3,1980,3,1979,NA,1,7.78216054335253,8.57534353086377,9.5171912664748,8.17875203710815,FALSE,3.48417651782845
"CAN","cpi",0.3,1980,3,1979,NA,1.5,7.99545616686549,8.78863915437674,9.5171912664748,8.39204766062112,FALSE,2.87476045064855
"CAN","cpi",0.3,1981,3,1981,NA,0,11.3147964046643,12.1079793921755,11.5813425032741,11.7113878984199,TRUE,0.793182987511244
"CAN","cpi",0.3,1981,3,1981,NA,0.5,11.8190281815211,12.6122111690324,11.5813425032741,12.2156196752767,FALSE,1.47228492535973
"CAN","cpi",0.3,1981,3,1980,NA,1,10.6530938485468,11.446276836058,11.5813425032741,11.0496853423024,FALSE,1.17908489384306
"CAN","cpi",0.3,1981,3,1980,NA,1.5,7.94150642799332,8.73468941550457,11.5813425032741,8.33809792174894,FALSE,8.92647752399574
"CAN","cpi",0.3,1982,3,1982,NA,0,10.1935273023496,10.3198063278699,10.1124203763629,10.2566668151097,FALSE,0.358013099767775
"CAN","cpi",0.3,1982,3,1982,NA,0.5,9.71194410359888,10.5051270911101,10.1124203763629,10.1085355973545,TRUE,0.793182987511244
"CAN","cpi",0.3,1982,3,1981,NA,1,11.3743971893683,12.1675801768796,10.1124203763629,11.770988683124,FALSE,4.3988310246695
"CAN","cpi",0.3,1982,3,1981,NA,1.5,12.4735335413725,13.2667165288837,10.1124203763629,12.8701250351281,FALSE,7.53922060182422
"CAN","cpi",0.3,1983,3,1983,NA,0,5.67009306103263,5.79193122226516,5.67091787896303,5.7310121416489,TRUE,0.121838161232537
"CAN","cpi",0.3,1983,3,1983,NA,0.5,4.51683866634091,5.31002165385216,5.67091787896303,4.91343016009654,FALSE,1.8243150592566
"CAN","cpi",0.3,1983,3,1982,NA,1,8.78841000490494,9.58159299241619,5.67091787896303,9.18500149866057,FALSE,9.70030334734527
"CAN","cpi",0.3,1983,3,1982,NA,1.5,9.29013152193804,10.0833145094493,5.67091787896303,9.68672301569366,FALSE,11.1337933960113
"CAN","cpi",0.3,1984,3,1984,NA,0,NA,NA,4.19799576814029,NA,NA,NA
"CAN","cpi",0.3,1984,3,1984,NA,0.5,5.46111536648895,6.25429835400019,4.19799576814029,5.85770686024457,FALSE,4.40209612565027
"CAN","cpi",0.3,1984,3,1983,NA,1,5.122503947021,6.40856321290757,4.19799576814029,5.76553357996429,FALSE,3.92751120554575
"CAN","cpi",0.3,1984,3,1983,NA,1.5,2.27677004652842,3.56282931241499,4.19799576814029,2.9197996794717,FALSE,3.10082056795885
"CAN","cpi",0.3,1985,3,1985,NA,0,3.79886576280759,3.90949403989997,3.86444262005169,3.85417990135378,TRUE,0.110628277092384
"CAN","cpi",0.3,1985,3,1985,NA,0.5,3.82330893007337,4.61649191758461,3.86444262005169,4.21990042382899,TRUE,0.793182987511244
"CAN","cpi",0.3,1985,3,1984,NA,1,NA,NA,3.86444262005169,NA,NA,NA
"CAN","cpi",0.3,1985,3,1984,NA,1.5,8.23340510929793,9.02658809680918,3.86444262005169,8.62999660305356,FALSE,13.2759329567862
"CAN","cpi",0.3,1986,3,1986,NA,0,3.64112239824431,4.43430538575555,4.08685396749431,4.03771389199993,TRUE,0.793182987511244
"CAN","cpi",0.3,1986,3,1986,NA,0.5,3.98560183127966,4.77878481879091,4.08685396749431,4.38219332503529,TRUE,0.793182987511244
"CAN","cpi",0.3,1986,3,1985,NA,1,2.98190826705287,3.77509125456411,4.08685396749431,3.37849976080849,FALSE,1.68393359588324
"CAN","cpi",0.3,1986,3,1985,NA,1.5,4.55650709525394,5.34969008276518,4.08685396749431,4.95309858900956,FALSE,2.13504906682447
"CAN","cpi",0.3,1987,3,1987,NA,0,NA,NA,4.23980729277887,NA,NA,NA
"CAN","cpi",0.3,1987,3,1987,NA,0.5,3.73683011704523,4.53001310455647,4.23980729277887,4.13342161080085,TRUE,0.793182987511244
"CAN","cpi",0.3,1987,3,1986,NA,1,3.26481838789236,4.05800137540361,4.23980729277887,3.66140988164798,FALSE,1.31262846572629
"CAN","cpi",0.3,1987,3,1986,NA,1.5,4.40583618767952,5.19901917519076,4.23980729277887,4.80242768143514,FALSE,1.26755125865595
"CAN","cpi",0.3,1988,3,1988,NA,0,3.63258249676989,4.2550807431373,3.92899537638065,3.9438316199536,TRUE,0.622498246367416
"CAN","cpi",0.3,1988,3,1988,NA,0.5,3.04294303022441,3.66544127659183,3.92899537638065,3.35419215340812,FALSE,1.37550996004977
"CAN","cpi",0.3,1988,3,1987,NA,1,NA,NA,3.92899537638065,NA,NA,NA
"CAN","cpi",0.3,1988,3,1987,NA,1.5,3.49802780150884,4.29121078902008,3.92899537638065,3.89461929526446,TRUE,0.793182987511244
"CAN","cpi",0.3,1989,3,1989,NA,0,4.9174536470658,4.98515272079091,4.82821664544208,4.95130318392835,FALSE,0.322661935507174
"CAN","cpi",0.3,1989,3,1989,NA,0.5,3.83365793371511,4.62684092122635,4.82821664544208,4.23024942747073,FALSE,1.36854219955617
"CAN","cpi",0.3,1989,3,1988,NA,1,3.661826452276,4.45500943978725,4.82821664544208,4.05841794603162,FALSE,1.85948928938219
"CAN","cpi",0.3,1989,3,1988,NA,1.5,2.20125206562738,2.99443505313862,4.82821664544208,2.597843559383,FALSE,6.03255896552112
"CAN","cpi",0.3,1990,3,1990,NA,0,4.07810352551067,4.87128651302192,4.64347549432717,4.4746950192663,TRUE,0.793182987511244
"CAN","cpi",0.3,1990,3,1990,NA,0.5,4.56828019526916,5.36146318278041,4.64347549432717,4.96487168902479,TRUE,0.793182987511244
"CAN","cpi",0.3,1990,3,1989,NA,1,5.04212224593514,5.83530523344638,4.64347549432717,5.43871373969076,FALSE,1.93217370639115
"CAN","cpi",0.3,1990,3,1989,NA,1.5,2.97666250648248,3.76984549399372,4.64347549432717,3.3732540002381,FALSE,3.28926870274967
"CAN","cpi",0.3,1991,3,1991,NA,0,5.57392081477326,5.64714658407438,5.4258100696218,5.61053369942382,FALSE,0.496399326876738
"CAN","cpi",0.3,1991,3,1991,NA,0.5,7.42540146102032,8.21858444853157,5.4258100696218,7.82199295477594,FALSE,6.50630124864989
"CAN","cpi",0.3,1991,3,1990,NA,1,3.27057669008535,4.06375967759659,5.4258100696218,3.66716818384097,FALSE,4.68475553615469
"CAN","cpi",0.3,1991,3,1990,NA,1.5,4.42822799288602,5.22141098039726,5.4258100696218,4.82481948664164,FALSE,1.37718038529563
"CAN","cpi",0.3,1992,3,1992,NA,0,NA,NA,1.47496888572843,NA,NA,NA
"CAN","cpi",0.3,1992,3,1992,NA,0.5,NA,NA,1.47496888572843,NA,NA,NA
"CAN","cpi",0.3,1992,3,1991,NA,1,2.37121421857651,3.16439720608775,1.47496888572843,2.76780571233213,FALSE,3.35388393850575
"CAN","cpi",0.3,1992,3,1991,NA,1.5,6.75279033284607,7.54597332035732,1.47496888572843,7.14938182660169,FALSE,15.8726728364188
"CAN","cpi",0.3,1993,3,1993,NA,0,NA,NA,NA,NA,NA,NA
"CAN","cpi",0.3,1993,3,1993,NA,0.5,NA,NA,NA,NA,NA,NA
"CAN","cpi",0.3,1993,3,1992,NA,1,NA,NA,NA,NA,NA,NA
"CAN","cpi",0.3,1993,3,1992,NA,1.5,NA,NA,NA,NA,NA,NA
"CAN","cpi",0.3,1994,3,1994,NA,0,NA,NA,NA,NA,NA,NA
"CAN","cpi",0.3,1994,3,1994,NA,0.5,NA,NA,NA,NA,NA,NA
"CAN","cpi",0.3,1994,3,1993,NA,1,NA,NA,NA,NA,NA,NA
"CAN","cpi",0.3,1994,3,1993,NA,1.5,NA,NA,NA,NA,NA,NA
"CAN","cpi",0.3,1995,3,1995,NA,0,NA,NA,2.11688403676572,NA,NA,NA
"CAN","cpi",0.3,1995,3,1995,NA,0.5,2.12278661697522,2.91596960448647,2.11688403676572,2.51937811073084,FALSE,0.810047502395548
"CAN","cpi",0.3,1995,3,1994,NA,1,0.322804917066323,1.11598790457757,2.11688403676572,0.719396410821945,FALSE,3.65288622233453
"CAN","cpi",0.3,1995,3,1994,NA,1.5,-1.44313753300391,-0.649954545492661,2.11688403676572,-1.04654603924828,FALSE,8.69843607967803
"CAN","cpi",0.3,1996,3,1996,NA,0,1.03121598981464,1.82439897732588,1.55309584667184,1.42780748357026,TRUE,0.793182987511244
"CAN","cpi",0.3,1996,3,1996,NA,0.5,NA,NA,1.55309584667184,NA,NA,NA
"CAN","cpi",0.3,1996,3,1995,NA,1,NA,NA,1.55309584667184,NA,NA,NA
"CAN","cpi",0.3,1996,3,1995,NA,1.5,2.52573121799884,3.31891420551009,1.55309584667184,2.92232271175447,FALSE,3.57214119130268
"CAN","cpi",0.3,1997,3,1997,NA,0,1.43432389826035,2.036393057882,1.60528783555959,1.73535847807117,TRUE,0.602069159621655
"CAN","cpi",0.3,1997,3,1997,NA,0.5,1.80974905616713,2.41181821578879,1.60528783555959,2.11078363597796,FALSE,1.1862440756432
"CAN","cpi",0.3,1997,3,1996,NA,1,0.588369843551934,1.38155283106318,1.60528783555959,0.984961337307556,FALSE,1.432425857501
"CAN","cpi",0.3,1997,3,1996,NA,1.5,NA,NA,1.60528783555959,NA,NA,NA
"CAN","cpi",0.3,1998,3,1998,NA,0,0.719929312467993,1.35024011522621,0.988908029337191,1.0350847138471,TRUE,0.630310802758216
"CAN","cpi",0.3,1998,3,1998,NA,0.5,1.37018115299196,2.00049195575018,0.988908029337191,1.68533655437107,FALSE,1.71966258462899
"CAN","cpi",0.3,1998,3,1997,NA,1,1.85500434959194,2.64818733710319,0.988908029337191,2.25159584334757,FALSE,3.26774390252483
"CAN","cpi",0.3,1998,3,1997,NA,1.5,1.66536660018244,3.11438973733909,0.988908029337191,2.38987816876076,FALSE,3.38176191100022
"CAN","cpi",0.3,1999,3,1999,NA,0,1.72750219042549,1.82486657876374,1.7107350135213,1.77618438459462,FALSE,0.145270608064519
"CAN","cpi",0.3,1999,3,1999,NA,0.5,0.787764591523674,1.27042036830693,1.7107350135213,1.0290924799153,FALSE,1.74069762025288
"CAN","cpi",0.3,1999,3,1998,NA,1,1.45518394688643,2.24836693439767,1.7107350135213,1.85177544064205,TRUE,0.793182987511244
"CAN","cpi",0.3,1999,3,1998,NA,1.5,2.09058683350651,3.80232778223595,1.7107350135213,2.94645730787123,FALSE,2.79703186297291
"CAN","cpi",0.3,2000,3,2000,NA,0,2.66143098747296,2.75907736965004,2.6718361971244,2.7102541785615,TRUE,0.0976463821770812
"CAN","cpi",0.3,2000,3,2000,NA,0.5,2.07795815217191,2.6101458758952,2.6718361971244,2.34405201403356,FALSE,0.70844578437814
"CAN","cpi",0.3,2000,3,1999,NA,1,2.67883787405647,3.47202086156772,2.6718361971244,3.07542936781209,FALSE,0.813187778745734
"CAN","cpi",0.3,2000,3,1999,NA,1.5,1.88149886426162,2.67468185177286,2.6718361971244,2.27809035801724,TRUE,0.793182987511244
"CAN","cpi",0.3,2001,3,2001,NA,0,2.5202570841494,3.03067461553763,2.47906219852806,2.77546584984351,FALSE,0.628117204592043
"CAN","cpi",0.3,2001,3,2001,NA,0.5,2.18045878933693,2.69087632072516,2.47906219852806,2.43566755503104,TRUE,0.510417531388232
"CAN","cpi",0.3,2001,3,2000,NA,1,3.29299545944281,4.08617844695405,2.47906219852806,3.68958695319843,FALSE,3.11870659012479
"CAN","cpi",0.3,2001,3,2000,NA,1.5,2.23965865565314,3.78575713859032,2.47906219852806,3.01270789712173,TRUE,1.54609848293718
"CAN","cpi",0.3,2002,3,2002,NA,0,2.22503287393137,2.31889182579564,2.20880570551249,2.27196234986351,FALSE,0.140222290203942
"CAN","cpi",0.3,2002,3,2002,NA,0.5,1.32956777334931,1.83734046643321,2.20880570551249,1.58345411989126,FALSE,1.56910194759612
"CAN","cpi",0.3,2002,3,2001,NA,1,1.86851274470336,2.6616957322146,2.20880570551249,2.26510423845898,TRUE,0.793182987511243
"CAN","cpi",0.3,2002,3,2001,NA,1.5,2.49105891615834,3.55010194942185,2.20880570551249,3.02058043279009,FALSE,1.86548077796594
"CAN","cpi",0.3,2003,3,2003,NA,0,2.70472658046131,2.72180747195204,2.71189071546809,2.71326702620668,TRUE,0.0170808914907346
"CAN","cpi",0.3,2003,3,2003,NA,0.5,4.17050717304363,4.8581458124263,2.71189071546809,4.51432649273496,FALSE,4.85511423245564
"CAN","cpi",0.3,2003,3,2002,NA,1,3.51236349777104,4.20000213715371,2.71189071546809,3.85618281746238,FALSE,2.97470373167682
"CAN","cpi",0.3,2003,3,2002,NA,1.5,2.05020457880051,2.73784321818318,2.71189071546809,2.39402389849184,TRUE,0.68763863938267
"CAN","cpi",0.3,2004,3,2004,NA,0,1.7622994017122,1.78703764594809,1.83151661303942,1.77466852383015,FALSE,0.15182100735398
"CAN","cpi",0.3,2004,3,2004,NA,0.5,1.1736043714699,1.93160433156882,1.83151661303942,1.55260435151936,TRUE,0.75799996009892
"CAN","cpi",0.3,2004,3,2003,NA,1,1.41515794593339,2.17315790603231,1.83151661303942,1.79415792598285,TRUE,0.75799996009892
"CAN","cpi",0.3,2004,3,2003,NA,1.5,3.8879927454077,4.64599270550662,1.83151661303942,4.26699272545716,FALSE,6.6336460525797
"CAN","cpi",0.3,2005,3,2005,NA,0,2.31572780164359,2.37117926781548,2.18071628336509,2.34345353472953,FALSE,0.441198661253314
"CAN","cpi",0.3,2005,3,2005,NA,0.5,1.23101628269467,1.77541048365192,2.18071628336509,1.50321338317329,FALSE,1.70241077156631
"CAN","cpi",0.3,2005,3,2004,NA,1,1.24384813336671,2.03703112087796,2.18071628336509,1.64043962712234,FALSE,1.20371202318877
"CAN","cpi",0.3,2005,3,2004,NA,1.5,1.63543525643052,2.43243042583415,2.18071628336509,2.03393284113233,TRUE,0.796995169403632
"CAN","cpi",0.3,2006,3,2006,NA,0,2.05528822964737,2.13499930820577,1.97519342012289,2.09514376892657,FALSE,0.308553391485502
"CAN","cpi",0.3,2006,3,2006,NA,0.5,1.82745945642346,2.36126581555698,1.97519342012289,2.09436263599022,TRUE,0.53380635913352
"CAN","cpi",0.3,2006,3,2005,NA,1,2.56169971232498,3.35488269983622,1.97519342012289,2.9582912060806,FALSE,2.4689152509458
"CAN","cpi",0.3,2006,3,2005,NA,1.5,1.22862814103095,2.06909109858517,1.97519342012289,1.64885961980806,TRUE,0.840462957554225
"CAN","cpi",0.3,2007,3,2007,NA,0,2.06847186582587,2.14520057622028,2.10062087284572,2.10683622102307,TRUE,0.076728710394411
"CAN","cpi",0.3,2007,3,2007,NA,0.5,1.9392621981437,2.41333584352335,2.10062087284572,2.17629902083353,TRUE,0.474073645379642
"CAN","cpi",0.3,2007,3,2006,NA,1,1.11202543334294,1.90520842085418,2.10062087284572,1.50861692709856,FALSE,1.35150427891565
"CAN","cpi",0.3,2007,3,2006,NA,1.5,1.76259466974843,2.55577765725967,2.10062087284572,2.15918616350405,TRUE,0.793182987511244
"CAN","cpi",0.3,2008,3,2008,NA,0,2.84142781002715,2.90016129294941,2.31447335265955,2.87079455148828,FALSE,1.56431764682968
"CAN","cpi",0.3,2008,3,2008,NA,0.5,1.09281013438285,1.52729615952248,2.31447335265955,1.31005314695267,FALSE,2.68356371981698
"CAN","cpi",0.3,2008,3,2007,NA,1,1.07371900607106,1.8669019935823,2.31447335265955,1.47031049982668,FALSE,2.07195829916054
"CAN","cpi",0.3,2008,3,2007,NA,1.5,2.06794045966832,2.86112344717956,2.31447335265955,2.46453195342394,TRUE,0.793182987511244
"CAN","cpi",0.3,2009,3,2009,NA,0,0.164271869336027,0.209972823363415,0.284533874408197,0.187122346349721,FALSE,0.25873252844105
"CAN","cpi",0.3,2009,3,2009,NA,0.5,-0.279748180223096,0.134249656129863,0.284533874408197,-0.0727492620466167,FALSE,0.8433813171482
"CAN","cpi",0.3,2009,3,2008,NA,1,3.42120876981389,4.21439175732513,0.284533874408197,3.81780026356951,FALSE,9.75511126009894
"CAN","cpi",0.3,2009,3,2008,NA,1.5,1.29016003254857,2.08334302005981,0.284533874408197,1.68675152630419,FALSE,3.66640058219802
"CAN","cpi",0.3,2010,3,2010,NA,0,1.57254418885739,1.6454471404134,1.75525687020327,1.6089956646354,FALSE,0.386645036669923
"CAN","cpi",0.3,2010,3,2010,NA,0.5,1.76163885720853,2.06055119331513,1.75525687020327,1.91109502526183,FALSE,0.317146584693055
"CAN","cpi",0.3,2010,3,2009,NA,1,0.659682439394623,1.32490913759488,1.75525687020327,0.992295788494754,FALSE,1.89479164850994
"CAN","cpi",0.3,2010,3,2009,NA,1.5,0.488511559060246,1.28169454657149,1.75525687020327,0.885103052815867,FALSE,2.14621819788777
"CAN","cpi",0.3,2011,3,2011,NA,0,2.81605623893737,2.91725204230458,2.85717434028225,2.86665414062098,TRUE,0.101195803367209
"CAN","cpi",0.3,2011,3,2011,NA,0.5,2.61105953103927,2.92060810685615,2.85717434028225,2.76583381894771,TRUE,0.309548575816883
"CAN","cpi",0.3,2011,3,2010,NA,1,1.06795571600895,1.71793716738543,2.85717434028225,1.39294644169719,FALSE,3.90494480251023
"CAN","cpi",0.3,2011,3,2010,NA,1.5,1.31753988023538,1.96752133161187,2.85717434028225,1.64253060592363,FALSE,3.1918471904347
"CAN","cpi",0.3,2012,3,2012,NA,0,1.47798209751976,1.57846811946812,1.50118536134935,1.52822510849394,TRUE,0.100486021948362
"CAN","cpi",0.3,2012,3,2012,NA,0.5,1.77276988594801,2.07581055350778,1.50118536134935,1.92429021972789,FALSE,1.07899645212737
"CAN","cpi",0.3,2012,3,2011,NA,1,1.60284100741546,2.39606384152612,1.50118536134935,1.99945242447079,FALSE,1.08366753715669
"CAN","cpi",0.3,2012,3,2011,NA,1.5,2.08489815692428,2.87812099103495,1.50118536134935,2.48150957397962,FALSE,2.46097367861049
"CAN","cpi",0.3,2013,3,2013,NA,0,1.02477489546105,1.08783537300316,0.931270594714462,1.05630513423211,FALSE,0.330215622532369
"CAN","cpi",0.3,2013,3,2013,NA,0.5,0.982038054578945,1.35723103651969,0.931270594714462,1.16963454554932,FALSE,0.520242867267844
"CAN","cpi",0.3,2013,3,2012,NA,1,0.721068917015337,1.4562928655595,0.931270594714462,1.08868089128742,TRUE,0.735223948544168
"CAN","cpi",0.3,2013,3,2012,NA,1.5,1.74914030154965,2.54232328906089,0.931270594714462,2.14573179530527,FALSE,3.12995357846891
"CAN","cpi",0.3,2014,3,2014,NA,0,1.95936316352325,2.03789381937908,1.87639912240215,1.99862849145116,FALSE,0.315570773344678
"CAN","cpi",0.3,2014,3,2014,NA,0.5,1.63323659114296,1.95140293051079,1.87639912240215,1.79231976082687,TRUE,0.318166339367834
"CAN","cpi",0.3,2014,3,2013,NA,1,1.03369172311276,1.7796080732852,1.87639912240215,1.40664989819898,FALSE,1.0224622047923
"CAN","cpi",0.3,2014,3,2013,NA,1.5,1.1177697240233,1.91095271153455,1.87639912240215,1.51436121777893,TRUE,0.793182987511244
"CAN","cpi",0.3,2015,3,2015,NA,0,1.16514977402239,1.2554632344732,1.11090953952792,1.2103065042478,FALSE,0.245285559006448
"CAN","cpi",0.3,2015,3,2015,NA,0.5,0.131076191579796,0.786018439856322,1.11090953952792,0.458547315718059,FALSE,1.58320253305251
"CAN","cpi",0.3,2015,3,2014,NA,1,1.24307669014308,1.89801893841961,1.11090953952792,1.57054781428135,FALSE,1.03256267860557
"CAN","cpi",0.3,2015,3,2014,NA,1.5,1.48569960165595,2.27888258916719,1.11090953952792,1.88229109541157,FALSE,1.86401173644847
"CAN","cpi",0.3,2016,3,2016,NA,0,1.37801673553081,1.45459661390903,1.41168586698797,1.41630667471992,TRUE,0.0765798783782179
"CAN","cpi",0.3,2016,3,2016,NA,0.5,0.82303748187264,1.53640568398587,1.41168586698797,1.17972158292925,TRUE,0.713368202113226
"CAN","cpi",0.3,2016,3,2015,NA,1,1.50718155946009,2.22054976157331,1.41168586698797,1.8638656605167,FALSE,0.986213037747858
"CAN","cpi",0.3,2016,3,2015,NA,1.5,0.673638533395239,1.46682152090648,1.41168586698797,1.07023002715086,TRUE,0.793182987511244
"CAN","cpi",0.3,2017,3,2017,NA,0,1.46990837626783,1.53994547666736,1.57888581671161,1.50492692646759,FALSE,0.181295214811688
"CAN","cpi",0.3,2017,3,2017,NA,0.5,1.7202945581998,2.46143780744303,1.57888581671161,2.09086618282141,FALSE,1.14516822492377
"CAN","cpi",0.3,2017,3,2016,NA,1,0.775948878906629,1.51709212814986,1.57888581671161,1.14652050352824,FALSE,0.917696645133952
"CAN","cpi",0.3,2017,3,2016,NA,1.5,0.871289351474642,1.66447233898589,1.57888581671161,1.26788084523026,TRUE,0.793182987511244
"CAN","cpi",0.3,2018,3,2018,NA,0,2.37711579183242,2.44923495808924,2.23316270166586,2.41317537496083,FALSE,0.483413709589855
"CAN","cpi",0.3,2018,3,2018,NA,0.5,2.18910506904153,2.86707731725237,2.23316270166586,2.52809119314695,TRUE,0.677972248210835
"CAN","cpi",0.3,2018,3,2017,NA,1,0.829014895055547,1.50698714326638,2.23316270166586,1.16800101916097,FALSE,2.75275955792362
"CAN","cpi",0.3,2018,3,2017,NA,1.5,1.67639252884531,2.46957551635656,2.23316270166586,2.07298402260093,TRUE,0.793182987511244
"CAN","cpi",0.3,2019,3,2019,NA,0,NA,NA,1.91921619871868,NA,NA,NA
"CAN","cpi",0.3,2019,3,2019,NA,0.5,1.11918991771506,1.82738620835139,1.91921619871868,1.47328806303322,FALSE,0.970567691685738
"CAN","cpi",0.3,2019,3,2018,NA,1,1.88060466514516,2.58880095578149,1.91921619871868,2.23470281046333,TRUE,0.708196290636328
"CAN","cpi",0.3,2019,3,2018,NA,1.5,1.9237141319195,2.71689711943075,1.91921619871868,2.32030562567512,FALSE,0.806034225227875
"CAN","cpi",0.3,2020,3,2020,NA,0,0.276997142957975,1.07018013046922,0.71139989671781,0.673588636713597,TRUE,0.793182987511244
"CAN","cpi",0.3,2020,3,2020,NA,0.5,NA,NA,0.71139989671781,NA,NA,NA
"CAN","cpi",0.3,2020,3,2019,NA,1,NA,NA,0.71139989671781,NA,NA,NA
"CAN","cpi",0.3,2020,3,2019,NA,1.5,1.38046342562342,2.17364641313466,0.71139989671781,1.77705491937904,FALSE,2.7047930700987
"CAN","cpi",0.3,2021,3,2021,NA,0,2.85597317171558,3.64915615922682,3.31148121717802,3.2525646654712,TRUE,0.793182987511244
"CAN","cpi",0.3,2021,3,2021,NA,0.5,1.77114331127131,2.56432629878256,3.31148121717802,2.16773480502693,FALSE,2.92791132578401
"CAN","cpi",0.3,2021,3,2020,NA,1,1.2141162510076,2.00729923851884,3.31148121717802,1.61070774476322,FALSE,4.51941721225177
"CAN","cpi",0.3,2021,3,2020,NA,1.5,NA,NA,3.31148121717802,NA,NA,NA
"CAN","cpi",0.3,2022,3,2022,NA,0,6.19023742425321,6.98342041176445,6.50977236228281,6.58682891800883,TRUE,0.793182987511244
"CAN","cpi",0.3,2022,3,2022,NA,0.5,5.19241363805336,5.9855966255646,6.50977236228281,5.58900513180898,FALSE,2.29082794956327
"CAN","cpi",0.3,2022,3,2021,NA,1,2.9593792714703,3.75256225898155,6.50977236228281,3.35597076522593,FALSE,8.67092613980057
"CAN","cpi",0.3,2022,3,2021,NA,1.5,1.49799072790863,2.29117371541988,6.50977236228281,1.89458222166426,FALSE,12.8463219785482
"CAN","cpi",0.3,2023,3,2023,NA,0,3.60389868982055,4.32053253849427,3.78831288758619,3.96221561415741,TRUE,0.716633848673721
"CAN","cpi",0.3,2023,3,2023,NA,0.5,3.25388013233274,3.97051398100646,3.78831288758619,3.6121970566696,TRUE,0.716633848673721
"CAN","cpi",0.3,2023,3,2022,NA,1,5.12786833180394,5.84450218047766,3.78831288758619,5.4861852561408,FALSE,4.54393511786729
"CAN","cpi",0.3,2023,3,2022,NA,1.5,3.49725382825249,4.21388767692622,3.78831288758619,3.85557075258935,TRUE,0.716633848673721
"CAN","cpi",0.3,2024,3,2023,NA,1,4.37158916913877,5.07402702893601,NA,4.72280809903739,NA,NA
"CAN","cpi",0.3,2024,3,2023,NA,1.5,4.01583616623251,4.71827402602975,NA,4.36705509613113,NA,NA
"CAN","cpi",0.4,1959,3,1959,NA,0,0.96047092761078,1.53935340101508,1.19382698397654,1.24991216431293,TRUE,0.578882473404302
"CAN","cpi",0.4,1959,3,1959,NA,0.5,0.148398494888176,0.727280968292478,1.19382698397654,0.437839731590327,FALSE,2.13403585901784
"CAN","cpi",0.4,1959,3,1958,NA,1,0.633073425727606,2.88418183199132,1.19382698397654,1.75862762885946,TRUE,2.25110840626371
"CAN","cpi",0.4,1959,3,1958,NA,1.5,0.6485175240058,2.89962593026951,1.19382698397654,1.77407172713766,TRUE,2.25110840626371
"CAN","cpi",0.4,1960,3,1960,NA,0,0.732545081831684,1.31468100335786,1.34209404870695,1.02361304259477,FALSE,0.673512739356481
"CAN","cpi",0.4,1960,3,1960,NA,0.5,0.247915519418572,0.830051440944748,1.34209404870695,0.53898348018166,FALSE,2.28894461406686
"CAN","cpi",0.4,1960,3,1959,NA,1,3.41606569813941,4.49912177564944,1.34209404870695,3.95759373689442,FALSE,7.99629490895155
"CAN","cpi",0.4,1960,3,1959,NA,1.5,-1.4150048541599,-0.331948776649869,1.34209404870695,-0.873476815404885,FALSE,6.66319882869943
"CAN","cpi",0.4,1961,3,1961,NA,0,0.710430245318243,1.3079967165619,1.00921348094007,1.00921348094007,TRUE,0.597566471243657
"CAN","cpi",0.4,1961,3,1961,NA,0.5,0.710430245318243,1.3079967165619,1.00921348094007,1.00921348094007,TRUE,0.597566471243657
"CAN","cpi",0.4,1961,3,1960,NA,1,-0.487757576151483,0.595298501358549,1.00921348094007,0.0537704626035329,FALSE,2.46277267611511
"CAN","cpi",0.4,1961,3,1960,NA,1.5,-1.40370983769505,-0.320653760185019,1.00921348094007,-0.862181798940035,FALSE,5.51594688126034
"CAN","cpi",0.4,1962,3,1962,NA,0,0.798589105851509,1.40605894877805,1.04957947883042,1.10232402731478,TRUE,0.60746984292654
"CAN","cpi",0.4,1962,3,1962,NA,0.5,-0.30373492146327,0.30373492146327,1.04957947883042,0,FALSE,3.09361836748369
"CAN","cpi",0.4,1962,3,1961,NA,1,-0.391217102693822,0.391217102693822,1.04957947883042,0,FALSE,2.97697545917629
"CAN","cpi",0.4,1962,3,1961,NA,1.5,-0.391217102693822,0.391217102693822,1.04957947883042,0,FALSE,2.97697545917629
"CAN","cpi",0.4,1963,3,1963,NA,0,1.83641844474572,1.99341614587831,1.60677118395228,1.91491729531202,FALSE,0.922488570444047
"CAN","cpi",0.4,1963,3,1963,NA,0.5,0.75295922409025,0.920698205144758,1.60677118395228,0.836828714617504,FALSE,2.45464891041293
"CAN","cpi",0.4,1963,3,1962,NA,1,2.11324906458125,3.01498074372162,1.60677118395228,2.56411490415144,FALSE,2.58999128123693
"CAN","cpi",0.4,1963,3,1962,NA,1.5,-0.450865839570185,0.450865839570185,1.60677118395228,0,FALSE,4.75474949374737
"CAN","cpi",0.4,1964,3,1964,NA,0,1.67394271482479,2.30360241409617,1.88764670034376,1.98877256446048,TRUE,0.629659699271377
"CAN","cpi",0.4,1964,3,1964,NA,0.5,1.06886021264039,1.69851991191176,1.88764670034376,1.38369006227607,FALSE,1.26008232737803
"CAN","cpi",0.4,1964,3,1963,NA,1,4.98074956510216,5.80013624184295,1.88764670034376,5.39044290347256,FALSE,11.1297295592688
"CAN","cpi",0.4,1964,3,1963,NA,1.5,-0.409693338370397,0.409693338370396,1.88764670034376,0,FALSE,5.74589788331867
"CAN","cpi",0.4,1965,3,1965,NA,0,2.00623327754436,2.68490767083561,2.29538304394236,2.34557047418999,TRUE,0.678674393291242
"CAN","cpi",0.4,1965,3,1965,NA,0.5,1.27145728292092,1.95013167621216,2.29538304394236,1.61079447956654,FALSE,1.82951228572523
"CAN","cpi",0.4,1965,3,1964,NA,1,2.05504909620167,2.79532814739527,2.29538304394236,2.42518862179847,TRUE,0.740279051193601
"CAN","cpi",0.4,1965,3,1964,NA,1.5,0.447963026719598,1.1882420779132,2.29538304394236,0.818102552316399,FALSE,4.43074893795746
"CAN","cpi",0.4,1966,3,1966,NA,0,3.74076576009418,3.89945399717999,3.72486065470629,3.82010987863709,FALSE,0.211705255045452
"CAN","cpi",0.4,1966,3,1966,NA,0.5,3.85140265756474,4.13106532034653,3.72486065470629,3.99123398895563,FALSE,0.701469338976624
"CAN","cpi",0.4,1966,3,1965,NA,1,2.80247000527974,3.61197136963733,3.72486065470629,3.20722068745854,FALSE,1.18579898125412
"CAN","cpi",0.4,1966,3,1965,NA,1.5,1.20188756414079,2.01138892849838,3.72486065470629,1.60663824631958,FALSE,6.52107378505062
"CAN","cpi",0.4,1967,3,1967,NA,0,3.70915154896596,3.82622543760668,3.49360316391996,3.76768849328632,FALSE,0.835568505460717
"CAN","cpi",0.4,1967,3,1967,NA,0.5,2.14310567651748,2.67180381187772,3.49360316391996,2.4074547441976,FALSE,3.26802930883436
"CAN","cpi",0.4,1967,3,1966,NA,1,2.77144259024736,3.59062387115831,3.49360316391996,3.18103323070284,TRUE,0.819181280910952
"CAN","cpi",0.4,1967,3,1966,NA,1.5,4.241690964417,5.06087224532796,3.49360316391996,4.65128160487248,FALSE,3.31280728256776
"CAN","cpi",0.4,1968,3,1968,NA,0,4.10878951150077,4.23696940194714,3.95128347779386,4.17287945672396,FALSE,0.65320000280276
"CAN","cpi",0.4,1968,3,1968,NA,0.5,3.62221940998348,4.51972470561357,3.95128347779386,4.07097205779852,TRUE,0.897505295630092
"CAN","cpi",0.4,1968,3,1967,NA,1,5.39646417342344,6.29396946905353,3.95128347779386,5.84521682123848,FALSE,5.71477428106202
"CAN","cpi",0.4,1968,3,1967,NA,1.5,1.80690593458722,2.70441123021731,3.95128347779386,2.25565858240226,FALSE,5.05374612088525
"CAN","cpi",0.4,1969,3,1969,NA,0,4.39189966584556,4.54603707563229,4.42679496126681,4.46896837073893,TRUE,0.154137409786729
"CAN","cpi",0.4,1969,3,1969,NA,0.5,2.53897175411724,3.39326863379705,4.42679496126681,2.96612019395715,FALSE,4.29938463791235
"CAN","cpi",0.4,1969,3,1968,NA,1,6.29772786056816,7.15202474024798,4.42679496126681,6.72487630040807,FALSE,7.09073987735098
"CAN","cpi",0.4,1969,3,1968,NA,1.5,3.8894960896055,4.74379296928531,4.42679496126681,4.31664452944541,TRUE,0.854296879679813
"CAN","cpi",0.4,1970,3,1970,NA,0,3.50048136349571,3.55346894809158,3.28128405769805,3.52697515579364,FALSE,0.783645270588076
"CAN","cpi",0.4,1970,3,1970,NA,0.5,4.11218281401415,5.19523889152419,3.28128405769805,4.65371085276917,FALSE,3.85271859856372
"CAN","cpi",0.4,1970,3,1969,NA,1,3.98595071212206,5.06900678963209,3.28128405769805,4.52747875087707,FALSE,3.43194492559006
"CAN","cpi",0.4,1970,3,1969,NA,1.5,1.53821043407628,2.62126651158631,3.28128405769805,2.07973847283129,FALSE,3.28311456454915
"CAN","cpi",0.4,1971,3,1971,NA,0,2.76900518171235,2.90964133412145,2.64123406634756,2.8393232579169,FALSE,0.566539870291734
