isdrw/probabilistic-benchmark-forecasts/results/t_quantiles_prediction/mean 0 assumption/t_prediction_rw_2026-02-17_10-22-02.csv
"country","target","tau","target_year","target_quarter","forecast_year","forecast_quarter","horizon","lower_bound","upper_bound","truth_value","prediction","covered","IS"
"CAN","cpi",0.1,1959,3,1959,NA,0,1.12102197501966,1.3788023536062,1.19382698397654,1.24991216431293,TRUE,0.257780378586547
"CAN","cpi",0.1,1959,3,1959,NA,0.5,0.308949542297053,0.566729920883601,1.19382698397654,0.437839731590327,FALSE,1.65132940768197
"CAN","cpi",0.1,1959,3,1958,NA,1,1.62973743956619,1.88751781815274,1.19382698397654,1.75862762885946,FALSE,1.22647027989688
"CAN","cpi",0.1,1959,3,1958,NA,1.5,1.64518153784438,1.90296191643093,1.19382698397654,1.77407172713766,FALSE,1.26079049829286
"CAN","cpi",0.1,1960,3,1960,NA,0,0.923907606995408,1.12331847819414,1.34209404870695,1.02361304259477,FALSE,0.685578805671651
"CAN","cpi",0.1,1960,3,1960,NA,0.5,0.439278044582295,0.638688915781024,1.34209404870695,0.53898348018166,FALSE,1.7625333888119
"CAN","cpi",0.1,1960,3,1959,NA,1,3.82870354760115,4.0864839261877,1.34209404870695,3.95759373689442,FALSE,5.7835792650181
"CAN","cpi",0.1,1960,3,1959,NA,1.5,-1.30469778091622,-0.442255849893551,1.34209404870695,-0.873476815404885,FALSE,4.82766392791267
"CAN","cpi",0.1,1961,3,1961,NA,0,0.92434450549894,1.0940824563812,1.00921348094007,1.00921348094007,TRUE,0.169737950882263
"CAN","cpi",0.1,1961,3,1961,NA,0.5,0.92434450549894,1.0940824563812,1.00921348094007,1.00921348094007,TRUE,0.169737950882263
"CAN","cpi",0.1,1961,3,1960,NA,1,-0.0751197266897408,0.182660651896807,1.00921348094007,0.0537704626035329,FALSE,2.09456444312714
"CAN","cpi",0.1,1961,3,1960,NA,1.5,-1.08161887460524,-0.642744723274833,1.00921348094007,-0.862181798940035,FALSE,4.10989238291908
"CAN","cpi",0.1,1962,3,1962,NA,0,1.00303561414366,1.2016124404859,1.04957947883042,1.10232402731478,TRUE,0.198576826342234
"CAN","cpi",0.1,1962,3,1962,NA,0.5,-0.099288413171117,0.0992884131711171,1.04957947883042,0,FALSE,2.31033475002956
"CAN","cpi",0.1,1962,3,1961,NA,1,-0.128890189293274,0.128890189293274,1.04957947883042,0,FALSE,2.30375657755797
"CAN","cpi",0.1,1962,3,1961,NA,1.5,-0.231601812958088,0.231601812958088,1.04957947883042,0,FALSE,2.28093177229912
"CAN","cpi",0.1,1963,3,1963,NA,0,1.89600624277802,1.93382834784601,1.60677118395228,1.91491729531202,FALSE,0.680566680236294
"CAN","cpi",0.1,1963,3,1963,NA,0.5,0.812392497050358,0.86126493218465,1.60677118395228,0.836828714617504,FALSE,1.70555299461792
"CAN","cpi",0.1,1963,3,1962,NA,1,2.43522471485816,2.69300509344471,1.60677118395228,2.56411490415144,FALSE,2.09878822504406
"CAN","cpi",0.1,1963,3,1962,NA,1.5,-0.200950628658608,0.200950628658608,1.60677118395228,0,FALSE,3.52594693574761
"CAN","cpi",0.1,1964,3,1964,NA,0,1.91092382238795,2.06662130653301,1.88764670034376,1.98877256446048,FALSE,0.207424422021035
"CAN","cpi",0.1,1964,3,1964,NA,0.5,1.30584132020354,1.46153880434861,1.88764670034376,1.38369006227607,FALSE,1.10260391968985
"CAN","cpi",0.1,1964,3,1963,NA,1,5.26155271417928,5.51933309276583,1.88764670034376,5.39044290347256,FALSE,7.75534929822105
"CAN","cpi",0.1,1964,3,1963,NA,1.5,-0.219812784625665,0.219812784625665,1.88764670034376,0,FALSE,4.14592315973599
"CAN","cpi",0.1,1965,3,1965,NA,0,2.26509673958107,2.4260442087989,2.29538304394236,2.34557047418999,TRUE,0.160947469217828
"CAN","cpi",0.1,1965,3,1965,NA,0.5,1.53032074495763,1.69126821417545,2.29538304394236,1.61079447956654,FALSE,1.50342486869983
"CAN","cpi",0.1,1965,3,1964,NA,1,2.30644488079328,2.54393236280365,2.29538304394236,2.42518862179847,FALSE,0.262069341679095
"CAN","cpi",0.1,1965,3,1964,NA,1.5,0.699358811311215,0.936846293321583,2.29538304394236,0.818102552316399,FALSE,3.25645803894542
"CAN","cpi",0.1,1966,3,1966,NA,0,3.80122514313956,3.83899461413461,3.72486065470629,3.82010987863709,FALSE,0.207468334180099
"CAN","cpi",0.1,1966,3,1966,NA,0.5,3.95854910901275,4.02391886889852,3.72486065470629,3.99123398895563,FALSE,0.584677436122347
"CAN","cpi",0.1,1966,3,1965,NA,1,3.11145687515365,3.30298449976342,3.72486065470629,3.20722068745854,FALSE,1.12903019114948
"CAN","cpi",0.1,1966,3,1965,NA,1.5,1.5108744340147,1.70240205862447,3.72486065470629,1.60663824631958,FALSE,4.68588006034715
"CAN","cpi",0.1,1967,3,1967,NA,0,3.75400577298105,3.78137121359159,3.49360316391996,3.76768849328632,FALSE,0.606037905190743
"CAN","cpi",0.1,1967,3,1967,NA,0.5,2.3450131992186,2.4698962891766,3.49360316391996,2.4074547441976,FALSE,2.39978725605435
"CAN","cpi",0.1,1967,3,1966,NA,1,3.08413810216411,3.27792835924156,3.49360316391996,3.18103323070284,FALSE,0.673067600807223
"CAN","cpi",0.1,1967,3,1966,NA,1.5,4.55438647633376,4.7481767334112,3.49360316391996,4.65128160487248,FALSE,2.55108650688588
"CAN","cpi",0.1,1968,3,1968,NA,0,4.15789875000874,4.18786016343918,3.95128347779386,4.17287945672396,FALSE,0.489106462796842
"CAN","cpi",0.1,1968,3,1968,NA,0.5,3.96453788817211,4.17740622742494,3.95128347779386,4.07097205779852,FALSE,0.242322584537829
"CAN","cpi",0.1,1968,3,1967,NA,1,5.73878265161207,5.9516509908649,3.95128347779386,5.84521682123848,FALSE,4.18508872551552
"CAN","cpi",0.1,1968,3,1967,NA,1.5,2.14922441277585,2.36209275202868,3.95128347779386,2.25565858240226,FALSE,3.74440328539767
"CAN","cpi",0.1,1969,3,1969,NA,0,4.57696855565369,4.61344473155868,4.42679496126681,4.59520664360618,FALSE,0.370195274542487
"CAN","cpi",0.1,1969,3,1969,NA,0.5,2.86473590075617,3.06750448715813,4.42679496126681,2.96612019395715,FALSE,3.22341408442126
"CAN","cpi",0.1,1969,3,1968,NA,1,6.62349200720709,6.82626059360905,4.42679496126681,6.72487630040807,FALSE,5.08431757738035
"CAN","cpi",0.1,1969,3,1968,NA,1.5,4.21526023624443,4.41802882264638,4.42679496126681,4.31664452944541,FALSE,0.222248894447358
"CAN","cpi",0.1,1970,3,1970,NA,0,3.59349614341888,3.62173462157962,3.28128405769805,3.60761538249925,FALSE,0.722043113095935
"CAN","cpi",0.1,1970,3,1970,NA,0.5,4.23127058492364,4.48905096351019,3.28128405769805,4.36016077421692,FALSE,2.36886155019899
"CAN","cpi",0.1,1970,3,1969,NA,1,4.78480428875807,5.04258466734462,3.28128405769805,4.91369447805135,FALSE,3.59893644760883
"CAN","cpi",0.1,1970,3,1969,NA,1.5,1.95084828353802,2.20862866212457,3.28128405769805,2.07973847283129,FALSE,2.6414590354165
"CAN","cpi",0.1,1971,3,1971,NA,0,2.90132394702089,2.93613407258586,2.64123406634756,2.91872900980337,FALSE,0.612787638172365
"CAN","cpi",0.1,1971,3,1971,NA,0.5,1.27842459844321,1.48871751428293,2.64123406634756,1.38357105636307,FALSE,2.77144080931668
"CAN","cpi",0.1,1971,3,1970,NA,1,3.07171965187292,3.28201256771263,2.64123406634756,3.17686610979278,FALSE,1.16692755034051
"CAN","cpi",0.1,1971,3,1970,NA,1.5,4.51551666534289,4.72580958118261,2.64123406634756,4.62066312326275,FALSE,4.37536535805156
"CAN","cpi",0.1,1972,3,1972,NA,0,5.06088369328098,5.28333015003604,4.83230569625923,5.17210692165851,FALSE,0.730397561247839
"CAN","cpi",0.1,1972,3,1972,NA,0.5,4.65101932641194,4.87346578316699,4.83230569625923,4.76224255478946,TRUE,0.222446456755055
"CAN","cpi",0.1,1972,3,1971,NA,1,6.72741175223922,6.94985820899427,4.83230569625923,6.83863498061675,FALSE,4.4337932478217
"CAN","cpi",0.1,1972,3,1971,NA,1.5,1.84318839751311,2.06563485426817,4.83230569625923,1.95441162589064,FALSE,6.37060388340186
"CAN","cpi",0.1,1973,3,1973,NA,0,7.28168806774667,7.53946844633322,7.12388603531779,7.41057825703995,FALSE,0.608451561761845
"CAN","cpi",0.1,1973,3,1973,NA,0.5,6.11302382384381,6.37080420243036,7.12388603531779,6.24191401313708,FALSE,1.93129556278084
"CAN","cpi",0.1,1973,3,1972,NA,1,7.99701864752607,8.25479902611262,7.12388603531779,8.12590883681935,FALSE,2.19807507238273
"CAN","cpi",0.1,1973,3,1972,NA,1.5,4.80047749273702,5.12213639508743,7.12388603531779,4.96130694391223,FALSE,4.76999143619565
"CAN","cpi",0.1,1974,3,1974,NA,0,10.1771670156462,10.4067938041002,10.2717243737774,10.2919804098732,TRUE,0.229626788454059
"CAN","cpi",0.1,1974,3,1974,NA,0.5,8.9019856282059,9.13161241665996,10.2717243737774,9.01679902243293,FALSE,2.76320891538174
"CAN","cpi",0.1,1974,3,1973,NA,1,11.3928252882481,11.6224520767021,10.2717243737774,11.5076386824751,FALSE,2.72096215394438
"CAN","cpi",0.1,1974,3,1973,NA,1.5,6.92369678489195,7.15332357334601,10.2717243737774,7.03851017911898,FALSE,7.15940634496829
"CAN","cpi",0.1,1975,3,1975,NA,0,10.1878092809499,10.4455896595365,10.0232981493341,10.3166994702432,FALSE,0.623360671066073
"CAN","cpi",0.1,1975,3,1975,NA,0.5,8.74928806842427,9.00706844701082,10.0232981493341,8.87817825771755,FALSE,2.51606860597166
"CAN","cpi",0.1,1975,3,1974,NA,1,11.5345583223654,11.7923387009519,10.0232981493341,11.6634485116586,FALSE,3.616136318656
"CAN","cpi",0.1,1975,3,1974,NA,1.5,8.96276920418288,9.22054958276943,10.0232981493341,9.09165939347615,FALSE,2.04166608206364
"CAN","cpi",0.1,1976,3,1976,NA,0,7.13022348474598,7.38800386333253,7.22784311401172,7.25911367403926,TRUE,0.257780378586547
"CAN","cpi",0.1,1976,3,1976,NA,0.5,7.09613546339715,7.35391584198369,7.22784311401172,7.22502565269042,TRUE,0.257780378586547
"CAN","cpi",0.1,1976,3,1975,NA,1,12.3491888544851,12.6069692330717,7.22784311401172,12.4780790437784,FALSE,11.6385486907496
"CAN","cpi",0.1,1976,3,1975,NA,1.5,7.05696994908241,7.31475032766895,7.22784311401172,7.18586013837568,TRUE,0.257780378586547
"CAN","cpi",0.1,1977,3,1977,NA,0,7.46670580886381,7.71607449033015,7.58101410153764,7.59139014959698,TRUE,0.249368681466349
"CAN","cpi",0.1,1977,3,1977,NA,0.5,7.12570222480931,7.37507090627566,7.58101410153764,7.25038656554249,FALSE,0.70702022649298
"CAN","cpi",0.1,1977,3,1976,NA,1,5.80526084592123,6.05462952738758,7.58101410153764,5.92994518665441,FALSE,3.64133440179982
"CAN","cpi",0.1,1977,3,1976,NA,1.5,5.5606529603461,5.81843333893265,7.58101410153764,5.68954314963938,FALSE,4.17462651770875
"CAN","cpi",0.1,1978,3,1978,NA,0,8.56780958995224,8.809811946249,8.50208927062595,8.68881076810062,FALSE,0.38804751035519
"CAN","cpi",0.1,1978,3,1978,NA,0.5,7.991083909501,8.23308626579776,8.50208927062595,8.11208508764938,FALSE,0.839786811470512
"CAN","cpi",0.1,1978,3,1977,NA,1,8.22571805418905,8.46772041048581,8.50208927062595,8.34671923233743,FALSE,0.318377601052628
"CAN","cpi",0.1,1978,3,1977,NA,1.5,8.08521712696447,8.34299750555102,8.50208927062595,8.21410731625775,FALSE,0.611317634308607
"CAN","cpi",0.1,1979,3,1979,NA,0,8.44042266289445,8.68230800440377,8.65147652410481,8.56136533364911,TRUE,0.24188534150932
"CAN","cpi",0.1,1979,3,1979,NA,0.5,8.10998322609935,8.35186856760867,8.65147652410481,8.23092589685401,FALSE,0.907680800389637
"CAN","cpi",0.1,1979,3,1978,NA,1,9.54387578823863,9.78576112974795,8.65147652410481,9.66481845899329,FALSE,2.22499481736226
"CAN","cpi",0.1,1979,3,1978,NA,1.5,7.78125787440919,8.03903825299574,8.65147652410481,7.91014806370246,FALSE,1.61875431438449
"CAN","cpi",0.1,1980,3,1980,NA,0,9.5172622235537,9.55427189361623,9.5171912664748,9.53576705858497,FALSE,0.0371673524600959
"CAN","cpi",0.1,1980,3,1980,NA,0.5,8.52621200769852,8.76073721315869,9.5171912664748,8.6434746104286,FALSE,1.9155342128293
"CAN","cpi",0.1,1980,3,1979,NA,1,7.67240988867316,7.90693509413333,9.5171912664748,7.78967249140325,FALSE,3.81287225510787
"CAN","cpi",0.1,1980,3,1979,NA,1.5,8.16892553635857,8.42670591494512,9.5171912664748,8.29781572565185,FALSE,2.6810811597636
"CAN","cpi",0.1,1981,3,1981,NA,0,11.6103619040256,11.8137037431412,11.5813425032741,11.7120328235834,FALSE,0.267829396341066
"CAN","cpi",0.1,1981,3,1981,NA,0.5,12.2279476049834,12.4312894440989,11.5813425032741,12.3296185245412,FALSE,1.64024206513611
"CAN","cpi",0.1,1981,3,1980,NA,1,10.9076117883625,11.1636410798592,11.5813425032741,11.0356264341109,FALSE,1.18425467686322
"CAN","cpi",0.1,1981,3,1980,NA,1.5,8.36496636187732,8.68453081180639,11.5813425032741,8.52474858684185,FALSE,6.75692376430185
"CAN","cpi",0.1,1982,3,1982,NA,0,10.2352256126629,10.2712224500871,10.1124203763629,10.253224031375,FALSE,0.308897362535243
"CAN","cpi",0.1,1982,3,1982,NA,0.5,9.99324131733021,10.2510216959168,10.1124203763629,10.1221315066235,TRUE,0.257780378586549
"CAN","cpi",0.1,1982,3,1981,NA,1,11.4966585791021,11.8088965146598,10.1124203763629,11.652777546881,FALSE,3.38832283053362
"CAN","cpi",0.1,1982,3,1981,NA,1.5,13.0578345158425,13.3700724514002,10.1124203763629,13.2139534836213,FALSE,6.85760268995663
"CAN","cpi",0.1,1983,3,1983,NA,0,5.71473733417526,5.97251771276181,5.67091787896303,5.84362752346853,FALSE,0.355156945724824
"CAN","cpi",0.1,1983,3,1983,NA,0.5,4.57746129214208,4.83524167072863,5.67091787896303,4.70635148143536,FALSE,2.11483861910744
"CAN","cpi",0.1,1983,3,1982,NA,1,8.42931740433889,8.79942979433476,5.67091787896303,8.61437359933683,FALSE,6.49988911305333
"CAN","cpi",0.1,1983,3,1982,NA,1.5,9.65824683435745,10.0283592243533,5.67091787896303,9.84330302935538,FALSE,9.23084340198346
"CAN","cpi",0.1,1984,3,1984,NA,0,4.0842664424959,4.34204682108245,4.19799576814029,4.21315663178917,TRUE,0.257780378586547
"CAN","cpi",0.1,1984,3,1984,NA,0.5,4.60115187523305,4.8589322538196,4.19799576814029,4.73004206452632,FALSE,1.15368283879269
"CAN","cpi",0.1,1984,3,1983,NA,1,6.09301322162726,6.51758601505512,4.19799576814029,6.30529961834119,FALSE,4.63572269006558
"CAN","cpi",0.1,1984,3,1983,NA,1.5,2.59960800146383,3.02418079489169,4.19799576814029,2.81189439817776,FALSE,3.03305051175808
"CAN","cpi",0.1,1985,3,1985,NA,0,3.801501695638,4.00943619524485,3.86444262005169,3.90546894544143,TRUE,0.20793449960685
"CAN","cpi",0.1,1985,3,1985,NA,0.5,3.90779774172327,4.11573224133012,3.86444262005169,4.0117649915267,FALSE,0.304279214432584
"CAN","cpi",0.1,1985,3,1984,NA,1,3.16053179133039,3.41831216991694,3.86444262005169,3.28942198062367,FALSE,1.24918137888599
"CAN","cpi",0.1,1985,3,1984,NA,1.5,4.52661626665052,4.83279113024135,3.86444262005169,4.67970369844593,FALSE,1.77767185603267
"CAN","cpi",0.1,1986,3,1986,NA,0,3.99838728516102,4.25616766374757,4.08685396749431,4.12727747445429,TRUE,0.257780378586547
"CAN","cpi",0.1,1986,3,1986,NA,0.5,4.44625101896191,4.70403139754846,4.08685396749431,4.57514120825518,FALSE,1.05644049295898
"CAN","cpi",0.1,1986,3,1985,NA,1,3.71612731771005,3.9739076962966,4.08685396749431,3.84501750700332,FALSE,0.508772092359247
"CAN","cpi",0.1,1986,3,1985,NA,1.5,4.3571628656304,4.67531714614835,4.08685396749431,4.51624000588938,FALSE,0.918840720820372
"CAN","cpi",0.1,1987,3,1987,NA,0,4.20872623068052,4.46650660926707,4.23980729277887,4.3376164199738,TRUE,0.257780378586547
"CAN","cpi",0.1,1987,3,1987,NA,0.5,3.76094838093793,4.01872875952448,4.23980729277887,3.8898385702312,FALSE,0.749066008040754
"CAN","cpi",0.1,1987,3,1986,NA,1,4.4339591749425,4.69173955352905,4.23980729277887,4.56284936423577,FALSE,0.689229005616832
"CAN","cpi",0.1,1987,3,1986,NA,1.5,5.02585640501346,5.28363678360001,4.23980729277887,5.15474659430673,FALSE,2.0045561835523
"CAN","cpi",0.1,1988,3,1988,NA,0,3.87139280675499,4.12917318534154,3.92899537638065,4.00028299604827,TRUE,0.257780378586547
"CAN","cpi",0.1,1988,3,1988,NA,0.5,3.4029225998221,3.66070297840865,3.92899537638065,3.53181278911538,FALSE,0.853985707413226
"CAN","cpi",0.1,1988,3,1987,NA,1,4.21284267116633,4.47062304975288,3.92899537638065,4.34173286045961,FALSE,0.888552144776946
"CAN","cpi",0.1,1988,3,1987,NA,1.5,3.63723274652379,3.89501312511033,3.92899537638065,3.76612293581706,FALSE,0.333296492520594
"CAN","cpi",0.1,1989,3,1989,NA,0,4.87717793573457,5.13495831432112,4.82821664544208,5.00606812502784,FALSE,0.366583245903195
"CAN","cpi",0.1,1989,3,1989,NA,0.5,4.38632419043077,4.64410456901731,4.82821664544208,4.51521437972404,FALSE,0.666918326197132
"CAN","cpi",0.1,1989,3,1988,NA,1,4.19814878919682,4.45592916778337,4.82821664544208,4.3270389784901,FALSE,1.08508588449479
"CAN","cpi",0.1,1989,3,1988,NA,1.5,3.29810231878868,3.55588269737523,4.82821664544208,3.42699250808196,FALSE,3.08518915206843
"CAN","cpi",0.1,1990,3,1990,NA,0,4.39282204819732,4.65060242678386,4.64347549432717,4.52171223749059,TRUE,0.257780378586547
"CAN","cpi",0.1,1990,3,1990,NA,0.5,5.09446234330631,5.35224272189285,4.64347549432717,5.22335253259958,FALSE,1.25997337631796
"CAN","cpi",0.1,1990,3,1989,NA,1,5.59475304999803,5.85253342858458,4.64347549432717,5.7236432392913,FALSE,2.37173050229956
"CAN","cpi",0.1,1990,3,1989,NA,1.5,4.7915232320405,5.04930361062705,4.64347549432717,4.92041342133377,FALSE,0.586775351282835
"CAN","cpi",0.1,1991,3,1991,NA,0,5.60652763230727,5.62583570412692,5.4258100696218,5.6161816682171,FALSE,0.420902655565159
"CAN","cpi",0.1,1991,3,1991,NA,0.5,8.69516081672423,8.95294119531078,5.4258100696218,8.8240510060175,FALSE,7.5230042610364
"CAN","cpi",0.1,1991,3,1990,NA,1,3.76281694494092,4.02059732352746,5.4258100696218,3.89170713423419,FALSE,3.38047536990729
"CAN","cpi",0.1,1991,3,1990,NA,1.5,5.57573023518114,5.83351061376769,5.4258100696218,5.70462042447442,FALSE,0.590936302051768
"CAN","cpi",0.1,1992,3,1992,NA,0,1.46533149003046,1.4855578547974,1.47496888572843,1.47544467241393,TRUE,0.0202263647669456
"CAN","cpi",0.1,1992,3,1992,NA,0.5,1.28832652521942,1.43306116005696,1.47496888572843,1.36069384263819,FALSE,0.237862914107484
"CAN","cpi",0.1,1992,3,1991,NA,1,2.30611701849547,2.56389739708202,1.47496888572843,2.43500720778875,FALSE,2.10477622917997
"CAN","cpi",0.1,1992,3,1991,NA,1.5,11.0784074350811,11.3361878136676,1.47496888572843,11.2072976243743,FALSE,21.5987549327035
"CAN","cpi",0.1,1993,3,1993,NA,0,1.72054803444441,1.90937271034763,1.84351085411351,1.81496037239602,TRUE,0.188824675903224
"CAN","cpi",0.1,1993,3,1993,NA,0.5,2.33897401292311,2.52779868882634,1.84351085411351,2.43338635087472,FALSE,1.28985391770233
"CAN","cpi",0.1,1993,3,1992,NA,1,1.64891129928998,1.87566402709724,1.84351085411351,1.76228766319361,TRUE,0.226752727807265
"CAN","cpi",0.1,1993,3,1992,NA,1.5,1.48537424969437,1.71212697750163,1.84351085411351,1.598750613598,FALSE,0.518716898055885
"CAN","cpi",0.1,1994,3,1994,NA,0,0.120229498181005,0.320064956134852,0.161630694655448,0.220147227157928,TRUE,0.199835457953846
"CAN","cpi",0.1,1994,3,1994,NA,0.5,-0.841460255020614,-0.641624797066768,0.161630694655448,-0.741542526043691,FALSE,1.98484766178099
"CAN","cpi",0.1,1994,3,1993,NA,1,1.40293168209684,1.61296095385923,0.161630694655448,1.50794631797803,FALSE,2.96847591052103
"CAN","cpi",0.1,1994,3,1993,NA,1.5,2.71296253752976,2.92299180929215,0.161630694655448,2.81797717341095,FALSE,5.87965558926086
"CAN","cpi",0.1,1995,3,1995,NA,0,2.0551461352021,2.25454758398767,2.11688403676572,2.15484685959489,TRUE,0.199401448785573
"CAN","cpi",0.1,1995,3,1995,NA,0.5,2.80913849221479,3.00853994100037,2.11688403676572,2.90883921660758,FALSE,1.73774468311686
"CAN","cpi",0.1,1995,3,1994,NA,1,1.84461750258556,2.05885089984073,2.11688403676572,1.95173420121315,FALSE,0.343195923755128
"CAN","cpi",0.1,1995,3,1994,NA,1.5,-2.28695125944584,-2.07271786219068,2.11688403676572,-2.17983456081826,FALSE,9.52445983938048
"CAN","cpi",0.1,1996,3,1996,NA,0,1.4318538724358,1.45148391505996,1.55309584667184,1.44166889374788,FALSE,0.24543433509501
"CAN","cpi",0.1,1996,3,1996,NA,0.5,1.28653208321943,1.43820325671628,1.55309584667184,1.36236766996786,FALSE,0.406988040064767
"CAN","cpi",0.1,1996,3,1995,NA,1,0.808615208493578,1.01433332780782,1.55309584667184,0.911474268150699,FALSE,1.40296816123429
"CAN","cpi",0.1,1996,3,1995,NA,1.5,3.88498862984099,4.09070674915523,1.55309584667184,3.98784768949811,FALSE,5.38770208191235
"CAN","cpi",0.1,1997,3,1997,NA,0,1.58513017968396,1.79110411121762,1.60528783555959,1.68811714545079,TRUE,0.205973931533656
"CAN","cpi",0.1,1997,3,1997,NA,0.5,2.00322171085603,2.20919564238968,1.60528783555959,2.10620867662285,FALSE,1.0902714321924
"CAN","cpi",0.1,1997,3,1996,NA,1,0.643633738097839,0.873286834020927,1.60528783555959,0.758460286059383,FALSE,1.85632198823123
"CAN","cpi",0.1,1997,3,1996,NA,1.5,1.54805197896516,1.77770507488825,1.60528783555959,1.66287852692671,TRUE,0.229653095923088
"CAN","cpi",0.1,1998,3,1998,NA,0,0.867579662853361,1.07390838328789,0.988908029337191,0.970744023070627,TRUE,0.206328720434533
"CAN","cpi",0.1,1998,3,1998,NA,0.5,1.41780428982565,1.62413301026019,0.988908029337191,1.52096865004292,FALSE,1.15943152152
"CAN","cpi",0.1,1998,3,1997,NA,1,0.933088034310942,1.14683314525904,0.988908029337191,1.03996058978499,TRUE,0.213745110948099
"CAN","cpi",0.1,1998,3,1997,NA,1.5,2.11372318560224,2.32746829655034,0.988908029337191,2.22059574107629,FALSE,2.71333434709265
"CAN","cpi",0.1,1999,3,1999,NA,0,1.77929900487873,1.80353029393501,1.7107350135213,1.79141464940687,FALSE,0.176595714295025
"CAN","cpi",0.1,1999,3,1999,NA,0.5,0.722949849717774,0.87815489570463,1.7107350135213,0.800552372711202,FALSE,2.00538308557945
"CAN","cpi",0.1,1999,3,1998,NA,1,0.359026464093634,0.590024385725588,1.7107350135213,0.474525424909611,FALSE,2.72146598340019
"CAN","cpi",0.1,1999,3,1998,NA,1.5,2.08226601264528,2.31326393427724,1.7107350135213,2.19776497346126,FALSE,1.0566223641297
"CAN","cpi",0.1,2000,3,2000,NA,0,2.62638769600166,2.84138951649289,2.6718361971244,2.73388860624727,TRUE,0.215001820491237
"CAN","cpi",0.1,2000,3,2000,NA,0.5,2.00775741210676,2.22275923259799,2.6718361971244,2.11525832235237,FALSE,1.21295063054992
"CAN","cpi",0.1,2000,3,1999,NA,1,2.69470555362775,2.93405610394851,2.6718361971244,2.81438082878813,FALSE,0.290171342550426
"CAN","cpi",0.1,2000,3,1999,NA,1.5,0.752738339491482,0.992088889812239,2.6718361971244,0.872413614651861,FALSE,3.97212234434778
"CAN","cpi",0.1,2001,3,2001,NA,0,2.62435262006096,2.84578169357169,2.47906219852806,2.73506715681632,FALSE,0.544296676917167
"CAN","cpi",0.1,2001,3,2001,NA,0.5,1.61292095954207,1.8343500330528,2.47906219852806,1.72363549629744,FALSE,1.65412277456687
"CAN","cpi",0.1,2001,3,2000,NA,1,3.61789562591081,3.86201960197129,2.47906219852806,3.73995761394105,FALSE,2.77486492579991
"CAN","cpi",0.1,2001,3,2000,NA,1.5,1.86093762694208,2.10506160300256,2.47906219852806,1.98299961497232,FALSE,1.0752364105616
"CAN","cpi",0.1,2002,3,2002,NA,0,2.33866139916295,2.36136661958486,2.20880570551249,2.3500140093739,FALSE,0.311273428534049
"CAN","cpi",0.1,2002,3,2002,NA,0.5,1.37160267541434,1.56988637189661,2.20880570551249,1.47074452365548,FALSE,1.61810443785089
"CAN","cpi",0.1,2002,3,2001,NA,1,0.667082541799616,0.924862920386164,2.20880570551249,0.79597273109289,FALSE,3.11098656775615
"CAN","cpi",0.1,2002,3,2001,NA,1.5,0.654763745275653,0.999274474273818,2.20880570551249,0.827019109774735,FALSE,3.03235790952854
"CAN","cpi",0.1,2003,3,2003,NA,0,2.7590780744134,2.77825269192556,2.71189071546809,2.76866538316948,FALSE,0.124035415168412
"CAN","cpi",0.1,2003,3,2003,NA,0.5,4.4675649903443,4.72534536893084,2.71189071546809,4.59645517963757,FALSE,4.15927876720034
"CAN","cpi",0.1,2003,3,2002,NA,1,4.20857510715415,4.4663554857407,2.71189071546809,4.33746529644743,FALSE,3.58374569344447
"CAN","cpi",0.1,2003,3,2002,NA,1.5,2.48576808423913,2.94360972131455,2.71189071546809,2.71468890277684,TRUE,0.457841637075417
"CAN","cpi",0.1,2004,3,2004,NA,0,1.76087717037085,1.77607670763334,1.83151661303942,1.7684769390021,FALSE,0.138399327053784
"CAN","cpi",0.1,2004,3,2004,NA,0.5,1.43362750049032,1.69140787907687,1.83151661303942,1.5625176897836,FALSE,0.56913312072555
"CAN","cpi",0.1,2004,3,2003,NA,1,1.28865377744502,1.54643415603156,1.83151661303942,1.41754396673829,FALSE,0.891296949715121
"CAN","cpi",0.1,2004,3,2003,NA,1.5,5.10906410587894,5.54396462031914,1.83151661303942,5.32651436309904,FALSE,7.71833938741691
"CAN","cpi",0.1,2005,3,2005,NA,0,2.37114542605884,2.39279372715689,2.18071628336509,2.38196957660787,FALSE,0.444824173750827
"CAN","cpi",0.1,2005,3,2005,NA,0.5,1.44364923403397,1.70142961262052,2.18071628336509,1.57253942332725,FALSE,1.32286186913003
"CAN","cpi",0.1,2005,3,2004,NA,1,0.864342767166701,1.12212314575325,2.18071628336509,0.993232956459974,FALSE,2.61020957327953
"CAN","cpi",0.1,2005,3,2004,NA,1.5,1.93100667179193,2.18878705037848,2.18071628336509,2.05989686108521,TRUE,0.257780378586547
"CAN","cpi",0.1,2006,3,2006,NA,0,2.05375989219228,2.07969085176952,1.97519342012289,2.0667253719809,FALSE,0.200523119731446
"CAN","cpi",0.1,2006,3,2006,NA,0.5,1.80890376342425,2.0666841420108,1.97519342012289,1.93779395271753,TRUE,0.257780378586547
"CAN","cpi",0.1,2006,3,2005,NA,1,3.34837359272457,3.60615397131112,1.97519342012289,3.47726378201784,FALSE,3.30929187325696
"CAN","cpi",0.1,2006,3,2005,NA,1.5,1.15498837431766,1.61839491347411,1.97519342012289,1.38669164389589,FALSE,1.25629210948706
"CAN","cpi",0.1,2007,3,2007,NA,0,2.00881803304994,2.2073287771096,2.10062087284572,2.10807340507977,TRUE,0.198510744059656
"CAN","cpi",0.1,2007,3,2007,NA,0.5,2.31986659718516,2.51837734124481,2.10062087284572,2.41912196921498,FALSE,0.685723464813954
"CAN","cpi",0.1,2007,3,2006,NA,1,0.373442895998533,0.63122327458508,2.10062087284572,0.502333085291807,FALSE,3.52310837472131
"CAN","cpi",0.1,2007,3,2006,NA,1.5,1.84153649189133,2.09931687047788,2.10062087284572,1.9704266811846,FALSE,0.260678161626201
"CAN","cpi",0.1,2008,3,2008,NA,0,2.84859413510336,3.05943588993269,2.31447335265955,2.95401501251803,FALSE,1.39777682692668
"CAN","cpi",0.1,2008,3,2008,NA,0.5,1.05423989796053,1.26508165278986,2.31447335265955,1.1596607753752,FALSE,2.54282331009531
"CAN","cpi",0.1,2008,3,2007,NA,1,0.259609302971511,0.470451057800835,2.31447335265955,0.365030180386173,FALSE,4.30866907673758
"CAN","cpi",0.1,2008,3,2007,NA,1.5,3.64428340336863,3.85512515819795,2.31447335265955,3.74970428078329,FALSE,3.16597520084949
"CAN","cpi",0.1,2009,3,2009,NA,0,0.266421943984058,0.288224176667297,0.284533874408197,0.277323060325678,TRUE,0.021802232683239
"CAN","cpi",0.1,2009,3,2009,NA,0.5,-1.00143904735888,-0.85224465463901,0.284533874408197,-0.926841850998946,FALSE,2.67536890171367
"CAN","cpi",0.1,2009,3,2008,NA,1,4.26278008555121,4.52056046413776,0.284533874408197,4.39167027484448,FALSE,9.09832751445991
"CAN","cpi",0.1,2009,3,2008,NA,1.5,1.16386558839978,1.45049662501195,0.284533874408197,1.30718110670587,FALSE,2.24070151214903
"CAN","cpi",0.1,2010,3,2010,NA,0,1.73841340495416,1.7594485544381,1.75525687020327,1.74893097969613,TRUE,0.0210351494839349
"CAN","cpi",0.1,2010,3,2010,NA,0.5,1.54962583633875,1.66066530485707,1.75525687020327,1.60514557059791,FALSE,0.321242947065445
"CAN","cpi",0.1,2010,3,2009,NA,1,0.517986932116817,0.775767310703365,1.75525687020327,0.646877121410091,FALSE,2.4344238441419
"CAN","cpi",0.1,2010,3,2009,NA,1.5,-1.42579702386631,-1.15634571285728,1.75525687020327,-1.29107136836179,FALSE,6.73967927336581
"CAN","cpi",0.1,2011,3,2011,NA,0,2.82464690027383,2.84852160196374,2.85717434028225,2.83658425111878,FALSE,0.0431030090643746
"CAN","cpi",0.1,2011,3,2011,NA,0.5,2.83143440684901,2.95890314720243,2.85717434028225,2.89516877702572,TRUE,0.127468740353421
"CAN","cpi",0.1,2011,3,2010,NA,1,2.0623114066009,2.32009178518745,2.85717434028225,2.19120159589417,FALSE,1.4512971676861
"CAN","cpi",0.1,2011,3,2010,NA,1.5,1.78229445089515,2.14493560258324,2.85717434028225,1.9636150267392,FALSE,1.94539390213032
"CAN","cpi",0.1,2012,3,2012,NA,0,1.44716946681276,1.47307667009655,1.50118536134935,1.46012306845465,FALSE,0.0883709616233411
"CAN","cpi",0.1,2012,3,2012,NA,0.5,1.73936495941023,1.88700974836632,1.50118536134935,1.81318735388827,FALSE,0.676932784646942
"CAN","cpi",0.1,2012,3,2011,NA,1,0.940321088825506,1.1945996544723,1.50118536134935,1.0674603716489,FALSE,0.935580136484679
"CAN","cpi",0.1,2012,3,2011,NA,1.5,3.13778250152693,3.39206106717372,1.50118536134935,3.26492178435033,FALSE,3.89116109937476
"CAN","cpi",0.1,2013,3,2013,NA,0,1.03174875917089,1.04754384871209,0.931270594714462,1.03964630394149,FALSE,0.239079899444374
"CAN","cpi",0.1,2013,3,2013,NA,0.5,1.08648187405736,1.24397412045297,0.931270594714462,1.16522799725517,FALSE,0.502406200490941
"CAN","cpi",0.1,2013,3,2012,NA,1,-0.564402156179596,-0.353171742430604,0.931270594714462,-0.4587869493051,FALSE,3.0655467185158
"CAN","cpi",0.1,2013,3,2012,NA,1.5,1.74129578162787,1.99907616021441,0.931270594714462,1.87018597092114,FALSE,2.05783634950522
"CAN","cpi",0.1,2014,3,2014,NA,0,1.98158038580132,1.99725334316123,1.87639912240215,1.98941686448128,FALSE,0.249409098246954
"CAN","cpi",0.1,2014,3,2014,NA,0.5,2.21885822114154,2.35183813980859,1.87639912240215,2.28534818047506,FALSE,0.894000138087912
"CAN","cpi",0.1,2014,3,2013,NA,1,0.829410858815866,1.03856565713693,1.87639912240215,0.933988257976399,FALSE,2.07100694335489
"CAN","cpi",0.1,2014,3,2013,NA,1.5,1.56855268085731,1.92010376371631,1.87639912240215,1.74432822228681,TRUE,0.351551082858999
"CAN","cpi",0.1,2015,3,2015,NA,0,1.25139088697905,1.27197052652355,1.11090953952792,1.2616807067513,FALSE,0.332760411658131
"CAN","cpi",0.1,2015,3,2015,NA,0.5,0.118424596988348,0.318301593276796,1.11090953952792,0.218363095132572,FALSE,1.96122798795761
"CAN","cpi",0.1,2015,3,2014,NA,1,0.523341255085206,0.723218251373654,1.11090953952792,0.62327975322943,FALSE,1.06141319218681
"CAN","cpi",0.1,2015,3,2014,NA,1.5,3.36973707517881,3.72715358740424,1.11090953952792,3.54844533129153,FALSE,5.37703325811631
"CAN","cpi",0.1,2016,3,2016,NA,0,1.43245261810684,1.45560836693895,1.41168586698797,1.44403049252289,FALSE,0.0693040846518284
"CAN","cpi",0.1,2016,3,2016,NA,0.5,0.844768347745842,1.04263337394031,1.41168586698797,0.943700860843074,FALSE,1.01798167741148
"CAN","cpi",0.1,2016,3,2015,NA,1,1.55912586640531,1.75699089259977,1.41168586698797,1.65805837950254,FALSE,0.525509469344119
"CAN","cpi",0.1,2016,3,2015,NA,1.5,0.0838630155211721,0.34164339410772,1.41168586698797,0.212753204814446,FALSE,2.63565254054265
"CAN","cpi",0.1,2017,3,2017,NA,0,1.51281592508765,1.53063475606572,1.57888581671161,1.52172534057668,FALSE,0.125043410191166
"CAN","cpi",0.1,2017,3,2017,NA,0.5,2.06860196655151,2.29131305631536,1.57888581671161,2.17995751143343,FALSE,1.31096920051918
"CAN","cpi",0.1,2017,3,2016,NA,1,0.367304611504449,0.590015701268307,1.57888581671161,0.478660156386378,FALSE,2.42020023519342
"CAN","cpi",0.1,2017,3,2016,NA,1.5,0.91891560260324,1.17669598118979,1.57888581671161,1.04780579189651,FALSE,1.15153556863505
"CAN","cpi",0.1,2018,3,2018,NA,0,2.42018077895431,2.43195649780666,2.23316270166586,2.42606863838048,FALSE,0.427371446160013
"CAN","cpi",0.1,2018,3,2018,NA,0.5,2.92188911198201,3.12013336910808,2.23316270166586,3.02101124054505,FALSE,1.72874739116197
"CAN","cpi",0.1,2018,3,2017,NA,1,0.424575898775537,0.622820155901603,2.23316270166586,0.52369802733857,FALSE,3.7767832477133
"CAN","cpi",0.1,2018,3,2017,NA,1.5,2.955191653928,3.21297203251455,2.23316270166586,3.08408184322128,FALSE,1.86228916139131
"CAN","cpi",0.1,2019,3,2019,NA,0,2.01104563439952,2.0348010685242,1.91921619871868,2.02292335146186,FALSE,0.227820846748763
"CAN","cpi",0.1,2019,3,2019,NA,0.5,1.66039065933363,1.86071082852337,1.91921619871868,1.7605507439285,FALSE,0.330332102957091
"CAN","cpi",0.1,2019,3,2018,NA,1,1.87120683870198,2.07152700789172,1.91921619871868,1.97136692329685,TRUE,0.200320169189741
"CAN","cpi",0.1,2019,3,2018,NA,1.5,4.00112468988066,4.25890506846721,1.91921619871868,4.13001487917394,FALSE,4.88424369227984
"CAN","cpi",0.1,2020,3,2020,NA,0,0.638040860827967,0.858434845708803,0.71139989671781,0.748237853268385,TRUE,0.220393984880836
"CAN","cpi",0.1,2020,3,2020,NA,0.5,1.09618385647377,1.31657784135461,0.71139989671781,1.20638084891419,FALSE,1.0754694510052
"CAN","cpi",0.1,2020,3,2019,NA,1,1.22606266194376,1.44645664682459,0.71139989671781,1.33625965438418,FALSE,1.36408901871628
"CAN","cpi",0.1,2020,3,2019,NA,1.5,2.349385864658,2.60716624324455,0.71139989671781,2.47827605395127,FALSE,3.89774919623141
"CAN","cpi",0.1,2021,3,2021,NA,0,3.2318472017939,3.48962758038044,3.31148121717802,3.36073739108717,TRUE,0.257780378586547
"CAN","cpi",0.1,2021,3,2021,NA,0.5,2.74897580352705,3.0067561821136,3.31148121717802,2.87786599282032,FALSE,0.934947123174165
"CAN","cpi",0.1,2021,3,2020,NA,1,1.67678586800446,1.93456624659101,3.31148121717802,1.80567605729774,FALSE,3.31759142433546
"CAN","cpi",0.1,2021,3,2020,NA,1.5,1.15744988946397,1.5688525691856,3.31148121717802,1.36315122932478,FALSE,4.28391078637147
"CAN","cpi",0.1,2022,3,2022,NA,0,6.45252723847405,6.7103076170606,6.50977236228281,6.58141742776733,TRUE,0.257780378586547
"CAN","cpi",0.1,2022,3,2022,NA,0.5,6.6140486484726,6.87182902705915,6.50977236228281,6.74293883776587,FALSE,0.489505459008296
"CAN","cpi",0.1,2022,3,2021,NA,1,4.69675196067244,4.95453233925899,6.50977236228281,4.82564214996571,FALSE,3.71386931863949
"CAN","cpi",0.1,2022,3,2021,NA,1.5,3.80686045385885,4.0646408324454,6.50977236228281,3.93575064315212,FALSE,5.69140600044746
"CAN","cpi",0.1,2023,3,2023,NA,0,4.0053737202581,4.02369199206483,3.78831288758619,4.01453285616146,FALSE,0.500675677744305
"CAN","cpi",0.1,2023,3,2023,NA,0.5,2.94999402809918,3.20777440668573,3.78831288758619,3.07888421739245,FALSE,1.54786589169869
"CAN","cpi",0.1,2023,3,2022,NA,1,3.7278426164038,3.98562299499034,3.78831288758619,3.85673280569707,TRUE,0.257780378586547
"CAN","cpi",0.1,2023,3,2022,NA,1.5,7.94403264516926,8.20181302375581,3.78831288758619,8.07292283446253,FALSE,9.49271317321558
"CAN","cpi",0.1,2024,3,2023,NA,1,3.94615735067176,4.2039377292583,NA,4.07504753996503,NA,NA
"CAN","cpi",0.1,2024,3,2023,NA,1.5,2.28640029390361,2.54418067249016,NA,2.41529048319689,NA,NA
"CAN","cpi",0.2,1959,3,1959,NA,0,0.989727334820851,1.51009699380501,1.19382698397654,1.24991216431293,TRUE,0.52036965898416
"CAN","cpi",0.2,1959,3,1959,NA,0.5,0.177654902098247,0.698024561082407,1.19382698397654,0.437839731590327,FALSE,1.75987571621949
"CAN","cpi",0.2,1959,3,1958,NA,1,1.49844279936738,2.01881245835154,1.19382698397654,1.75862762885946,FALSE,1.28190919746126
"CAN","cpi",0.2,1959,3,1958,NA,1.5,1.51388689764558,2.03425655662974,1.19382698397654,1.77407172713766,FALSE,1.32051944315675
"CAN","cpi",0.2,1960,3,1960,NA,0,0.822103127972271,1.22512295721727,1.34209404870695,1.02361304259477,FALSE,0.695447557969198
"CAN","cpi",0.2,1960,3,1960,NA,0.5,0.337473565559159,0.740493394804161,1.34209404870695,0.53898348018166,FALSE,1.90702146400198
"CAN","cpi",0.2,1960,3,1959,NA,1,3.69740890740234,4.2177785663865,1.34209404870695,3.95759373689442,FALSE,6.40865680572264
"CAN","cpi",0.2,1960,3,1959,NA,1.5,-1.74688649945817,-6.71313515945293e-05,1.34209404870695,-0.873476815404885,FALSE,5.10222231825295
"CAN","cpi",0.2,1961,3,1961,NA,0,0.837753839879539,1.1806731220006,1.00921348094007,1.00921348094007,TRUE,0.342919282121066
"CAN","cpi",0.2,1961,3,1961,NA,0.5,0.837753839879539,1.1806731220006,1.00921348094007,1.00921348094007,TRUE,0.342919282121066
"CAN","cpi",0.2,1961,3,1960,NA,1,-0.206414366888547,0.313955292095613,1.00921348094007,0.0537704626035329,FALSE,2.25851513109531
"CAN","cpi",0.2,1961,3,1960,NA,1.5,-1.30663715305079,-0.417726444829279,1.00921348094007,-0.862181798940035,FALSE,4.45626052264489
"CAN","cpi",0.2,1962,3,1962,NA,0,0.901658764173606,1.30298929045595,1.04957947883042,1.10232402731478,TRUE,0.401330526282347
"CAN","cpi",0.2,1962,3,1962,NA,0.5,-0.200665263141173,0.200665263141173,1.04957947883042,0,FALSE,2.52361606550545
"CAN","cpi",0.2,1962,3,1961,NA,1,-0.26018482949208,0.26018482949208,1.04957947883042,0,FALSE,2.49385628233
"CAN","cpi",0.2,1962,3,1961,NA,1.5,-0.469094228853251,0.469094228853251,1.04957947883042,0,FALSE,2.38940158264941
"CAN","cpi",0.2,1963,3,1963,NA,0,1.87674240390987,1.95309218671417,1.60677118395228,1.91491729531202,FALSE,0.751277832698254
"CAN","cpi",0.2,1963,3,1963,NA,0.5,0.787334764249227,0.886322664985781,1.60677118395228,0.836828714617504,FALSE,1.90010919815281
"CAN","cpi",0.2,1963,3,1962,NA,1,2.30393007465936,2.82429973364352,1.60677118395228,2.56411490415144,FALSE,2.26326688575184
"CAN","cpi",0.2,1963,3,1962,NA,1.5,-0.407012272417938,0.407012272417938,1.60677118395228,0,FALSE,3.81342182367174
"CAN","cpi",0.2,1964,3,1964,NA,0,1.83153194403866,2.1460131848823,1.88764670034376,1.98877256446048,TRUE,0.314481240843648
"CAN","cpi",0.2,1964,3,1964,NA,0.5,1.22644944185425,1.5409306826979,1.88764670034376,1.38369006227607,FALSE,1.1812712849583
"CAN","cpi",0.2,1964,3,1963,NA,1,5.13025807398048,5.65062773296464,1.88764670034376,5.39044290347256,FALSE,8.62689809307595
"CAN","cpi",0.2,1964,3,1963,NA,1.5,-0.443726184293784,0.443726184293784,1.88764670034376,0,FALSE,4.49725365871251
"CAN","cpi",0.2,1965,3,1965,NA,0,2.18301310415436,2.50812784422561,2.29538304394236,2.34557047418999,TRUE,0.325114740071248
"CAN","cpi",0.2,1965,3,1965,NA,0.5,1.44823710953092,1.77335184960216,2.29538304394236,1.61079447956654,FALSE,1.63019272592173
"CAN","cpi",0.2,1965,3,1964,NA,1,2.18511787261708,2.66525937097986,2.29538304394236,2.42518862179847,TRUE,0.480141498362781
"CAN","cpi",0.2,1965,3,1964,NA,1.5,0.578031803135008,1.05817330149779,2.29538304394236,0.818102552316399,FALSE,3.5731658544742
"CAN","cpi",0.2,1966,3,1966,NA,0,3.78198806739234,3.85823168988183,3.72486065470629,3.82010987863709,FALSE,0.219062154204619
"CAN","cpi",0.2,1966,3,1966,NA,0.5,3.92503291584597,4.0574350620653,3.72486065470629,3.99123398895563,FALSE,0.632832799068528
"CAN","cpi",0.2,1966,3,1965,NA,1,3.01369427139392,3.40074710352315,3.72486065470629,3.20722068745854,FALSE,1.19733671008708
"CAN","cpi",0.2,1966,3,1965,NA,1.5,1.41311183025497,1.8001646623842,3.72486065470629,1.60663824631958,FALSE,5.19879281293446
"CAN","cpi",0.2,1967,3,1967,NA,0,3.73997504386106,3.79540194271158,3.49360316391996,3.76768849328632,FALSE,0.67135659870327
"CAN","cpi",0.2,1967,3,1967,NA,0.5,2.28122862544706,2.53368086294815,3.49360316391996,2.4074547441976,FALSE,2.65225798993062
"CAN","cpi",0.2,1967,3,1966,NA,1,2.98521540806621,3.37685105333946,3.49360316391996,3.18103323070284,FALSE,0.683515921724493
"CAN","cpi",0.2,1967,3,1966,NA,1.5,4.45546378223585,4.84709942750911,3.49360316391996,4.65128160487248,FALSE,2.79628719106299
"CAN","cpi",0.2,1968,3,1968,NA,0,4.14253702125466,4.20322189219326,3.95128347779386,4.17287945672396,FALSE,0.538818729590604
"CAN","cpi",0.2,1968,3,1968,NA,0.5,3.85597916289804,4.285964952699,3.95128347779386,4.07097205779852,TRUE,0.429985789800964
"CAN","cpi",0.2,1968,3,1967,NA,1,5.630223926338,6.06020971613896,3.95128347779386,5.84521682123848,FALSE,4.62733691116132
"CAN","cpi",0.2,1968,3,1967,NA,1.5,2.04066568750178,2.47065147730275,3.95128347779386,2.25565858240226,FALSE,4.13156579102874
"CAN","cpi",0.2,1969,3,1969,NA,0,4.55835087264809,4.63206241456428,4.42679496126681,4.59520664360618,FALSE,0.402601320369373
"CAN","cpi",0.2,1969,3,1969,NA,0.5,2.76135549138962,3.17088489652468,4.42679496126681,2.96612019395715,FALSE,3.5493045669904
"CAN","cpi",0.2,1969,3,1968,NA,1,6.52011159784054,6.9296410029756,4.42679496126681,6.72487630040807,FALSE,5.64282099656937
"CAN","cpi",0.2,1969,3,1968,NA,1.5,4.11187982687787,4.52140923201294,4.42679496126681,4.31664452944541,TRUE,0.409529405135062
"CAN","cpi",0.2,1970,3,1970,NA,0,3.57901779302529,3.63621297197322,3.28128405769805,3.60761538249925,FALSE,0.801529517266038
"CAN","cpi",0.2,1970,3,1970,NA,0.5,4.09997594472484,4.620345603709,3.28128405769805,4.36016077421692,FALSE,2.56709937655114
"CAN","cpi",0.2,1970,3,1969,NA,1,4.65350964855927,5.17387930754343,3.28128405769805,4.91369447805135,FALSE,3.95093363613721
"CAN","cpi",0.2,1970,3,1969,NA,1.5,1.81955364333921,2.33992330232337,3.28128405769805,2.07973847283129,FALSE,2.87377154742084
"CAN","cpi",0.2,1971,3,1971,NA,0,2.88352659204068,2.95393142756607,2.64123406634756,2.91872900980337,FALSE,0.676136149758184
"CAN","cpi",0.2,1971,3,1971,NA,0.5,1.17118633677114,1.595955775955,2.64123406634756,1.38357105636307,FALSE,3.03796516516526
"CAN","cpi",0.2,1971,3,1970,NA,1,2.96448139020084,3.38925082938471,2.64123406634756,3.17686610979278,FALSE,1.23288774881707
"CAN","cpi",0.2,1971,3,1970,NA,1.5,4.40827840367082,4.83304784285468,2.64123406634756,4.62066312326275,FALSE,4.84238028249201
"CAN","cpi",0.2,1972,3,1972,NA,0,4.94748691727323,5.39672692604379,4.83230569625923,5.17210692165851,FALSE,0.737193061305561
"CAN","cpi",0.2,1972,3,1972,NA,0.5,4.53762255040418,4.98686255917474,4.83230569625923,4.76224255478946,TRUE,0.449240008770559
"CAN","cpi",0.2,1972,3,1971,NA,1,6.61401497623147,7.06325498500202,4.83230569625923,6.83863498061675,FALSE,4.90351320870115
"CAN","cpi",0.2,1972,3,1971,NA,1.5,1.72979162150536,2.17903163027592,4.83230569625923,1.95441162589064,FALSE,7.08242517372884
"CAN","cpi",0.2,1973,3,1973,NA,0,7.15039342754787,7.67076308653203,7.12388603531779,7.41057825703995,FALSE,0.586638139559354
"CAN","cpi",0.2,1973,3,1973,NA,0.5,5.981729183645,6.50209884262916,7.12388603531779,6.24191401313708,FALSE,2.07483764070573
"CAN","cpi",0.2,1973,3,1972,NA,1,7.86572400732727,8.38609366631143,7.12388603531779,8.12590883681935,FALSE,2.37496458900785
"CAN","cpi",0.2,1973,3,1972,NA,1.5,4.63664765418413,5.28596623364032,7.12388603531779,4.96130694391223,FALSE,5.24411808364986
"CAN","cpi",0.2,1974,3,1974,NA,0,10.060088760853,10.5238720588934,10.2717243737774,10.2919804098732,TRUE,0.46378329804034
"CAN","cpi",0.2,1974,3,1974,NA,0.5,8.78490737341276,9.2486906714531,10.2717243737774,9.01679902243293,FALSE,3.02136755385113
"CAN","cpi",0.2,1974,3,1973,NA,1,11.2757470334549,11.7395303314953,10.2717243737774,11.5076386824751,FALSE,2.9738399472341
"CAN","cpi",0.2,1974,3,1973,NA,1.5,6.80661853009881,7.27040182813915,10.2717243737774,7.03851017911898,FALSE,7.967089662136
"CAN","cpi",0.2,1975,3,1975,NA,0,10.0565146407511,10.5768842997353,10.0232981493341,10.3166994702432,FALSE,0.603410887526611
"CAN","cpi",0.2,1975,3,1975,NA,0.5,8.61799342822546,9.13836308720963,10.0232981493341,8.87817825771755,FALSE,2.7327073142954
"CAN","cpi",0.2,1975,3,1974,NA,1,11.4032636821666,11.9236333411507,10.0232981493341,11.6634485116586,FALSE,3.97028349106528
"CAN","cpi",0.2,1975,3,1974,NA,1.5,8.83147456398407,9.35184422296823,10.0232981493341,9.09165939347615,FALSE,2.19900447489888
"CAN","cpi",0.2,1976,3,1976,NA,0,6.99892884454718,7.51929850353134,7.22784311401172,7.25911367403926,TRUE,0.52036965898416
"CAN","cpi",0.2,1976,3,1976,NA,0.5,6.96484082319834,7.4852104821825,7.22784311401172,7.22502565269042,TRUE,0.52036965898416
"CAN","cpi",0.2,1976,3,1975,NA,1,12.2178942142863,12.7382638732705,7.22784311401172,12.4780790437784,FALSE,12.9954974096706
"CAN","cpi",0.2,1976,3,1975,NA,1.5,6.9256753088836,7.44604496786776,7.22784311401172,7.18586013837568,TRUE,0.52036965898416
"CAN","cpi",0.2,1977,3,1977,NA,0,7.33943273428787,7.84334756490609,7.58101410153764,7.59139014959698,TRUE,0.50391483061822
"CAN","cpi",0.2,1977,3,1977,NA,0.5,6.99842915023338,7.5023439808516,7.58101410153764,7.25038656554249,FALSE,0.700590132333341
"CAN","cpi",0.2,1977,3,1976,NA,1,5.6779877713453,6.18190260196352,7.58101410153764,5.92994518665441,FALSE,4.00169357955353
"CAN","cpi",0.2,1977,3,1976,NA,1.5,5.4293583201473,5.94972797913146,7.58101410153764,5.68954314963938,FALSE,4.59858496499962
"CAN","cpi",0.2,1978,3,1978,NA,0,8.44431335619299,8.93330818000825,8.50208927062595,8.68881076810062,TRUE,0.488994823815265
"CAN","cpi",0.2,1978,3,1978,NA,0.5,7.86758767574175,8.35658249955701,8.50208927062595,8.11208508764938,FALSE,0.852761751487605
"CAN","cpi",0.2,1978,3,1977,NA,1,8.10222182042979,8.59121664424506,8.50208927062595,8.34671923233743,TRUE,0.488994823815265
"CAN","cpi",0.2,1978,3,1977,NA,1.5,7.95392248676566,8.47429214574983,8.50208927062595,8.21410731625775,FALSE,0.589862471174461
"CAN","cpi",0.2,1979,3,1979,NA,0,8.31698642461668,8.80574424268153,8.65147652410481,8.56136533364911,TRUE,0.488757818064848
"CAN","cpi",0.2,1979,3,1979,NA,0.5,7.98654698782158,8.47530480588643,8.65147652410481,8.23092589685401,FALSE,0.929187113610795
"CAN","cpi",0.2,1979,3,1978,NA,1,9.42043954996087,9.90919736802572,8.65147652410481,9.66481845899329,FALSE,2.41116538270499
"CAN","cpi",0.2,1979,3,1978,NA,1.5,7.64996323421038,8.17033289319454,8.65147652410481,7.91014806370246,FALSE,1.72322873625983
"CAN","cpi",0.2,1980,3,1980,NA,0,9.49841218018973,9.5731219369802,9.5171912664748,9.53576705858497,TRUE,0.0747097567904653
"CAN","cpi",0.2,1980,3,1980,NA,0.5,8.40640380933962,8.88054541151759,9.5171912664748,8.6434746104286,FALSE,2.06575623957099
"CAN","cpi",0.2,1980,3,1979,NA,1,7.55260169031426,8.02674329249223,9.5171912664748,7.78967249140325,FALSE,4.20026153713438
"CAN","cpi",0.2,1980,3,1979,NA,1.5,8.03763089615977,8.55800055514393,9.5171912664748,8.29781572565185,FALSE,2.91834643731133
"CAN","cpi",0.2,1981,3,1981,NA,0,11.5067622833169,11.9173033638499,11.5813425032741,11.7120328235834,TRUE,0.410541080533044
"CAN","cpi",0.2,1981,3,1981,NA,0.5,12.1243479842746,12.5348890648077,11.5813425032741,12.3296185245412,FALSE,1.76805478303431
"CAN","cpi",0.2,1981,3,1980,NA,1,10.7763411946637,11.294911673558,11.5813425032741,11.0356264341109,FALSE,1.23464755318463
"CAN","cpi",0.2,1981,3,1980,NA,1.5,8.20220338524831,8.84729378843539,11.5813425032741,8.52474858684185,FALSE,7.48021219028394
"CAN","cpi",0.2,1982,3,1982,NA,0,10.2168914328319,10.2895566299181,10.1124203763629,10.253224031375,FALSE,0.333842838258618
"CAN","cpi",0.2,1982,3,1982,NA,0.5,9.8619466771314,10.3823163361156,10.1124203763629,10.1221315066235,TRUE,0.520369658984162
"CAN","cpi",0.2,1982,3,1981,NA,1,11.3372182938845,11.9683367998774,10.1124203763629,11.652777546881,FALSE,3.6931132997968
"CAN","cpi",0.2,1982,3,1981,NA,1.5,12.8983942306249,13.5295127366178,10.1124203763629,13.2139534836213,FALSE,7.59605314164769
"CAN","cpi",0.2,1983,3,1983,NA,0,5.58344269397645,6.10381235296061,5.67091787896303,5.84362752346853,TRUE,0.52036965898416
"CAN","cpi",0.2,1983,3,1983,NA,0.5,4.44616665194328,4.96653631092744,5.67091787896303,4.70635148143536,FALSE,2.28132357907315
"CAN","cpi",0.2,1983,3,1982,NA,1,8.24020902903763,8.98853816963602,5.67091787896303,8.61437359933683,FALSE,7.17155701578488
"CAN","cpi",0.2,1983,3,1982,NA,1.5,9.46913845905619,10.2174675996546,5.67091787896303,9.84330302935538,FALSE,10.2438805908313
"CAN","cpi",0.2,1984,3,1984,NA,0,3.95297180229709,4.47334146128125,4.19799576814029,4.21315663178917,TRUE,0.52036965898416
"CAN","cpi",0.2,1984,3,1984,NA,0.5,4.46985723503424,4.9902268940184,4.19799576814029,4.73004206452632,FALSE,1.20002332621905
"CAN","cpi",0.2,1984,3,1983,NA,1,5.87611339523986,6.73448584144252,4.19799576814029,6.30529961834119,FALSE,5.05366651395159
"CAN","cpi",0.2,1984,3,1983,NA,1.5,2.38270817507642,3.24108062127909,4.19799576814029,2.81189439817776,FALSE,3.25066031335566
"CAN","cpi",0.2,1985,3,1985,NA,0,3.69559493322073,4.11534295766213,3.86444262005169,3.90546894544143,TRUE,0.419748024441397
"CAN","cpi",0.2,1985,3,1985,NA,0.5,3.801890979306,4.2216390037474,3.86444262005169,4.0117649915267,TRUE,0.419748024441397
"CAN","cpi",0.2,1985,3,1984,NA,1,3.02923715113159,3.54960681011575,3.86444262005169,3.28942198062367,FALSE,1.30745918382402
"CAN","cpi",0.2,1985,3,1984,NA,1.5,4.36963518107129,4.98977221582058,3.86444262005169,4.67970369844593,FALSE,1.88311843729828
"CAN","cpi",0.2,1986,3,1986,NA,0,3.86709264496221,4.38746230394637,4.08685396749431,4.12727747445429,TRUE,0.52036965898416
"CAN","cpi",0.2,1986,3,1986,NA,0.5,4.3149563787631,4.83532603774726,4.08685396749431,4.57514120825518,FALSE,1.09062568715614
"CAN","cpi",0.2,1986,3,1985,NA,1,3.58483267751124,4.1052023364954,4.08685396749431,3.84501750700332,TRUE,0.52036965898416
"CAN","cpi",0.2,1986,3,1985,NA,1.5,4.19403972824532,4.83844028353344,4.08685396749431,4.51624000588938,FALSE,0.912364957165633
"CAN","cpi",0.2,1987,3,1987,NA,0,4.07743159048172,4.59780124946588,4.23980729277887,4.3376164199738,TRUE,0.52036965898416
"CAN","cpi",0.2,1987,3,1987,NA,0.5,3.62965374073912,4.15002339972328,4.23980729277887,3.8898385702312,FALSE,0.744829391623127
"CAN","cpi",0.2,1987,3,1986,NA,1,4.30266453474369,4.82303419372785,4.23980729277887,4.56284936423577,FALSE,0.677512763896214
"CAN","cpi",0.2,1987,3,1986,NA,1.5,4.89456176481465,5.41493142379881,4.23980729277887,5.15474659430673,FALSE,2.15725583907361
"CAN","cpi",0.2,1988,3,1988,NA,0,3.74009816655619,4.26046782554035,3.92899537638065,4.00028299604827,TRUE,0.52036965898416
"CAN","cpi",0.2,1988,3,1988,NA,0.5,3.2716279596233,3.79199761860746,3.92899537638065,3.53181278911538,FALSE,0.862864053417157
"CAN","cpi",0.2,1988,3,1987,NA,1,4.08154803096753,4.60191768995169,3.92899537638065,4.34173286045961,FALSE,0.901751295451342
"CAN","cpi",0.2,1988,3,1987,NA,1.5,3.50593810632498,4.02630776530914,3.92899537638065,3.76612293581706,TRUE,0.52036965898416
"CAN","cpi",0.2,1989,3,1989,NA,0,4.74588329553576,5.26625295451992,4.82821664544208,5.00606812502784,TRUE,0.52036965898416
"CAN","cpi",0.2,1989,3,1989,NA,0.5,4.25502955023196,4.77539920921612,4.82821664544208,4.51521437972404,FALSE,0.652413249549052
"CAN","cpi",0.2,1989,3,1988,NA,1,4.06685414899802,4.58722380798218,4.82821664544208,4.3270389784901,FALSE,1.12285175263391
"CAN","cpi",0.2,1989,3,1988,NA,1.5,3.16680767858988,3.68717733757404,4.82821664544208,3.42699250808196,FALSE,3.37296792865426
"CAN","cpi",0.2,1990,3,1990,NA,0,4.26152740799851,4.78189706698267,4.64347549432717,4.52171223749059,TRUE,0.52036965898416
"CAN","cpi",0.2,1990,3,1990,NA,0.5,4.9631677031075,5.48353736209166,4.64347549432717,5.22335253259958,FALSE,1.31960018093498
"CAN","cpi",0.2,1990,3,1989,NA,1,5.46345840979922,5.98382806878338,4.64347549432717,5.7236432392913,FALSE,2.57032694766429
"CAN","cpi",0.2,1990,3,1989,NA,1.5,4.66022859184169,5.18059825082585,4.64347549432717,4.92041342133377,FALSE,0.562252402770468
"CAN","cpi",0.2,1991,3,1991,NA,0,5.59669350002617,5.63566983640803,5.4258100696218,5.6161816682171,FALSE,0.466184912392794
"CAN","cpi",0.2,1991,3,1991,NA,0.5,8.56386617652542,9.08423583550958,5.4258100696218,8.8240510060175,FALSE,8.36550992624323
"CAN","cpi",0.2,1991,3,1990,NA,1,3.63152230474211,4.15189196372627,5.4258100696218,3.89170713423419,FALSE,3.70516492372297
"CAN","cpi",0.2,1991,3,1990,NA,1.5,5.44443559498234,5.9648052539665,5.4258100696218,5.70462042447442,FALSE,0.566933472385517
"CAN","cpi",0.2,1992,3,1992,NA,0,1.45502959419125,1.4958597506366,1.47496888572843,1.47544467241393,TRUE,0.0408301564453502
"CAN","cpi",0.2,1992,3,1992,NA,0.5,1.21411860419272,1.50726908108366,1.47496888572843,1.36069384263819,TRUE,0.293150476890945
"CAN","cpi",0.2,1992,3,1991,NA,1,2.17482237829667,2.69519203728083,1.47496888572843,2.43500720778875,FALSE,2.27000339040475
"CAN","cpi",0.2,1992,3,1991,NA,1.5,10.9471127948823,11.4674824538664,1.47496888572843,11.2072976243743,FALSE,24.2007294318687
"CAN","cpi",0.2,1993,3,1993,NA,0,1.62417127868422,2.00574946610782,1.84351085411351,1.81496037239602,TRUE,0.3815781874236
"CAN","cpi",0.2,1993,3,1993,NA,0.5,2.24259725716292,2.62417544458652,1.84351085411351,2.43338635087472,FALSE,1.37929419504713
"CAN","cpi",0.2,1993,3,1992,NA,1,1.53308818306776,1.99148714331947,1.84351085411351,1.76228766319361,TRUE,0.458398960251711
"CAN","cpi",0.2,1993,3,1992,NA,1.5,1.36955113347214,1.82795009372386,1.84351085411351,1.598750613598,FALSE,0.497300861225852
"CAN","cpi",0.2,1994,3,1994,NA,0,0.0182073262716557,0.422087128044201,0.161630694655448,0.220147227157928,TRUE,0.403879801772546
"CAN","cpi",0.2,1994,3,1994,NA,0.5,-0.943482426929964,-0.539602625157418,0.161630694655448,-0.741542526043691,FALSE,2.15696310130471
"CAN","cpi",0.2,1994,3,1993,NA,1,1.29568296761933,1.72020966833674,0.161630694655448,1.50794631797803,FALSE,3.25965738312711
"CAN","cpi",0.2,1994,3,1993,NA,1.5,2.60571382305225,3.03024052376966,0.161630694655448,2.81797717341095,FALSE,6.53473452170941
"CAN","cpi",0.2,1995,3,1995,NA,0,1.95334648721123,2.35634723197854,2.11688403676572,2.15484685959489,TRUE,0.403000744767309
"CAN","cpi",0.2,1995,3,1995,NA,0.5,2.70733884422393,3.11033958899123,2.11688403676572,2.90883921660758,FALSE,1.87913776341283
"CAN","cpi",0.2,1995,3,1994,NA,1,1.73521326111271,2.16825514131359,2.11688403676572,1.95173420121315,TRUE,0.433041880200887
"CAN","cpi",0.2,1995,3,1994,NA,1.5,-2.3963555009187,-1.96331362071782,2.11688403676572,-2.17983456081826,FALSE,10.6335360239097
"CAN","cpi",0.2,1996,3,1996,NA,0,1.42185575156424,1.46148203593152,1.55309584667184,1.44166889374788,FALSE,0.268660811218084
"CAN","cpi",0.2,1996,3,1996,NA,0.5,1.20876768026559,1.51596765967012,1.55309584667184,1.36236766996786,FALSE,0.400020446908839
"CAN","cpi",0.2,1996,3,1995,NA,1,0.703576895560698,1.1193716407407,1.55309584667184,0.911474268150699,FALSE,1.50010526000786
"CAN","cpi",0.2,1996,3,1995,NA,1.5,3.77995031690811,4.19574506208811,1.55309584667184,3.98784768949811,FALSE,5.98293092077067
"CAN","cpi",0.2,1997,3,1997,NA,0,1.47996070745395,1.89627358344763,1.60528783555959,1.68811714545079,TRUE,0.416312875993678
"CAN","cpi",0.2,1997,3,1997,NA,0.5,1.89805223862602,2.31436511461969,1.60528783555959,2.10620867662285,FALSE,1.14822388365974
"CAN","cpi",0.2,1997,3,1996,NA,1,0.526323553570721,0.990597018548045,1.60528783555959,0.758460286059383,FALSE,2.00100050750619
"CAN","cpi",0.2,1997,3,1996,NA,1.5,1.43074179443805,1.89501525941537,1.60528783555959,1.66287852692671,TRUE,0.464273464977325
"CAN","cpi",0.2,1998,3,1998,NA,0,0.762228284289963,1.17925976185129,0.988908029337191,0.970744023070627,TRUE,0.41703147756133
"CAN","cpi",0.2,1998,3,1998,NA,0.5,1.31245291126225,1.72948438882358,0.988908029337191,1.52096865004292,FALSE,1.22589368237399
"CAN","cpi",0.2,1998,3,1997,NA,1,0.823934145573309,1.25598703399667,0.988908029337191,1.03996058978499,TRUE,0.432052888423366
"CAN","cpi",0.2,1998,3,1997,NA,1.5,2.00456929686461,2.43662218528797,0.988908029337191,2.22059574107629,FALSE,2.97120605724191
"CAN","cpi",0.2,1999,3,1999,NA,0,1.76695734258604,1.8158719562277,1.7107350135213,1.79141464940687,FALSE,0.189470436303522
"CAN","cpi",0.2,1999,3,1999,NA,0.5,0.643373569938805,0.957731175483599,1.7107350135213,0.800552372711202,FALSE,2.19686720063904
"CAN","cpi",0.2,1999,3,1998,NA,1,0.241026764440367,0.708024085378855,1.7107350135213,0.474525424909611,FALSE,2.97377464129459
"CAN","cpi",0.2,1999,3,1998,NA,1.5,1.96426631299201,2.4312636339305,1.7107350135213,2.19776497346126,FALSE,1.10082556961528
"CAN","cpi",0.2,2000,3,2000,NA,0,2.51658947080209,2.95118774169246,2.6718361971244,2.73388860624727,TRUE,0.434598270890374
"CAN","cpi",0.2,2000,3,2000,NA,0.5,1.89795918690719,2.33255745779756,2.6718361971244,2.11525832235237,FALSE,1.28279511920747
"CAN","cpi",0.2,2000,3,1999,NA,1,2.572423318486,3.05633833909026,2.6718361971244,2.81438082878813,TRUE,0.483915020604253
"CAN","cpi",0.2,2000,3,1999,NA,1.5,0.630456104349734,1.11437112495399,2.6718361971244,0.872413614651861,FALSE,4.37757770103028
"CAN","cpi",0.2,2001,3,2001,NA,0,2.5112590323863,2.95887528124635,2.47906219852806,2.73506715681632,FALSE,0.528108333505643
"CAN","cpi",0.2,2001,3,2001,NA,0.5,1.49982737186742,1.94744362072746,2.47906219852806,1.72363549629744,FALSE,1.77666269336155
"CAN","cpi",0.2,2001,3,2000,NA,1,3.49316597380685,3.98674925407525,2.47906219852806,3.73995761394105,FALSE,3.02884271846536
"CAN","cpi",0.2,2001,3,2000,NA,1.5,1.73620797483812,2.22979125510652,2.47906219852806,1.98299961497232,FALSE,1.11676063882226
"CAN","cpi",0.2,2002,3,2002,NA,0,2.32709700561883,2.37293101312898,2.20880570551249,2.3500140093739,FALSE,0.341562257776004
"CAN","cpi",0.2,2002,3,2002,NA,0.5,1.26993923524361,1.67154981206734,2.20880570551249,1.47074452365548,FALSE,1.7447503104366
"CAN","cpi",0.2,2002,3,2001,NA,1,0.53578790160081,1.05615756058497,2.20880570551249,0.79597273109289,FALSE,3.40199002130295
"CAN","cpi",0.2,2002,3,2001,NA,1.5,0.478127206281064,1.17591101326841,2.20880570551249,0.827019109774735,FALSE,3.28002053759754
"CAN","cpi",0.2,2003,3,2003,NA,0,2.74928057408533,2.78805019225364,2.71189071546809,2.76866538316948,FALSE,0.132244264711408
"CAN","cpi",0.2,2003,3,2003,NA,0.5,4.33627035014549,4.85664000912965,2.71189071546809,4.59645517963757,FALSE,4.58131874567766
"CAN","cpi",0.2,2003,3,2002,NA,1,4.07728046695535,4.59765012593951,2.71189071546809,4.33746529644743,FALSE,3.9338440377023
"CAN","cpi",0.2,2003,3,2002,NA,1.5,2.25102485166756,3.17835295388612,2.71189071546809,2.71468890277684,TRUE,0.927328102218562
"CAN","cpi",0.2,2004,3,2004,NA,0,1.75308410783206,1.78386977017213,1.83151661303942,1.7684769390021,FALSE,0.149902769508302
"CAN","cpi",0.2,2004,3,2004,NA,0.5,1.30233286029152,1.82270251927568,1.83151661303942,1.5625176897836,FALSE,0.542404893393522
"CAN","cpi",0.2,2004,3,2003,NA,1,1.15735913724621,1.67772879623037,1.83151661303942,1.41754396673829,FALSE,0.904839201006789
"CAN","cpi",0.2,2004,3,2003,NA,1.5,4.88755730664623,5.76547141955185,1.83151661303942,5.32651436309904,FALSE,8.51801584692264
"CAN","cpi",0.2,2005,3,2005,NA,0,2.36011928303185,2.40381987018388,2.18071628336509,2.38196957660787,FALSE,0.492208086318928
"CAN","cpi",0.2,2005,3,2005,NA,0.5,1.31235459383517,1.83272425281933,2.18071628336509,1.57253942332725,FALSE,1.39034973534857
"CAN","cpi",0.2,2005,3,2004,NA,1,0.733048126967894,1.25341778595205,2.18071628336509,0.993232956459974,FALSE,2.83861590251675
"CAN","cpi",0.2,2005,3,2004,NA,1.5,1.79971203159313,2.32008169057729,2.18071628336509,2.05989686108521,TRUE,0.52036965898416
"CAN","cpi",0.2,2006,3,2006,NA,0,2.04055254093315,2.09289820302864,1.97519342012289,2.0667253719809,FALSE,0.215743464121159
"CAN","cpi",0.2,2006,3,2006,NA,0.5,1.67760912322545,2.19797878220961,1.97519342012289,1.93779395271753,TRUE,0.52036965898416
"CAN","cpi",0.2,2006,3,2005,NA,1,3.21707895252576,3.73744861150992,1.97519342012289,3.47726378201784,FALSE,3.62508348999135
"CAN","cpi",0.2,2006,3,2005,NA,1.5,0.918962672292049,1.85442061549972,1.97519342012289,1.38669164389589,FALSE,1.23738995476558
"CAN","cpi",0.2,2007,3,2007,NA,0,1.90747506459562,2.30867174556393,2.10062087284572,2.10807340507977,TRUE,0.401196680968311
"CAN","cpi",0.2,2007,3,2007,NA,0.5,2.21852362873083,2.61972030969914,2.10062087284572,2.41912196921498,FALSE,0.695953570681078
"CAN","cpi",0.2,2007,3,2006,NA,1,0.242148255799726,0.762517914783887,2.10062087284572,0.502333085291807,FALSE,3.86562705413875
"CAN","cpi",0.2,2007,3,2006,NA,1.5,1.71024185169252,2.23061151067668,2.10062087284572,1.9704266811846,TRUE,0.52036965898416
"CAN","cpi",0.2,2008,3,2008,NA,0,2.74102450608519,3.16700551895087,2.31447335265955,2.95401501251803,FALSE,1.49235889642977
"CAN","cpi",0.2,2008,3,2008,NA,0.5,0.946670268942355,1.37265128180803,2.31447335265955,1.1596607753752,FALSE,2.78053618999447
"CAN","cpi",0.2,2008,3,2007,NA,1,0.152039673953333,0.578020686819013,2.31447335265955,0.365030180386173,FALSE,4.76711267746703
"CAN","cpi",0.2,2008,3,2007,NA,1.5,3.53671377435045,3.96269478721613,2.31447335265955,3.74970428078329,FALSE,3.48158206709292
"CAN","cpi",0.2,2009,3,2009,NA,0,0.25524356665247,0.299402553998885,0.284533874408197,0.277323060325678,TRUE,0.0441589873464155
"CAN","cpi",0.2,2009,3,2009,NA,0.5,-1.07793356247623,-0.775750139521664,0.284533874408197,-0.926841850998946,FALSE,2.95289345777922
"CAN","cpi",0.2,2009,3,2008,NA,1,4.1314854453524,4.65185510433656,0.284533874408197,4.39167027484448,FALSE,10.1377485863447
"CAN","cpi",0.2,2009,3,2008,NA,1.5,1.01734664931641,1.59701556409533,0.284533874408197,1.30718110670587,FALSE,2.41170085204945
"CAN","cpi",0.2,2010,3,2010,NA,0,1.72762832428953,1.77023363510273,1.75525687020327,1.74893097969613,TRUE,0.0426053108131974
"CAN","cpi",0.2,2010,3,2010,NA,0.5,1.49269400298798,1.71759713820783,1.75525687020327,1.60514557059791,FALSE,0.319052465208453
"CAN","cpi",0.2,2010,3,2009,NA,1,0.386692291918011,0.907061950902171,1.75525687020327,0.646877121410091,FALSE,2.64085695723691
"CAN","cpi",0.2,2010,3,2009,NA,1.5,-1.5637372813621,-1.01840545536149,1.75525687020327,-1.29107136836179,FALSE,7.47948763991251
"CAN","cpi",0.2,2011,3,2011,NA,0,2.81240593266072,2.86076256957684,2.85717434028225,2.83658425111878,TRUE,0.0483566369161217
"CAN","cpi",0.2,2011,3,2011,NA,0.5,2.76607900502596,3.02425854902549,2.85717434028225,2.89516877702572,TRUE,0.258179543999528
"CAN","cpi",0.2,2011,3,2010,NA,1,1.93101676640209,2.45138642538625,2.85717434028225,2.19120159589417,FALSE,1.53483944622414
"CAN","cpi",0.2,2011,3,2010,NA,1.5,1.59725234128565,2.32997771219274,2.85717434028225,1.9636150267392,FALSE,2.05071694113085
"CAN","cpi",0.2,2012,3,2012,NA,0,1.43388640089378,1.48635973601552,1.50118536134935,1.46012306845465,FALSE,0.0895373984562968
"CAN","cpi",0.2,2012,3,2012,NA,0.5,1.66369148359949,1.96268322417706,1.50118536134935,1.81318735388827,FALSE,0.705257046202927
"CAN","cpi",0.2,2012,3,2011,NA,1,0.810385005082536,1.32453573821527,1.50118536134935,1.0674603716489,FALSE,0.95577479096793
"CAN","cpi",0.2,2012,3,2011,NA,1.5,3.00784641778396,3.52199715091669,1.50118536134935,3.26492178435033,FALSE,4.28080337421927
"CAN","cpi",0.2,2013,3,2013,NA,0,1.02365034679987,1.05564226108311,0.931270594714462,1.03964630394149,FALSE,0.262941294496763
"CAN","cpi",0.2,2013,3,2013,NA,0.5,1.00586744126359,1.32458855324674,0.931270594714462,1.16522799725517,FALSE,0.505213228355971
"CAN","cpi",0.2,2013,3,2012,NA,1,-0.672703599573005,-0.244870299037196,0.931270594714462,-0.4587869493051,FALSE,3.36818553491495
"CAN","cpi",0.2,2013,3,2012,NA,1.5,1.61000114142906,2.13037080041322,0.931270594714462,1.87018597092114,FALSE,2.21719602577065
"CAN","cpi",0.2,2014,3,2014,NA,0,1.97354459268708,2.00528913627547,1.87639912240215,1.98941686448128,FALSE,0.274608219300717
"CAN","cpi",0.2,2014,3,2014,NA,0.5,2.15067714400227,2.42001921694785,1.87639912240215,2.28534818047506,FALSE,0.955037126945887
"CAN","cpi",0.2,2014,3,2013,NA,1,0.72217361892793,1.14580289702487,1.87639912240215,0.933988257976399,FALSE,2.25011984154014
"CAN","cpi",0.2,2014,3,2013,NA,1.5,1.38917132195838,2.09948512261524,1.87639912240215,1.74432822228681,TRUE,0.710313800656864
"CAN","cpi",0.2,2015,3,2015,NA,0,1.24083935404576,1.28252205945684,1.11090953952792,1.2616807067513,FALSE,0.366507241705689
"CAN","cpi",0.2,2015,3,2015,NA,0.5,0.0163811276648918,0.420345062600252,1.11090953952792,0.218363095132572,FALSE,2.13037512725452
"CAN","cpi",0.2,2015,3,2014,NA,1,0.42129778576175,0.82526172069711,1.11090953952792,0.62327975322943,FALSE,1.11808348201238
"CAN","cpi",0.2,2015,3,2014,NA,1.5,3.18744357160775,3.90944709097531,1.11090953952792,3.54844533129153,FALSE,5.91333859956714
"CAN","cpi",0.2,2016,3,2016,NA,0,1.42058026991198,1.46748071513381,1.41168586698797,1.44403049252289,FALSE,0.0691364525318626
"CAN","cpi",0.2,2016,3,2016,NA,0.5,0.743756449877346,1.1436452718088,1.41168586698797,0.943700860843074,FALSE,1.06999030987936
"CAN","cpi",0.2,2016,3,2015,NA,1,1.45811396853681,1.85800279046827,1.41168586698797,1.65805837950254,FALSE,0.515959075803577
"CAN","cpi",0.2,2016,3,2015,NA,1.5,-0.0474316246776343,0.472938034306526,1.41168586698797,0.212753204814446,FALSE,2.86723924068776
"CAN","cpi",0.2,2017,3,2017,NA,0,1.50367990589298,1.53977077526039,1.57888581671161,1.52172534057668,FALSE,0.133878472995468
"CAN","cpi",0.2,2017,3,2017,NA,0.5,1.95485106723217,2.4050639556347,1.57888581671161,2.17995751143343,FALSE,1.39012601470393
"CAN","cpi",0.2,2017,3,2016,NA,1,0.253553712185114,0.703766600587642,1.57888581671161,0.478660156386378,FALSE,2.63801092871245
"CAN","cpi",0.2,2017,3,2016,NA,1.5,0.787620962404433,1.30799062138859,1.57888581671161,1.04780579189651,FALSE,1.1976076472917
"CAN","cpi",0.2,2018,3,2018,NA,0,2.41414316663291,2.43799411012806,2.23316270166586,2.42606863838048,FALSE,0.476302105912771
"CAN","cpi",0.2,2018,3,2018,NA,0.5,2.82068277593322,3.22133970515687,2.23316270166586,3.02101124054505,FALSE,1.86945711489206
"CAN","cpi",0.2,2018,3,2017,NA,1,0.323369562726748,0.724026491950392,2.23316270166586,0.52369802733857,FALSE,4.17349745351231
"CAN","cpi",0.2,2018,3,2017,NA,1.5,2.8238970137292,3.34426667271336,2.23316270166586,3.08408184322128,FALSE,1.99720543914251
"CAN","cpi",0.2,2019,3,2019,NA,0,1.99886581730558,2.04698088561814,1.91921619871868,2.02292335146186,FALSE,0.247239114779803
"CAN","cpi",0.2,2019,3,2019,NA,0.5,1.55811996768915,1.96298152016785,1.91921619871868,1.7605507439285,TRUE,0.4048615524787
"CAN","cpi",0.2,2019,3,2018,NA,1,1.7689361470575,2.1737976995362,1.91921619871868,1.97136692329685,TRUE,0.4048615524787
"CAN","cpi",0.2,2019,3,2018,NA,1.5,3.86983004968186,4.39019970866602,1.91921619871868,4.13001487917394,FALSE,5.3969042863921
"CAN","cpi",0.2,2020,3,2020,NA,0,0.525623608415151,0.970852098121619,0.71139989671781,0.748237853268385,TRUE,0.445228489706468
"CAN","cpi",0.2,2020,3,2020,NA,0.5,0.983766604060958,1.42899509376743,0.71139989671781,1.20638084891419,FALSE,1.12614525806434
"CAN","cpi",0.2,2020,3,2019,NA,1,1.11364540953094,1.55887389923741,0.71139989671781,1.33625965438418,FALSE,1.4508422717393
"CAN","cpi",0.2,2020,3,2019,NA,1.5,2.21809122445919,2.73846088344335,0.71139989671781,2.47827605395127,FALSE,4.28709797833762
"CAN","cpi",0.2,2021,3,2021,NA,0,3.10055256159509,3.62092222057925,3.31148121717802,3.36073739108717,TRUE,0.52036965898416
"CAN","cpi",0.2,2021,3,2021,NA,0.5,2.61768116332824,3.1380508223124,3.31148121717802,2.87786599282032,FALSE,0.953945646148213
"CAN","cpi",0.2,2021,3,2020,NA,1,1.54549122780566,2.06586088678982,3.31148121717802,1.80567605729774,FALSE,3.63442048495468
"CAN","cpi",0.2,2021,3,2020,NA,1.5,0.947911184047173,1.77839127460239,3.31148121717802,1.36315122932478,FALSE,4.6632049469943
"CAN","cpi",0.2,2022,3,2022,NA,0,6.32123259827525,6.84160225725941,6.50977236228281,6.58141742776733,TRUE,0.52036965898416
"CAN","cpi",0.2,2022,3,2022,NA,0.5,6.48275400827379,7.00312366725795,6.50977236228281,6.74293883776587,TRUE,0.52036965898416
"CAN","cpi",0.2,2022,3,2021,NA,1,4.56545732047363,5.08582697945779,6.50977236228281,4.82564214996571,FALSE,4.08023311604671
"CAN","cpi",0.2,2022,3,2021,NA,1.5,3.67556581366004,4.1959354726442,6.50977236228281,3.93575064315212,FALSE,6.30496188308068
"CAN","cpi",0.2,2023,3,2023,NA,0,3.99604372036007,4.03302199196286,3.78831288758619,4.01453285616146,FALSE,0.556305353537485
"CAN","cpi",0.2,2023,3,2023,NA,0.5,2.81869938790037,3.33906904688453,3.78831288758619,3.07888421739245,FALSE,1.6434792607383
"CAN","cpi",0.2,2023,3,2022,NA,1,3.59654797620499,4.11691763518915,3.78831288758619,3.85673280569707,TRUE,0.52036965898416
"CAN","cpi",0.2,2023,3,2022,NA,1.5,7.81273800497045,8.33310766395461,3.78831288758619,8.07292283446253,FALSE,10.5814324524448
"CAN","cpi",0.2,2024,3,2023,NA,1,3.81486271047295,4.33523236945711,NA,4.07504753996503,NA,NA
"CAN","cpi",0.2,2024,3,2023,NA,1.5,2.15510565370481,2.67547531268897,NA,2.41529048319689,NA,NA
"CAN","cpi",0.3,1959,3,1959,NA,0,0.853320670557309,1.64650365806855,1.19382698397654,1.24991216431293,TRUE,0.793182987511244
"CAN","cpi",0.3,1959,3,1959,NA,0.5,0.0412482378347052,0.834431225345949,1.19382698397654,0.437839731590327,FALSE,1.82002801217008
"CAN","cpi",0.3,1959,3,1958,NA,1,1.36203613510384,2.15521912261508,1.19382698397654,1.75862762885946,FALSE,1.27378056216067
"CAN","cpi",0.3,1959,3,1958,NA,1.5,1.37748023338203,2.17066322089328,1.19382698397654,1.77407172713766,FALSE,1.31790655724122
"CAN","cpi",0.3,1960,3,1960,NA,0,0.715817361530447,1.3314087236591,1.34209404870695,1.02361304259477,FALSE,0.646120862265376
"CAN","cpi",0.3,1960,3,1960,NA,0.5,0.231187799117334,0.846779161245985,1.34209404870695,0.53898348018166,FALSE,2.03077675487427
"CAN","cpi",0.3,1960,3,1959,NA,1,3.5610022431388,4.35418523065005,1.34209404870695,3.95759373689442,FALSE,7.13292068588796
"CAN","cpi",0.3,1960,3,1959,NA,1.5,-2.21262062591542,0.465666995105652,1.34209404870695,-0.873476815404885,FALSE,5.18236491702479
"CAN","cpi",0.3,1961,3,1961,NA,0,0.74749198313635,1.27093497874379,1.00921348094007,1.00921348094007,TRUE,0.523442995607443
"CAN","cpi",0.3,1961,3,1961,NA,0.5,0.74749198313635,1.27093497874379,1.00921348094007,1.00921348094007,TRUE,0.523442995607443
"CAN","cpi",0.3,1961,3,1960,NA,1,-0.342821031152089,0.450361956359155,1.00921348094007,0.0537704626035329,FALSE,2.38990162917101
"CAN","cpi",0.3,1961,3,1960,NA,1.5,-1.54363707402189,-0.180726523858184,1.00921348094007,-0.862181798940035,FALSE,4.76273913530158
"CAN","cpi",0.3,1962,3,1962,NA,0,0.795823396928171,1.40882465770139,1.04957947883042,1.10232402731478,TRUE,0.613001260773216
"CAN","cpi",0.3,1962,3,1962,NA,0.5,-0.306500630386608,0.306500630386608,1.04957947883042,0,FALSE,2.73608368489838
"CAN","cpi",0.3,1962,3,1961,NA,1,-0.396591493755622,0.396591493755622,1.04957947883042,0,FALSE,2.6588629448678
"CAN","cpi",0.3,1962,3,1961,NA,1.5,-0.719232502895761,0.719232502895761,1.04957947883042,0,FALSE,2.38231350846196
"CAN","cpi",0.3,1963,3,1963,NA,0,1.85672851760852,1.97310607301551,1.60677118395228,1.91491729531202,FALSE,0.830541365853378
"CAN","cpi",0.3,1963,3,1963,NA,0.5,0.76094277185373,0.912714657381278,1.60677118395228,0.836828714617504,FALSE,2.13479053287328
"CAN","cpi",0.3,1963,3,1962,NA,1,2.16752341039582,2.96070639790706,1.60677118395228,2.56411490415144,FALSE,2.39533220592133
"CAN","cpi",0.3,1963,3,1962,NA,1.5,-0.624046166835327,0.624046166835327,1.60677118395228,0,FALSE,4.05587809686196
"CAN","cpi",0.3,1964,3,1964,NA,0,1.74885219140669,2.22869293751426,1.88764670034376,1.98877256446048,TRUE,0.479840746107568
"CAN","cpi",0.3,1964,3,1964,NA,0.5,1.14376968922229,1.62361043532986,1.88764670034376,1.38369006227607,FALSE,1.23423007471872
"CAN","cpi",0.3,1964,3,1963,NA,1,4.99385140971694,5.78703439722818,1.88764670034376,5.39044290347256,FALSE,9.66805358572032
"CAN","cpi",0.3,1964,3,1963,NA,1.5,-0.676357766865538,0.676357766865538,1.88764670034376,0,FALSE,4.81354105795457
"CAN","cpi",0.3,1965,3,1965,NA,0,2.09749826532839,2.59364268305158,2.29538304394236,2.34557047418999,TRUE,0.49614441772319
"CAN","cpi",0.3,1965,3,1965,NA,0.5,1.36272227070494,1.85886668842813,2.29538304394236,1.61079447956654,FALSE,1.74333400490668
"CAN","cpi",0.3,1965,3,1964,NA,1,2.05827005273499,2.79210719086195,2.29538304394236,2.42518862179847,TRUE,0.733837138126956
"CAN","cpi",0.3,1965,3,1964,NA,1.5,0.451183983252921,1.18502112137988,2.29538304394236,0.818102552316399,FALSE,3.90629977401976
"CAN","cpi",0.3,1966,3,1966,NA,0,3.76200188997962,3.87821786729455,3.72486065470629,3.82010987863709,FALSE,0.22233379238159
"CAN","cpi",0.3,1966,3,1966,NA,0.5,3.88973207190275,4.09273590600852,3.72486065470629,3.99123398895563,FALSE,0.674065026095655
"CAN","cpi",0.3,1966,3,1965,NA,1,2.91166559964067,3.50277577527641,3.72486065470629,3.20722068745854,FALSE,1.22563840257826
"CAN","cpi",0.3,1966,3,1965,NA,1.5,1.31108315850171,1.90219333413745,3.72486065470629,1.60663824631958,FALSE,5.7987310915467
"CAN","cpi",0.3,1967,3,1967,NA,0,3.72519721463057,3.81017977194207,3.49360316391996,3.76768849328632,FALSE,0.746679845056103
"CAN","cpi",0.3,1967,3,1967,NA,0.5,2.21457676040738,2.60033272798782,3.49360316391996,2.4074547441976,FALSE,2.93795721310083
"CAN","cpi",0.3,1967,3,1966,NA,1,2.88196487415862,3.48010158724705,3.49360316391996,3.18103323070284,FALSE,0.636712646439594
"CAN","cpi",0.3,1967,3,1966,NA,1.5,4.35221324832826,4.95034996141669,3.49360316391996,4.65128160487248,FALSE,3.05130838282644
"CAN","cpi",0.3,1968,3,1968,NA,0,4.12635732009506,4.21940159335285,3.95128347779386,4.17287945672396,FALSE,0.593255251261237
"CAN","cpi",0.3,1968,3,1968,NA,0.5,3.74289268346555,4.3990514321315,3.95128347779386,4.07097205779852,TRUE,0.656158748665948
"CAN","cpi",0.3,1968,3,1967,NA,1,5.51713744690551,6.17329619557146,3.95128347779386,5.84521682123848,FALSE,5.13002723184209
"CAN","cpi",0.3,1968,3,1967,NA,1.5,1.92757920806929,2.58373795673524,3.95128347779386,2.25565858240226,FALSE,4.56343166597629
"CAN","cpi",0.3,1969,3,1969,NA,0,4.53892358835345,4.65148969885892,4.42679496126681,4.59520664360618,FALSE,0.432933616467284
"CAN","cpi",0.3,1969,3,1969,NA,0.5,2.6537230598208,3.2785173280935,4.42679496126681,2.96612019395715,FALSE,3.90558750591075
"CAN","cpi",0.3,1969,3,1968,NA,1,6.41247916627172,7.03727343454442,4.42679496126681,6.72487630040807,FALSE,6.29817771114386
"CAN","cpi",0.3,1969,3,1968,NA,1.5,4.00424739530906,4.62904166358175,4.42679496126681,4.31664452944541,TRUE,0.624794268272698
"CAN","cpi",0.3,1970,3,1970,NA,0,3.56376850784376,3.65146225715475,3.28128405769805,3.60761538249925,FALSE,0.894792178298743
"CAN","cpi",0.3,1970,3,1970,NA,0.5,3.9635692804613,4.75675226797254,3.28128405769805,4.36016077421692,FALSE,2.74256933826338
"CAN","cpi",0.3,1970,3,1969,NA,1,4.51710298429573,5.31028597180697,3.28128405769805,4.91369447805135,FALSE,4.32409420636176
"CAN","cpi",0.3,1970,3,1969,NA,1.5,1.68314697907567,2.47632996658692,3.28128405769805,2.07973847283129,FALSE,3.09305181925733
"CAN","cpi",0.3,1971,3,1971,NA,0,2.86489047995684,2.97256753964991,2.64123406634756,2.91872900980337,FALSE,0.746695384291009
"CAN","cpi",0.3,1971,3,1971,NA,0.5,1.05949063221916,1.70765148050699,2.64123406634756,1.38357105636307,FALSE,3.31553966497519
"CAN","cpi",0.3,1971,3,1970,NA,1,2.85278568564886,3.50094653393669,2.64123406634756,3.17686610979278,FALSE,1.25259404629154
"CAN","cpi",0.3,1971,3,1970,NA,1.5,4.29658269911884,4.94474354740667,2.64123406634756,4.62066312326275,FALSE,5.37772837049147
"CAN","cpi",0.3,1972,3,1972,NA,0,4.82946136311289,5.51475248020413,4.83230569625923,5.17210692165851,TRUE,0.685291117091241
"CAN","cpi",0.3,1972,3,1972,NA,0.5,4.41959699624384,5.10488811333508,4.83230569625923,4.76224255478946,TRUE,0.685291117091241
"CAN","cpi",0.3,1972,3,1971,NA,1,6.49598942207112,7.18128053916237,4.83230569625923,6.83863498061675,FALSE,5.43867319083951
"CAN","cpi",0.3,1972,3,1971,NA,1.5,1.61176606734502,2.29705718443626,4.83230569625923,1.95441162589064,FALSE,7.9288582937283
"CAN","cpi",0.3,1973,3,1973,NA,0,7.01398676328433,7.80716975079557,7.12388603531779,7.41057825703995,TRUE,0.793182987511244
"CAN","cpi",0.3,1973,3,1973,NA,0.5,5.84532251938146,6.63850550689271,7.12388603531779,6.24191401313708,FALSE,2.1799844972972
"CAN","cpi",0.3,1973,3,1972,NA,1,7.72931734306372,8.52250033057497,7.12388603531779,8.12590883681935,FALSE,2.5229867239282
"CAN","cpi",0.3,1973,3,1972,NA,1.5,4.46643878423832,5.45617510358613,7.12388603531779,4.96130694391223,FALSE,5.75462469572398
"CAN","cpi",0.3,1974,3,1974,NA,0,9.93818569866435,10.645775121082,10.2717243737774,10.2919804098732,TRUE,0.70758942241768
"CAN","cpi",0.3,1974,3,1974,NA,0.5,8.66300431122409,9.37059373364177,10.2717243737774,9.01679902243293,FALSE,3.28224839423382
"CAN","cpi",0.3,1974,3,1973,NA,1,11.1538439712663,11.8614333936839,10.2717243737774,11.5076386824751,FALSE,3.22793112952863
"CAN","cpi",0.3,1974,3,1973,NA,1.5,6.68471546791015,7.39230489032782,10.2717243737774,7.03851017911898,FALSE,8.93450223227367
"CAN","cpi",0.3,1975,3,1975,NA,0,9.92010797648756,10.7132909639988,10.0232981493341,10.3166994702432,TRUE,0.793182987511244
"CAN","cpi",0.3,1975,3,1975,NA,0.5,8.48158676396192,9.27476975147317,10.0232981493341,8.87817825771755,FALSE,2.93183555282825
"CAN","cpi",0.3,1975,3,1974,NA,1,11.266857017903,12.0600400054143,10.0232981493341,11.6634485116586,FALSE,4.34620832627955
"CAN","cpi",0.3,1975,3,1974,NA,1.5,8.69506789972053,9.48825088723178,10.0232981493341,9.09165939347615,FALSE,2.3218894506608
"CAN","cpi",0.3,1976,3,1976,NA,0,6.86252218028364,7.65570516779488,7.22784311401172,7.25911367403926,TRUE,0.793182987511244
"CAN","cpi",0.3,1976,3,1976,NA,0.5,6.8284341589348,7.62161714644604,7.22784311401172,7.22502565269042,TRUE,0.793182987511244
"CAN","cpi",0.3,1976,3,1975,NA,1,12.0814875500228,12.874670537534,7.22784311401172,12.4780790437784,FALSE,14.6607385189714
"CAN","cpi",0.3,1976,3,1975,NA,1.5,6.78926864462006,7.5824516321313,7.22784311401172,7.18586013837568,TRUE,0.793182987511244
"CAN","cpi",0.3,1977,3,1977,NA,0,7.20663541475737,7.97614488443659,7.58101410153764,7.59139014959698,TRUE,0.769509469679214
"CAN","cpi",0.3,1977,3,1977,NA,0.5,6.86563183070288,7.63514130038209,7.58101410153764,7.25038656554249,TRUE,0.769509469679214
"CAN","cpi",0.3,1977,3,1976,NA,1,5.5451904518148,6.31469992149402,7.58101410153764,5.92994518665441,FALSE,4.38754998408958
"CAN","cpi",0.3,1977,3,1976,NA,1.5,5.29295165588376,6.086134643395,7.58101410153764,5.68954314963938,FALSE,5.06426715363308
"CAN","cpi",0.3,1978,3,1978,NA,0,8.31549398450414,9.0621275516971,8.50208927062595,8.68881076810062,TRUE,0.746633567192958
"CAN","cpi",0.3,1978,3,1978,NA,0.5,7.7387683040529,8.48540187124586,8.50208927062595,8.11208508764938,FALSE,0.794311851136071
"CAN","cpi",0.3,1978,3,1977,NA,1,7.97340244874095,8.72003601593391,8.50208927062595,8.34671923233743,TRUE,0.746633567192959
"CAN","cpi",0.3,1978,3,1977,NA,1.5,7.81751582250212,8.61069881001337,8.50208927062595,8.21410731625775,TRUE,0.793182987511244
"CAN","cpi",0.3,1979,3,1979,NA,0,8.18823024301386,8.93450042428436,8.65147652410481,8.56136533364911,TRUE,0.7462701812705
"CAN","cpi",0.3,1979,3,1979,NA,0.5,7.85779080621876,8.60406098748926,8.65147652410481,8.23092589685401,FALSE,0.881743143029222
"CAN","cpi",0.3,1979,3,1978,NA,1,9.29168336835804,10.0379535496285,8.65147652410481,9.66481845899329,FALSE,2.57543259342259
"CAN","cpi",0.3,1979,3,1978,NA,1.5,7.51355656994684,8.30673955745808,8.65147652410481,7.91014806370246,FALSE,1.77814574935903
"CAN","cpi",0.3,1980,3,1980,NA,0,9.47882820073247,9.59270591643746,9.5171912664748,9.53576705858497,TRUE,0.113877715704991
"CAN","cpi",0.3,1980,3,1980,NA,0.5,8.28115567197737,9.00579354887984,9.5171912664748,8.6434746104286,FALSE,2.18577421288807
"CAN","cpi",0.3,1980,3,1979,NA,1,7.42735355295201,8.15199142985448,9.5171912664748,7.78967249140325,FALSE,4.6252088386748
"CAN","cpi",0.3,1980,3,1979,NA,1.5,7.90122423189623,8.69440721940747,9.5171912664748,8.29781572565185,FALSE,3.14399455056075
"CAN","cpi",0.3,1981,3,1981,NA,0,11.3990601523781,12.0250054947887,11.5813425032741,11.7120328235834,TRUE,0.625945342410652
"CAN","cpi",0.3,1981,3,1981,NA,0.5,12.0166458533358,12.6425911957465,11.5813425032741,12.3296185245412,FALSE,1.86966919972979
"CAN","cpi",0.3,1981,3,1980,NA,1,10.6380807806771,11.4331720875446,11.5813425032741,11.0356264341109,FALSE,1.21843535180898
"CAN","cpi",0.3,1981,3,1980,NA,1.5,8.03310312993131,9.0163940437524,11.5813425032741,8.52474858684185,FALSE,8.31171508388321
"CAN","cpi",0.3,1982,3,1982,NA,0,10.1978434023185,10.3086046604316,10.1124203763629,10.253224031375,FALSE,0.354827046557455
"CAN","cpi",0.3,1982,3,1982,NA,0.5,9.72554001286786,10.5187230003791,10.1124203763629,10.1221315066235,TRUE,0.793182987511244
"CAN","cpi",0.3,1982,3,1981,NA,1,11.1706874749116,12.1348676188503,10.1124203763629,11.652777546881,FALSE,3.98780042550629
"CAN","cpi",0.3,1982,3,1981,NA,1.5,12.7318634116519,13.6960435555907,10.1124203763629,13.2139534836213,FALSE,8.44830310190731
"CAN","cpi",0.3,1983,3,1983,NA,0,5.44703602971291,6.24021901722415,5.67091787896303,5.84362752346853,TRUE,0.793182987511244
"CAN","cpi",0.3,1983,3,1983,NA,0.5,4.30975998767974,5.10294297519098,5.67091787896303,4.70635148143536,FALSE,2.41596842685997
"CAN","cpi",0.3,1983,3,1982,NA,1,8.04244458972474,9.18630260894891,5.67091787896303,8.61437359933683,FALSE,7.91964862140047
"CAN","cpi",0.3,1983,3,1982,NA,1.5,9.27137401974329,10.4152320389675,5.67091787896303,9.84330302935538,FALSE,11.4308755643106
"CAN","cpi",0.3,1984,3,1984,NA,0,3.81656513803355,4.60974812554479,4.19799576814029,4.21315663178917,TRUE,0.793182987511244
"CAN","cpi",0.3,1984,3,1984,NA,0.5,4.3334505707707,5.12663355828195,4.19799576814029,4.73004206452632,FALSE,1.18019670931243
"CAN","cpi",0.3,1984,3,1983,NA,1,5.64935433293687,6.96124490374552,4.19799576814029,6.30529961834119,FALSE,5.4586293273703
"CAN","cpi",0.3,1984,3,1983,NA,1.5,2.15594911277343,3.46783968358208,4.19799576814029,2.81189439817776,FALSE,3.39805081240352
"CAN","cpi",0.3,1985,3,1985,NA,0,3.58556463676371,4.22537325411914,3.86444262005169,3.90546894544143,TRUE,0.639808617355424
"CAN","cpi",0.3,1985,3,1985,NA,0.5,3.69186068284899,4.33166930020441,3.86444262005169,4.0117649915267,TRUE,0.639808617355424
"CAN","cpi",0.3,1985,3,1984,NA,1,2.89283048686805,3.68601347437929,3.86444262005169,3.28942198062367,FALSE,1.30298054657525
"CAN","cpi",0.3,1985,3,1984,NA,1.5,4.20429525787373,5.15511213901814,3.86444262005169,4.67970369844593,FALSE,1.9218244177788
"CAN","cpi",0.3,1986,3,1986,NA,0,3.73068598069867,4.52386896820992,4.08685396749431,4.12727747445429,TRUE,0.793182987511244
"CAN","cpi",0.3,1986,3,1986,NA,0.5,4.17854971449956,4.9717327020108,4.08685396749431,4.57514120825518,FALSE,1.05517083609767
"CAN","cpi",0.3,1986,3,1985,NA,1,3.4484260132477,4.24160900075894,4.08685396749431,3.84501750700332,TRUE,0.793182987511244
"CAN","cpi",0.3,1986,3,1985,NA,1.5,4.02223070483668,5.01024930694207,4.08685396749431,4.51624000588938,TRUE,0.988018602105385
"CAN","cpi",0.3,1987,3,1987,NA,0,3.94102492621818,4.73420791372942,4.23980729277887,4.3376164199738,TRUE,0.793182987511244
"CAN","cpi",0.3,1987,3,1987,NA,0.5,3.49324707647558,4.28643006398683,4.23980729277887,3.8898385702312,TRUE,0.793182987511243
"CAN","cpi",0.3,1987,3,1986,NA,1,4.16625787048015,4.9594408579914,4.23980729277887,4.56284936423577,TRUE,0.793182987511244
"CAN","cpi",0.3,1987,3,1986,NA,1.5,4.75815510055111,5.55133808806236,4.23980729277887,5.15474659430673,FALSE,2.27417672400336
"CAN","cpi",0.3,1988,3,1988,NA,0,3.60369150229265,4.39687448980389,3.92899537638065,4.00028299604827,TRUE,0.793182987511244
"CAN","cpi",0.3,1988,3,1988,NA,0.5,3.13522129535975,3.928404282871,3.92899537638065,3.53181278911538,FALSE,0.794871826110264
"CAN","cpi",0.3,1988,3,1987,NA,1,3.94514136670398,4.73832435421523,3.92899537638065,4.34173286045961,FALSE,0.839314388435046
"CAN","cpi",0.3,1988,3,1987,NA,1.5,3.36953144206144,4.16271442957268,3.92899537638065,3.76612293581706,TRUE,0.793182987511244
"CAN","cpi",0.3,1989,3,1989,NA,0,4.60947663127222,5.40265961878346,4.82821664544208,5.00606812502784,TRUE,0.793182987511244
"CAN","cpi",0.3,1989,3,1989,NA,0.5,4.11862288596842,4.91180587347966,4.82821664544208,4.51521437972404,TRUE,0.793182987511244
"CAN","cpi",0.3,1989,3,1988,NA,1,3.93044748473447,4.72363047224572,4.82821664544208,4.3270389784901,FALSE,1.09200062521513
"CAN","cpi",0.3,1989,3,1988,NA,1.5,3.03040101432633,3.82358400183758,4.82821664544208,3.42699250808196,FALSE,3.66356196923838
"CAN","cpi",0.3,1990,3,1990,NA,0,4.12512074373497,4.91830373124621,4.64347549432717,4.52171223749059,TRUE,0.793182987511244
"CAN","cpi",0.3,1990,3,1990,NA,0.5,4.82676103884396,5.6199440263552,4.64347549432717,5.22335253259958,FALSE,1.31685597184492
"CAN","cpi",0.3,1990,3,1989,NA,1,5.32705174553568,6.12023473304692,4.64347549432717,5.7236432392913,FALSE,2.74625799096413
"CAN","cpi",0.3,1990,3,1989,NA,1.5,4.52382192757815,5.3170049150894,4.64347549432717,4.92041342133377,TRUE,0.793182987511244
"CAN","cpi",0.3,1991,3,1991,NA,0,5.5864764707677,5.6458868656665,5.4258100696218,5.6161816682171,FALSE,0.518457255315664
"CAN","cpi",0.3,1991,3,1991,NA,0.5,8.42745951226188,9.22064249977312,5.4258100696218,8.8240510060175,FALSE,9.3693242521972
"CAN","cpi",0.3,1991,3,1990,NA,1,3.49511564047857,4.28829862798981,5.4258100696218,3.89170713423419,FALSE,4.04321567788834
"CAN","cpi",0.3,1991,3,1990,NA,1.5,5.3080289307188,6.10121191823004,5.4258100696218,5.70462042447442,TRUE,0.793182987511244
"CAN","cpi",0.3,1992,3,1992,NA,0,1.44432647783473,1.50656286699313,1.47496888572843,1.47544467241393,TRUE,0.0622363891584001
"CAN","cpi",0.3,1992,3,1992,NA,0.5,1.13595930291171,1.58542838236466,1.47496888572843,1.36069384263819,TRUE,0.449469079452947
"CAN","cpi",0.3,1992,3,1991,NA,1,2.03841571403313,2.83159870154437,1.47496888572843,2.43500720778875,FALSE,2.40303106838179
"CAN","cpi",0.3,1992,3,1991,NA,1.5,10.8107061306187,11.60388911813,1.47496888572843,11.2072976243743,FALSE,27.466717972912
"CAN","cpi",0.3,1993,3,1993,NA,0,1.52360224775943,2.10631849703261,1.84351085411351,1.81496037239602,TRUE,0.582716249273179
"CAN","cpi",0.3,1993,3,1993,NA,0.5,2.14202822623813,2.72474447551131,1.84351085411351,2.43338635087472,FALSE,1.4356230267721
"CAN","cpi",0.3,1993,3,1992,NA,1,1.41203732317994,2.11253800320729,1.84351085411351,1.76228766319361,TRUE,0.700500680027354
"CAN","cpi",0.3,1993,3,1992,NA,1.5,1.24850027358432,1.94900095361168,1.84351085411351,1.598750613598,TRUE,0.700500680027354
"CAN","cpi",0.3,1994,3,1994,NA,0,-0.0883077246406785,0.528602178956535,0.161630694655448,0.220147227157928,TRUE,0.616909903597214
"CAN","cpi",0.3,1994,3,1994,NA,0.5,-1.0499974778423,-0.433087574245084,0.161630694655448,-0.741542526043691,FALSE,2.31610495759873
"CAN","cpi",0.3,1994,3,1993,NA,1,1.18366307423747,1.83222956171859,0.161630694655448,1.50794631797803,FALSE,3.56865900057262
"CAN","cpi",0.3,1994,3,1993,NA,1.5,2.49369392967039,3.14226041715151,0.161630694655448,2.81797717341095,FALSE,7.31160430180953
"CAN","cpi",0.3,1995,3,1995,NA,0,1.84706580904167,2.4626279101481,2.11688403676572,2.15484685959489,TRUE,0.615562101106423
"CAN","cpi",0.3,1995,3,1995,NA,0.5,2.60105816605437,3.21662026716079,2.11688403676572,2.90883921660758,FALSE,1.99891675621686
"CAN","cpi",0.3,1995,3,1994,NA,1,1.62092306448669,2.2825453379396,2.11688403676572,1.95173420121315,TRUE,0.661622273452909
"CAN","cpi",0.3,1995,3,1994,NA,1.5,-2.51064569754472,-1.84902342409181,2.11688403676572,-2.17983456081826,FALSE,11.9927864473315
"CAN","cpi",0.3,1996,3,1996,NA,0,1.41146834873554,1.47186943876022,1.55309584667184,1.44166889374788,FALSE,0.292476541200744
"CAN","cpi",0.3,1996,3,1996,NA,0.5,1.12686252357459,1.59787281636112,1.55309584667184,1.36236766996786,TRUE,0.47101029278653
"CAN","cpi",0.3,1996,3,1995,NA,1,0.593885101900386,1.22906343440101,1.55309584667184,0.911474268150699,FALSE,1.560985224703
"CAN","cpi",0.3,1996,3,1995,NA,1.5,3.6702585232478,4.30543685574842,1.55309584667184,3.98784768949811,FALSE,6.68421455128907
"CAN","cpi",0.3,1997,3,1997,NA,0,1.37013077060247,2.0061035202991,1.60528783555959,1.68811714545079,TRUE,0.63597274969663
"CAN","cpi",0.3,1997,3,1997,NA,0.5,1.78822230177454,2.42419505147117,1.60528783555959,2.10620867662285,FALSE,1.15864265316791
"CAN","cpi",0.3,1997,3,1996,NA,1,0.403706442829087,1.11321412928968,1.60528783555959,0.758460286059383,FALSE,2.11543256151749
"CAN","cpi",0.3,1997,3,1996,NA,1.5,1.30812468369641,2.017632370157,1.60528783555959,1.66287852692671,TRUE,0.709507686460591
"CAN","cpi",0.3,1998,3,1998,NA,0,0.65220675506237,1.28928129107888,0.988908029337191,0.970744023070627,TRUE,0.637074536016514
"CAN","cpi",0.3,1998,3,1998,NA,0.5,1.20243138203466,1.83950591805118,0.988908029337191,1.52096865004292,FALSE,1.24714125800929
"CAN","cpi",0.3,1998,3,1997,NA,1,0.709907632319481,1.3700135472505,0.988908029337191,1.03996058978499,TRUE,0.660105914931022
"CAN","cpi",0.3,1998,3,1997,NA,1.5,1.89054278361078,2.5506486985418,0.988908029337191,2.22059574107629,FALSE,3.23620521285556
"CAN","cpi",0.3,1999,3,1999,NA,0,1.75413515135063,1.82869414746311,1.7107350135213,1.79141464940687,FALSE,0.19855938991058
"CAN","cpi",0.3,1999,3,1999,NA,0.5,0.55956005865842,1.04154468676398,1.7107350135213,0.800552372711202,FALSE,2.39395699026931
"CAN","cpi",0.3,1999,3,1998,NA,1,0.117683423671845,0.831367426147376,1.7107350135213,0.474525424909611,FALSE,3.22616282354387
"CAN","cpi",0.3,1999,3,1998,NA,1.5,1.84092297222349,2.55460697469902,1.7107350135213,2.19776497346126,FALSE,1.08564959876752
"CAN","cpi",0.3,2000,3,2000,NA,0,2.40188431183284,3.06589290066171,2.6718361971244,2.73388860624727,TRUE,0.664008588828862
"CAN","cpi",0.3,2000,3,2000,NA,0.5,1.78325402793794,2.4472626167668,2.6718361971244,2.11525832235237,FALSE,1.30564738985056
"CAN","cpi",0.3,2000,3,1999,NA,1,2.44456940826802,3.18419224930823,2.6718361971244,2.81438082878813,TRUE,0.739622841040209
"CAN","cpi",0.3,2000,3,1999,NA,1.5,0.502602194131757,1.24222503517197,2.6718361971244,0.872413614651861,FALSE,4.82422616090431
"CAN","cpi",0.3,2001,3,2001,NA,0,2.39308304139594,3.07705127223671,2.47906219852806,2.73506715681632,TRUE,0.683968230840777
"CAN","cpi",0.3,2001,3,2001,NA,0.5,1.38165138087705,2.06561961171783,2.47906219852806,1.72363549629744,FALSE,1.86523276458431
"CAN","cpi",0.3,2001,3,2000,NA,1,3.36273432799053,4.11718089989157,2.47906219852806,3.73995761394105,FALSE,3.27922408465094
"CAN","cpi",0.3,2001,3,2000,NA,1.5,1.6057763290218,2.36022290092284,2.47906219852806,1.98299961497232,FALSE,1.09398742220168
"CAN","cpi",0.3,2002,3,2002,NA,0,2.31508234648882,2.38494567225899,2.20880570551249,2.3500140093739,FALSE,0.373510871416836
"CAN","cpi",0.3,2002,3,2002,NA,0.5,1.16286247929046,1.77862656802049,2.20880570551249,1.47074452365548,FALSE,1.84484733870716
"CAN","cpi",0.3,2002,3,2001,NA,1,0.399381237337268,1.19256422484851,2.20880570551249,0.79597273109289,FALSE,3.6967300751226
"CAN","cpi",0.3,2002,3,2001,NA,1.5,0.292085227507084,1.36195299204239,2.20880570551249,0.827019109774735,FALSE,3.48944694587845
"CAN","cpi",0.3,2003,3,2003,NA,0,2.73903405897714,2.79829670736183,2.71189071546809,2.76866538316948,FALSE,0.136815058410542
"CAN","cpi",0.3,2003,3,2003,NA,0.5,4.19986368588195,4.99304667339319,2.71189071546809,4.59645517963757,FALSE,5.04453433155084
"CAN","cpi",0.3,2003,3,2002,NA,1,3.94087380269181,4.73405679020305,2.71189071546809,4.33746529644743,FALSE,4.30456323672186
"CAN","cpi",0.3,2003,3,2002,NA,1.5,2.00378214786462,3.42559565768906,2.71189071546809,2.71468890277684,TRUE,1.42181350982445
"CAN","cpi",0.3,2004,3,2004,NA,0,1.744876084828,1.79207779317619,1.83151661303942,1.7684769390021,FALSE,0.159884050814569
"CAN","cpi",0.3,2004,3,2004,NA,0.5,1.16592619602798,1.95910918353922,1.83151661303942,1.5625176897836,TRUE,0.793182987511244
"CAN","cpi",0.3,2004,3,2003,NA,1,1.02095247298267,1.81413546049391,1.83151661303942,1.41754396673829,FALSE,0.842843423355558
"CAN","cpi",0.3,2004,3,2003,NA,1.5,4.6574260267305,5.99560269946759,1.83151661303942,5.32651436309904,FALSE,9.4122035689973
"CAN","cpi",0.3,2005,3,2005,NA,0,2.34866368646017,2.41527546675556,2.18071628336509,2.38196957660787,FALSE,0.546461503424191
"CAN","cpi",0.3,2005,3,2005,NA,0.5,1.17594792957163,1.96913091708287,2.18071628336509,1.57253942332725,FALSE,1.39771260546045
"CAN","cpi",0.3,2005,3,2004,NA,1,0.596641462704353,1.3898244502156,2.18071628336509,0.993232956459974,FALSE,3.05287393936694
"CAN","cpi",0.3,2005,3,2004,NA,1.5,1.66330536732958,2.45648835484083,2.18071628336509,2.05989686108521,TRUE,0.793182987511243
"CAN","cpi",0.3,2006,3,2006,NA,0,2.026830954688,2.1066197892738,1.97519342012289,2.0667253719809,FALSE,0.227324647628979
"CAN","cpi",0.3,2006,3,2006,NA,0.5,1.54120245896191,2.33438544647315,1.97519342012289,1.93779395271753,TRUE,0.793182987511244
"CAN","cpi",0.3,2006,3,2005,NA,1,3.08067228826222,3.87385527577347,1.97519342012289,3.47726378201784,FALSE,3.95169403933792
"CAN","cpi",0.3,2006,3,2005,NA,1.5,0.673747188666636,2.09963609912514,1.97519342012289,1.38669164389589,TRUE,1.4258889104585
"CAN","cpi",0.3,2007,3,2007,NA,0,1.80167538296917,2.41447142719037,2.10062087284572,2.10807340507977,TRUE,0.612796044221201
"CAN","cpi",0.3,2007,3,2007,NA,0.5,2.11272394710438,2.72551999132559,2.10062087284572,2.41912196921498,FALSE,0.647376256388806
"CAN","cpi",0.3,2007,3,2006,NA,1,0.105741591536185,0.898924579047428,2.10062087284572,0.502333085291807,FALSE,4.22660096979208
"CAN","cpi",0.3,2007,3,2006,NA,1.5,1.57383518742898,2.36701817494023,2.10062087284572,1.9704266811846,TRUE,0.793182987511244
"CAN","cpi",0.3,2008,3,2008,NA,0,2.62887292428802,3.27915710074804,2.31447335265955,2.95401501251803,FALSE,1.54856866682706
"CAN","cpi",0.3,2008,3,2008,NA,0.5,0.834518687145185,1.4848028636052,2.31447335265955,1.1596607753752,FALSE,3.02077128804387
"CAN","cpi",0.3,2008,3,2007,NA,1,0.0398880921561631,0.690172268616183,2.31447335265955,0.365030180386173,FALSE,5.29114441658393
"CAN","cpi",0.3,2008,3,2007,NA,1.5,3.42456219255328,4.0748463690133,2.31447335265955,3.74970428078329,FALSE,3.82196657615638
"CAN","cpi",0.3,2009,3,2009,NA,0,0.243469969580832,0.311176151070523,0.284533874408197,0.277323060325678,TRUE,0.0677061814896907
"CAN","cpi",0.3,2009,3,2009,NA,0.5,-1.1585012130812,-0.695182488916695,0.284533874408197,-0.926841850998946,FALSE,3.26250833366419
"CAN","cpi",0.3,2009,3,2008,NA,1,3.99507878108886,4.7882617686001,0.284533874408197,4.39167027484448,FALSE,11.3947398637417
"CAN","cpi",0.3,2009,3,2008,NA,1.5,0.863980320557171,1.75038189285456,0.284533874408197,1.30718110670587,FALSE,2.54196284700875
"CAN","cpi",0.3,2010,3,2010,NA,0,1.71626896591722,1.78159299347504,1.75525687020327,1.74893097969613,TRUE,0.065324027557828
"CAN","cpi",0.3,2010,3,2010,NA,0.5,1.43273069645981,1.777560444736,1.75525687020327,1.60514557059791,TRUE,0.344829748276188
"CAN","cpi",0.3,2010,3,2009,NA,1,0.250285627654469,1.04346861516571,1.75525687020327,0.646877121410091,FALSE,2.82686371618998
"CAN","cpi",0.3,2010,3,2009,NA,1.5,-1.7085634987132,-0.873579238010391,1.75525687020327,-1.29107136836179,FALSE,8.3459445698847
"CAN","cpi",0.3,2011,3,2011,NA,0,2.79951316511776,2.8736553371198,2.85717434028225,2.83658425111878,TRUE,0.0741421720020439
"CAN","cpi",0.3,2011,3,2011,NA,0.5,2.69724359674669,3.09309395730476,2.85717434028225,2.89516877702572,TRUE,0.395850360558065
"CAN","cpi",0.3,2011,3,2010,NA,1,1.79461010213855,2.58779308964979,2.85717434028225,2.19120159589417,FALSE,1.56284370360396
"CAN","cpi",0.3,2011,3,2010,NA,1.5,1.40427625937019,2.52295379410821,2.85717434028225,1.9636150267392,FALSE,2.07359338094956
"CAN","cpi",0.3,2012,3,2012,NA,0,1.41989604599996,1.50035009090935,1.50118536134935,1.46012306845465,FALSE,0.0828405318808098
"CAN","cpi",0.3,2012,3,2012,NA,0.5,1.58404610898208,2.04232859879447,1.50118536134935,1.81318735388827,FALSE,0.695027483048774
"CAN","cpi",0.3,2012,3,2011,NA,1,0.674469698580908,1.46045104471689,1.50118536134935,1.0674603716489,FALSE,0.902365107942992
"CAN","cpi",0.3,2012,3,2011,NA,1.5,2.87193111128233,3.65791245741832,1.50118536134935,3.26492178435033,FALSE,4.70239777451595
"CAN","cpi",0.3,2013,3,2013,NA,0,1.01512071487317,1.06417189300981,0.931270594714462,1.03964630394149,FALSE,0.288622950018659
"CAN","cpi",0.3,2013,3,2013,NA,0.5,0.92125168156315,1.40920431294718,0.931270594714462,1.16522799725517,TRUE,0.48795263138403
"CAN","cpi",0.3,2013,3,2012,NA,1,-0.786771815286885,-0.130802083323315,0.931270594714462,-0.4587869493051,FALSE,3.69046309778579
"CAN","cpi",0.3,2013,3,2012,NA,1.5,1.47359447716552,2.26677746467676,0.931270594714462,1.87018597092114,FALSE,2.34267979451426
"CAN","cpi",0.3,2014,3,2014,NA,0,1.96508091433095,2.0137528146316,1.87639912240215,1.98941686448128,FALSE,0.30204844866865
"CAN","cpi",0.3,2014,3,2014,NA,0.5,2.07886560048964,2.49183076046048,1.87639912240215,2.28534818047506,FALSE,0.99144081164939
"CAN","cpi",0.3,2014,3,2013,NA,1,0.609226272809339,1.25875024314346,1.87639912240215,0.933988257976399,FALSE,2.41423505393038
"CAN","cpi",0.3,2014,3,2013,NA,1.5,1.20210280857814,2.28655363599548,1.87639912240215,1.74432822228681,TRUE,1.08445082741735
"CAN","cpi",0.3,2015,3,2015,NA,0,1.22972597921866,1.29363543428394,1.11090953952792,1.2616807067513,FALSE,0.403384997038833
"CAN","cpi",0.3,2015,3,2015,NA,0.5,-0.0901563546938787,0.526882544959022,1.11090953952792,0.218363095132572,FALSE,2.28568745556403
"CAN","cpi",0.3,2015,3,2014,NA,1,0.314760303402979,0.93179920305588,1.11090953952792,0.62327975322943,FALSE,1.12878271814443
"CAN","cpi",0.3,2015,3,2014,NA,1.5,2.99751179501231,4.09937886757075,1.11090953952792,3.54844533129153,FALSE,6.49215923108527
"CAN","cpi",0.3,2016,3,2016,NA,0,1.40807574981983,1.47998523522596,1.41168586698797,1.44403049252289,TRUE,0.071909485406132
"CAN","cpi",0.3,2016,3,2016,NA,0.5,0.63830546749089,1.24909625419526,1.41168586698797,0.943700860843074,FALSE,1.07533253754068
"CAN","cpi",0.3,2016,3,2015,NA,1,1.35266298615036,1.96345377285473,1.41168586698797,1.65805837950254,TRUE,0.610790786704368
"CAN","cpi",0.3,2016,3,2015,NA,1.5,-0.183838288941176,0.609344698570068,1.41168586698797,0.212753204814446,FALSE,3.08558632584809
"CAN","cpi",0.3,2017,3,2017,NA,0,1.49405741725745,1.54939326389591,1.57888581671161,1.52172534057668,FALSE,0.139600283254742
"CAN","cpi",0.3,2017,3,2017,NA,0.5,1.83598276444865,2.52393225841822,1.57888581671161,2.17995751143343,FALSE,1.42251220178968
"CAN","cpi",0.3,2017,3,2016,NA,1,0.134685409401596,0.82263490337116,1.57888581671161,0.478660156386378,FALSE,2.848666389228
"CAN","cpi",0.3,2017,3,2016,NA,1.5,0.651214298140892,1.44439728565214,1.57888581671161,1.04780579189651,FALSE,1.17743593339546
"CAN","cpi",0.3,2018,3,2018,NA,0,2.40778406703927,2.4443532097217,2.23316270166586,2.42606863838048,FALSE,0.535487329463595
"CAN","cpi",0.3,2018,3,2018,NA,0.5,2.71502700203525,3.32699547905485,2.23316270166586,3.02101124054505,FALSE,1.98872362093214
"CAN","cpi",0.3,2018,3,2017,NA,1,0.21771378882877,0.82968226584837,2.23316270166586,0.52369802733857,FALSE,4.62191257935528
"CAN","cpi",0.3,2018,3,2017,NA,1.5,2.68749034946566,3.4806733369769,2.23316270166586,3.08408184322128,FALSE,2.09126198122495
"CAN","cpi",0.3,2019,3,2019,NA,0,1.98603745638909,2.05980924653463,1.91921619871868,2.02292335146186,FALSE,0.264689669203847
"CAN","cpi",0.3,2019,3,2019,NA,0.5,1.45134316400725,2.06975832384975,1.91921619871868,1.7605507439285,TRUE,0.618415159842497
"CAN","cpi",0.3,2019,3,2018,NA,1,1.6621593433756,2.28057450321809,1.91921619871868,1.97136692329685,TRUE,0.618415159842497
"CAN","cpi",0.3,2019,3,2018,NA,1.5,3.73342338541832,4.52660637292956,1.91921619871868,4.13001487917394,FALSE,5.97663209236734
"CAN","cpi",0.3,2020,3,2020,NA,0,0.408473145233134,1.08800256130364,0.71139989671781,0.748237853268385,TRUE,0.679529416070501
"CAN","cpi",0.3,2020,3,2020,NA,0.5,0.866616140878941,1.54614555694944,0.71139989671781,1.20638084891419,FALSE,1.12300439938802
"CAN","cpi",0.3,2020,3,2019,NA,1,0.996494946348925,1.67602436241943,0.71139989671781,1.33625965438418,FALSE,1.49408670073083
"CAN","cpi",0.3,2020,3,2019,NA,1.5,2.08168456019565,2.8748675477069,0.71139989671781,2.47827605395127,FALSE,4.70828202601936
"CAN","cpi",0.3,2021,3,2021,NA,0,2.96414589733155,3.75732888484279,3.31148121717802,3.36073739108717,TRUE,0.793182987511244
"CAN","cpi",0.3,2021,3,2021,NA,0.5,2.4812744990647,3.27445748657594,3.31148121717802,2.87786599282032,FALSE,0.898965074945757
"CAN","cpi",0.3,2021,3,2020,NA,1,1.40908456354212,2.20226755105336,3.31148121717802,1.80567605729774,FALSE,3.96236489072457
"CAN","cpi",0.3,2021,3,2020,NA,1.5,0.730213981810081,1.99608847683948,3.31148121717802,1.36315122932478,FALSE,5.02413946742524
"CAN","cpi",0.3,2022,3,2022,NA,0,6.18482593401171,6.97800892152295,6.50977236228281,6.58141742776733,TRUE,0.793182987511244
"CAN","cpi",0.3,2022,3,2022,NA,0.5,6.34634734401025,7.13953033152149,6.50977236228281,6.74293883776587,TRUE,0.793182987511244
"CAN","cpi",0.3,2022,3,2021,NA,1,4.42905065621009,5.22223364372133,6.50977236228281,4.82564214996571,FALSE,4.47186504054403
"CAN","cpi",0.3,2022,3,2021,NA,1.5,3.5391591493965,4.33234213690775,6.50977236228281,3.93575064315212,FALSE,7.01441220286857
"CAN","cpi",0.3,2023,3,2023,NA,0,3.98635045213722,4.04271526018571,3.78831288758619,4.01453285616146,FALSE,0.622186421051425
"CAN","cpi",0.3,2023,3,2023,NA,0.5,2.68229272363683,3.47547571114808,3.78831288758619,3.07888421739245,FALSE,1.68700349162014
"CAN","cpi",0.3,2023,3,2022,NA,1,3.46014131194145,4.25332429945269,3.78831288758619,3.85673280569707,TRUE,0.793182987511244
"CAN","cpi",0.3,2023,3,2022,NA,1.5,7.67633134070691,8.46951432821815,3.78831288758619,8.07292283446253,FALSE,11.9018071392847
"CAN","cpi",0.3,2024,3,2023,NA,1,3.67845604620941,4.47163903372065,NA,4.07504753996503,NA,NA
"CAN","cpi",0.3,2024,3,2023,NA,1.5,2.01869898944126,2.81188197695251,NA,2.41529048319689,NA,NA
"CAN","cpi",0.4,1959,3,1959,NA,0,0.708384125557915,1.79144020306795,1.19382698397654,1.24991216431293,TRUE,1.08305607751003
"CAN","cpi",0.4,1959,3,1959,NA,0.5,-0.103688307164689,0.979367770345343,1.19382698397654,0.437839731590327,FALSE,1.79792012294736
"CAN","cpi",0.4,1959,3,1958,NA,1,1.21709959010445,2.30015566761448,1.19382698397654,1.75862762885946,FALSE,1.16063143126972
"CAN","cpi",0.4,1959,3,1958,NA,1.5,1.23254368838264,2.31559976589267,1.19382698397654,1.77407172713766,FALSE,1.2121117588637
"CAN","cpi",0.4,1960,3,1960,NA,0,0.60199944294246,1.44522664224708,1.34209404870695,1.02361304259477,TRUE,0.843227199304624
"CAN","cpi",0.4,1960,3,1960,NA,0.5,0.117369880529348,0.960597079833972,1.34209404870695,0.53898348018166,FALSE,2.11488376221456
"CAN","cpi",0.4,1960,3,1959,NA,1,3.41606569813941,4.49912177564944,1.34209404870695,3.95759373689442,FALSE,7.99629490895155
"CAN","cpi",0.4,1960,3,1959,NA,1.5,-2.71831154744251,0.971357916632741,1.34209404870695,-0.873476815404885,FALSE,4.92545657098929
"CAN","cpi",0.4,1961,3,1961,NA,0,0.651072715842417,1.36735424603773,1.00921348094007,1.00921348094007,TRUE,0.716281530195308
"CAN","cpi",0.4,1961,3,1961,NA,0.5,0.651072715842417,1.36735424603773,1.00921348094007,1.00921348094007,TRUE,0.716281530195308
"CAN","cpi",0.4,1961,3,1960,NA,1,-0.487757576151483,0.595298501358549,1.00921348094007,0.0537704626035329,FALSE,2.46277267611511
"CAN","cpi",0.4,1961,3,1960,NA,1.5,-1.80096996338816,0.0766063655080891,1.00921348094007,-0.862181798940035,FALSE,4.98626671366952
"CAN","cpi",0.4,1962,3,1962,NA,0,0.682494518699778,1.52215353592978,1.04957947883042,1.10232402731478,TRUE,0.839659017230002
"CAN","cpi",0.4,1962,3,1962,NA,0.5,-0.419829508615001,0.419829508615001,1.04957947883042,0,FALSE,2.93882558461472
