isdrw/probabilistic-benchmark-forecasts/results/empirical_quantiles_prediction/empirical_prediction_ar1_2026-02-25_20-12-50.csv
"country","target","tau","target_year","target_quarter","forecast_year","forecast_quarter","horizon","lower_bound","upper_bound","truth_value","prediction","covered","IS"
"CAN","cpi",0.1,1959,3,1959,NA,0,1.16687809133034,1.21221389169318,1.19382698397654,1.18954599151176,TRUE,0.0453358003628388
"CAN","cpi",0.1,1959,3,1959,NA,0.5,0.226047478537734,0.864569175784115,1.19382698397654,0.545308327160925,FALSE,1.37020571545177
"CAN","cpi",0.1,1959,3,1958,NA,1,0.626217414916571,1.63968487006435,1.19382698397654,1.13295114249046,TRUE,1.01346745514778
"CAN","cpi",0.1,1959,3,1958,NA,1.5,-0.7297780659326,2.16462224209118,1.19382698397654,0.717422088079289,TRUE,2.89440030802378
"CAN","cpi",0.1,1960,3,1960,NA,0,1.00986920374242,1.03735688144713,1.34209404870695,1.02361304259477,FALSE,0.704681382726543
"CAN","cpi",0.1,1960,3,1960,NA,0.5,0.339065545835149,0.958156469592165,1.34209404870695,0.648611007713657,FALSE,1.4722855440121
"CAN","cpi",0.1,1960,3,1959,NA,1,2.06712326997785,2.68621419373487,1.34209404870695,2.37666873185636,FALSE,2.23026697102568
"CAN","cpi",0.1,1960,3,1959,NA,1.5,-1.33803615600764,0.639851796873081,1.34209404870695,-0.349092179567277,FALSE,3.53842629028932
"CAN","cpi",0.1,1961,3,1961,NA,0,0.995469642087718,1.02295731979242,1.00921348094007,1.00921348094007,TRUE,0.0274876777047064
"CAN","cpi",0.1,1961,3,1961,NA,0.5,0.614298892469197,1.40412806941095,1.00921348094007,1.00921348094007,TRUE,0.78982917694175
"CAN","cpi",0.1,1961,3,1960,NA,1,-0.341144125867342,0.448685051074408,1.00921348094007,0.0537704626035329,FALSE,2.03544790997656
"CAN","cpi",0.1,1961,3,1960,NA,1.5,-1.32126036259676,0.656627590283959,1.00921348094007,-0.332316386156399,FALSE,2.76141215433874
"CAN","cpi",0.1,1962,3,1962,NA,0,1.06109912008352,1.06966110501308,1.04957947883042,1.0653801125483,FALSE,0.0341611877142315
"CAN","cpi",0.1,1962,3,1962,NA,0.5,-0.230285684374662,0.230285684374662,1.04957947883042,0,FALSE,2.28122424531766
"CAN","cpi",0.1,1962,3,1961,NA,1,-0.230285684374662,0.230285684374662,1.04957947883042,0,FALSE,2.28122424531766
"CAN","cpi",0.1,1962,3,1961,NA,1.5,-0.988943976440358,0.988943976440358,1.04957947883042,0,FALSE,2.11263351374751
"CAN","cpi",0.1,1963,3,1963,NA,0,1.8259685503087,1.83453053523826,1.60677118395228,1.83024954277348,FALSE,0.495667243499371
"CAN","cpi",0.1,1963,3,1963,NA,0.5,0.606543030242842,1.06711439899217,1.60677118395228,0.836828714617504,FALSE,1.6598086686607
"CAN","cpi",0.1,1963,3,1962,NA,1,1.3790653225786,1.83963669132792,1.60677118395228,1.60935100695326,TRUE,0.460571368749324
"CAN","cpi",0.1,1963,3,1962,NA,1.5,-0.988943976440358,0.988943976440358,1.60677118395228,0,FALSE,3.35083730290722
"CAN","cpi",0.1,1964,3,1964,NA,0,1.94766549196547,1.95622747689502,1.88764670034376,1.95194648443024,FALSE,0.141937077422235
"CAN","cpi",0.1,1964,3,1964,NA,0.5,1.08300982337935,1.46314651348862,1.88764670034376,1.27307816843398,FALSE,1.32347043867626
"CAN","cpi",0.1,1964,3,1963,NA,1,3.01165498132045,3.39179167142972,1.88764670034376,3.20172332637508,FALSE,2.87793287005746
"CAN","cpi",0.1,1964,3,1963,NA,1.5,-0.988943976440358,0.988943976440358,1.88764670034376,0,FALSE,3.9750051171105
"CAN","cpi",0.1,1965,3,1965,NA,0,2.29372090223345,2.30228288716301,2.29538304394236,2.29800189469823,TRUE,0.00856198492955595
"CAN","cpi",0.1,1965,3,1965,NA,0.5,1.20436383751362,1.58450052762289,2.29538304394236,1.39443218256826,FALSE,1.95987561526363
"CAN","cpi",0.1,1965,3,1964,NA,1,1.29071533533985,1.67085202544912,2.29538304394236,1.48078368039448,FALSE,1.76798339787202
"CAN","cpi",0.1,1965,3,1964,NA,1.5,-0.695686576906897,1.28220137597382,2.29538304394236,0.293257399533461,FALSE,4.22940277058858
"CAN","cpi",0.1,1966,3,1966,NA,0,3.7724938316926,3.77773153320434,3.72486065470629,3.77511268244847,FALSE,0.111089205925756
"CAN","cpi",0.1,1966,3,1966,NA,0.5,3.18736885222958,3.56750554233885,3.72486065470629,3.37743719728421,FALSE,0.729814717592471
"CAN","cpi",0.1,1966,3,1965,NA,1,1.79480138639081,2.17493807650008,3.72486065470629,1.98486973144544,FALSE,3.82440908612308
"CAN","cpi",0.1,1966,3,1965,NA,1.5,-0.410303142439321,1.5675848104414,3.72486065470629,0.578640834001038,FALSE,6.77183427346937
"CAN","cpi",0.1,1967,3,1967,NA,0,3.68113885639021,3.68637655790196,3.49360316391996,3.68375770714608,FALSE,0.421983684778971
"CAN","cpi",0.1,1967,3,1967,NA,0.5,1.92047873542795,2.30061542553722,3.49360316391996,2.11054708048259,FALSE,3.03122055318202
"CAN","cpi",0.1,1967,3,1966,NA,1,1.82996473028038,2.21010142038965,3.49360316391996,2.02003307533501,FALSE,3.23236278684329
"CAN","cpi",0.1,1967,3,1966,NA,1.5,0.666005884966313,2.76516484262714,3.49360316391996,1.71558536379673,FALSE,3.71791078275598
"CAN","cpi",0.1,1968,3,1968,NA,0,4.0682383274377,4.07347602894944,3.95128347779386,4.07085717819357,FALSE,0.265137367386955
"CAN","cpi",0.1,1968,3,1968,NA,0.5,3.31725398771038,3.69739067781965,3.95128347779386,3.50732233276501,FALSE,0.944342912274176
"CAN","cpi",0.1,1968,3,1967,NA,1,3.47296844796229,3.85310513807156,3.95128347779386,3.66303679301692,FALSE,0.598310778381049
"CAN","cpi",0.1,1968,3,1967,NA,1.5,-0.214697959785362,1.88446099787547,3.95128347779386,0.834881519045053,FALSE,6.69209780192392
"CAN","cpi",0.1,1969,3,1969,NA,0,4.52270754932666,4.5279452508384,4.42679496126681,4.52532640008253,FALSE,0.218376786089176
"CAN","cpi",0.1,1969,3,1969,NA,0.5,2.50083786279218,2.88097455290145,4.42679496126681,2.69090620784681,FALSE,3.81529315314342
"CAN","cpi",0.1,1969,3,1968,NA,1,3.88787098257926,4.26800767268853,4.42679496126681,4.0779393276339,FALSE,0.732997331394338
"CAN","cpi",0.1,1969,3,1968,NA,1.5,0.562639234524169,2.661798192185,4.42679496126681,1.61221871335458,FALSE,6.02137400006487
"CAN","cpi",0.1,1970,3,1970,NA,0,3.55616720360392,3.56140490511566,3.28128405769805,3.55878605435979,FALSE,0.616089136858124
"CAN","cpi",0.1,1970,3,1970,NA,0.5,3.54554312458096,3.95384242348912,3.28128405769805,3.74969277403504,FALSE,0.995541669759081
"CAN","cpi",0.1,1970,3,1969,NA,1,2.90771643337201,3.31601573228016,3.28128405769805,3.11186608282608,TRUE,0.408299298908155
"CAN","cpi",0.1,1970,3,1969,NA,1.5,-0.284637501570777,1.81452145609005,3.28128405769805,0.764941977259638,FALSE,5.35863140567859
"CAN","cpi",0.1,1971,3,1971,NA,0,2.81252668213284,2.81776438364458,2.64123406634756,2.81514553288871,FALSE,0.38588795881236
"CAN","cpi",0.1,1971,3,1971,NA,0.5,0.858316591518193,1.37515802381223,2.64123406634756,1.11673730766521,FALSE,3.33034374903922
"CAN","cpi",0.1,1971,3,1970,NA,1,1.66201378845693,2.17885522075097,2.64123406634756,1.92043450460395,FALSE,1.54434997806425
"CAN","cpi",0.1,1971,3,1970,NA,1.5,0.360410884909544,3.04347061910248,2.64123406634756,1.70194075200601,TRUE,2.68305973419294
"CAN","cpi",0.1,1972,3,1972,NA,0,5.04566877080386,5.05090647231561,4.83230569625923,5.04828762155974,FALSE,0.479377867166486
"CAN","cpi",0.1,1972,3,1972,NA,0.5,3.83760313745015,4.35444456974419,4.83230569625923,4.09602385359717,FALSE,1.5787550467719
"CAN","cpi",0.1,1972,3,1971,NA,1,3.90970040019014,4.42654183248418,4.83230569625923,4.16812111633716,FALSE,1.41853890734971
"CAN","cpi",0.1,1972,3,1971,NA,1.5,-0.357549473479326,1.7416094841815,4.83230569625923,0.692030005351089,FALSE,8.967372762278
"CAN","cpi",0.1,1973,3,1973,NA,0,7.23516068855194,7.26676195598771,7.12388603531779,7.25096132226983,FALSE,0.278878274622773
"CAN","cpi",0.1,1973,3,1973,NA,0.5,4.99777061295041,5.61114973285122,7.12388603531779,5.30446017290082,FALSE,3.9750153476043
"CAN","cpi",0.1,1973,3,1972,NA,1,4.61607079797225,5.22944991787306,7.12388603531779,4.92276035792265,FALSE,4.82323715866688
"CAN","cpi",0.1,1973,3,1972,NA,1.5,0.742299311911617,2.84145826957245,7.12388603531779,1.79187879074203,FALSE,11.6156651037616
"CAN","cpi",0.1,1974,3,1974,NA,0,10.0986591824088,10.1991632378932,10.2717243737774,10.148911210151,FALSE,0.261751024115997
"CAN","cpi",0.1,1974,3,1974,NA,0.5,7.59777333250009,8.2111524524009,10.2717243737774,7.90446289245049,FALSE,5.19242783407086
"CAN","cpi",0.1,1974,3,1973,NA,1,6.99807140761568,7.61145052751649,10.2717243737774,7.30476096756609,FALSE,6.52509877825842
"CAN","cpi",0.1,1974,3,1973,NA,1.5,0.95955791188462,4.17310027978919,10.2717243737774,2.5663290958369,FALSE,16.7660403545451
"CAN","cpi",0.1,1975,3,1975,NA,0,10.1244050826371,10.2249091381214,10.0232981493341,10.1746571103793,FALSE,0.325186129490959
"CAN","cpi",0.1,1975,3,1975,NA,0.5,7.70541915424176,8.43762698404753,10.0232981493341,8.07152306914465,FALSE,4.25592153044263
"CAN","cpi",0.1,1975,3,1974,NA,1,7.45267392078851,8.18488175059429,10.0232981493341,7.8187778356914,FALSE,4.81757760478318
"CAN","cpi",0.1,1975,3,1974,NA,1.5,1.87112494688113,5.42716054712759,10.0232981493341,3.64914274700436,FALSE,13.769674716261
"CAN","cpi",0.1,1976,3,1976,NA,0,7.13969940269587,7.24020345818023,7.22784311401172,7.18995143043805,TRUE,0.100504055484356
"CAN","cpi",0.1,1976,3,1976,NA,0.5,6.24722972795019,6.97943755775597,7.22784311401172,6.61333364285308,FALSE,1.28422017704077
"CAN","cpi",0.1,1976,3,1975,NA,1,8.21886716100011,8.95107499080589,7.22784311401172,8.584971075903,FALSE,2.93448348977998
"CAN","cpi",0.1,1976,3,1975,NA,1.5,1.36936789983268,4.92540350007914,7.22784311401172,3.14738569995591,FALSE,8.67256807565219
"CAN","cpi",0.1,1977,3,1977,NA,0,7.45151741729728,7.55202147278164,7.58101410153764,7.50176944503946,FALSE,0.164932119386595
"CAN","cpi",0.1,1977,3,1977,NA,0.5,6.03961247336585,6.77182030317163,7.58101410153764,6.40571638826874,FALSE,2.53041627061915
"CAN","cpi",0.1,1977,3,1976,NA,1,3.68298894586725,4.41519677567303,7.58101410153764,4.04909286077014,FALSE,7.76735744283825
"CAN","cpi",0.1,1977,3,1976,NA,1.5,0.816309677151689,4.37234527739815,7.58101410153764,2.59432747727492,FALSE,10.6864107650009
"CAN","cpi",0.1,1978,3,1978,NA,0,8.51180381734331,8.67029313033968,8.50208927062595,8.59104847384149,FALSE,0.180077194590507
"CAN","cpi",0.1,1978,3,1978,NA,0.5,6.96281138677798,7.71946678789191,8.50208927062595,7.34113908733495,FALSE,2.49581647385623
"CAN","cpi",0.1,1978,3,1977,NA,1,5.50070098462454,6.25735638573847,8.50208927062595,5.87902868518151,FALSE,5.74495070086387
"CAN","cpi",0.1,1978,3,1977,NA,1.5,2.11491705829891,5.67095265854537,8.50208927062595,3.89293485842214,FALSE,9.84745029375885
"CAN","cpi",0.1,1979,3,1979,NA,0,8.40726944493958,8.56575875793595,8.65147652410481,8.48651410143776,FALSE,0.348973237816063
"CAN","cpi",0.1,1979,3,1979,NA,0.5,7.08353977009177,7.84019517120569,8.65147652410481,7.46186747064873,FALSE,2.55950285200085
"CAN","cpi",0.1,1979,3,1978,NA,1,6.55853288323972,7.31518828435365,8.65147652410481,6.93686058379669,FALSE,3.72618482278317
"CAN","cpi",0.1,1979,3,1978,NA,1.5,1.40162894003439,6.43431310091121,8.65147652410481,3.9179710204728,FALSE,9.95971399019594
"CAN","cpi",0.1,1980,3,1980,NA,0,9.357866625054,9.51635593805037,9.5171912664748,9.43711128155219,FALSE,0.160345598383982
"CAN","cpi",0.1,1980,3,1980,NA,0.5,7.40975821246273,8.37312331725428,9.5171912664748,7.89144076485851,FALSE,3.50573832528158
"CAN","cpi",0.1,1980,3,1979,NA,1,5.21219539472226,6.17556049951381,9.5171912664748,5.69387794711803,FALSE,8.38921125359375
"CAN","cpi",0.1,1980,3,1979,NA,1.5,1.75564840212897,6.78833256300579,9.5171912664748,4.27199048256738,FALSE,11.0968146130302
"CAN","cpi",0.1,1981,3,1981,NA,0,11.5382941026558,11.6967834156522,11.5813425032741,11.617538759154,TRUE,0.15848931299637
"CAN","cpi",0.1,1981,3,1981,NA,0.5,10.6893164389321,11.9183353812493,11.5813425032741,11.3038259100907,TRUE,1.22901894231727
"CAN","cpi",0.1,1981,3,1980,NA,1,7.56504014598238,8.89340930582651,11.5813425032741,8.22922472590444,FALSE,7.30155404306109
"CAN","cpi",0.1,1981,3,1980,NA,1.5,2.0318415950278,7.06452575590462,11.5813425032741,4.54818367546621,FALSE,15.0700547105869
"CAN","cpi",0.1,1982,3,1982,NA,0,10.1485055287612,10.2242888959085,10.1124203763629,10.1863972123348,FALSE,0.155972594698955
"CAN","cpi",0.1,1982,3,1982,NA,0.5,8.765606430521,9.99462537283828,10.1124203763629,9.38011590167964,FALSE,1.49078561681654
"CAN","cpi",0.1,1982,3,1981,NA,1,8.20695003328343,9.64854915677066,10.1124203763629,8.92774959502704,FALSE,2.47242405591453
"CAN","cpi",0.1,1982,3,1981,NA,1.5,3.57642319535876,11.7373380234704,10.1124203763629,7.65688060941457,TRUE,8.16091482811161
"CAN","cpi",0.1,1983,3,1983,NA,0,5.75442281579749,5.83020618294483,5.67091787896303,5.79231449937116,FALSE,0.261349893446133
"CAN","cpi",0.1,1983,3,1983,NA,0.5,3.87484539634675,5.10386433866402,5.67091787896303,4.48935486750539,FALSE,2.48913792075952
"CAN","cpi",0.1,1983,3,1982,NA,1,5.49893765529001,7.86827921796181,5.67091787896303,6.68360843662591,TRUE,2.3693415626718
"CAN","cpi",0.1,1983,3,1982,NA,1.5,1.72447194938847,9.88538677750009,5.67091787896303,5.80492936344428,TRUE,8.16091482811161
"CAN","cpi",0.1,1984,3,1984,NA,0,4.14845255422074,4.22423592136807,4.19799576814029,4.1863442377944,TRUE,0.0757833671473325
"CAN","cpi",0.1,1984,3,1984,NA,0.5,3.75917971919351,4.98819866151078,4.19799576814029,4.37368919035215,TRUE,1.22901894231727
"CAN","cpi",0.1,1984,3,1983,NA,1,3.64056907729749,6.0099106399693,4.19799576814029,4.8252398586334,TRUE,2.3693415626718
"CAN","cpi",0.1,1984,3,1983,NA,1.5,-0.819021265997343,4.09205826789942,4.19799576814029,1.63651850095104,FALSE,5.1464962010987
"CAN","cpi",0.1,1985,3,1985,NA,0,3.8386933782549,3.91108589001467,3.86444262005169,3.87488963413478,TRUE,0.0723925117597624
"CAN","cpi",0.1,1985,3,1985,NA,0.5,3.39202800849931,3.94706119486617,3.86444262005169,3.66954460168274,TRUE,0.555033186366863
"CAN","cpi",0.1,1985,3,1984,NA,1,1.50491858460243,3.53029969992818,3.86444262005169,2.51760914226531,FALSE,2.76792093782244
"CAN","cpi",0.1,1985,3,1984,NA,1.5,0.289149463079477,5.20022899697624,3.86444262005169,2.74468923002786,TRUE,4.91107953389676
"CAN","cpi",0.1,1986,3,1986,NA,0,4.07844227986189,4.10174534055365,4.08685396749431,4.09009381020777,TRUE,0.0233030606917666
"CAN","cpi",0.1,1986,3,1986,NA,0.5,3.99377941815133,4.38357545488924,4.08685396749431,4.18867743652029,TRUE,0.389796036737906
"CAN","cpi",0.1,1986,3,1985,NA,1,1.95077480928348,3.97615592460923,4.08685396749431,2.96346536694636,FALSE,2.27137676618148
"CAN","cpi",0.1,1986,3,1985,NA,1.5,1.5367017549984,3.77620853504608,4.08685396749431,2.65645514502224,FALSE,2.92982996326597
"CAN","cpi",0.1,1987,3,1987,NA,0,4.29338047511086,4.31427450327704,4.23980729277887,4.30382748919395,FALSE,0.139945544459485
"CAN","cpi",0.1,1987,3,1987,NA,0.5,3.43175702138371,3.78314386580742,4.23980729277887,3.60745044359556,FALSE,1.36619445991583
"CAN","cpi",0.1,1987,3,1986,NA,1,2.47685338509776,4.50223450042351,4.23980729277887,3.48954394276064,TRUE,2.02538111532575
"CAN","cpi",0.1,1987,3,1986,NA,1.5,1.93086275820319,4.17036953825086,4.23980729277887,3.05061614822702,FALSE,2.39381290122103
"CAN","cpi",0.1,1988,3,1988,NA,0,3.9560649946666,3.97695902283278,3.92899537638065,3.96651200874969,FALSE,0.0810487354682749
"CAN","cpi",0.1,1988,3,1988,NA,0.5,3.1001909234203,3.45157776784401,3.92899537638065,3.27588434563216,FALSE,1.41231486339403
"CAN","cpi",0.1,1988,3,1987,NA,1,2.61531518236448,4.11584188240095,3.92899537638065,3.36557853238272,TRUE,1.50052670003647
"CAN","cpi",0.1,1988,3,1987,NA,1.5,1.1091532698611,3.34866004990877,3.92899537638065,2.22890665988493,FALSE,3.52914083887408
"CAN","cpi",0.1,1989,3,1989,NA,0,4.95179420836808,4.97268823653427,4.82821664544208,4.96224122245117,FALSE,0.295510834668419
"CAN","cpi",0.1,1989,3,1989,NA,0.5,3.97676839541492,4.32815523983863,4.82821664544208,4.15246181762677,FALSE,1.46263441243137
"CAN","cpi",0.1,1989,3,1988,NA,1,2.72337367724674,3.97786185823296,4.82821664544208,3.35061776773985,FALSE,3.14416548589537
"CAN","cpi",0.1,1989,3,1988,NA,1.5,0.913178716334452,3.15268549638213,4.82821664544208,2.03293210635829,FALSE,5.96290933351423
"CAN","cpi",0.1,1990,3,1990,NA,0,4.48072031050095,4.50161433866713,4.64347549432717,4.49116732458404,FALSE,0.336141040744043
"CAN","cpi",0.1,1990,3,1990,NA,0.5,4.63065791678956,4.98204476121327,4.64347549432717,4.80635133900141,TRUE,0.351386844423716
"CAN","cpi",0.1,1990,3,1989,NA,1,3.82608521476891,5.08057339575512,4.64347549432717,4.45332930526201,TRUE,1.25448818098622
"CAN","cpi",0.1,1990,3,1989,NA,1.5,1.82018804294548,4.05969482299315,4.64347549432717,2.93994143296931,FALSE,3.53679716078994
"CAN","cpi",0.1,1991,3,1991,NA,0,5.58619452104001,5.6070885492062,5.4258100696218,5.5966415351231,FALSE,0.377303920206667
"CAN","cpi",0.1,1991,3,1991,NA,0.5,7.87958459548155,8.20533628483004,5.4258100696218,8.0424604401558,FALSE,5.77858396903684
"CAN","cpi",0.1,1991,3,1990,NA,1,2.44424700990079,3.57108069789667,5.4258100696218,3.00766385389873,FALSE,5.24845451405172
"CAN","cpi",0.1,1991,3,1990,NA,1.5,2.30485983748553,4.54436661753321,5.4258100696218,3.42461322750937,FALSE,4.19827000691121
"CAN","cpi",0.1,1992,3,1992,NA,0,1.45073599541307,1.47163002357925,1.47496888572843,1.46118300949616,FALSE,0.0283137218310366
"CAN","cpi",0.1,1992,3,1992,NA,0.5,1.07509233091046,1.40084402025894,1.47496888572843,1.2379681755847,FALSE,0.490473612614023
"CAN","cpi",0.1,1992,3,1991,NA,1,1.30891968514816,2.43575337314404,1.47496888572843,1.8723365291461,TRUE,1.12683368799588
"CAN","cpi",0.1,1992,3,1991,NA,1.5,5.77958357836554,8.01909035841321,1.47496888572843,6.89933696838937,FALSE,11.8053172081301
"CAN","cpi",0.1,1993,3,1993,NA,0,1.79175866147594,1.81265268964212,1.84351085411351,1.80220567555903,FALSE,0.089467726991492
"CAN","cpi",0.1,1993,3,1993,NA,0.5,2.05530913761921,2.3810608269677,1.84351085411351,2.21818498229346,FALSE,0.796414541583376
"CAN","cpi",0.1,1993,3,1992,NA,1,0.954675348463531,1.74941063529887,1.84351085411351,1.3520429918812,FALSE,1.00384688420122
"CAN","cpi",0.1,1993,3,1992,NA,1.5,-0.186267902686978,2.0532388773607,1.84351085411351,0.933485487336859,TRUE,2.23950678004767
"CAN","cpi",0.1,1994,3,1994,NA,0,0.191662643404101,0.212556671570282,0.161630694655448,0.202109657487191,FALSE,0.087631692052077
"CAN","cpi",0.1,1994,3,1994,NA,0.5,-0.73551555213702,-0.409763862788534,0.161630694655448,-0.572639707462777,FALSE,1.59551737255733
"CAN","cpi",0.1,1994,3,1993,NA,1,0.743737687350692,1.53847297418603,0.161630694655448,1.14110533076836,FALSE,2.08830638171365
"CAN","cpi",0.1,1994,3,1993,NA,1.5,0.740209256182578,2.56025998973588,0.161630694655448,1.65023462295923,FALSE,3.10578087028026
"CAN","cpi",0.1,1995,3,1995,NA,0,2.13806548104005,2.15895950920623,2.11688403676572,2.14851249512314,FALSE,0.0679639043313606
"CAN","cpi",0.1,1995,3,1995,NA,0.5,2.43784858841819,2.76360027776667,2.11688403676572,2.60072443309243,FALSE,1.0390062485762
"CAN","cpi",0.1,1995,3,1994,NA,1,1.03637208300424,1.83110736983958,2.11688403676572,1.43373972642191,FALSE,1.42979454667119
"CAN","cpi",0.1,1995,3,1994,NA,1.5,-2.38586672426961,-0.146359944221937,2.11688403676572,-1.26611333424577,FALSE,7.26893784890912
"CAN","cpi",0.1,1996,3,1996,NA,0,1.42620569016729,1.44709971833348,1.55309584667184,1.43665270425039,FALSE,0.25644098002922
"CAN","cpi",0.1,1996,3,1996,NA,0.5,1.06988745897612,1.39563914832461,1.55309584667184,1.23276330365037,FALSE,0.675655463453447
"CAN","cpi",0.1,1996,3,1995,NA,1,0.332385615976247,1.12712090281158,1.55309584667184,0.729753259393914,FALSE,1.74134627319147
"CAN","cpi",0.1,1996,3,1995,NA,1.5,1.1992950018416,3.43880178188927,1.55309584667184,2.31904839186543,TRUE,2.23950678004767
"CAN","cpi",0.1,1997,3,1997,NA,0,1.66570891100368,1.69328066346823,1.60528783555959,1.67949478723595,FALSE,0.161840809006967
"CAN","cpi",0.1,1997,3,1997,NA,0.5,1.77004407630983,2.09579576565831,1.60528783555959,1.93291992098407,FALSE,0.691876668793453
"CAN","cpi",0.1,1997,3,1996,NA,1,0.217262808203287,1.01199809503862,1.60528783555959,0.614630451620954,FALSE,2.11315693243749
"CAN","cpi",0.1,1997,3,1996,NA,1.5,0.0521361974222199,1.87218693097553,1.60528783555959,0.962161564198873,TRUE,1.82005073355331
"CAN","cpi",0.1,1998,3,1998,NA,0,0.93543522203037,0.998692138745213,0.988908029337191,0.967063680387792,TRUE,0.0632569167148427
"CAN","cpi",0.1,1998,3,1998,NA,0.5,1.11197388851963,1.5859753088071,0.988908029337191,1.34897459866337,FALSE,0.747481107359562
"CAN","cpi",0.1,1998,3,1997,NA,1,0.395322315828462,1.1900576026638,0.988908029337191,0.792689959246129,TRUE,0.794735286835334
"CAN","cpi",0.1,1998,3,1997,NA,1.5,0.517887458575871,2.04979254896305,0.988908029337191,1.28384000376946,TRUE,1.53190509038718
"CAN","cpi",0.1,1999,3,1999,NA,0,1.74680198999664,1.79049068789544,1.7107350135213,1.76864633894604,FALSE,0.123837534510674
"CAN","cpi",0.1,1999,3,1999,NA,0.5,0.515490320483132,0.948709100717929,1.7107350135213,0.732099710600531,FALSE,2.12660969757561
"CAN","cpi",0.1,1999,3,1998,NA,1,0.152443181842231,0.585661962077028,1.7107350135213,0.369052571959629,FALSE,2.93338111677762
"CAN","cpi",0.1,1999,3,1998,NA,1.5,0.625343798870575,1.91159634159201,1.7107350135213,1.26847007023129,TRUE,1.28625254272144
"CAN","cpi",0.1,2000,3,2000,NA,0,2.68073375779095,2.72442245568974,2.6718361971244,2.70257810674034,FALSE,0.0634610549355662
"CAN","cpi",0.1,2000,3,2000,NA,0.5,1.74287366869136,2.17609244892616,2.6718361971244,1.95948305880876,FALSE,1.53487155400867
"CAN","cpi",0.1,2000,3,1999,NA,1,1.94493722974259,2.37815600997738,2.6718361971244,2.16154661985999,FALSE,1.08584141833928
"CAN","cpi",0.1,2000,3,1999,NA,1.5,0.0605189347737582,0.945048821353762,2.6718361971244,0.50278387806376,FALSE,4.72183516607031
"CAN","cpi",0.1,2001,3,2001,NA,0,2.70970114491147,2.75338984281027,2.47906219852806,2.73154549386087,FALSE,0.556219689861927
"CAN","cpi",0.1,2001,3,2001,NA,0.5,1.44200889252186,1.87522767275666,2.47906219852806,1.65861828263926,FALSE,1.77507328194903
"CAN","cpi",0.1,2001,3,2000,NA,1,2.62472956777247,3.05794834800726,2.47906219852806,2.84133895788986,FALSE,0.756924045222359
"CAN","cpi",0.1,2001,3,2000,NA,1.5,0.699648601189689,1.58417848776969,2.47906219852806,1.14191354447969,FALSE,2.87316035493194
"CAN","cpi",0.1,2002,3,2002,NA,0,2.29098092570264,2.33466962360143,2.20880570551249,2.31282527465204,FALSE,0.226300298321353
"CAN","cpi",0.1,2002,3,2002,NA,0.5,0.926986943319453,1.5676520293624,2.20880570551249,1.24731948634093,FALSE,2.06545103304313
"CAN","cpi",0.1,2002,3,2001,NA,1,0.333214781525074,1.05776830024868,2.20880570551249,0.695491540886875,FALSE,3.28241441930985
"CAN","cpi",0.1,2002,3,2001,NA,1.5,0.0337966755313379,0.918326562111342,2.20880570551249,0.47606161882134,FALSE,3.75226131636033
"CAN","cpi",0.1,2003,3,2003,NA,0,2.73275962382885,2.77644832172765,2.71189071546809,2.75460397277825,FALSE,0.0900640498115979
"CAN","cpi",0.1,2003,3,2003,NA,0.5,3.84063716490279,4.48130225094574,2.71189071546809,4.16096970792426,FALSE,3.14899052923117
"CAN","cpi",0.1,2003,3,2002,NA,1,2.91564232252291,3.64019584124651,2.71189071546809,3.27791908188471,FALSE,1.17733486773431
"CAN","cpi",0.1,2003,3,2002,NA,1.5,1.07603518427901,1.96056507085901,2.71189071546809,1.51830012756901,FALSE,2.55414243015574
"CAN","cpi",0.1,2004,3,2004,NA,0,1.73078912940344,1.79227294863533,1.83151661303942,1.76153103901938,FALSE,0.148691962352099
"CAN","cpi",0.1,2004,3,2004,NA,0.5,1.06182395938124,1.7170881302302,1.83151661303942,1.38945604480572,FALSE,0.909549688202795
"CAN","cpi",0.1,2004,3,2003,NA,1,0.656469432234171,1.38102295095777,1.83151661303942,1.01874619159597,FALSE,1.72565054557171
"CAN","cpi",0.1,2004,3,2003,NA,1.5,2.5487886477541,3.43331853433411,1.83151661303942,2.99105359104411,FALSE,2.47846774150152
"CAN","cpi",0.1,2005,3,2005,NA,0,2.31988290180722,2.38136672103911,2.18071628336509,2.35062481142317,FALSE,0.370742971325516
"CAN","cpi",0.1,2005,3,2005,NA,0.5,1.12765163580582,1.78291580665478,2.18071628336509,1.4552837212303,FALSE,1.5392652302052
"CAN","cpi",0.1,2005,3,2004,NA,1,0.434209952661969,1.15876347138557,2.18071628336509,0.79648671202377,FALSE,2.99555976756698
"CAN","cpi",0.1,2005,3,2004,NA,1.5,0.694544570217969,1.57907445679797,2.18071628336509,1.13680951350797,FALSE,2.22151172339582
"CAN","cpi",0.1,2006,3,2006,NA,0,2.03373851362757,2.09522233285946,1.97519342012289,2.06448042324351,FALSE,0.191584027020074
"CAN","cpi",0.1,2006,3,2006,NA,0.5,1.44310105577757,2.09836522662653,1.97519342012289,1.77073314120205,TRUE,0.655264170848957
"CAN","cpi",0.1,2006,3,2005,NA,1,2.22580528782761,2.95035880655121,1.97519342012289,2.58808204718941,FALSE,1.28146878028965
"CAN","cpi",0.1,2006,3,2005,NA,1.5,0.319810325626726,1.20434021220673,1.97519342012289,0.762075268916728,FALSE,2.59753701528257
"CAN","cpi",0.1,2007,3,2007,NA,0,2.07733149546383,2.13881531469572,2.10062087284572,2.10807340507977,TRUE,0.0614838192318894
"CAN","cpi",0.1,2007,3,2007,NA,0.5,1.77727017122527,2.41793525726823,2.10062087284572,2.09760271424675,TRUE,0.640665086042951
"CAN","cpi",0.1,2007,3,2006,NA,1,0.0765856992620704,0.801139217985673,2.10062087284572,0.438862458623872,FALSE,3.61229052952371
"CAN","cpi",0.1,2007,3,2006,NA,1.5,0.638627034462246,1.52315692104225,2.10062087284572,1.08089197775225,FALSE,2.16778311280994
"CAN","cpi",0.1,2008,3,2008,NA,0,2.8928231848623,2.93651188276109,2.31447335265955,2.9146675338117,FALSE,1.32891054723823
"CAN","cpi",0.1,2008,3,2008,NA,0.5,0.84116717329682,1.25008773113849,2.31447335265955,1.04562745221765,FALSE,2.77422193899959
"CAN","cpi",0.1,2008,3,2007,NA,1,0.00275342102437148,0.727306939747974,2.31447335265955,0.365030180386173,FALSE,4.25158999186044
"CAN","cpi",0.1,2008,3,2007,NA,1.5,1.59880895123134,2.48333883781135,2.31447335265955,2.04107389452134,TRUE,0.884529886580005
"CAN","cpi",0.1,2009,3,2009,NA,0,0.25077448726703,0.294463185165828,0.284533874408197,0.272618836216429,TRUE,0.0436886978987983
"CAN","cpi",0.1,2009,3,2009,NA,0.5,-1.01188661743887,-0.602966059597202,0.284533874408197,-0.807426338518035,FALSE,2.38114263340922
"CAN","cpi",0.1,2009,3,2008,NA,1,2.95495258075282,3.61216131454689,0.284533874408197,3.28355694764985,FALSE,6.59147252567101
"CAN","cpi",0.1,2009,3,2008,NA,1.5,0.374772588341876,1.03198132213595,0.284533874408197,0.703376955238912,FALSE,0.857739209202248
"CAN","cpi",0.1,2010,3,2010,NA,0,1.71516532581497,1.7389954021985,1.75525687020327,1.72708036400674,FALSE,0.0599666719496891
"CAN","cpi",0.1,2010,3,2010,NA,0.5,1.21797238306083,1.62689294090249,1.75525687020327,1.42243266198166,FALSE,0.694173734065623
"CAN","cpi",0.1,2010,3,2009,NA,1,0.0512631080318938,0.980395766127023,1.75525687020327,0.515829437079458,FALSE,2.65104622270902
"CAN","cpi",0.1,2010,3,2009,NA,1.5,-1.13096596105436,-0.201833302959228,1.75525687020327,-0.666399632006793,FALSE,5.27822193178957
"CAN","cpi",0.1,2011,3,2011,NA,0,2.81679614909171,2.84062622547525,2.85717434028225,2.82871118728348,FALSE,0.0606036648435286
"CAN","cpi",0.1,2011,3,2011,NA,0.5,2.38859618052959,2.79751673837126,2.85717434028225,2.59305645945043,FALSE,0.541493006532745
"CAN","cpi",0.1,2011,3,2010,NA,1,1.11738216407388,2.04651482216901,2.85717434028225,1.58194849312145,FALSE,2.73059825390232
"CAN","cpi",0.1,2011,3,2010,NA,1.5,0.544095988529676,1.4732286466248,2.85717434028225,1.00866231757724,FALSE,4.00456753288944
"CAN","cpi",0.1,2012,3,2012,NA,0,1.454902476262,1.47873255264554,1.50118536134935,1.46681751445377,FALSE,0.0737252068364395
"CAN","cpi",0.1,2012,3,2012,NA,0.5,1.43420569168672,1.84312624952839,1.50118536134935,1.63866597060755,TRUE,0.408920557841666
"CAN","cpi",0.1,2012,3,2011,NA,1,0.355804825363766,1.3406762726111,1.50118536134935,0.848240548987433,FALSE,1.3415583111101
"CAN","cpi",0.1,2012,3,2011,NA,1.5,1.19140726826148,2.17627871550881,1.50118536134935,1.68384299188515,TRUE,0.984871447247333
"CAN","cpi",0.1,2013,3,2013,NA,0,1.01891611594951,1.04274619233305,0.931270594714462,1.03083115414128,FALSE,0.218597901350309
"CAN","cpi",0.1,2013,3,2013,NA,0.5,0.86436002270705,1.13932124122347,0.931270594714462,1.00184063196526,TRUE,0.274961218516417
"CAN","cpi",0.1,2013,3,2012,NA,1,-0.715690033474752,0.17059805172998,0.931270594714462,-0.272545990872386,FALSE,2.57667151405914
"CAN","cpi",0.1,2013,3,2012,NA,1.5,0.515464761533705,1.40175284673844,0.931270594714462,0.958608804136071,TRUE,0.886288085204732
"CAN","cpi",0.1,2014,3,2014,NA,0,1.97421774691525,1.99804782329878,1.87639912240215,1.98613278510701,FALSE,0.241204797523751
"CAN","cpi",0.1,2014,3,2014,NA,0.5,1.88166881398722,2.02280888848881,1.87639912240215,1.95223885123801,FALSE,0.152850500246188
"CAN","cpi",0.1,2014,3,2013,NA,1,0.290885558482685,1.08643181608501,1.87639912240215,0.688658687283847,FALSE,2.55102916052931
"CAN","cpi",0.1,2014,3,2013,NA,1.5,0.493821071083339,1.28936732868566,1.87639912240215,0.891594199884501,FALSE,2.10006135475007
"CAN","cpi",0.1,2015,3,2015,NA,0,1.23450362558077,1.25833370196431,1.11090953952792,1.24641866377254,FALSE,0.298483600945435
"CAN","cpi",0.1,2015,3,2015,NA,0.5,0.127547124838902,0.268687199340495,1.11090953952792,0.198117162089698,FALSE,2.01274527491809
"CAN","cpi",0.1,2015,3,2014,NA,1,0.11430485114791,0.949907294045623,1.11090953952792,0.532106072596766,FALSE,1.19338521063614
"CAN","cpi",0.1,2015,3,2014,NA,1.5,1.39255798090382,2.22816042380154,1.11090953952792,1.81035920235268,FALSE,1.4614878681775
"CAN","cpi",0.1,2016,3,2016,NA,0,1.42993453575412,1.45376461213766,1.41168586698797,1.44184957394589,FALSE,0.0643826736416588
"CAN","cpi",0.1,2016,3,2016,NA,0.5,0.772530010155325,0.913670084656918,1.41168586698797,0.843100047406122,FALSE,1.24784181301503
"CAN","cpi",0.1,2016,3,2015,NA,1,0.837075408901568,1.63262166650389,1.41168586698797,1.23484853770273,TRUE,0.795546257602324
"CAN","cpi",0.1,2016,3,2015,NA,1.5,-0.290310376623879,0.505235880978445,1.41168586698797,0.107462752177283,FALSE,2.8098795598457
"CAN","cpi",0.1,2017,3,2017,NA,0,1.50548421820497,1.5293142945885,1.57888581671161,1.51739925639673,FALSE,0.133989014434891
"CAN","cpi",0.1,2017,3,2017,NA,0.5,1.81113265552808,1.95227273002967,1.57888581671161,1.88170269277887,FALSE,0.657244160760402
"CAN","cpi",0.1,2017,3,2016,NA,1,0.0376077980217687,0.79906889548872,1.57888581671161,0.418338346755244,FALSE,2.49438758907338
"CAN","cpi",0.1,2017,3,2016,NA,1.5,0.144845538603815,0.906306636070766,1.57888581671161,0.52557608733729,FALSE,2.25608149889105
"CAN","cpi",0.1,2018,3,2018,NA,0,2.39419874765978,2.41802882404332,2.23316270166586,2.40611378585155,FALSE,0.381687956370028
"CAN","cpi",0.1,2018,3,2018,NA,0.5,2.55150017099124,2.69264024549284,2.23316270166586,2.62207020824204,FALSE,0.848556673002447
"CAN","cpi",0.1,2018,3,2017,NA,1,0.0233825518726947,0.784843649339646,2.23316270166586,0.40411310060617,FALSE,3.97994788041409
"CAN","cpi",0.1,2018,3,2017,NA,1.5,1.15714469841579,1.91860579588274,2.23316270166586,1.53787524714926,FALSE,1.46047644365166
"CAN","cpi",0.1,2019,3,2019,NA,0,1.9832518927547,2.03960490514777,1.91921619871868,2.01142839895124,FALSE,0.19865455469534
"CAN","cpi",0.1,2019,3,2019,NA,0.5,1.44299735157,1.59467680924173,1.91921619871868,1.51883708040586,FALSE,0.872878100953853
"CAN","cpi",0.1,2019,3,2018,NA,1,1.03869929228501,1.80016038975196,1.91921619871868,1.41942984101848,FALSE,1.02602956183744
"CAN","cpi",0.1,2019,3,2018,NA,1.5,1.68032116216664,2.44178225963359,1.91921619871868,2.06105171090012,TRUE,0.761461097466951
"CAN","cpi",0.1,2020,3,2020,NA,0,0.698003346594538,0.754356358987611,0.71139989671781,0.726179852791075,TRUE,0.0563530123930738
"CAN","cpi",0.1,2020,3,2020,NA,0.5,0.996419721644659,1.14809917931639,0.71139989671781,1.07225945048052,FALSE,0.785056846398059
"CAN","cpi",0.1,2020,3,2019,NA,1,0.698328708337248,1.33995057821888,0.71139989671781,1.01913964327806,TRUE,0.641621869881633
"CAN","cpi",0.1,2020,3,2019,NA,1.5,0.906805518564366,1.548427388446,0.71139989671781,1.22761645350518,FALSE,1.0758565850962
"CAN","cpi",0.1,2021,3,2021,NA,0,3.28171102571238,3.33806403810545,3.31148121717802,3.30988753190892,TRUE,0.0563530123930738
"CAN","cpi",0.1,2021,3,2021,NA,0.5,2.41406434982484,2.56574380749657,3.31148121717802,2.4899040786607,FALSE,1.8088737014083
"CAN","cpi",0.1,2021,3,2020,NA,1,0.973119075162259,1.42269433390395,3.31148121717802,1.1979067045331,FALSE,4.64687944379519
"CAN","cpi",0.1,2021,3,2020,NA,1.5,0.445839181619807,0.895414440361498,3.31148121717802,0.670626810990653,FALSE,5.81861254055619
"CAN","cpi",0.1,2022,3,2022,NA,0,6.5307779357153,6.56033784786183,6.50977236228281,6.54555789178856,FALSE,0.0762389642187213
"CAN","cpi",0.1,2022,3,2022,NA,0.5,5.88885025722617,6.04052971489789,6.50977236228281,5.96468998606203,FALSE,1.19444089630488
"CAN","cpi",0.1,2022,3,2021,NA,1,3.19626501885896,3.64584027760065,6.50977236228281,3.42105264822981,FALSE,6.8138687802576
"CAN","cpi",0.1,2022,3,2021,NA,1.5,1.70797502946877,2.15755028821046,6.50977236228281,1.93276265883962,FALSE,10.1211798677913
"CAN","cpi",0.1,2023,3,2023,NA,0,3.95710689636991,3.98666680851644,3.78831288758619,3.97188685244318,FALSE,0.404657709443684
"CAN","cpi",0.1,2023,3,2023,NA,0.5,2.76336037471043,2.91503983238216,3.78831288758619,2.8392001035463,FALSE,2.09228624701402
"CAN","cpi",0.1,2023,3,2022,NA,1,2.64406228552674,3.09363754426843,3.78831288758619,2.86884991489758,FALSE,1.99329824389227
"CAN","cpi",0.1,2023,3,2022,NA,1.5,3.80838484578825,4.25796010452994,3.78831288758619,4.03317247515909,FALSE,0.49417961030182
"CAN","cpi",0.1,2024,3,2023,NA,1,2.67467991242277,3.12425517116446,NA,2.89946754179362,NA,NA
"CAN","cpi",0.1,2024,3,2023,NA,1.5,0.955128888450662,1.40470414719235,NA,1.17991651782151,NA,NA
"CAN","cpi",0.2,1959,3,1959,NA,0,1.14184938339162,1.2372425996319,1.19382698397654,1.18954599151176,TRUE,0.0953932162402795
"CAN","cpi",0.2,1959,3,1959,NA,0.5,0.0675279235300434,1.02308873079181,1.19382698397654,0.545308327160925,FALSE,1.3824064402236
"CAN","cpi",0.2,1959,3,1958,NA,1,0.36341938769108,1.90248289728984,1.19382698397654,1.13295114249046,TRUE,1.53906350959876
"CAN","cpi",0.2,1959,3,1958,NA,1.5,-1.21441775502273,2.6492619311813,1.19382698397654,0.717422088079289,TRUE,3.86367968620403
"CAN","cpi",0.2,1960,3,1960,NA,0,1.00094514241335,1.04628094277619,1.34209404870695,1.02361304259477,FALSE,0.784868565189739
"CAN","cpi",0.2,1960,3,1960,NA,0.5,0.0709848155189038,1.22623719990841,1.34209404870695,0.648611007713657,FALSE,1.44489450638586
"CAN","cpi",0.2,1960,3,1959,NA,1,1.79904253966161,2.95429492405111,1.34209404870695,2.37666873185636,FALSE,2.29762361177614
"CAN","cpi",0.2,1960,3,1959,NA,1.5,-1.79629233357917,1.09810797444461,1.34209404870695,-0.349092179567277,FALSE,3.50436549367963
"CAN","cpi",0.2,1961,3,1961,NA,0,0.986545580758652,1.03188138112149,1.00921348094007,1.00921348094007,TRUE,0.0453358003628388
"CAN","cpi",0.2,1961,3,1961,NA,0.5,0.409105096656479,1.60932186522366,1.00921348094007,1.00921348094007,TRUE,1.20021676856718
"CAN","cpi",0.2,1961,3,1960,NA,1,-0.546337921680059,0.653878846887125,1.00921348094007,0.0537704626035329,FALSE,2.08855335369955
"CAN","cpi",0.2,1961,3,1960,NA,1.5,-1.77951654016829,1.11488376785549,1.00921348094007,-0.332316386156399,TRUE,2.89440030802378
"CAN","cpi",0.2,1962,3,1962,NA,0,1.05163627369594,1.07912395140065,1.04957947883042,1.0653801125483,FALSE,0.0326296648685284
"CAN","cpi",0.2,1962,3,1962,NA,0.5,-0.577626192194753,0.577626192194753,1.04957947883042,0,FALSE,2.33513560097866
"CAN","cpi",0.2,1962,3,1961,NA,1,-0.577626192194753,0.577626192194753,1.04957947883042,0,FALSE,2.33513560097866
"CAN","cpi",0.2,1962,3,1961,NA,1.5,-1.34152986709647,1.34152986709647,1.04957947883042,0,TRUE,2.68305973419294
"CAN","cpi",0.2,1963,3,1963,NA,0,1.81650570392113,1.84399338162583,1.60677118395228,1.83024954277348,FALSE,0.55182397762681
"CAN","cpi",0.2,1963,3,1963,NA,0.5,0.259202522422751,1.41445490681226,1.60677118395228,0.836828714617504,FALSE,1.63604307723957
"CAN","cpi",0.2,1963,3,1962,NA,1,1.03172481475851,2.18697719914802,1.60677118395228,1.60935100695326,TRUE,1.15525238438951
"CAN","cpi",0.2,1963,3,1962,NA,1.5,-1.04957947883042,1.04957947883042,1.60677118395228,0,FALSE,3.4921382204655
"CAN","cpi",0.2,1964,3,1964,NA,0,1.93820264557789,1.9656903232826,1.88764670034376,1.95194648443024,FALSE,0.153877540790032
"CAN","cpi",0.2,1964,3,1964,NA,0.5,0.878163579963106,1.66799275690486,1.88764670034376,1.27307816843398,FALSE,1.33896403553901
"CAN","cpi",0.2,1964,3,1963,NA,1,2.80680873790421,3.59663791484596,1.88764670034376,3.20172332637508,FALSE,3.08773427084287
"CAN","cpi",0.2,1964,3,1963,NA,1.5,-1.04957947883042,1.04957947883042,1.88764670034376,0,FALSE,4.19432701144419
"CAN","cpi",0.2,1965,3,1965,NA,0,2.28220126098035,2.31380252841611,2.29538304394236,2.29800189469823,TRUE,0.0316012674357635
"CAN","cpi",0.2,1965,3,1965,NA,0.5,0.833781052826424,1.95508331231009,2.29538304394236,1.39443218256826,FALSE,1.97205158856433
"CAN","cpi",0.2,1965,3,1964,NA,1,0.920132550652649,2.04143481013632,2.29538304394236,1.48078368039448,FALSE,1.75617284399876
"CAN","cpi",0.2,1965,3,1964,NA,1.5,-0.756322079296954,1.34283687836388,2.29538304394236,0.293257399533461,FALSE,4.48052437160703
"CAN","cpi",0.2,1966,3,1966,NA,0,3.77083168998369,3.77939367491325,3.72486065470629,3.77511268244847,FALSE,0.123489573123055
"CAN","cpi",0.2,1966,3,1966,NA,0.5,2.81678606754238,3.93808832702605,3.72486065470629,3.37743719728421,TRUE,1.12130225948367
"CAN","cpi",0.2,1966,3,1965,NA,1,1.42421860170361,2.54552086118728,3.72486065470629,1.98486973144544,FALSE,4.0696517432812
"CAN","cpi",0.2,1966,3,1965,NA,1.5,-0.470938644829378,1.62822031283145,3.72486065470629,0.578640834001038,FALSE,7.34075981234792
"CAN","cpi",0.2,1967,3,1967,NA,0,3.67947671468131,3.68803869961086,3.49360316391996,3.68375770714608,FALSE,0.473245861832921
"CAN","cpi",0.2,1967,3,1967,NA,0.5,1.76312362306051,2.45797053790466,3.49360316391996,2.11054708048259,FALSE,3.2839284798824
"CAN","cpi",0.2,1967,3,1966,NA,1,1.51329934776112,2.5267668029089,3.49360316391996,2.02003307533501,FALSE,3.43055835767542
"CAN","cpi",0.2,1967,3,1966,NA,1.5,0.374055496700257,3.0571152308932,3.49360316391996,1.71558536379673,FALSE,3.77427956675984
"CAN","cpi",0.2,1968,3,1968,NA,0,4.0665761857288,4.07513817065835,3.95128347779386,4.07085717819357,FALSE,0.296793754766903
"CAN","cpi",0.2,1968,3,1968,NA,0.5,3.15989887534294,3.85474579018709,3.95128347779386,3.50732233276501,FALSE,0.936191133861069
"CAN","cpi",0.2,1968,3,1967,NA,1,3.15630306544303,4.16977052059081,3.95128347779386,3.66303679301692,TRUE,1.01346745514778
"CAN","cpi",0.2,1968,3,1967,NA,1.5,-0.506648348051418,2.17641138614152,3.95128347779386,0.834881519045053,FALSE,7.12023996332378
"CAN","cpi",0.2,1969,3,1969,NA,0,4.52104540761775,4.52960739254731,4.42679496126681,4.52532640008253,FALSE,0.244188100806902
"CAN","cpi",0.2,1969,3,1969,NA,0.5,2.37307113674731,3.00874127894632,4.42679496126681,2.69090620784681,FALSE,4.18080434800025
"CAN","cpi",0.2,1969,3,1968,NA,1,3.76010425653439,4.3957743987334,4.42679496126681,4.0779393276339,FALSE,0.713221548532536
"CAN","cpi",0.2,1969,3,1968,NA,1.5,0.270688846258113,2.95374858045105,4.42679496126681,1.61221871335458,FALSE,6.36567568623234
"CAN","cpi",0.2,1970,3,1970,NA,0,3.55450506189501,3.56306704682457,3.28128405769805,3.55878605435979,FALSE,0.691614495421968
"CAN","cpi",0.2,1970,3,1970,NA,0.5,3.38358885913215,4.11579668893793,3.28128405769805,3.74969277403504,FALSE,0.98796983339104
"CAN","cpi",0.2,1970,3,1969,NA,1,2.74576216792319,3.47796999772897,3.28128405769805,3.11186608282608,TRUE,0.732207829805779
"CAN","cpi",0.2,1970,3,1969,NA,1.5,-0.576587889836833,2.10647184435611,3.28128405769805,0.764941977259638,FALSE,5.62009026754779
"CAN","cpi",0.2,1971,3,1971,NA,0,2.79934489917083,2.83094616660659,2.64123406634756,2.81514553288871,FALSE,0.426878349493932
"CAN","cpi",0.2,1971,3,1971,NA,0.5,0.750633392762324,1.4828412225681,2.64123406634756,1.11673730766521,FALSE,3.62818993925443
"CAN","cpi",0.2,1971,3,1970,NA,1,1.55433058970106,2.28653841950684,2.64123406634756,1.92043450460395,FALSE,1.61894694690759
"CAN","cpi",0.2,1971,3,1970,NA,1.5,0.0951695680537306,3.3087119359583,2.64123406634756,1.70194075200601,TRUE,3.21354236790457
"CAN","cpi",0.2,1972,3,1972,NA,0,5.03248698784185,5.06408825527762,4.83230569625923,5.04828762155974,FALSE,0.532054496392323
"CAN","cpi",0.2,1972,3,1972,NA,0.5,3.72991993869428,4.46212776850006,4.83230569625923,4.09602385359717,FALSE,1.6576526492037
"CAN","cpi",0.2,1972,3,1971,NA,1,3.80201720143427,4.53422503124005,4.83230569625923,4.16812111633716,FALSE,1.47740949235373
"CAN","cpi",0.2,1972,3,1971,NA,1.5,-0.649499861745381,2.03355987244756,4.83230569625923,0.692030005351089,FALSE,9.67992429372212
"CAN","cpi",0.2,1973,3,1973,NA,0,7.20070929452765,7.301213350012,7.12388603531779,7.25096132226983,FALSE,0.292562203509001
"CAN","cpi",0.2,1973,3,1973,NA,0.5,4.92613247234385,5.68278787345778,7.12388603531779,5.30446017290082,FALSE,4.35940080576395
"CAN","cpi",0.2,1973,3,1972,NA,1,4.54443265736569,5.30108805847962,7.12388603531779,4.92276035792265,FALSE,5.31365034320936
"CAN","cpi",0.2,1973,3,1972,NA,1.5,0.185107606789748,3.39864997469432,7.12388603531779,1.79187879074203,FALSE,12.5266325194633
"CAN","cpi",0.2,1974,3,1974,NA,0,10.0846114260645,10.2132109942375,10.2717243737774,10.148911210151,FALSE,0.274883017022799
"CAN","cpi",0.2,1974,3,1974,NA,0.5,7.52613519189353,8.28279059300746,10.2717243737774,7.90446289245049,FALSE,5.72898985303883
"CAN","cpi",0.2,1974,3,1973,NA,1,6.92643326700912,7.68308866812305,10.2717243737774,7.30476096756609,FALSE,7.22824466524984
"CAN","cpi",0.2,1974,3,1973,NA,1.5,0.788311295713672,4.34434689596014,10.2717243737774,2.5663290958369,FALSE,18.3744792947897
"CAN","cpi",0.2,1975,3,1975,NA,0,10.1103573262928,10.2389568944658,10.0232981493341,10.1746571103793,FALSE,0.346247510569632
"CAN","cpi",0.2,1975,3,1975,NA,0.5,7.66289089415969,8.4801552441296,10.0232981493341,8.07152306914465,FALSE,4.67512161298121
"CAN","cpi",0.2,1975,3,1974,NA,1,7.41014566070645,8.22741001067636,10.0232981493341,7.8187778356914,FALSE,5.30698469661432
"CAN","cpi",0.2,1975,3,1974,NA,1.5,1.7614960466606,5.53678944734812,10.0232981493341,3.64914274700436,FALSE,14.9915651556525
"CAN","cpi",0.2,1976,3,1976,NA,0,7.09141999162233,7.28848286925377,7.22784311401172,7.18995143043805,TRUE,0.197062877631433
"CAN","cpi",0.2,1976,3,1976,NA,0.5,6.20470146786812,7.02196581783803,7.22784311401172,6.61333364285308,FALSE,1.33195759040411
"CAN","cpi",0.2,1976,3,1975,NA,1,8.17633890091804,8.99360325088795,7.22784311401172,8.584971075903,FALSE,3.18850381723572
"CAN","cpi",0.2,1976,3,1975,NA,1.5,1.14526005554701,5.1495113443648,7.22784311401172,3.14738569995591,FALSE,9.20008071293507
"CAN","cpi",0.2,1977,3,1977,NA,0,7.40323800622374,7.60030088385517,7.58101410153764,7.50176944503946,TRUE,0.197062877631433
"CAN","cpi",0.2,1977,3,1977,NA,0.5,5.99708421328378,6.81434856325369,7.58101410153764,6.40571638826874,FALSE,2.73392819567979
"CAN","cpi",0.2,1977,3,1976,NA,1,3.64046068578519,4.4577250357551,7.58101410153764,4.04909286077014,FALSE,8.62548701442628
"CAN","cpi",0.2,1977,3,1976,NA,1.5,0.0779853968365121,5.11066955771333,7.58101410153764,2.59432747727492,FALSE,11.2085455204376
"CAN","cpi",0.2,1978,3,1978,NA,0,8.49251703502578,8.68957991265721,8.50208927062595,8.59104847384149,TRUE,0.197062877631431
"CAN","cpi",0.2,1978,3,1978,NA,0.5,6.85945653493917,7.82282163973072,8.50208927062595,7.34113908733495,FALSE,2.66153418202961
"CAN","cpi",0.2,1978,3,1977,NA,1,5.39734613278573,6.36071123757729,8.50208927062595,5.87902868518151,FALSE,6.3168101874132
"CAN","cpi",0.2,1978,3,1977,NA,1.5,1.37659277798373,6.40927693886055,8.50208927062595,3.89293485842214,FALSE,10.2647149902903
"CAN","cpi",0.2,1979,3,1979,NA,0,8.39755489822222,8.57547330465331,8.65147652410481,8.48651410143776,FALSE,0.367926455059845
"CAN","cpi",0.2,1979,3,1979,NA,0.5,6.98018491825295,7.94355002304451,8.65147652410481,7.46186747064873,FALSE,2.73318135744231
"CAN","cpi",0.2,1979,3,1978,NA,1,6.45517803140091,7.41854313619246,8.65147652410481,6.93686058379669,FALSE,4.04569857457242
"CAN","cpi",0.2,1979,3,1978,NA,1.5,1.10339477256057,6.73254726838503,8.65147652410481,3.9179710204728,FALSE,10.4264756351239
"CAN","cpi",0.2,1980,3,1980,NA,0,9.34815207833664,9.52607048476773,9.5171912664748,9.43711128155219,TRUE,0.177918406431093
"CAN","cpi",0.2,1980,3,1980,NA,0.5,7.19120755356645,8.59167397615057,9.5171912664748,7.89144076485851,FALSE,3.71425964839468
"CAN","cpi",0.2,1980,3,1979,NA,1,4.99364473582597,6.3941111584101,9.5171912664748,5.69387794711803,FALSE,9.20816669274588
"CAN","cpi",0.2,1980,3,1979,NA,1.5,1.45741423465515,7.08656673047961,9.5171912664748,4.27199048256738,FALSE,11.7057138358124
"CAN","cpi",0.2,1981,3,1981,NA,0,11.5374587742314,11.6976187440766,11.5813425032741,11.617538759154,TRUE,0.160159969845221
"CAN","cpi",0.2,1981,3,1981,NA,0.5,10.5752852078879,12.0323666122935,11.5813425032741,11.3038259100907,TRUE,1.45708140440567
"CAN","cpi",0.2,1981,3,1980,NA,1,7.50068402370161,8.95776542810728,11.5813425032741,8.22922472590444,FALSE,8.01602409232282
"CAN","cpi",0.2,1981,3,1980,NA,1.5,0.467726261410405,8.62864108952202,11.5813425032741,4.54818367546621,FALSE,15.5426683624919
"CAN","cpi",0.2,1982,3,1982,NA,0,10.1071525558367,10.265641868833,10.1124203763629,10.1863972123348,TRUE,0.158489312996373
"CAN","cpi",0.2,1982,3,1982,NA,0.5,8.64383405901758,10.1163977443417,10.1124203763629,9.38011590167964,TRUE,1.47256368532411
"CAN","cpi",0.2,1982,3,1981,NA,1,7.57062163313577,10.2848775569183,10.1124203763629,8.92774959502704,TRUE,2.71425592378256
"CAN","cpi",0.2,1982,3,1981,NA,1.5,3.51660491850643,11.7971563003227,10.1124203763629,7.65688060941457,TRUE,8.28055138181628
"CAN","cpi",0.2,1983,3,1983,NA,0,5.71833766339926,5.86629133534306,5.67091787896303,5.79231449937116,FALSE,0.266503133034368
"CAN","cpi",0.2,1983,3,1983,NA,0.5,3.75705039282208,5.2216593421887,5.67091787896303,4.48935486750539,FALSE,2.58775529130246
"CAN","cpi",0.2,1983,3,1982,NA,1,5.32648047473463,8.04073639851719,5.67091787896303,6.68360843662591,TRUE,2.71425592378256
"CAN","cpi",0.2,1983,3,1982,NA,1.5,1.66465367253614,9.94520505435242,5.67091787896303,5.80492936344428,TRUE,8.28055138181628
"CAN","cpi",0.2,1984,3,1984,NA,0,4.11236740182251,4.2603210737663,4.19799576814029,4.1863442377944,TRUE,0.147953671943792
"CAN","cpi",0.2,1984,3,1984,NA,0.5,3.64138471566884,5.10599366503545,4.19799576814029,4.37368919035215,TRUE,1.46460894936662
"CAN","cpi",0.2,1984,3,1983,NA,1,3.46811189674212,6.18236782052468,4.19799576814029,4.8252398586334,TRUE,2.71425592378256
"CAN","cpi",0.2,1984,3,1983,NA,1.5,-2.44393891310477,5.71697591500684,4.19799576814029,1.63651850095104,TRUE,8.16091482811161
"CAN","cpi",0.2,1985,3,1985,NA,0,3.83699795056112,3.91278131770845,3.86444262005169,3.87488963413478,TRUE,0.0757833671473325
"CAN","cpi",0.2,1985,3,1985,NA,0.5,3.0550351305241,4.28405407284138,3.86444262005169,3.66954460168274,TRUE,1.22901894231727
"CAN","cpi",0.2,1985,3,1984,NA,1,1.33293836092941,3.70227992360121,3.86444262005169,2.51760914226531,FALSE,2.77474830379801
"CAN","cpi",0.2,1985,3,1984,NA,1.5,0.183211962838605,5.30616649721711,3.86444262005169,2.74468923002786,TRUE,5.1229545343785
"CAN","cpi",0.2,1986,3,1986,NA,0,4.05389755432789,4.12629006608765,4.08685396749431,4.09009381020777,TRUE,0.0723925117597624
"CAN","cpi",0.2,1986,3,1986,NA,0.5,3.91116084333686,4.46619402970372,4.08685396749431,4.18867743652029,TRUE,0.555033186366863
"CAN","cpi",0.2,1986,3,1985,NA,1,1.77879458561046,4.14813614828226,4.08685396749431,2.96346536694636,TRUE,2.3693415626718
"CAN","cpi",0.2,1986,3,1985,NA,1.5,0.20091537807386,5.11199491197062,4.08685396749431,2.65645514502224,TRUE,4.91107953389676
"CAN","cpi",0.2,1987,3,1987,NA,0,4.29217595884807,4.31547901953983,4.23980729277887,4.30382748919395,FALSE,0.154224725864752
"CAN","cpi",0.2,1987,3,1987,NA,0.5,3.41255242522661,3.80234846196452,4.23980729277887,3.60745044359556,FALSE,1.48344311377379
"CAN","cpi",0.2,1987,3,1986,NA,1,2.36615534221269,4.61293254330859,4.23980729277887,3.48954394276064,TRUE,2.2467772010959
"CAN","cpi",0.2,1987,3,1986,NA,1.5,1.62021732575495,4.4810149706991,4.23980729277887,3.05061614822702,TRUE,2.86079764494414
"CAN","cpi",0.2,1988,3,1988,NA,0,3.9548604784038,3.97816353909557,3.92899537638065,3.96651200874969,FALSE,0.0879658157496404
"CAN","cpi",0.2,1988,3,1988,NA,0.5,3.0809863272632,3.47078236400111,3.92899537638065,3.27588434563216,FALSE,1.53532856768677
"CAN","cpi",0.2,1988,3,1987,NA,1,2.35288797471984,4.37826909004559,3.92899537638065,3.36557853238272,TRUE,2.02538111532575
"CAN","cpi",0.2,1988,3,1987,NA,1.5,1.03971551533309,3.41809780443678,3.92899537638065,2.22890665988493,FALSE,3.65562621896338
"CAN","cpi",0.2,1989,3,1989,NA,0,4.95058969210529,4.97389275279706,4.82821664544208,4.96224122245117,FALSE,0.329235677349802
"CAN","cpi",0.2,1989,3,1989,NA,0.5,3.95756379925782,4.34735983599573,4.82821664544208,4.15246181762677,FALSE,1.59193806035378
"CAN","cpi",0.2,1989,3,1988,NA,1,2.60035441772162,4.10088111775808,4.82821664544208,3.35061776773985,FALSE,3.31886551924645
"CAN","cpi",0.2,1989,3,1988,NA,1.5,0.843740961806441,3.22212325091014,4.82821664544208,2.03293210635829,FALSE,6.39361577543355
"CAN","cpi",0.2,1990,3,1990,NA,0,4.47951579423816,4.50281885492993,4.64347549432717,4.49116732458404,FALSE,0.37494465918488
"CAN","cpi",0.2,1990,3,1990,NA,0.5,4.61145332063246,5.00124935737037,4.64347549432717,4.80635133900141,TRUE,0.389796036737904
"CAN","cpi",0.2,1990,3,1989,NA,1,3.70306595524378,5.20359265528025,4.64347549432717,4.45332930526201,TRUE,1.50052670003647
"CAN","cpi",0.2,1990,3,1989,NA,1.5,1.75075028841747,4.12913257752116,4.64347549432717,2.93994143296931,FALSE,3.66423958111872
"CAN","cpi",0.2,1991,3,1991,NA,0,5.58499000477722,5.60829306546899,5.4258100696218,5.5966415351231,FALSE,0.421252898580331
"CAN","cpi",0.2,1991,3,1991,NA,0.5,7.86676701794394,8.21815386236765,5.4258100696218,8.0424604401558,FALSE,6.45377921522907
"CAN","cpi",0.2,1991,3,1990,NA,1,2.38041976340562,3.63490794439183,5.4258100696218,3.00766385389873,FALSE,5.73174349406112
"CAN","cpi",0.2,1991,3,1990,NA,1.5,2.23542208295752,4.61380437206122,5.4258100696218,3.42461322750937,FALSE,4.40839653300515
"CAN","cpi",0.2,1992,3,1992,NA,0,1.44953147915027,1.47283453984204,1.47496888572843,1.46118300949616,FALSE,0.0286389254077473
"CAN","cpi",0.2,1992,3,1992,NA,0.5,1.06227475337284,1.41366159779656,1.47496888572843,1.2379681755847,FALSE,0.504655064253408
"CAN","cpi",0.2,1992,3,1991,NA,1,1.24509243865299,2.49958061963921,1.47496888572843,1.8723365291461,TRUE,1.25448818098622
"CAN","cpi",0.2,1992,3,1991,NA,1.5,5.71014582383753,8.08852811294122,1.47496888572843,6.89933696838937,FALSE,12.9663246343764
"CAN","cpi",0.2,1993,3,1993,NA,0,1.79055414521315,1.81385720590491,1.84351085411351,1.80220567555903,FALSE,0.0974371812132595
"CAN","cpi",0.2,1993,3,1993,NA,0.5,2.0424915600816,2.39387840450531,1.84351085411351,2.21818498229346,FALSE,0.84883860934393
"CAN","cpi",0.2,1993,3,1992,NA,1,0.788626147883259,1.91545983587914,1.84351085411351,1.3520429918812,TRUE,1.12683368799588
"CAN","cpi",0.2,1993,3,1992,NA,1.5,-0.255705657214989,2.12267663188871,1.84351085411351,0.933485487336859,TRUE,2.3783822891037
"CAN","cpi",0.2,1994,3,1994,NA,0,0.190458127141308,0.213761187833075,0.161630694655448,0.202109657487191,FALSE,0.0953716419064177
"CAN","cpi",0.2,1994,3,1994,NA,0.5,-0.748333129674635,-0.396946285250919,0.161630694655448,-0.572639707462777,FALSE,1.74782929418963
"CAN","cpi",0.2,1994,3,1993,NA,1,0.649637468536045,1.63257319300067,0.161630694655448,1.14110533076836,FALSE,2.20295265916612
"CAN","cpi",0.2,1994,3,1993,NA,1.5,0.530481232935394,2.76998801298307,0.161630694655448,1.65023462295923,FALSE,3.16163312574754
"CAN","cpi",0.2,1995,3,1995,NA,0,2.13686096477725,2.16016402546902,2.11688403676572,2.14851249512314,FALSE,0.0732453807206117
"CAN","cpi",0.2,1995,3,1995,NA,0.5,2.42503101088057,2.77641785530429,2.11688403676572,2.60072443309243,FALSE,1.12175427971085
"CAN","cpi",0.2,1995,3,1994,NA,1,0.942271864189598,1.92520758865423,2.11688403676572,1.43373972642191,FALSE,1.46212684474335
"CAN","cpi",0.2,1995,3,1994,NA,1.5,-2.45530447879762,-0.0769221896939252,2.11688403676572,-1.26611333424577,FALSE,7.8628978552528
"CAN","cpi",0.2,1996,3,1996,NA,0,1.42286682801811,1.45043858048266,1.55309584667184,1.43665270425039,FALSE,0.284214917937507
"CAN","cpi",0.2,1996,3,1996,NA,0.5,1.03786528528142,1.42766132201932,1.55309584667184,1.23276330365037,FALSE,0.703382348369212
"CAN","cpi",0.2,1996,3,1995,NA,1,0.238285397161601,1.22122112162623,1.55309584667184,0.729753259393914,FALSE,1.81262253707867
"CAN","cpi",0.2,1996,3,1995,NA,1.5,1.12985724731359,3.50823953641728,1.55309584667184,2.31904839186543,TRUE,2.3783822891037
"CAN","cpi",0.2,1997,3,1997,NA,0,1.64786632887853,1.71112324559338,1.60528783555959,1.67949478723595,FALSE,0.169703150012196
"CAN","cpi",0.2,1997,3,1997,NA,0.5,1.69591921084034,2.16992063112781,1.60528783555959,1.93291992098407,FALSE,0.700579858489329
"CAN","cpi",0.2,1997,3,1996,NA,1,0.123162589388641,1.10609831385327,1.60528783555959,0.614630451620954,FALSE,2.23090952873044
"CAN","cpi",0.2,1997,3,1996,NA,1.5,-0.227029580352975,2.15135270875072,1.60528783555959,0.962161564198873,TRUE,2.3783822891037
"CAN","cpi",0.2,1998,3,1998,NA,0,0.929547048018759,1.00458031275682,0.988908029337191,0.967063680387792,TRUE,0.0750332647380656
"CAN","cpi",0.2,1998,3,1998,NA,0.5,1.02864205564189,1.66930714168484,0.988908029337191,1.34897459866337,FALSE,0.740000151804703
"CAN","cpi",0.2,1998,3,1997,NA,1,0.301222097013815,1.28415782147844,0.988908029337191,0.792689959246129,TRUE,0.982935724464627
"CAN","cpi",0.2,1998,3,1997,NA,1.5,0.373814636992809,2.19386537054612,0.988908029337191,1.28384000376946,TRUE,1.82005073355331
"CAN","cpi",0.2,1999,3,1999,NA,0,1.73701788058862,1.80027479730346,1.7107350135213,1.76864633894604,FALSE,0.128964084383147
"CAN","cpi",0.2,1999,3,1999,NA,0.5,0.411767167579055,1.05243225362201,1.7107350135213,0.732099710600531,FALSE,2.28642198579118
"CAN","cpi",0.2,1999,3,1998,NA,1,-0.0283150714580376,0.766420215377296,1.7107350135213,0.369052571959629,FALSE,3.15552228219533
"CAN","cpi",0.2,1999,3,1998,NA,1.5,0.502517525037702,2.03442261542489,1.7107350135213,1.26847007023129,TRUE,1.53190509038718
"CAN","cpi",0.2,2000,3,2000,NA,0,2.67094964838292,2.73420656509777,2.6718361971244,2.70257810674034,TRUE,0.0632569167148427
"CAN","cpi",0.2,2000,3,2000,NA,0.5,1.63915051578728,2.27981560183024,2.6718361971244,1.95948305880876,FALSE,1.62071657427836
"CAN","cpi",0.2,2000,3,1999,NA,1,1.76417897644232,2.55891426327765,2.6718361971244,2.16154661985999,FALSE,1.0770401214522
"CAN","cpi",0.2,2000,3,1999,NA,1.5,-0.140342393296959,1.14591014942448,2.6718361971244,0.50278387806376,FALSE,5.10106766197124
"CAN","cpi",0.2,2001,3,2001,NA,0,2.70080358424493,2.76228740347681,2.47906219852806,2.73154549386087,FALSE,0.615837283524045
"CAN","cpi",0.2,2001,3,2001,NA,0.5,1.33828573961778,1.97895082566073,2.47906219852806,1.65861828263926,FALSE,1.89094351821127
"CAN","cpi",0.2,2001,3,2000,NA,1,2.4439713144722,3.23870660130753,2.47906219852806,2.84133895788986,TRUE,0.794735286835333
"CAN","cpi",0.2,2001,3,2000,NA,1.5,0.498787273118972,1.78503981584041,2.47906219852806,1.14191354447969,FALSE,3.02130849944057
"CAN","cpi",0.2,2002,3,2002,NA,0,2.28208336503609,2.34356718426798,2.20880570551249,2.31282527465204,FALSE,0.2446779680409
"CAN","cpi",0.2,2002,3,2002,NA,0.5,0.91968740091645,1.57495157176541,2.20880570551249,1.24731948634093,FALSE,2.23989950521666
"CAN","cpi",0.2,2002,3,2001,NA,1,0.298123897469208,1.09285918430454,2.20880570551249,0.695491540886875,FALSE,3.5846015898552
"CAN","cpi",0.2,2002,3,2001,NA,1.5,-0.167064652539379,1.11918789018206,2.20880570551249,0.47606161882134,FALSE,4.01029708104751
"CAN","cpi",0.2,2003,3,2003,NA,0,2.7238620631623,2.78534588239419,2.71189071546809,2.75460397277825,FALSE,0.091412188467425
"CAN","cpi",0.2,2003,3,2003,NA,0.5,3.83333762249979,4.48860179334874,2.71189071546809,4.16096970792426,FALSE,3.4588814384282
"CAN","cpi",0.2,2003,3,2002,NA,1,2.88055143846704,3.67528672530237,2.71189071546809,3.27791908188471,FALSE,1.21638709433271
"CAN","cpi",0.2,2003,3,2002,NA,1.5,0.875173856208288,2.16142639892973,2.71189071546809,1.51830012756901,FALSE,2.66241333406734
"CAN","cpi",0.2,2004,3,2004,NA,0,1.72990258066196,1.7931594973768,1.83151661303942,1.76153103901938,FALSE,0.159149705871387
"CAN","cpi",0.2,2004,3,2004,NA,0.5,1.02938947547954,1.74952261413189,1.83151661303942,1.38945604480572,FALSE,0.925118135921176
"CAN","cpi",0.2,2004,3,2003,NA,1,0.527278329363659,1.51021405382829,1.83151661303942,1.01874619159597,FALSE,1.78619212249247
"CAN","cpi",0.2,2004,3,2003,NA,1.5,2.34792731968339,3.63417986240483,1.83151661303942,2.99105359104411,FALSE,2.57727930933135
"CAN","cpi",0.2,2005,3,2005,NA,0,2.31899635306575,2.38225326978059,2.18071628336509,2.35062481142317,FALSE,0.408957090966481
"CAN","cpi",0.2,2005,3,2005,NA,0.5,1.09521715190413,1.81535029055648,2.18071628336509,1.4552837212303,FALSE,1.63354812067388
"CAN","cpi",0.2,2005,3,2004,NA,1,0.286197134759356,1.30677628928818,2.18071628336509,0.79648671202377,FALSE,3.2054291397211
"CAN","cpi",0.2,2005,3,2004,NA,1.5,0.493683242147252,1.77993578486869,2.18071628336509,1.13680951350797,FALSE,2.28820378896244
"CAN","cpi",0.2,2006,3,2006,NA,0,2.03285196488609,2.09610888160094,1.97519342012289,2.06448042324351,FALSE,0.207403278622859
"CAN","cpi",0.2,2006,3,2006,NA,0.5,1.41066657187588,2.13079971052823,1.97519342012289,1.77073314120205,TRUE,0.720133138652353
"CAN","cpi",0.2,2006,3,2005,NA,1,2.077792469925,3.09837162445382,1.97519342012289,2.58808204718941,FALSE,1.2770767790341
"CAN","cpi",0.2,2006,3,2005,NA,1.5,0.118948997556009,1.40520154027745,1.97519342012289,0.762075268916728,FALSE,2.71123224233504
"CAN","cpi",0.2,2007,3,2007,NA,0,2.06536014776961,2.15078666238993,2.10062087284572,2.10807340507977,TRUE,0.0854265146203179
"CAN","cpi",0.2,2007,3,2007,NA,0.5,1.76997062882227,2.42523479967123,2.10062087284572,2.09760271424675,TRUE,0.655264170848957
"CAN","cpi",0.2,2007,3,2006,NA,1,-0.071427118640542,0.949152035888286,2.10062087284572,0.438862458623872,FALSE,3.89925124692242
"CAN","cpi",0.2,2007,3,2006,NA,1.5,0.437765706391528,1.72401824911297,2.10062087284572,1.08089197775225,FALSE,2.22775910205333
"CAN","cpi",0.2,2008,3,2008,NA,0,2.88392562419575,2.94540944342764,2.31447335265955,2.9146675338117,FALSE,1.48511449807239
"CAN","cpi",0.2,2008,3,2008,NA,0.5,0.717995366793174,1.37325953764213,2.31447335265955,1.04562745221765,FALSE,3.00829870839251
"CAN","cpi",0.2,2008,3,2007,NA,1,-0.145259396878241,0.875319757650587,2.31447335265955,0.365030180386173,FALSE,4.61846314205124
"CAN","cpi",0.2,2008,3,2007,NA,1.5,1.39794762316062,2.68420016588206,2.31447335265955,2.04107389452134,TRUE,1.28625254272144
"CAN","cpi",0.2,2009,3,2009,NA,0,0.241876926600484,0.303360745832374,0.284533874408197,0.272618836216429,TRUE,0.0614838192318894
"CAN","cpi",0.2,2009,3,2009,NA,0.5,-1.16749290784421,-0.447359769191859,0.284533874408197,-0.807426338518035,FALSE,2.54986724765249
"CAN","cpi",0.2,2009,3,2008,NA,1,2.80727968737265,3.75983420792706,0.284533874408197,3.28355694764985,FALSE,7.25941905296554
"CAN","cpi",0.2,2009,3,2008,NA,1.5,0.227099694961704,1.17965421551612,0.284533874408197,0.703376955238912,TRUE,0.952554520554416
"CAN","cpi",0.2,2010,3,2010,NA,0,1.69633845439079,1.75782227362268,1.75525687020327,1.72708036400674,TRUE,0.0614838192318894
"CAN","cpi",0.2,2010,3,2010,NA,0.5,0.980372093747953,1.86449323021536,1.75525687020327,1.42243266198166,TRUE,0.884121136467411
"CAN","cpi",0.2,2010,3,2009,NA,1,0.0116827822261484,1.01997609193277,1.75525687020327,0.515829437079458,FALSE,2.84649525538288
"CAN","cpi",0.2,2010,3,2009,NA,1.5,-1.1705462868601,-0.162252977153483,1.75525687020327,-0.666399632006793,FALSE,5.80206792809851
"CAN","cpi",0.2,2011,3,2011,NA,0,2.80053468108694,2.85688769348002,2.85717434028225,2.82871118728348,FALSE,0.0570696293986432
"CAN","cpi",0.2,2011,3,2011,NA,0.5,2.26023225122881,2.92588066767204,2.85717434028225,2.59305645945043,TRUE,0.665648416443227
"CAN","cpi",0.2,2011,3,2010,NA,1,1.01592012670483,2.14797685953806,2.85717434028225,1.58194849312145,FALSE,2.90505043469369
"CAN","cpi",0.2,2011,3,2010,NA,1.5,-0.0110665775162349,2.02839121267071,2.85717434028225,1.00866231757724,FALSE,4.11141560921578
"CAN","cpi",0.2,2012,3,2012,NA,0,1.43864100825723,1.49499402065031,1.50118536134935,1.46681751445377,FALSE,0.071831364140668
"CAN","cpi",0.2,2012,3,2012,NA,0.5,1.37454808977574,1.90278385143937,1.50118536134935,1.63866597060755,TRUE,0.528235761663638
"CAN","cpi",0.2,2012,3,2011,NA,1,0.235351921920909,1.46112917605396,1.50118536134935,0.848240548987433,FALSE,1.32591771737152
"CAN","cpi",0.2,2012,3,2011,NA,1.5,0.664114096791671,2.70357188697862,1.50118536134935,1.68384299188515,TRUE,2.03945779018695
"CAN","cpi",0.2,2013,3,2013,NA,0,1.00265464794474,1.05900766033781,0.931270594714462,1.03083115414128,FALSE,0.234813145468771
"CAN","cpi",0.2,2013,3,2013,NA,0.5,0.797380353044425,1.20630091088609,0.931270594714462,1.00184063196526,TRUE,0.408920557841666
"CAN","cpi",0.2,2013,3,2012,NA,1,-0.8084399374687,0.263347955723928,0.931270594714462,-0.272545990872386,FALSE,2.74159449066896
"CAN","cpi",0.2,2013,3,2012,NA,1.5,0.422714857539757,1.49450275073239,0.931270594714462,0.958608804136071,TRUE,1.07178789319263
"CAN","cpi",0.2,2014,3,2014,NA,0,1.95795627891048,2.01430929130355,1.87639912240215,1.98613278510701,FALSE,0.260245903663893
"CAN","cpi",0.2,2014,3,2014,NA,0.5,1.81475824197981,2.08971946049622,1.87639912240215,1.95223885123801,TRUE,0.274961218516417
"CAN","cpi",0.2,2014,3,2013,NA,1,0.225486552033785,1.15183082253391,1.87639912240215,0.688658687283847,FALSE,2.73776502017073
"CAN","cpi",0.2,2014,3,2013,NA,1.5,0.42842206463444,1.35476633513456,1.87639912240215,0.891594199884501,FALSE,2.23042623866909
"CAN","cpi",0.2,2015,3,2015,NA,0,1.218242157576,1.27459516996908,1.11090953952792,1.24641866377254,FALSE,0.324684557513288
"CAN","cpi",0.2,2015,3,2015,NA,0.5,0.122277433253834,0.273956890925562,1.11090953952792,0.198117162089698,FALSE,2.24406107917761
"CAN","cpi",0.2,2015,3,2014,NA,1,-0.0109788671940629,1.0751910123876,1.11090953952792,0.532106072596766,FALSE,1.17546619743246
"CAN","cpi",0.2,2015,3,2014,NA,1.5,1.26727426256185,2.35344414214351,1.11090953952792,1.81035920235268,FALSE,1.47708168716649
"CAN","cpi",0.2,2016,3,2016,NA,0,1.41367306774935,1.47002608014243,1.41168586698797,1.44184957394589,FALSE,0.0613210142965397
"CAN","cpi",0.2,2016,3,2016,NA,0.5,0.767260318570258,0.918939776241986,1.41168586698797,0.843100047406122,FALSE,1.38354468453668
"CAN","cpi",0.2,2016,3,2015,NA,1,0.771676402452669,1.69802067295279,1.41168586698797,1.23484853770273,TRUE,0.926344270500122
"CAN","cpi",0.2,2016,3,2015,NA,1.5,-0.355709383072778,0.570634887427344,1.41168586698797,0.107462752177283,FALSE,3.02897171940168
"CAN","cpi",0.2,2017,3,2017,NA,0,1.4892227502002,1.54557576259327,1.57888581671161,1.51739925639673,FALSE,0.139628147688926
"CAN","cpi",0.2,2017,3,2017,NA,0.5,1.80586296394301,1.95754242161474,1.57888581671161,1.88170269277887,FALSE,0.71912232575022
"CAN","cpi",0.2,2017,3,2016,NA,1,-0.0248056958471219,0.86148238935761,1.57888581671161,0.418338346755244,FALSE,2.67979665358974
"CAN","cpi",0.2,2017,3,2016,NA,1.5,0.0824320447349244,0.968720129939657,1.57888581671161,0.52557608733729,FALSE,2.41170230213462
"CAN","cpi",0.2,2018,3,2018,NA,0,2.37793727965501,2.43429029204809,2.23316270166586,2.40611378585155,FALSE,0.418289457365955
"CAN","cpi",0.2,2018,3,2018,NA,0.5,2.54623047940618,2.6979099370779,2.23316270166586,2.62207020824204,FALSE,0.93434890202252
"CAN","cpi",0.2,2018,3,2017,NA,1,-0.0590590346438909,0.867285235856231,2.23316270166586,0.40411310060617,FALSE,4.34103793502419
"CAN","cpi",0.2,2018,3,2017,NA,1.5,1.0747031118992,2.00104738239933,2.23316270166586,1.53787524714926,FALSE,1.50663256866645
"CAN","cpi",0.2,2019,3,2019,NA,0,1.98296524595247,2.03989155195,1.91921619871868,2.01142839895124,FALSE,0.216298924082009
"CAN","cpi",0.2,2019,3,2019,NA,0.5,1.38135647114765,1.65631768966407,1.91921619871868,1.51883708040586,FALSE,0.932207491152946
"CAN","cpi",0.2,2019,3,2018,NA,1,0.956257705768423,1.88260197626855,1.91921619871868,1.41942984101848,FALSE,1.01787982662546
"CAN","cpi",0.2,2019,3,2018,NA,1.5,1.59787957565006,2.52422384615018,1.91921619871868,2.06105171090012,TRUE,0.926344270500122
"CAN","cpi",0.2,2020,3,2020,NA,0,0.69771669979231,0.754643005789839,0.71139989671781,0.726179852791075,TRUE,0.0569263059975293
"CAN","cpi",0.2,2020,3,2020,NA,0.5,0.934778841222315,1.20974005973873,0.71139989671781,1.07225945048052,FALSE,0.833408579777678
"CAN","cpi",0.2,2020,3,2019,NA,1,0.638409094544589,1.39987019201154,0.71139989671781,1.01913964327806,TRUE,0.761461097466951
"CAN","cpi",0.2,2020,3,2019,NA,1.5,0.846885904771707,1.60834700223866,0.71139989671781,1.22761645350518,FALSE,1.10017611760169
"CAN","cpi",0.2,2021,3,2021,NA,0,3.28142437891015,3.33835068490768,3.31148121717802,3.30988753190892,TRUE,0.0569263059975293
"CAN","cpi",0.2,2021,3,2021,NA,0.5,2.35242346940249,2.62738468791891,3.31148121717802,2.4899040786607,FALSE,1.9852025416642
"CAN","cpi",0.2,2021,3,2020,NA,1,0.856684710415105,1.5391286986511,3.31148121717802,1.1979067045331,FALSE,5.1133252845533
"CAN","cpi",0.2,2021,3,2020,NA,1.5,0.329404816872654,1.01184880510865,3.31148121717802,0.670626810990653,FALSE,6.43152501840943
"CAN","cpi",0.2,2022,3,2022,NA,0,6.5170947387898,6.57402104478733,6.50977236228281,6.54555789178856,FALSE,0.0752322472649953
"CAN","cpi",0.2,2022,3,2022,NA,0.5,5.82720937680382,6.10217059532024,6.50977236228281,5.96468998606203,FALSE,1.29396563592285
"CAN","cpi",0.2,2022,3,2021,NA,1,3.07983065411181,3.76227464234781,6.50977236228281,3.42105264822981,FALSE,7.55118828807351
"CAN","cpi",0.2,2022,3,2021,NA,1.5,1.59154066472162,2.27398465295762,6.50977236228281,1.93276265883962,FALSE,11.271913261549
"CAN","cpi",0.2,2023,3,2023,NA,0,3.94172314548525,4.0020505594011,3.78831288758619,3.97188685244318,FALSE,0.443853058663499
"CAN","cpi",0.2,2023,3,2023,NA,0.5,2.70171949428809,2.97668071280451,3.78831288758619,2.8392001035463,FALSE,2.30404165547063
"CAN","cpi",0.2,2023,3,2022,NA,1,2.52762792077959,3.21007190901558,3.78831288758619,2.86884991489758,FALSE,2.12804643466252
"CAN","cpi",0.2,2023,3,2022,NA,1.5,3.6919504810411,4.37439446927709,3.78831288758619,4.03317247515909,TRUE,0.682443988235997
"CAN","cpi",0.2,2024,3,2023,NA,1,2.52714456915707,3.27179051443017,NA,2.89946754179362,NA,NA
"CAN","cpi",0.2,2024,3,2023,NA,1.5,0.807593545184957,1.55223949045806,NA,1.17991651782151,NA,NA
"CAN","cpi",0.3,1959,3,1959,NA,0,1.11885509683729,1.26023688618624,1.19382698397654,1.18954599151176,TRUE,0.14138178934895
"CAN","cpi",0.3,1959,3,1959,NA,0.5,-0.177189023495333,1.26780567781718,1.19382698397654,0.545308327160925,TRUE,1.44499470131252
"CAN","cpi",0.3,1959,3,1958,NA,1,-0.0490696442919756,2.3149719292729,1.19382698397654,1.13295114249046,TRUE,2.36404157356487
"CAN","cpi",0.3,1959,3,1958,NA,1.5,-1.24812972512499,2.68297390128356,1.19382698397654,0.717422088079289,TRUE,3.93110362640855
"CAN","cpi",0.3,1960,3,1960,NA,0,0.975916434474632,1.07130965071491,1.34209404870695,1.02361304259477,FALSE,0.869062924788964
"CAN","cpi",0.3,1960,3,1960,NA,0.5,-0.0738863429426013,1.37110835836992,1.34209404870695,0.648611007713657,TRUE,1.44499470131252
"CAN","cpi",0.3,1960,3,1959,NA,1,1.60713697705698,3.14620048665574,1.34209404870695,2.37666873185636,FALSE,2.29632901917027
"CAN","cpi",0.3,1960,3,1959,NA,1.5,-2.28093202266929,1.58274766353474,1.34209404870695,-0.349092179567277,TRUE,3.86367968620403
"CAN","cpi",0.3,1961,3,1961,NA,0,0.961516872819932,1.05691008906021,1.00921348094007,1.00921348094007,TRUE,0.0953932162402795
"CAN","cpi",0.3,1961,3,1961,NA,0.5,0.286716130283813,1.73171083159633,1.00921348094007,1.00921348094007,TRUE,1.44499470131252
"CAN","cpi",0.3,1961,3,1960,NA,1,-0.715761292195849,0.823302217402915,1.00921348094007,0.0537704626035329,FALSE,2.07023854827636
"CAN","cpi",0.3,1961,3,1960,NA,1.5,-2.02350261443063,1.35886984211783,1.00921348094007,-0.332316386156399,TRUE,3.38237245654846
"CAN","cpi",0.3,1962,3,1962,NA,0,1.04271221236688,1.08804801272972,1.04957947883042,1.0653801125483,TRUE,0.0453358003628388
"CAN","cpi",0.3,1962,3,1962,NA,0.5,-0.693483040993294,0.693483040993294,1.04957947883042,0,FALSE,2.40438447580693
"CAN","cpi",0.3,1962,3,1961,NA,1,-0.769531754799382,0.769531754799382,1.04957947883042,0,FALSE,2.33919986397314
"CAN","cpi",0.3,1962,3,1961,NA,1.5,-1.44720015401189,1.44720015401189,1.04957947883042,0,TRUE,2.89440030802378
"CAN","cpi",0.3,1963,3,1963,NA,0,1.8144489090556,1.84605017649136,1.60677118395228,1.83024954277348,FALSE,0.624966196302372
"CAN","cpi",0.3,1963,3,1963,NA,0.5,0.143345673624209,1.5303117556108,1.60677118395228,0.836828714617504,FALSE,1.60542159153369
"CAN","cpi",0.3,1963,3,1962,NA,1,0.83981925215388,2.37888276175264,1.60677118395228,1.60935100695326,TRUE,1.53906350959876
"CAN","cpi",0.3,1963,3,1962,NA,1.5,-1.34152986709647,1.34152986709647,1.60677118395228,0,FALSE,3.44089206806669
"CAN","cpi",0.3,1964,3,1964,NA,0,1.93614585071236,1.96774711814813,1.88764670034376,1.95194648443024,FALSE,0.170170268488912
"CAN","cpi",0.3,1964,3,1964,NA,0.5,0.672969784150388,1.87318655271757,1.88764670034376,1.27307816843398,FALSE,1.24153147607058
"CAN","cpi",0.3,1964,3,1963,NA,1,2.60161494209149,3.80183171065867,1.88764670034376,3.20172332637508,FALSE,3.24012603070356
"CAN","cpi",0.3,1964,3,1963,NA,1.5,-1.34152986709647,1.34152986709647,1.88764670034376,0,FALSE,4.24339354347091
"CAN","cpi",0.3,1965,3,1965,NA,0,2.23370211061174,2.36230167878471,2.29538304394236,2.29800189469823,TRUE,0.128599568172967
"CAN","cpi",0.3,1965,3,1965,NA,0.5,0.745913525752643,2.04295083938387,2.29538304394236,1.39443218256826,FALSE,2.01827218379832
"CAN","cpi",0.3,1965,3,1964,NA,1,0.711251925595102,2.25031543519387,2.29538304394236,1.48078368039448,FALSE,1.66782810602302
"CAN","cpi",0.3,1965,3,1964,NA,1.5,-1.04827246756301,1.63478726662993,2.29538304394236,0.293257399533461,FALSE,4.57047624079987
"CAN","cpi",0.3,1966,3,1966,NA,0,3.75931204873059,3.79091331616635,3.72486065470629,3.77511268244847,FALSE,0.130033821790894
"CAN","cpi",0.3,1966,3,1966,NA,0.5,2.7289185404686,4.02595585409983,3.72486065470629,3.37743719728421,TRUE,1.29703731363123
"CAN","cpi",0.3,1966,3,1965,NA,1,1.21533797664606,2.75440148624482,3.72486065470629,1.98486973144544,FALSE,4.31180399091724
"CAN","cpi",0.3,1966,3,1965,NA,1.5,-0.762889033095433,1.92017070109751,3.72486065470629,0.578640834001038,FALSE,7.83931674450375
"CAN","cpi",0.3,1967,3,1967,NA,0,3.6679570734282,3.69955834086397,3.49360316391996,3.68375770714608,FALSE,0.52975529460217
"CAN","cpi",0.3,1967,3,1967,NA,0.5,1.49597854857281,2.72511561239237,3.49360316391996,2.11054708048259,FALSE,3.42481578246983
"CAN","cpi",0.3,1967,3,1966,NA,1,1.25050132053563,2.7895648301344,3.49360316391996,2.02003307533501,FALSE,3.55060160612894
"CAN","cpi",0.3,1967,3,1966,NA,1.5,0.108814179844444,3.32235654774901,3.49360316391996,1.71558536379673,FALSE,3.70281841410728
"CAN","cpi",0.3,1968,3,1968,NA,0,4.05505654447569,4.08665781191146,3.95128347779386,4.07085717819357,FALSE,0.328095743669578
"CAN","cpi",0.3,1968,3,1968,NA,0.5,2.89275380085524,4.12189086467479,3.95128347779386,3.50732233276501,TRUE,1.22913706381956
"CAN","cpi",0.3,1968,3,1967,NA,1,2.84843742946905,4.47763615656479,3.95128347779386,3.66303679301692,TRUE,1.62919872709575
"CAN","cpi",0.3,1968,3,1967,NA,1.5,-0.771889664907231,2.44165270299734,3.95128347779386,0.834881519045053,FALSE,7.52677315303748
"CAN","cpi",0.3,1969,3,1969,NA,0,4.50952576636465,4.54112703380041,4.42679496126681,4.52532640008253,FALSE,0.26797499628672
"CAN","cpi",0.3,1969,3,1969,NA,0.5,2.24694506281797,3.13486735287566,4.42679496126681,2.69090620784681,FALSE,4.57914402831814
"CAN","cpi",0.3,1969,3,1968,NA,1,3.57120560006001,4.58467305520779,4.42679496126681,4.0779393276339,TRUE,1.01346745514778
"CAN","cpi",0.3,1969,3,1968,NA,1.5,0.00544752940229998,3.21898989730687,4.42679496126681,1.61221871335458,FALSE,6.6644139792187
"CAN","cpi",0.3,1970,3,1970,NA,0,3.54298542064191,3.57458668807767,3.28128405769805,3.55878605435979,FALSE,0.779319447275367
"CAN","cpi",0.3,1970,3,1970,NA,0.5,3.26798069126369,4.23140485680639,3.28128405769805,3.74969277403504,TRUE,0.963424165542695
"CAN","cpi",0.3,1970,3,1969,NA,1,2.63015400005474,3.59357816559743,3.28128405769805,3.11186608282608,TRUE,0.963424165542694
"CAN","cpi",0.3,1970,3,1969,NA,1.5,-0.841829206692646,2.37171316121192,3.28128405769805,0.764941977259638,FALSE,5.81231635786493
"CAN","cpi",0.3,1971,3,1971,NA,0,2.76489350514653,2.86539756063089,2.64123406634756,2.81514553288871,FALSE,0.453816737767131
"CAN","cpi",0.3,1971,3,1971,NA,0.5,0.708105132680258,1.52536948265017,2.64123406634756,1.11673730766521,FALSE,4.00544887481961
"CAN","cpi",0.3,1971,3,1970,NA,1,1.51180232961899,2.3290666795889,2.64123406634756,1.92043450460395,FALSE,1.70917116928036
"CAN","cpi",0.3,1971,3,1970,NA,1.5,0.0107545237317854,3.39312698028024,2.64123406634756,1.70194075200601,TRUE,3.38237245654846
"CAN","cpi",0.3,1972,3,1972,NA,0,4.99803559381756,5.09853964930191,4.83230569625923,5.04828762155974,FALSE,0.574018048508151
"CAN","cpi",0.3,1972,3,1972,NA,0.5,3.68739167861222,4.50465602858213,4.83230569625923,4.09602385359717,FALSE,1.75340625761877
"CAN","cpi",0.3,1972,3,1971,NA,1,3.75948894135221,4.57675329132211,4.83230569625923,4.16812111633716,FALSE,1.54741407836167
"CAN","cpi",0.3,1972,3,1971,NA,1.5,-0.914741178601195,2.29880118930337,4.83230569625923,0.692030005351089,FALSE,10.4521266734927
"CAN","cpi",0.3,1973,3,1973,NA,0,7.18666153818334,7.31526110635631,7.12388603531779,7.25096132226983,FALSE,0.307958147788831
"CAN","cpi",0.3,1973,3,1973,NA,0.5,4.82274809012947,5.78617225567216,7.12388603531779,5.30446017290082,FALSE,4.78546353595877
"CAN","cpi",0.3,1973,3,1972,NA,1,4.44104827515131,5.404472440694,7.12388603531779,4.92276035792265,FALSE,5.87603443589638
"CAN","cpi",0.3,1973,3,1972,NA,1.5,0.0138609906187996,3.56989659086526,7.12388603531779,1.79187879074203,FALSE,13.7102911558251
"CAN","cpi",0.3,1974,3,1974,NA,0,10.0503797713353,10.2474426489667,10.2717243737774,10.148911210151,FALSE,0.266439234233433
"CAN","cpi",0.3,1974,3,1974,NA,0.5,7.42275080967915,8.38617497522184,10.2717243737774,7.90446289245049,FALSE,6.35070816141577
"CAN","cpi",0.3,1974,3,1973,NA,1,6.82304888479474,7.78647305033743,10.2717243737774,7.30476096756609,FALSE,8.06414223251408
"CAN","cpi",0.3,1974,3,1973,NA,1.5,0.678682395493143,4.45397579618066,10.2717243737774,2.5663290958369,FALSE,20.3974321938211
"CAN","cpi",0.3,1975,3,1975,NA,0,10.0761256715636,10.273188549195,10.0232981493341,10.1746571103793,FALSE,0.347998655429812
"CAN","cpi",0.3,1975,3,1975,NA,0.5,7.45695453723487,8.68609160105443,10.0232981493341,8.07152306914465,FALSE,5.04972720176155
"CAN","cpi",0.3,1975,3,1974,NA,1,7.15459325576933,8.48296241561347,10.0232981493341,7.8187778356914,FALSE,5.72932839904599
"CAN","cpi",0.3,1975,3,1974,NA,1.5,1.64701710259546,5.65126839141325,10.0232981493341,3.64914274700436,FALSE,16.4957648828774
"CAN","cpi",0.3,1976,3,1976,NA,0,7.07037773003833,7.30952513083777,7.22784311401172,7.18995143043805,TRUE,0.239147400799434
"CAN","cpi",0.3,1976,3,1976,NA,0.5,5.91310043156102,7.31356685414514,7.22784311401172,6.61333364285308,TRUE,1.40046642258413
"CAN","cpi",0.3,1976,3,1975,NA,1,7.88473786461093,9.28520428719506,7.22784311401172,8.584971075903,FALSE,3.27730856715332
"CAN","cpi",0.3,1976,3,1975,NA,1.5,0.631043619517499,5.66372778039432,7.22784311401172,3.14738569995591,FALSE,9.50158511406939
"CAN","cpi",0.3,1977,3,1977,NA,0,7.38219574463974,7.62134314543917,7.58101410153764,7.50176944503946,TRUE,0.239147400799434
"CAN","cpi",0.3,1977,3,1977,NA,0.5,5.7912069171101,7.02022585942737,7.58101410153764,6.40571638826874,FALSE,2.83127106263233
"CAN","cpi",0.3,1977,3,1976,NA,1,3.38490828084807,4.71327744069221,7.58101410153764,4.04909286077014,FALSE,9.52190247654537
"CAN","cpi",0.3,1977,3,1976,NA,1.5,-0.22024877063731,5.40890372518715,7.58101410153764,2.59432747727492,FALSE,11.8351821425402
"CAN","cpi",0.3,1978,3,1978,NA,0,8.47147477344178,8.71062217424121,8.50208927062595,8.59104847384149,TRUE,0.239147400799432
"CAN","cpi",0.3,1978,3,1978,NA,0.5,6.64090587604288,8.04137229862701,8.50208927062595,7.34113908733495,FALSE,2.71680062829537
"CAN","cpi",0.3,1978,3,1977,NA,1,5.17879547388945,6.57926189647357,8.50208927062595,5.87902868518151,FALSE,6.89425892016234
"CAN","cpi",0.3,1978,3,1977,NA,1.5,1.07835861050991,6.70751110633437,8.50208927062595,3.89293485842214,FALSE,10.7565186795147
"CAN","cpi",0.3,1979,3,1979,NA,0,8.38798266262205,8.58504554025348,8.65147652410481,8.48651410143776,FALSE,0.386865688635236
"CAN","cpi",0.3,1979,3,1979,NA,0.5,6.76163425935667,8.16210068194079,8.65147652410481,7.46186747064873,FALSE,2.79868311448132
"CAN","cpi",0.3,1979,3,1978,NA,1,6.23662737250462,7.63709379508875,8.65147652410481,6.93686058379669,FALSE,4.29870279120145
"CAN","cpi",0.3,1979,3,1978,NA,1.5,0.801569061723992,7.0343729792216,8.65147652410481,3.9179710204728,FALSE,10.8530997600211
"CAN","cpi",0.3,1980,3,1980,NA,0,9.33857984273647,9.5356427203679,9.5171912664748,9.43711128155219,TRUE,0.197062877631435
"CAN","cpi",0.3,1980,3,1980,NA,0.5,6.9505658923412,8.83231563737582,9.5171912664748,7.89144076485851,FALSE,3.83853725674599
"CAN","cpi",0.3,1980,3,1979,NA,1,4.75300307460073,6.63475281963534,9.5171912664748,5.69387794711803,FALSE,10.1172881645759
"CAN","cpi",0.3,1980,3,1979,NA,1.5,0.191533068511571,8.35244789662319,9.5171912664748,4.27199048256738,FALSE,11.4887530276876
"CAN","cpi",0.3,1981,3,1981,NA,0,11.5285795559385,11.7064979623696,11.5813425032741,11.617538759154,TRUE,0.177918406431093
"CAN","cpi",0.3,1981,3,1981,NA,0.5,10.1428757267997,12.4647760933817,11.5813425032741,11.3038259100907,TRUE,2.321900366582
"CAN","cpi",0.3,1981,3,1980,NA,1,6.87209676401316,9.58635268779572,11.5813425032741,8.22922472590444,FALSE,8.41422682514946
"CAN","cpi",0.3,1981,3,1980,NA,1.5,0.407907984558072,8.68845936637435,11.5813425032741,4.54818367546621,FALSE,16.5459317729585
"CAN","cpi",0.3,1982,3,1982,NA,0,10.1063172274122,10.2664771972575,10.1124203763629,10.1863972123348,TRUE,0.160159969845221
"CAN","cpi",0.3,1982,3,1982,NA,0.5,8.21916571838864,10.5410660849706,10.1124203763629,9.38011590167964,TRUE,2.321900366582
"CAN","cpi",0.3,1982,3,1981,NA,1,7.21313365471892,10.6423655353352,10.1124203763629,8.92774959502704,TRUE,3.42923188061625
"CAN","cpi",0.3,1982,3,1981,NA,1.5,3.04772619721076,12.2660350216184,10.1124203763629,7.65688060941457,TRUE,9.21830882440761
"CAN","cpi",0.3,1983,3,1983,NA,0,5.71306984287297,5.87155915586935,5.67091787896303,5.79231449937116,FALSE,0.278923495596202
"CAN","cpi",0.3,1983,3,1983,NA,0.5,3.75307302484333,5.22563671016744,5.67091787896303,4.48935486750539,FALSE,2.74479559616866
"CAN","cpi",0.3,1983,3,1982,NA,1,4.96899249631779,8.39822437693404,5.67091787896303,6.68360843662591,TRUE,3.42923188061625
"CAN","cpi",0.3,1983,3,1982,NA,1.5,1.19577495124048,10.4140837756481,5.67091787896303,5.80492936344428,TRUE,9.21830882440761
"CAN","cpi",0.3,1984,3,1984,NA,0,4.10709958129622,4.26558889429259,4.19799576814029,4.1863442377944,TRUE,0.158489312996371
"CAN","cpi",0.3,1984,3,1984,NA,0.5,3.21273900706115,5.53463937364315,4.19799576814029,4.37368919035215,TRUE,2.321900366582
"CAN","cpi",0.3,1984,3,1983,NA,1,3.11062391832527,6.53985579894152,4.19799576814029,4.8252398586334,TRUE,3.42923188061625
"CAN","cpi",0.3,1984,3,1983,NA,1.5,-2.97263591125277,6.24567291315484,4.19799576814029,1.63651850095104,TRUE,9.21830882440761
"CAN","cpi",0.3,1985,3,1985,NA,0,3.80091279816289,3.94886647010668,3.86444262005169,3.87488963413478,TRUE,0.147953671943792
"CAN","cpi",0.3,1985,3,1985,NA,0.5,2.93724012699943,4.40184907636605,3.86444262005169,3.66954460168274,TRUE,1.46460894936662
"CAN","cpi",0.3,1985,3,1984,NA,1,1.16048118037403,3.87473710415659,3.86444262005169,2.51760914226531,TRUE,2.71425592378256
"CAN","cpi",0.3,1985,3,1984,NA,1.5,-1.33576818402795,6.82514664408366,3.86444262005169,2.74468923002786,TRUE,8.16091482811161
"CAN","cpi",0.3,1986,3,1986,NA,0,4.05220212663411,4.12798549378144,4.08685396749431,4.09009381020777,TRUE,0.0757833671473325
"CAN","cpi",0.3,1986,3,1986,NA,0.5,3.57416796536165,4.80318690767892,4.08685396749431,4.18867743652029,TRUE,1.22901894231727
"CAN","cpi",0.3,1986,3,1985,NA,1,1.61663188915997,4.31029884473274,4.08685396749431,2.96346536694636,TRUE,2.69366695557277
"CAN","cpi",0.3,1986,3,1985,NA,1.5,0.0949778778329877,5.21793241221149,4.08685396749431,2.65645514502224,TRUE,5.1229545343785
"CAN","cpi",0.3,1987,3,1987,NA,0,4.26763123331407,4.34002374507383,4.23980729277887,4.30382748919395,FALSE,0.151889484717465
"CAN","cpi",0.3,1987,3,1987,NA,0.5,3.32993385041213,3.884967036779,4.23980729277887,3.60745044359556,FALSE,1.56886248922365
"CAN","cpi",0.3,1987,3,1986,NA,1,2.30487316142474,4.67421472409654,4.23980729277887,3.48954394276064,TRUE,2.3693415626718
"CAN","cpi",0.3,1987,3,1986,NA,1.5,0.595076381278644,5.5061559151754,4.23980729277887,3.05061614822702,TRUE,4.91107953389676
"CAN","cpi",0.3,1988,3,1988,NA,0,3.93031575286981,4.00270826462957,3.92899537638065,3.96651200874969,FALSE,0.0761650160144813
"CAN","cpi",0.3,1988,3,1988,NA,0.5,2.99836775244872,3.55340093881559,3.92899537638065,3.27588434563216,FALSE,1.62816015083848
"CAN","cpi",0.3,1988,3,1987,NA,1,2.24218993183476,4.48896713293067,3.92899537638065,3.36557853238272,TRUE,2.2467772010959
"CAN","cpi",0.3,1988,3,1987,NA,1.5,0.798507837412862,3.65930548235701,3.92899537638065,2.22890665988493,FALSE,3.63134019929743
"CAN","cpi",0.3,1989,3,1989,NA,0,4.92604496657129,4.99843747833106,4.82821664544208,4.96224122245117,FALSE,0.351902000700381
"CAN","cpi",0.3,1989,3,1989,NA,0.5,3.87494522444334,4.42997841081021,4.82821664544208,4.15246181762677,FALSE,1.6928567138865
"CAN","cpi",0.3,1989,3,1988,NA,1,2.33792721007697,4.36330832540273,4.82821664544208,3.35061776773985,FALSE,3.35369060115247
"CAN","cpi",0.3,1989,3,1988,NA,1.5,0.602533283886217,3.46333092883036,4.82821664544208,2.03293210635829,FALSE,6.76047112097762
"CAN","cpi",0.3,1990,3,1990,NA,0,4.45497106870416,4.52736358046392,4.64347549432717,4.49116732458404,FALSE,0.404140837083326
"CAN","cpi",0.3,1990,3,1990,NA,0.5,4.52883474581798,5.08386793218485,4.64347549432717,4.80635133900141,TRUE,0.555033186366863
"CAN","cpi",0.3,1990,3,1989,NA,1,3.44063874759914,5.46601986292489,4.64347549432717,4.45332930526201,TRUE,2.02538111532575
"CAN","cpi",0.3,1990,3,1989,NA,1.5,1.50954261049724,4.37034025544139,4.64347549432717,2.93994143296931,FALSE,3.64118404176067
"CAN","cpi",0.3,1991,3,1991,NA,0,5.56044527924322,5.63283779100299,5.4258100696218,5.5966415351231,FALSE,0.457064539249557
"CAN","cpi",0.3,1991,3,1991,NA,0.5,7.84756242178684,8.23735845852475,5.4258100696218,8.0424604401558,FALSE,7.30908847149519
"CAN","cpi",0.3,1991,3,1990,NA,1,2.25740050388049,3.75792720391696,5.4258100696218,3.00766385389873,FALSE,6.265906316336
"CAN","cpi",0.3,1991,3,1990,NA,1.5,1.9942144050373,4.85501204998144,5.4258100696218,3.42461322750937,FALSE,4.49164912963088
"CAN","cpi",0.3,1992,3,1992,NA,0,1.42498675361628,1.49737926537604,1.47496888572843,1.46118300949616,TRUE,0.0723925117597624
"CAN","cpi",0.3,1992,3,1992,NA,0.5,1.04307015721575,1.43286619395365,1.47496888572843,1.2379681755847,FALSE,0.510089441808712
"CAN","cpi",0.3,1992,3,1991,NA,1,1.12207317912787,2.62259987916433,1.47496888572843,1.8723365291461,TRUE,1.50052670003647
"CAN","cpi",0.3,1992,3,1991,NA,1.5,5.4689381459173,8.32973579086145,1.47496888572843,6.89933696838937,FALSE,14.2721383883409
"CAN","cpi",0.3,1993,3,1993,NA,0,1.78841979932676,1.81599155179131,1.84351085411351,1.80220567555903,FALSE,0.106198330527994
"CAN","cpi",0.3,1993,3,1993,NA,0.5,2.0232869639245,2.41308300066241,1.84351085411351,2.21818498229346,FALSE,0.903442064769308
"CAN","cpi",0.3,1993,3,1992,NA,1,0.72479890138809,1.97928708237431,1.84351085411351,1.3520429918812,TRUE,1.25448818098622
"CAN","cpi",0.3,1993,3,1992,NA,1.5,-0.496913335135213,2.36388430980893,1.84351085411351,0.933485487336859,TRUE,2.86079764494414
"CAN","cpi",0.3,1994,3,1994,NA,0,0.188323781254916,0.215895533719467,0.161630694655448,0.202109657487191,FALSE,0.103837714177317
"CAN","cpi",0.3,1994,3,1994,NA,0.5,-0.76753772583173,-0.377741689093825,0.161630694655448,-0.572639707462777,FALSE,1.93085999030725
"CAN","cpi",0.3,1994,3,1993,NA,1,0.57768848677042,1.7045221747663,0.161630694655448,1.14110533076836,FALSE,2.3155702368958
"CAN","cpi",0.3,1994,3,1993,NA,1.5,0.461043478407383,2.83942576751108,0.161630694655448,1.65023462295923,FALSE,3.2338473855378
"CAN","cpi",0.3,1995,3,1995,NA,0,2.13472661889086,2.16229837135541,2.11688403676572,2.14851249512314,FALSE,0.0785505585363962
"CAN","cpi",0.3,1995,3,1995,NA,0.5,2.40582641472348,2.79562245146138,2.11688403676572,2.60072443309243,FALSE,1.21534568804579
"CAN","cpi",0.3,1995,3,1994,NA,1,0.870322882423973,1.99715657041985,2.11688403676572,1.43373972642191,FALSE,1.46891216326978
"CAN","cpi",0.3,1995,3,1994,NA,1.5,-2.69651215671785,0.164285488226299,2.11688403676572,-1.26611333424577,FALSE,8.43965064077105
"CAN","cpi",0.3,1996,3,1996,NA,0,1.40502424589296,1.46828116260781,1.55309584667184,1.43665270425039,FALSE,0.305584585469233
"CAN","cpi",0.3,1996,3,1996,NA,0.5,0.995762593506633,1.4697640137941,1.55309584667184,1.23276330365037,FALSE,0.712092371366728
"CAN","cpi",0.3,1996,3,1995,NA,1,0.166336415395976,1.29317010339185,1.55309584667184,0.729753259393914,FALSE,1.86947866879585
"CAN","cpi",0.3,1996,3,1995,NA,1.5,0.888649569393363,3.74944721433751,1.55309584667184,2.31904839186543,TRUE,2.86079764494414
"CAN","cpi",0.3,1997,3,1997,NA,0,1.64197815486692,1.71701141960499,1.60528783555959,1.67949478723595,FALSE,0.179862748473294
"CAN","cpi",0.3,1997,3,1997,NA,0.5,1.61258737796259,2.25325246400555,1.60528783555959,1.93291992098407,FALSE,0.661520921480102
"CAN","cpi",0.3,1997,3,1996,NA,1,0.0512136076230156,1.17804729561889,1.60528783555959,0.614630451620954,FALSE,2.3475209449693
"CAN","cpi",0.3,1997,3,1996,NA,1.5,-0.468237258273199,2.39256038667094,1.60528783555959,0.962161564198873,TRUE,2.86079764494414
"CAN","cpi",0.3,1998,3,1998,NA,0,0.926584717556048,1.00754264321954,0.988908029337191,0.967063680387792,TRUE,0.0809579256634874
"CAN","cpi",0.3,1998,3,1998,NA,0.5,1.02134251323889,1.67660668408785,0.988908029337191,1.34897459866337,FALSE,0.747934124853808
"CAN","cpi",0.3,1998,3,1997,NA,1,0.22927311524819,1.35610680324407,0.988908029337191,0.792689959246129,TRUE,1.12683368799588
"CAN","cpi",0.3,1998,3,1997,NA,1.5,0.0946488592176147,2.47303114832131,0.988908029337191,1.28384000376946,TRUE,2.3783822891037
"CAN","cpi",0.3,1999,3,1999,NA,0,1.73112970657701,1.80616297131507,1.7107350135213,1.76864633894604,FALSE,0.13330381632581
"CAN","cpi",0.3,1999,3,1999,NA,0.5,0.404467625176052,1.05973179602501,1.7107350135213,0.732099710600531,FALSE,2.51527336369549
"CAN","cpi",0.3,1999,3,1998,NA,1,-0.122415290272684,0.860520434191943,1.7107350135213,0.369052571959629,FALSE,3.41212023683421
"CAN","cpi",0.3,1999,3,1998,NA,1.5,0.358444703454641,2.17849543700795,1.7107350135213,1.26847007023129,TRUE,1.82005073355331
"CAN","cpi",0.3,2000,3,2000,NA,0,2.6620991439086,2.74305706957209,2.6718361971244,2.70257810674034,TRUE,0.0809579256634878
"CAN","cpi",0.3,2000,3,2000,NA,0.5,1.63185097338428,2.28711514423324,2.6718361971244,1.95948305880876,FALSE,1.75446717910942
"CAN","cpi",0.3,2000,3,1999,NA,1,1.67007875762767,2.6530144820923,2.6718361971244,2.16154661985999,FALSE,1.03671205312777
"CAN","cpi",0.3,2000,3,1999,NA,1.5,-0.263168667129831,1.26873642325735,2.6718361971244,0.50278387806376,FALSE,5.54076158715018
"CAN","cpi",0.3,2001,3,2001,NA,0,2.69991703550345,2.76317395221829,2.47906219852806,2.73154549386087,FALSE,0.694270736644516
"CAN","cpi",0.3,2001,3,2001,NA,0.5,1.33098619721478,1.98625036806374,2.47906219852806,1.65861828263926,FALSE,2.0632979721756
"CAN","cpi",0.3,2001,3,2000,NA,1,2.34987109565755,3.33280682012218,2.47906219852806,2.84133895788986,TRUE,0.982935724464627
"CAN","cpi",0.3,2001,3,2000,NA,1.5,0.375960999286099,1.90786608967328,2.47906219852806,1.14191354447969,FALSE,3.16389397282941
"CAN","cpi",0.3,2002,3,2002,NA,0,2.28119681629461,2.34445373300946,2.20880570551249,2.31282527465204,FALSE,0.270088661806636
"CAN","cpi",0.3,2002,3,2002,NA,0.5,0.887252917014752,1.60738605566711,2.20880570551249,1.24731948634093,FALSE,2.43847499535344
"CAN","cpi",0.3,2002,3,2001,NA,1,0.204023678654561,1.18695940311919,2.20880570551249,0.695491540886875,FALSE,3.90249658844548
"CAN","cpi",0.3,2002,3,2001,NA,1.5,-0.289890926372252,1.24201416401493,2.20880570551249,0.47606161882134,FALSE,4.29416663752305
"CAN","cpi",0.3,2003,3,2003,NA,0,2.72297551442083,2.78623243113567,2.71189071546809,2.75460397277825,FALSE,0.0949277708655216
"CAN","cpi",0.3,2003,3,2003,NA,0.5,3.80090313859809,4.52103627725044,2.71189071546809,4.16096970792426,FALSE,3.83159720473806
"CAN","cpi",0.3,2003,3,2002,NA,1,2.78645121965239,3.76938694411702,2.71189071546809,3.27791908188471,FALSE,1.19596573641978
"CAN","cpi",0.3,2003,3,2002,NA,1.5,0.752347582375416,2.2842526727626,2.71189071546809,1.51830012756901,FALSE,2.75372806954573
"CAN","cpi",0.3,2004,3,2004,NA,0,1.72105207618764,1.80201000185113,1.83151661303942,1.76153103901938,FALSE,0.165262529058618
"CAN","cpi",0.3,2004,3,2004,NA,0.5,1.01478191662577,1.76413017298566,1.83151661303942,1.38945604480572,FALSE,0.941880942227779
"CAN","cpi",0.3,2004,3,2003,NA,1,0.508456614331559,1.52903576886039,1.83151661303942,1.01874619159597,FALSE,1.8848101378975
"CAN","cpi",0.3,2004,3,2003,NA,1.5,2.22510104585052,3.7570061362377,1.83151661303942,2.99105359104411,FALSE,2.65643204127602
"CAN","cpi",0.3,2005,3,2005,NA,0,2.31014584859142,2.39110377425491,2.18071628336509,2.35062481142317,FALSE,0.45075668345301
"CAN","cpi",0.3,2005,3,2005,NA,0.5,1.0132231529966,1.89734428946401,2.18071628336509,1.4552837212303,FALSE,1.69375540475622
"CAN","cpi",0.3,2005,3,2004,NA,1,0.230458345607152,1.36251507844039,2.18071628336509,0.79648671202377,FALSE,3.46977446118953
"CAN","cpi",0.3,2005,3,2004,NA,1.5,0.37085696831438,1.90276205870156,2.18071628336509,1.13680951350797,FALSE,2.32606001799726
"CAN","cpi",0.3,2006,3,2006,NA,0,2.02176716593335,2.10719368055367,1.97519342012289,2.06448042324351,FALSE,0.218494359793086
"CAN","cpi",0.3,2006,3,2006,NA,0.5,1.32867257296835,2.21279370943576,1.97519342012289,1.77073314120205,TRUE,0.884121136467411
"CAN","cpi",0.3,2006,3,2005,NA,1,2.02205368077279,3.15411041360603,1.97519342012289,2.58808204718941,FALSE,1.26594319183297
"CAN","cpi",0.3,2006,3,2005,NA,1.5,-0.00387727627686374,1.52802781411032,1.97519342012289,0.762075268916728,FALSE,2.80952110756594
"CAN","cpi",0.3,2007,3,2007,NA,0,2.05016207965503,2.16598473050451,2.10062087284572,2.10807340507977,TRUE,0.115822650849487
"CAN","cpi",0.3,2007,3,2007,NA,0.5,1.73753614492057,2.45766928357293,2.10062087284572,2.09760271424675,TRUE,0.720133138652353
"CAN","cpi",0.3,2007,3,2006,NA,1,-0.127165907792746,1.00489082504049,2.10062087284572,0.438862458623872,FALSE,4.26271401227676
"CAN","cpi",0.3,2007,3,2006,NA,1.5,0.314939432558656,1.84684452294584,2.10062087284572,1.08089197775225,FALSE,2.25698037581542
"CAN","cpi",0.3,2008,3,2008,NA,0,2.87195427650154,2.95738079112185,2.31447335265955,2.9146675338117,FALSE,1.67822915416885
"CAN","cpi",0.3,2008,3,2008,NA,0.5,0.685560882891476,1.40569402154383,2.31447335265955,1.04562745221765,FALSE,3.3166455132687
"CAN","cpi",0.3,2008,3,2007,NA,1,-0.200998186030445,0.931058546802791,2.31447335265955,0.365030180386173,FALSE,5.08467046385255
"CAN","cpi",0.3,2008,3,2007,NA,1.5,1.02134499942787,3.06080278961482,2.31447335265955,2.04107389452134,TRUE,2.03945779018695
"CAN","cpi",0.3,2009,3,2009,NA,0,0.22990557890627,0.315332093526588,0.284533874408197,0.272618836216429,TRUE,0.0854265146203179
"CAN","cpi",0.3,2009,3,2009,NA,0.5,-1.24948690675174,-0.36536577028433,0.284533874408197,-0.807426338518035,FALSE,2.74097726416035
"CAN","cpi",0.3,2009,3,2008,NA,1,2.71752858123324,3.84958531406647,0.284533874408197,3.28355694764985,FALSE,8.08347018090477
"CAN","cpi",0.3,2009,3,2008,NA,1.5,-0.316351939854562,1.72310585033239,0.284533874408197,0.703376955238912,TRUE,2.03945779018695
"CAN","cpi",0.3,2010,3,2010,NA,0,1.68436710669658,1.76979362131689,1.75525687020327,1.72708036400674,TRUE,0.0854265146203179
"CAN","cpi",0.3,2010,3,2010,NA,0.5,0.759811779290577,2.08505354467274,1.75525687020327,1.42243266198166,TRUE,1.32524176538216
"CAN","cpi",0.3,2010,3,2009,NA,1,-0.146791445611623,1.17845031977054,1.75525687020327,0.515829437079458,FALSE,2.97326048090425
"CAN","cpi",0.3,2010,3,2009,NA,1.5,-1.68612852710027,0.353329263086682,1.75525687020327,-0.666399632006793,FALSE,6.04496523909149
"CAN","cpi",0.3,2011,3,2011,NA,0,2.79796927766754,2.85945309689943,2.85717434028225,2.82871118728348,TRUE,0.0614838192318894
"CAN","cpi",0.3,2011,3,2011,NA,0.5,2.15099589121672,3.03511702768413,2.85717434028225,2.59305645945043,TRUE,0.884121136467411
"CAN","cpi",0.3,2011,3,2010,NA,1,0.969059866054924,2.19483712018797,2.85717434028225,1.58194849312145,FALSE,3.11816931154526
"CAN","cpi",0.3,2011,3,2010,NA,1.5,-0.0352444522798798,2.05256908743436,2.85717434028225,1.00866231757724,FALSE,4.3866856907082
"CAN","cpi",0.3,2012,3,2012,NA,0,1.43835436145501,1.49528066745254,1.50118536134935,1.46681751445377,FALSE,0.0737968599884148
"CAN","cpi",0.3,2012,3,2012,NA,0.5,1.30584176238594,1.97149017882917,1.50118536134935,1.63866597060755,TRUE,0.665648416443227
"CAN","cpi",0.3,2012,3,2011,NA,1,0.0354701275439822,1.66101097043088,1.50118536134935,0.848240548987433,TRUE,1.6255408428869
"CAN","cpi",0.3,2012,3,2011,NA,1.5,0.639936222028027,2.72774976174227,1.50118536134935,1.68384299188515,TRUE,2.08781353971424
"CAN","cpi",0.3,2013,3,2013,NA,0,1.00236800114251,1.05929430714004,0.931270594714462,1.03083115414128,FALSE,0.260061752934818
"CAN","cpi",0.3,2013,3,2013,NA,0.5,0.737722751133439,1.26595851279708,0.931270594714462,1.00184063196526,TRUE,0.528235761663638
"CAN","cpi",0.3,2013,3,2012,NA,1,-1.08531641231584,0.540224430571064,0.931270594714462,-0.272545990872386,FALSE,2.74281559758232
"CAN","cpi",0.3,2013,3,2012,NA,1.5,-0.0611200909574037,1.97833769922955,0.931270594714462,0.958608804136071,TRUE,2.03945779018695
"CAN","cpi",0.3,2014,3,2014,NA,0,1.95766963210825,2.01459593810578,1.87639912240215,1.98613278510701,FALSE,0.289127762300672
"CAN","cpi",0.3,2014,3,2014,NA,0.5,1.74777857231718,2.15669913015885,1.87639912240215,1.95223885123801,TRUE,0.408920557841666
"CAN","cpi",0.3,2014,3,2013,NA,1,0.0728519361467638,1.30446543842093,1.87639912240215,0.688658687283847,FALSE,2.86570974222051
"CAN","cpi",0.3,2014,3,2013,NA,1.5,0.275787448747418,1.50740095102158,1.87639912240215,0.891594199884501,FALSE,2.28589399193293
"CAN","cpi",0.3,2015,3,2015,NA,0,1.21795551077377,1.2748818167713,1.11090953952792,1.24641866377254,FALSE,0.362771938128552
"CAN","cpi",0.3,2015,3,2015,NA,0.5,0.0606365528314897,0.335597771347906,1.11090953952792,0.198117162089698,FALSE,2.49013769903073
"CAN","cpi",0.3,2015,3,2014,NA,1,-0.271185685377743,1.33539783057128,1.11090953952792,0.532106072596766,TRUE,1.60658351594902
"CAN","cpi",0.3,2015,3,2014,NA,1.5,1.00706744437817,2.61365096032719,1.11090953952792,1.81035920235268,TRUE,1.60658351594902
"CAN","cpi",0.3,2016,3,2016,NA,0,1.41338642094712,1.47031272694465,1.41168586698797,1.44184957394589,FALSE,0.0617850315951253
"CAN","cpi",0.3,2016,3,2016,NA,0.5,0.705619438147914,0.98058065666433,1.41168586698797,0.843100047406122,FALSE,1.50669039086966
"CAN","cpi",0.3,2016,3,2015,NA,1,0.43155677972822,2.03814029567724,1.41168586698797,1.23484853770273,TRUE,1.60658351594902
"CAN","cpi",0.3,2016,3,2015,NA,1.5,-0.695829005797227,0.910754510151792,1.41168586698797,0.107462752177283,FALSE,3.03781596405237
"CAN","cpi",0.3,2017,3,2017,NA,0,1.48893610339797,1.5458624093955,1.57888581671161,1.51739925639673,FALSE,0.151278898329281
"CAN","cpi",0.3,2017,3,2017,NA,0.5,1.74422208352066,2.01918330203708,1.57888581671161,1.88170269277887,FALSE,0.747350552256566
"CAN","cpi",0.3,2017,3,2016,NA,1,-0.11755559984107,0.954232293351559,1.57888581671161,0.418338346755244,FALSE,2.85651224564992
"CAN","cpi",0.3,2017,3,2016,NA,1.5,-0.010317859259024,1.0614700339336,1.57888581671161,0.52557608733729,FALSE,2.55011870112979
"CAN","cpi",0.3,2018,3,2018,NA,0,2.37765063285278,2.43457693885031,2.23316270166586,2.40611378585155,FALSE,0.4697489665316
"CAN","cpi",0.3,2018,3,2018,NA,0.5,2.48458959898383,2.75955081750025,2.23316270166586,2.62207020824204,FALSE,0.993323782282052
"CAN","cpi",0.3,2018,3,2017,NA,1,-0.385582174787371,1.19380837599971,2.23316270166586,0.40411310060617,FALSE,4.54897433840465
"CAN","cpi",0.3,2018,3,2017,NA,1.5,0.748179971755724,2.32757052254281,2.23316270166586,1.53787524714926,TRUE,1.57939055078708
"CAN","cpi",0.3,2019,3,2019,NA,0,1.98126469199331,2.04159210590916,1.91921619871868,2.01142839895124,FALSE,0.237608823271942
"CAN","cpi",0.3,2019,3,2019,NA,0.5,1.25471919957404,1.78295496123768,1.91921619871868,1.51883708040586,FALSE,0.917553583037927
"CAN","cpi",0.3,2019,3,2018,NA,1,0.629734565624943,2.20912511641203,1.91921619871868,1.41942984101848,TRUE,1.57939055078708
"CAN","cpi",0.3,2019,3,2018,NA,1.5,1.27135643550658,2.85074698629366,1.91921619871868,2.06105171090012,TRUE,1.57939055078708
"CAN","cpi",0.3,2020,3,2020,NA,0,0.696016145833151,0.756343559748998,0.71139989671781,0.726179852791075,TRUE,0.0603274139158465
"CAN","cpi",0.3,2020,3,2020,NA,0.5,0.808141569648705,1.33637733131234,0.71139989671781,1.07225945048052,FALSE,0.804640541466193
"CAN","cpi",0.3,2020,3,2019,NA,1,0.483245696681751,1.55503358987438,0.71139989671781,1.01913964327806,TRUE,1.07178789319263
"CAN","cpi",0.3,2020,3,2019,NA,1.5,0.691722506908868,1.7635104001015,0.71139989671781,1.22761645350518,TRUE,1.07178789319263
"CAN","cpi",0.3,2021,3,2021,NA,0,3.27972382495099,3.34005123886684,3.31148121717802,3.30988753190892,TRUE,0.0603274139158465
"CAN","cpi",0.3,2021,3,2021,NA,0.5,2.22578619782888,2.75402195949252,3.31148121717802,2.4899040786607,FALSE,2.12097649790793
"CAN","cpi",0.3,2021,3,2020,NA,1,0.650396692673843,1.74541671639237,3.31148121717802,1.1979067045331,FALSE,5.56949002596326
"CAN","cpi",0.3,2021,3,2020,NA,1.5,0.123116799131391,1.21813682284991,3.31148121717802,0.670626810990653,FALSE,7.07600400751312
"CAN","cpi",0.3,2022,3,2022,NA,0,6.51539418483064,6.57572159874648,6.50977236228281,6.54555789178856,FALSE,0.0763897640524971
"CAN","cpi",0.3,2022,3,2022,NA,0.5,5.70057210523021,6.22880786689385,6.50977236228281,5.96468998606203,FALSE,1.33099146277496
"CAN","cpi",0.3,2022,3,2021,NA,1,2.87354263637055,3.96856266008907,6.50977236228281,3.42105264822981,FALSE,8.3556191728435
"CAN","cpi",0.3,2022,3,2021,NA,1.5,1.38525264698036,2.48027267069888,6.50977236228281,1.93276265883962,FALSE,12.6078762853869
"CAN","cpi",0.3,2023,3,2023,NA,0,3.9375190055476,4.00625469933875,3.78831288758619,3.97188685244318,FALSE,0.495038887966605
"CAN","cpi",0.3,2023,3,2023,NA,0.5,2.53638322747904,3.14201697961356,3.78831288758619,2.8392001035463,FALSE,2.45219348919919
"CAN","cpi",0.3,2023,3,2022,NA,1,2.32133990303832,3.41635992675685,3.78831288758619,2.86884991489758,FALSE,2.15774276894522
"CAN","cpi",0.3,2023,3,2022,NA,1.5,3.48566246329983,4.58068248701836,3.78831288758619,4.03317247515909,TRUE,1.09502002371852
"CAN","cpi",0.3,2024,3,2023,NA,1,2.35195752993435,3.44697755365288,NA,2.89946754179362,NA,NA
"CAN","cpi",0.3,2024,3,2023,NA,1.5,0.632406505962246,1.72742652968077,NA,1.17991651782151,NA,NA
"CAN","cpi",0.4,1959,3,1959,NA,0,1.09418001869664,1.28491196432689,1.19382698397654,1.18954599151176,TRUE,0.190731945630248
"CAN","cpi",0.4,1959,3,1959,NA,0.5,-0.240829581265275,1.33144623558712,1.19382698397654,0.545308327160925,TRUE,1.5722758168524
"CAN","cpi",0.4,1959,3,1958,NA,1,-0.160858887799568,2.42676117278049,1.19382698397654,1.13295114249046,TRUE,2.58762006058006
"CAN","cpi",0.4,1959,3,1958,NA,1.5,-1.40386164790507,2.83870582406365,1.19382698397654,0.717422088079289,TRUE,4.24256747196872
"CAN","cpi",0.4,1960,3,1960,NA,0,0.952922147920297,1.09430393726925,1.34209404870695,1.02361304259477,FALSE,0.967348827474631
"CAN","cpi",0.4,1960,3,1960,NA,0.5,-0.137526900712543,1.43474891613986,1.34209404870695,0.648611007713657,TRUE,1.5722758168524
"CAN","cpi",0.4,1960,3,1959,NA,1,1.19464794507392,3.5586895186388,1.34209404870695,2.37666873185636,TRUE,2.36404157356487
"CAN","cpi",0.4,1960,3,1959,NA,1.5,-2.31464399277155,1.616459633637,1.34209404870695,-0.349092179567277,TRUE,3.93110362640855
"CAN","cpi",0.4,1961,3,1961,NA,0,0.938522586265597,1.07990437561455,1.00921348094007,1.00921348094007,TRUE,0.14138178934895
"CAN","cpi",0.4,1961,3,1961,NA,0.5,0.223075572513872,1.79535138936627,1.00921348094007,1.00921348094007,TRUE,1.5722758168524
"CAN","cpi",0.4,1961,3,1960,NA,1,-0.980804220545876,1.08834514575294,1.00921348094007,0.0537704626035329,TRUE,2.06914936629882
"CAN","cpi",0.4,1961,3,1960,NA,1.5,-2.26415622925841,1.59952345694562,1.00921348094007,-0.332316386156399,TRUE,3.86367968620403
