isdrw/probabilistic-benchmark-forecasts/results/empirical_quantiles_prediction/empirical_prediction_rw_2026-02-19_11-23-20.csv
"country","target","tau","target_year","target_quarter","forecast_year","forecast_quarter","horizon","lower_bound","upper_bound","truth_value","prediction","covered","IS"
"CAN","cpi",0.1,1959,3,1959,NA,0,1.19080276191694,1.30902156670892,1.19382698397654,1.24991216431293,TRUE,0.118218804791977
"CAN","cpi",0.1,1959,3,1959,NA,0.5,0.126359574811656,0.749319888368998,1.19382698397654,0.437839731590327,FALSE,1.61075385935188
"CAN","cpi",0.1,1959,3,1958,NA,1,1.44714747208079,2.07010778563813,1.19382698397654,1.75862762885946,FALSE,1.18589473156679
"CAN","cpi",0.1,1959,3,1958,NA,1.5,-0.173025087062927,3.72116854133824,1.19382698397654,1.77407172713766,TRUE,3.89419362840116
"CAN","cpi",0.1,1960,3,1960,NA,0,0.965218703269765,1.08200738191978,1.34209404870695,1.02361304259477,FALSE,0.694759049288175
"CAN","cpi",0.1,1960,3,1960,NA,0.5,0.223541525043592,0.854425435319728,1.34209404870695,0.53898348018166,FALSE,1.71459194002552
"CAN","cpi",0.1,1960,3,1959,NA,1,3.51461566956904,4.40057180421981,1.34209404870695,3.95759373689442,FALSE,5.71378195878874
"CAN","cpi",0.1,1960,3,1959,NA,1.5,-2.29232590474235,0.545372273932585,1.34209404870695,-0.873476815404885,FALSE,4.60819101150686
"CAN","cpi",0.1,1961,3,1961,NA,0,0.950819141615065,1.06760782026508,1.00921348094007,1.00921348094007,TRUE,0.116788678650013
"CAN","cpi",0.1,1961,3,1961,NA,0.5,0.693771525802004,1.32465543607814,1.00921348094007,1.00921348094007,TRUE,0.630883910276136
"CAN","cpi",0.1,1961,3,1960,NA,1,-0.38920760472185,0.496748529928916,1.00921348094007,0.0537704626035329,FALSE,2.02476713689778
"CAN","cpi",0.1,1961,3,1960,NA,1.5,-2.2810308882775,0.556667290397434,1.00921348094007,-0.862181798940035,FALSE,3.8433563798808
"CAN","cpi",0.1,1962,3,1962,NA,0,1.04623884697839,1.15840920765117,1.04957947883042,1.10232402731478,TRUE,0.11217036067278
"CAN","cpi",0.1,1962,3,1962,NA,0.5,-0.103473279062765,0.103473279062765,1.04957947883042,0,FALSE,2.30940477983142
"CAN","cpi",0.1,1962,3,1961,NA,1,-0.442978067325383,0.442978067325383,1.04957947883042,0,FALSE,2.23395927132862
"CAN","cpi",0.1,1962,3,1961,NA,1.5,-1.41884908933747,1.41884908933747,1.04957947883042,0,TRUE,2.83769817867494
"CAN","cpi",0.1,1963,3,1963,NA,0,1.86217274682765,1.96766184379638,1.60677118395228,1.91491729531202,FALSE,0.673048125580656
"CAN","cpi",0.1,1963,3,1963,NA,0.5,0.733355435554739,0.940301993680269,1.60677118395228,0.836828714617504,FALSE,1.68798920317445
"CAN","cpi",0.1,1963,3,1962,NA,1,2.12113683682605,3.00709297147682,1.60677118395228,2.56411490415144,FALSE,2.0289909188147
"CAN","cpi",0.1,1963,3,1962,NA,1.5,-1.04957947883042,1.04957947883042,1.60677118395228,0,FALSE,3.33736274682054
"CAN","cpi",0.1,1964,3,1964,NA,0,1.93602801597611,2.04151711294484,1.88764670034376,1.98877256446048,FALSE,0.213003131707294
"CAN","cpi",0.1,1964,3,1964,NA,0.5,1.28021678321331,1.48716334133884,1.88764670034376,1.38369006227607,FALSE,1.09690957813646
"CAN","cpi",0.1,1964,3,1963,NA,1,4.94746483614717,5.83342097079794,1.88764670034376,5.39044290347256,FALSE,7.68555199199169
"CAN","cpi",0.1,1964,3,1963,NA,1.5,-1.04957947883042,1.04957947883042,1.88764670034376,0,FALSE,3.96153056102382
"CAN","cpi",0.1,1965,3,1965,NA,0,2.29282592570562,2.39831502267435,2.29538304394236,2.34557047418999,TRUE,0.105489096968729
"CAN","cpi",0.1,1965,3,1965,NA,0.5,1.50732120050377,1.7142677586293,2.29538304394236,1.61079447956654,FALSE,1.4983138588212
"CAN","cpi",0.1,1965,3,1964,NA,1,1.86038797691555,2.98998926668139,2.29538304394236,2.42518862179847,TRUE,1.12960128976584
"CAN","cpi",0.1,1965,3,1964,NA,1.5,-0.231476926514016,1.86768203114681,2.29538304394236,0.818102552316399,FALSE,3.04960565276204
"CAN","cpi",0.1,1966,3,1966,NA,0,3.76992244838946,3.87029730888472,3.72486065470629,3.82010987863709,FALSE,0.200512179791187
"CAN","cpi",0.1,1966,3,1966,NA,0.5,3.88776070989287,4.0947072680184,3.72486065470629,3.99123398895563,FALSE,0.568946680762375
"CAN","cpi",0.1,1966,3,1965,NA,1,2.76424262013315,3.65019875478392,3.72486065470629,3.20722068745854,FALSE,1.05187146781159
"CAN","cpi",0.1,1966,3,1965,NA,1.5,0.557058767489169,2.65621772515,3.72486065470629,1.60663824631958,FALSE,4.47392102334148
"CAN","cpi",0.1,1967,3,1967,NA,0,3.71750106303869,3.81787592353395,3.49360316391996,3.76768849328632,FALSE,0.597925747425773
"CAN","cpi",0.1,1967,3,1967,NA,0.5,2.30398146513484,2.51092802326037,3.49360316391996,2.4074547441976,FALSE,2.39066909292462
"CAN","cpi",0.1,1967,3,1966,NA,1,2.73805516337745,3.62401129802822,3.49360316391996,3.18103323070284,TRUE,0.885956134650766
"CAN","cpi",0.1,1967,3,1966,NA,1.5,3.60170212604206,5.70086108370289,3.49360316391996,4.65128160487248,FALSE,2.33937887348773
"CAN","cpi",0.1,1968,3,1968,NA,0,4.12269202647633,4.22306688697159,3.95128347779386,4.17287945672396,FALSE,0.481282746456307
"CAN","cpi",0.1,1968,3,1968,NA,0.5,3.96749877873576,4.17444533686129,3.95128347779386,4.07097205779852,FALSE,0.242980560218641
"CAN","cpi",0.1,1968,3,1967,NA,1,5.53264688802136,6.15778675445561,3.95128347779386,5.84521682123848,FALSE,4.13928077805092
"CAN","cpi",0.1,1968,3,1967,NA,1.5,1.20607910357185,3.30523806123268,3.95128347779386,2.25565858240226,FALSE,3.53481543890789
"CAN","cpi",0.1,1969,3,1969,NA,0,4.54501921335855,4.64539407385381,4.42679496126681,4.59520664360618,FALSE,0.363095420699124
"CAN","cpi",0.1,1969,3,1969,NA,0.5,2.86264691489438,3.06959347301991,4.42679496126681,2.96612019395715,FALSE,3.22294986534087
"CAN","cpi",0.1,1969,3,1968,NA,1,6.41230636719095,7.03744623362519,4.42679496126681,6.72487630040807,FALSE,5.03738743515454
"CAN","cpi",0.1,1969,3,1968,NA,1.5,3.26706505061499,5.36622400827582,4.42679496126681,4.31664452944541,TRUE,2.09915895766083
"CAN","cpi",0.1,1970,3,1970,NA,0,3.55742795225163,3.65780281274688,3.28128405769805,3.60761538249925,FALSE,0.714027959503211
"CAN","cpi",0.1,1970,3,1970,NA,0.5,4.24047219421225,4.47984935422158,3.28128405769805,4.36016077421692,FALSE,2.37090635226312
"CAN","cpi",0.1,1970,3,1969,NA,1,4.60112454483423,5.22626441126847,3.28128405769805,4.91369447805135,FALSE,3.55811872673687
"CAN","cpi",0.1,1970,3,1969,NA,1.5,1.49949372967018,2.65998321599241,3.28128405769805,2.07973847283129,FALSE,2.54115802344587
"CAN","cpi",0.1,1971,3,1971,NA,0,2.86854157955575,2.968916440051,2.64123406634756,2.91872900980337,FALSE,0.605502667624555
"CAN","cpi",0.1,1971,3,1971,NA,0.5,1.26388247635841,1.50325963636774,2.64123406634756,1.38357105636307,FALSE,2.76820922663116
"CAN","cpi",0.1,1971,3,1970,NA,1,2.86429617657565,3.4894360430099,2.64123406634756,3.17686610979278,FALSE,1.12083344471889
"CAN","cpi",0.1,1971,3,1970,NA,1.5,3.57108364443234,5.67024260209317,2.64123406634756,4.62066312326275,FALSE,4.16549135340477
"CAN","cpi",0.1,1972,3,1972,NA,0,5.12191949141088,5.22229435190614,4.83230569625923,5.17210692165851,FALSE,0.743961071943372
"CAN","cpi",0.1,1972,3,1972,NA,0.5,4.6425539747848,4.88193113479413,4.83230569625923,4.76224255478946,TRUE,0.23937716000933
"CAN","cpi",0.1,1972,3,1971,NA,1,6.52606504739962,7.15120491383387,4.83230569625923,6.83863498061675,FALSE,4.38904953563512
"CAN","cpi",0.1,1972,3,1971,NA,1.5,0.904832147060224,3.00399110472105,4.83230569625923,1.95441162589064,FALSE,6.16208027219011
"CAN","cpi",0.1,1973,3,1973,NA,0,7.35783370855558,7.46332280552431,7.12388603531779,7.41057825703995,FALSE,0.625372815274936
"CAN","cpi",0.1,1973,3,1973,NA,0.5,6.12222543313242,6.36160259314175,7.12388603531779,6.24191401313708,FALSE,1.93334036484498
"CAN","cpi",0.1,1973,3,1972,NA,1,7.81333890360222,8.43847877003647,7.12388603531779,8.12590883681935,FALSE,2.15725735151077
"CAN","cpi",0.1,1973,3,1972,NA,1.5,3.91172746508181,6.01088642274264,7.12388603531779,4.96130694391223,FALSE,4.57249143005005
"CAN","cpi",0.1,1974,3,1974,NA,0,10.1967311859424,10.387229633804,10.2717243737774,10.2919804098732,TRUE,0.190498447861593
"CAN","cpi",0.1,1974,3,1974,NA,0.5,8.89711044242827,9.1364876024376,10.2717243737774,9.01679902243293,FALSE,2.76212554076449
"CAN","cpi",0.1,1974,3,1973,NA,1,11.195068749258,11.8202086156922,10.2717243737774,11.5076386824751,FALSE,2.67701625639102
"CAN","cpi",0.1,1974,3,1973,NA,1.5,5.88083173816646,8.1961886200715,10.2717243737774,7.03851017911898,FALSE,6.92765855680707
"CAN","cpi",0.1,1975,3,1975,NA,0,10.2665120399956,10.3668869004908,10.0232981493341,10.3166994702432,FALSE,0.640850173076217
"CAN","cpi",0.1,1975,3,1975,NA,0.5,8.75848967771288,8.99786683772221,10.0232981493341,8.87817825771755,FALSE,2.5181134080358
"CAN","cpi",0.1,1975,3,1974,NA,1,11.3508785784415,11.9760184448758,10.0232981493341,11.6634485116586,FALSE,3.57531859778403
"CAN","cpi",0.1,1975,3,1974,NA,1.5,7.93398095252363,10.2493378344287,10.0232981493341,9.09165939347615,TRUE,2.31535688190504
"CAN","cpi",0.1,1976,3,1976,NA,0,7.20892624379163,7.30930110428689,7.22784311401172,7.25911367403926,TRUE,0.100374860495258
"CAN","cpi",0.1,1976,3,1976,NA,0.5,7.10533707268576,7.34471423269509,7.22784311401172,7.22502565269042,TRUE,0.23937716000933
"CAN","cpi",0.1,1976,3,1975,NA,1,12.1655091105613,12.7906489769955,7.22784311401172,12.4780790437784,FALSE,11.5977309698777
"CAN","cpi",0.1,1976,3,1975,NA,1.5,6.25422138251771,8.11749889423365,7.22784311401172,7.18586013837568,TRUE,1.86327751171594
"CAN","cpi",0.1,1977,3,1977,NA,0,7.56011958956944,7.62266070962452,7.58101410153764,7.59139014959698,TRUE,0.0625411200550854
"CAN","cpi",0.1,1977,3,1977,NA,0.5,7.18032342407272,7.32044970701225,7.58101410153764,7.25038656554249,FALSE,0.719158270773737
"CAN","cpi",0.1,1977,3,1976,NA,1,5.61604998711983,6.24384038618899,7.58101410153764,5.92994518665441,FALSE,3.59928754428839
"CAN","cpi",0.1,1977,3,1976,NA,1.5,5.3756479501048,6.00343834917396,7.58101410153764,5.68954314963938,FALSE,4.13351429321068
"CAN","cpi",0.1,1978,3,1978,NA,0,8.66855473200485,8.70906680419639,8.50208927062595,8.68881076810062,FALSE,0.410435319700215
"CAN","cpi",0.1,1978,3,1978,NA,0.5,8.04202194617961,8.18214822911914,8.50208927062595,8.11208508764938,FALSE,0.851106375176871
"CAN","cpi",0.1,1978,3,1977,NA,1,8.02382799470411,8.66961046997074,8.50208927062595,8.34671923233743,TRUE,0.645782475266625
"CAN","cpi",0.1,1978,3,1977,NA,1.5,7.89121607862443,8.53699855389106,8.50208927062595,8.21410731625775,TRUE,0.645782475266622
"CAN","cpi",0.1,1979,3,1979,NA,0,8.54110929755334,8.58162136974488,8.65147652410481,8.56136533364911,FALSE,0.195745748546943
"CAN","cpi",0.1,1979,3,1979,NA,0.5,8.16086275538424,8.30098903832377,8.65147652410481,8.23092589685401,FALSE,0.918987362452947
"CAN","cpi",0.1,1979,3,1978,NA,1,9.34192722135998,9.9877096966266,8.65147652410481,9.66481845899329,FALSE,2.18011735805589
"CAN","cpi",0.1,1979,3,1978,NA,1.5,7.58725682606915,8.23303930133577,8.65147652410481,7.91014806370246,FALSE,1.57564297030893
"CAN","cpi",0.1,1980,3,1980,NA,0,9.5155110224892,9.55602309468073,9.5171912664748,9.53576705858497,TRUE,0.040512072191536
"CAN","cpi",0.1,1980,3,1980,NA,0.5,8.57341146895884,8.71353775189837,9.5171912664748,8.6434746104286,FALSE,1.92602298199826
"CAN","cpi",0.1,1980,3,1979,NA,1,7.46678125376993,8.11256372903656,9.5171912664748,7.78967249140325,FALSE,3.76717700290715
"CAN","cpi",0.1,1980,3,1979,NA,1.5,7.97492448801854,8.62070696328516,9.5171912664748,8.29781572565185,FALSE,2.63796981568804
"CAN","cpi",0.1,1981,3,1981,NA,0,11.6934570314732,11.7306086156936,11.5813425032741,11.7120328235834,FALSE,0.286294980218309
"CAN","cpi",0.1,1981,3,1981,NA,0.5,12.2595553830714,12.3996816660109,11.5813425032741,12.3296185245412,FALSE,1.64726601582233
"CAN","cpi",0.1,1981,3,1980,NA,1,10.6238194352042,11.4474334330176,11.5813425032741,11.0356264341109,FALSE,1.12118970949468
"CAN","cpi",0.1,1981,3,1980,NA,1.5,8.11294158793515,8.93655558574856,11.5813425032741,8.52474858684185,FALSE,6.70091825898137
"CAN","cpi",0.1,1982,3,1982,NA,0,10.2346482392648,10.2717998234852,10.1124203763629,10.253224031375,FALSE,0.308769057335676
"CAN","cpi",0.1,1982,3,1982,NA,0.5,10.0520683651537,10.1921946480932,10.1124203763629,10.1221315066235,TRUE,0.14012628293953
"CAN","cpi",0.1,1982,3,1981,NA,1,11.2409705479743,12.0645845457877,10.1124203763629,11.652777546881,FALSE,3.33150326806076
"CAN","cpi",0.1,1982,3,1981,NA,1.5,12.8021464847146,13.625760482528,10.1124203763629,13.2139534836213,FALSE,6.80078312748377
"CAN","cpi",0.1,1983,3,1983,NA,0,5.82948406228318,5.85777098465389,5.67091787896303,5.84362752346853,FALSE,0.380656218637695
"CAN","cpi",0.1,1983,3,1983,NA,0.5,4.69220802025,4.72049494262071,5.67091787896303,4.70635148143536,FALSE,2.14033789202032
"CAN","cpi",0.1,1983,3,1982,NA,1,8.19752458757109,9.03122261110257,5.67091787896303,8.61437359933683,FALSE,6.44837959821604
"CAN","cpi",0.1,1983,3,1982,NA,1.5,9.42645401758964,10.2601520411211,5.67091787896303,9.84330302935538,FALSE,9.17933388714617
"CAN","cpi",0.1,1984,3,1984,NA,0,4.19901317060382,4.22730009297453,4.19799576814029,4.21315663178917,FALSE,0.0305478167341096
"CAN","cpi",0.1,1984,3,1984,NA,0.5,4.71589860334097,4.74418552571168,4.19799576814029,4.73004206452632,FALSE,1.17918211170556
"CAN","cpi",0.1,1984,3,1983,NA,1,5.88845060657545,6.72214863010693,4.19799576814029,6.30529961834119,FALSE,4.59026433116518
"CAN","cpi",0.1,1984,3,1983,NA,1.5,2.39504538641202,3.2287434099435,4.19799576814029,2.81189439817776,FALSE,2.98759215285768
"CAN","cpi",0.1,1985,3,1985,NA,0,3.89303294848672,3.91790494239614,3.86444262005169,3.90546894544143,FALSE,0.0884060570983616
"CAN","cpi",0.1,1985,3,1985,NA,0.5,3.99932899457199,4.02420098848141,3.86444262005169,4.0117649915267,FALSE,0.324619492843409
"CAN","cpi",0.1,1985,3,1984,NA,1,2.87257296885793,3.70627099238941,3.86444262005169,3.28942198062367,FALSE,1.18519052944767
"CAN","cpi",0.1,1985,3,1984,NA,1.5,4.2628546866802,5.09655271021167,3.86444262005169,4.67970369844593,FALSE,1.71905817159482
"CAN","cpi",0.1,1986,3,1986,NA,0,4.11484147749958,4.139713471409,4.08685396749431,4.12727747445429,FALSE,0.0870664605878042
"CAN","cpi",0.1,1986,3,1986,NA,0.5,4.56270521130047,4.58757720520989,4.08685396749431,4.57514120825518,FALSE,1.08231920236755
"CAN","cpi",0.1,1986,3,1985,NA,1,3.42816849523758,4.26186651876906,4.08685396749431,3.84501750700332,TRUE,0.833698023531479
"CAN","cpi",0.1,1986,3,1985,NA,1.5,4.09939099412364,4.93308901765512,4.08685396749431,4.51624000588938,FALSE,0.861558082707758
"CAN","cpi",0.1,1987,3,1987,NA,0,4.32518042301909,4.35005241692851,4.23980729277887,4.3376164199738,FALSE,0.214590061109903
"CAN","cpi",0.1,1987,3,1987,NA,0.5,3.87740257327649,3.90227456718592,4.23980729277887,3.8898385702312,FALSE,0.774944717449324
"CAN","cpi",0.1,1987,3,1986,NA,1,4.32101290374478,4.80468582472676,4.23980729277887,4.56284936423577,FALSE,0.664129834239562
"CAN","cpi",0.1,1987,3,1986,NA,1.5,4.86676463993853,5.44272854867493,4.23980729277887,5.15474659430673,FALSE,1.96920245798009
"CAN","cpi",0.1,1988,3,1988,NA,0,3.98512213239938,4.01544385969715,3.92899537638065,4.00028299604827,FALSE,0.155047851783833
"CAN","cpi",0.1,1988,3,1988,NA,0.5,3.38449041764037,3.67913516059038,3.92899537638065,3.53181278911538,FALSE,0.849889666928397
"CAN","cpi",0.1,1988,3,1987,NA,1,4.09989639996862,4.5835693209506,3.92899537638065,4.34173286045961,FALSE,0.863452973399676
"CAN","cpi",0.1,1988,3,1987,NA,1.5,3.33673689742199,4.19550897421212,3.92899537638065,3.76612293581706,TRUE,0.85877207679013
"CAN","cpi",0.1,1989,3,1989,NA,0,4.98749233291767,5.02464391713801,4.82821664544208,5.00606812502784,FALSE,0.39109755638833
"CAN","cpi",0.1,1989,3,1989,NA,0.5,4.36789200824903,4.66253675119905,4.82821664544208,4.51521437972404,FALSE,0.662822285712303
"CAN","cpi",0.1,1989,3,1988,NA,1,4.08520251799911,4.56887543898108,4.82821664544208,4.3270389784901,FALSE,1.05998671311752
"CAN","cpi",0.1,1989,3,1988,NA,1.5,3.13901055371376,3.71497446245016,4.82821664544208,3.42699250808196,FALSE,3.04983542649622
"CAN","cpi",0.1,1990,3,1990,NA,0,4.50313644538042,4.54028802960076,4.64347549432717,4.52171223749059,FALSE,0.266457061390144
"CAN","cpi",0.1,1990,3,1990,NA,0.5,5.07603016112458,5.37067490407459,4.64347549432717,5.22335253259958,FALSE,1.25587733583313
"CAN","cpi",0.1,1990,3,1989,NA,1,5.4006011678344,6.0466853107482,4.64347549432717,5.7236432392913,FALSE,2.32858563959653
"CAN","cpi",0.1,1990,3,1989,NA,1.5,4.49102738293871,5.34979945972884,4.64347549432717,4.92041342133377,TRUE,0.85877207679013
"CAN","cpi",0.1,1991,3,1991,NA,0,5.59760587610693,5.63475746032727,5.4258100696218,5.6161816682171,FALSE,0.418920043076193
"CAN","cpi",0.1,1991,3,1991,NA,0.5,8.6767286345425,8.97137337749251,5.4258100696218,8.8240510060175,FALSE,7.51890822055157
"CAN","cpi",0.1,1991,3,1990,NA,1,3.59171713500244,4.19169713346594,5.4258100696218,3.89170713423419,FALSE,3.34245318992096
"CAN","cpi",0.1,1991,3,1990,NA,1.5,5.40463042524267,6.00461042370617,5.4258100696218,5.70462042447442,TRUE,0.599979998463505
"CAN","cpi",0.1,1992,3,1992,NA,0,1.43502116545395,1.51586817937391,1.47496888572843,1.47544467241393,TRUE,0.080847013919966
"CAN","cpi",0.1,1992,3,1992,NA,0.5,1.21337147116318,1.50801621411319,1.47496888572843,1.36069384263819,TRUE,0.294644742950011
"CAN","cpi",0.1,1992,3,1991,NA,1,2.135017208557,2.7349972070205,1.47496888572843,2.43500720778875,FALSE,2.06675404919364
"CAN","cpi",0.1,1992,3,1991,NA,1.5,10.9073076251426,11.5072876236061,1.47496888572843,11.2072976243743,FALSE,21.5607327527172
"CAN","cpi",0.1,1993,3,1993,NA,0,1.79979950874714,1.83012123604491,1.84351085411351,1.81496037239602,FALSE,0.0600764341168947
"CAN","cpi",0.1,1993,3,1993,NA,0.5,2.31911130778448,2.54766139396497,1.84351085411351,2.43338635087472,FALSE,1.28543998322708
"CAN","cpi",0.1,1993,3,1992,NA,1,1.46229766396186,2.06227766242536,1.84351085411351,1.76228766319361,TRUE,0.599979998463505
"CAN","cpi",0.1,1993,3,1992,NA,1.5,1.29876061436625,1.89874061282975,1.84351085411351,1.598750613598,TRUE,0.599979998463505
"CAN","cpi",0.1,1994,3,1994,NA,0,0.204986363509044,0.235308090806813,0.161630694655448,0.220147227157928,FALSE,0.126667658083538
"CAN","cpi",0.1,1994,3,1994,NA,0.5,-0.888864897518696,-0.594220154568685,0.161630694655448,-0.741542526043691,FALSE,1.97431329678142
"CAN","cpi",0.1,1994,3,1993,NA,1,1.26610985748704,1.74978277846902,0.161630694655448,1.50794631797803,FALSE,2.93807106060775
"CAN","cpi",0.1,1994,3,1993,NA,1.5,2.57321693289544,3.06273741392646,0.161630694655448,2.81797717341095,FALSE,5.84860101045323
"CAN","cpi",0.1,1995,3,1995,NA,0,2.139685995946,2.17000772324377,2.11688403676572,2.15484685959489,FALSE,0.0809927476984053
"CAN","cpi",0.1,1995,3,1995,NA,0.5,2.76151684513257,3.05616158808258,2.11688403676572,2.90883921660758,FALSE,1.72716209487636
"CAN","cpi",0.1,1995,3,1994,NA,1,1.70989774072216,2.19357066170414,2.11688403676572,1.95173420121315,TRUE,0.483672920981977
"CAN","cpi",0.1,1995,3,1994,NA,1.5,-2.42459480133377,-1.93507432030275,2.11688403676572,-2.17983456081826,FALSE,9.49387238562761
"CAN","cpi",0.1,1996,3,1996,NA,0,1.41311841203039,1.47021937546537,1.55309584667184,1.44166889374788,FALSE,0.241270899449362
"CAN","cpi",0.1,1996,3,1996,NA,0.5,1.21504529849285,1.50969004144286,1.55309584667184,1.36236766996786,FALSE,0.391102087903305
"CAN","cpi",0.1,1996,3,1995,NA,1,0.746324432598132,1.07662410370327,1.55309584667184,0.911474268150699,FALSE,1.38912576659086
"CAN","cpi",0.1,1996,3,1995,NA,1.5,3.7430874489826,4.23260793001362,1.55309584667184,3.98784768949811,FALSE,5.35616848616604
"CAN","cpi",0.1,1997,3,1997,NA,0,1.6595666637333,1.71666762716828,1.60528783555959,1.68811714545079,FALSE,0.177720581598773
"CAN","cpi",0.1,1997,3,1997,NA,0.5,1.92826967049458,2.28414768275113,1.60528783555959,2.10620867662285,FALSE,1.07361542322319
"CAN","cpi",0.1,1997,3,1996,NA,1,0.580521279931106,0.93639929218766,1.60528783555959,0.758460286059383,FALSE,1.84229699752751
"CAN","cpi",0.1,1997,3,1996,NA,1.5,1.4181182864112,1.90763876744222,1.60528783555959,1.66287852692671,TRUE,0.489520481031024
"CAN","cpi",0.1,1998,3,1998,NA,0,0.942193541353136,0.999294504788119,0.988908029337191,0.970744023070627,TRUE,0.0571009634349822
"CAN","cpi",0.1,1998,3,1998,NA,0.5,1.3480518324362,1.69388546764964,0.988908029337191,1.52096865004292,FALSE,1.14393097543346
"CAN","cpi",0.1,1998,3,1997,NA,1,0.867043772178275,1.21287740739171,0.988908029337191,1.03996058978499,TRUE,0.345833635213433
"CAN","cpi",0.1,1998,3,1997,NA,1.5,2.04767892346957,2.39351255868301,0.988908029337191,2.22059574107629,FALSE,2.69865784439651
"CAN","cpi",0.1,1999,3,1999,NA,0,1.77325064314031,1.80957865567343,1.7107350135213,1.79141464940687,FALSE,0.175251633908708
"CAN","cpi",0.1,1999,3,1999,NA,0.5,0.664576688899258,0.936528056523146,1.7107350135213,0.800552372711202,FALSE,1.99241127206422
"CAN","cpi",0.1,1999,3,1998,NA,1,0.338549741097667,0.610501108721555,1.7107350135213,0.474525424909611,FALSE,2.7169156005122
"CAN","cpi",0.1,1999,3,1998,NA,1.5,2.03489253289766,2.36063741402485,1.7107350135213,2.19776497346126,FALSE,1.04609492418579
"CAN","cpi",0.1,2000,3,2000,NA,0,2.71572459998071,2.75205261251384,2.6718361971244,2.73388860624727,FALSE,0.133857796658262
"CAN","cpi",0.1,2000,3,2000,NA,0.5,1.97928263854043,2.25123400616432,2.6718361971244,2.11525832235237,FALSE,1.20662290309074
"CAN","cpi",0.1,2000,3,1999,NA,1,2.67840514497619,2.95035651260007,2.6718361971244,2.81438082878813,FALSE,0.286549029516744
"CAN","cpi",0.1,2000,3,1999,NA,1.5,0.627653374136349,1.11717385516737,2.6718361971244,0.872413614651861,FALSE,3.94432568537997
"CAN","cpi",0.1,2001,3,2001,NA,0,2.71690315054976,2.75323116308289,2.47906219852806,2.73506715681632,FALSE,0.564863461470234
"CAN","cpi",0.1,2001,3,2001,NA,0.5,1.58765981248549,1.85961118010938,2.47906219852806,1.72363549629744,FALSE,1.64850918633207
"CAN","cpi",0.1,2001,3,2000,NA,1,3.6039819301291,3.87593329775299,2.47906219852806,3.73995761394105,FALSE,2.77177299340398
"CAN","cpi",0.1,2001,3,2000,NA,1.5,1.73823937445681,2.22775985548783,2.47906219852806,1.98299961497232,FALSE,1.04797013223154
"CAN","cpi",0.1,2002,3,2002,NA,0,2.33185000310734,2.36817801564047,2.20880570551249,2.3500140093739,FALSE,0.309759784966135
"CAN","cpi",0.1,2002,3,2002,NA,0.5,1.33476883984353,1.60672020746742,2.20880570551249,1.47074452365548,FALSE,1.60991914105737
"CAN","cpi",0.1,2002,3,2001,NA,1,0.659997047280946,0.931948414904834,2.20880570551249,0.79597273109289,FALSE,3.10941201341867
"CAN","cpi",0.1,2002,3,2001,NA,1.5,0.582258869259223,1.07177935029025,2.20880570551249,0.827019109774735,FALSE,3.01624571485822
"CAN","cpi",0.1,2003,3,2003,NA,0,2.75050137690292,2.78682938943605,2.71189071546809,2.76866538316948,FALSE,0.122129482388305
"CAN","cpi",0.1,2003,3,2003,NA,0.5,4.46047949582563,4.73243086344951,2.71189071546809,4.59645517963757,FALSE,4.15770421286286
"CAN","cpi",0.1,2003,3,2002,NA,1,4.20148961263548,4.47344098025937,2.71189071546809,4.33746529644743,FALSE,3.58217113910699
"CAN","cpi",0.1,2003,3,2002,NA,1.5,2.46992866226133,2.95944914329235,2.71189071546809,2.71468890277684,TRUE,0.489520481031024
"CAN","cpi",0.1,2004,3,2004,NA,0,1.7399264572846,1.79702742071959,1.83151661303942,1.7684769390021,FALSE,0.133743613034618
"CAN","cpi",0.1,2004,3,2004,NA,0.5,1.34927278200017,1.77576259756702,1.83151661303942,1.5625176897836,FALSE,0.550387627727738
"CAN","cpi",0.1,2004,3,2003,NA,1,1.20429905895487,1.63078887452172,1.83151661303942,1.41754396673829,FALSE,0.872551456717309
"CAN","cpi",0.1,2004,3,2003,NA,1.5,5.11326945531562,5.53975927088247,1.83151661303942,5.32651436309904,FALSE,7.71927390951395
"CAN","cpi",0.1,2005,3,2005,NA,0,2.34400675377869,2.41993239943704,2.18071628336509,2.38196957660787,FALSE,0.438793357688572
"CAN","cpi",0.1,2005,3,2005,NA,0.5,1.41616134123169,1.7289175054228,2.18071628336509,1.57253942332725,FALSE,1.31675344850731
"CAN","cpi",0.1,2005,3,2004,NA,1,0.836854874364418,1.14961103855553,2.18071628336509,0.993232956459974,FALSE,2.6041011526568
"CAN","cpi",0.1,2005,3,2004,NA,1.5,1.90351877898965,2.21627494318076,2.18071628336509,2.05989686108521,TRUE,0.312756164191113
"CAN","cpi",0.1,2006,3,2006,NA,0,2.02876254915173,2.10468819481007,1.97519342012289,2.0667253719809,FALSE,0.194968154611323
"CAN","cpi",0.1,2006,3,2006,NA,0.5,1.78141587062197,2.09417203481308,1.97519342012289,1.93779395271753,TRUE,0.312756164191113
"CAN","cpi",0.1,2006,3,2005,NA,1,3.32088569992229,3.6336418641134,1.97519342012289,3.47726378201784,FALSE,3.30318345263423
"CAN","cpi",0.1,2006,3,2005,NA,1.5,1.23031356180033,1.54306972599144,1.97519342012289,1.38669164389589,FALSE,1.27303104003877
"CAN","cpi",0.1,2007,3,2007,NA,0,2.05129873737838,2.16484807278116,2.10062087284572,2.10807340507977,TRUE,0.113549335402787
"CAN","cpi",0.1,2007,3,2007,NA,0.5,2.28883413597004,2.54940980245993,2.10062087284572,2.41912196921498,FALSE,0.678827362321706
"CAN","cpi",0.1,2007,3,2006,NA,1,0.372045252046862,0.632620918536751,2.10062087284572,0.502333085291807,FALSE,3.52279778717649
"CAN","cpi",0.1,2007,3,2006,NA,1.5,1.84013884793966,2.10071451442955,2.10062087284572,1.9704266811846,TRUE,0.260575666489889
"CAN","cpi",0.1,2008,3,2008,NA,0,2.93585100625146,2.97217901878459,2.31447335265955,2.95401501251803,FALSE,1.41716724273737
"CAN","cpi",0.1,2008,3,2008,NA,0.5,1.00328269327964,1.31603885747075,2.31447335265955,1.1596607753752,FALSE,2.53149948683289
"CAN","cpi",0.1,2008,3,2007,NA,1,0.208652098290616,0.52140826248173,2.31447335265955,0.365030180386173,FALSE,4.29734525347516
"CAN","cpi",0.1,2008,3,2007,NA,1.5,3.59332619868773,3.90608236287884,2.31447335265955,3.74970428078329,FALSE,3.15465137758707
"CAN","cpi",0.1,2009,3,2009,NA,0,0.259159054059114,0.295487066592241,0.284533874408197,0.277323060325678,TRUE,0.0363280125331267
"CAN","cpi",0.1,2009,3,2009,NA,0.5,-1.10429617673209,-0.7493875252658,0.284533874408197,-0.926841850998946,FALSE,2.65251176185295
"CAN","cpi",0.1,2009,3,2008,NA,1,4.21421594911134,4.56912460057763,0.284533874408197,4.39167027484448,FALSE,9.08753548413993
"CAN","cpi",0.1,2009,3,2008,NA,1.5,1.12972678097272,1.48463543243901,0.284533874408197,1.30718110670587,FALSE,2.23311511049857
"CAN","cpi",0.1,2010,3,2010,NA,0,1.74147844746208,1.75638351193018,1.75525687020327,1.74893097969613,TRUE,0.0149050644680973
"CAN","cpi",0.1,2010,3,2010,NA,0.5,1.33721523998563,1.87307590121019,1.75525687020327,1.60514557059791,TRUE,0.53586066122456
"CAN","cpi",0.1,2010,3,2009,NA,1,0.378946790797811,0.914807452022371,1.75525687020327,0.646877121410091,FALSE,2.4035260349599
"CAN","cpi",0.1,2010,3,2009,NA,1.5,-1.55900169897407,-1.02314103774951,1.75525687020327,-1.29107136836179,FALSE,6.71007823445297
"CAN","cpi",0.1,2011,3,2011,NA,0,2.82937343703626,2.8437950652013,2.85717434028225,2.83658425111878,FALSE,0.0441533505671379
"CAN","cpi",0.1,2011,3,2011,NA,0.5,2.74505747742036,3.04528007663109,2.85717434028225,2.89516877702572,TRUE,0.300222599210732
"CAN","cpi",0.1,2011,3,2010,NA,1,1.92380556160366,2.45859763018468,2.85717434028225,2.19120159589417,FALSE,1.42051809102005
"CAN","cpi",0.1,2011,3,2010,NA,1.5,1.69621899244869,2.23101106102971,2.85717434028225,1.9636150267392,FALSE,1.92626602247555
"CAN","cpi",0.1,2012,3,2012,NA,0,1.45291225437213,1.46733388253717,1.50118536134935,1.46012306845465,FALSE,0.0896471366365354
"CAN","cpi",0.1,2012,3,2012,NA,0.5,1.7751929171448,1.85118179063175,1.50118536134935,1.81318735388827,FALSE,0.684894553032401
"CAN","cpi",0.1,2012,3,2011,NA,1,0.674064288314922,1.46085645498288,1.50118536134935,1.0674603716489,FALSE,0.876411958593438
"CAN","cpi",0.1,2012,3,2011,NA,1.5,2.87152570101635,3.65831786768431,1.50118536134935,3.26492178435033,FALSE,3.83199292148352
"CAN","cpi",0.1,2013,3,2013,NA,0,1.03243548985897,1.04685711802401,0.931270594714462,1.03964630394149,FALSE,0.239232506263947
"CAN","cpi",0.1,2013,3,2013,NA,0.5,1.12723356051169,1.20322243399864,0.931270594714462,1.16522799725517,FALSE,0.511462130814124
"CAN","cpi",0.1,2013,3,2012,NA,1,-0.736059155295265,-0.181514743314935,0.931270594714462,-0.4587869493051,FALSE,3.02740071871232
"CAN","cpi",0.1,2013,3,2012,NA,1.5,1.59291376493097,2.1474581769113,0.931270594714462,1.87018597092114,FALSE,2.02486256801703
"CAN","cpi",0.1,2014,3,2014,NA,0,1.98220605039876,1.99662767856379,1.87639912240215,1.98941686448128,FALSE,0.249548134824162
"CAN","cpi",0.1,2014,3,2014,NA,0.5,2.24735374373159,2.32334261721854,1.87639912240215,2.28534818047506,FALSE,0.900332476441255
"CAN","cpi",0.1,2014,3,2013,NA,1,0.656716051986234,1.21126046396656,1.87639912240215,0.933988257976399,FALSE,2.03263031961497
"CAN","cpi",0.1,2014,3,2013,NA,1.5,1.46705601629665,2.02160042827697,1.87639912240215,1.74432822228681,TRUE,0.554544411980329
"CAN","cpi",0.1,2015,3,2015,NA,0,1.25446989266878,1.26889152083382,1.11090953952792,1.2616807067513,FALSE,0.333444635144737
"CAN","cpi",0.1,2015,3,2015,NA,0.5,0.180368658389094,0.256357531876049,1.11090953952792,0.218363095132572,FALSE,1.97499333493555
"CAN","cpi",0.1,2015,3,2014,NA,1,0.341320162548648,0.905239343910211,1.11090953952792,0.62327975322943,FALSE,1.02096406051202
"CAN","cpi",0.1,2015,3,2014,NA,1.5,3.26648574061075,3.83040492197231,1.11090953952792,3.54844533129153,FALSE,5.35408851710119
"CAN","cpi",0.1,2016,3,2016,NA,0,1.43681967844037,1.45124130660541,1.41168586698797,1.44403049252289,FALSE,0.0702745425037251
"CAN","cpi",0.1,2016,3,2016,NA,0.5,0.905706424099596,0.981695297586552,1.41168586698797,0.943700860843074,FALSE,1.03152347215676
"CAN","cpi",0.1,2016,3,2015,NA,1,1.34914639052274,1.96697036848235,1.41168586698797,1.65805837950254,TRUE,0.617823977959606
"CAN","cpi",0.1,2016,3,2015,NA,1.5,-0.0961587841653569,0.521665193794249,1.41168586698797,0.212753204814446,FALSE,2.59564769616787
"CAN","cpi",0.1,2017,3,2017,NA,0,1.51451452649416,1.5289361546592,1.57888581671161,1.52172534057668,FALSE,0.125420877170392
"CAN","cpi",0.1,2017,3,2017,NA,0.5,2.14196307468996,2.21795194817691,1.57888581671161,2.17995751143343,FALSE,1.32727166899439
"CAN","cpi",0.1,2017,3,2016,NA,1,0.195762211478485,0.761558101294271,1.57888581671161,0.478660156386378,FALSE,2.38207970185432
"CAN","cpi",0.1,2017,3,2016,NA,1.5,0.764907846988621,1.33070373680441,1.57888581671161,1.04780579189651,FALSE,1.11731162294291
"CAN","cpi",0.1,2018,3,2018,NA,0,2.41885782429796,2.433279452463,2.23316270166586,2.42606863838048,FALSE,0.427077456236381
"CAN","cpi",0.1,2018,3,2018,NA,0.5,2.87089994093968,3.17112254015041,2.23316270166586,3.02101124054505,FALSE,1.71741646426367
"CAN","cpi",0.1,2018,3,2017,NA,1,0.240800082430677,0.806595972246463,2.23316270166586,0.52369802733857,FALSE,3.73594417741444
"CAN","cpi",0.1,2018,3,2017,NA,1.5,2.80118389831338,3.36697978812917,2.23316270166586,3.08408184322128,FALSE,1.82806521569918
"CAN","cpi",0.1,2019,3,2019,NA,0,2.01571253737934,2.03013416554438,1.91921619871868,2.02292335146186,FALSE,0.228857936299835
"CAN","cpi",0.1,2019,3,2019,NA,0.5,1.61043944432314,1.91066204353387,1.91921619871868,1.7605507439285,FALSE,0.319231832954759
"CAN","cpi",0.1,2019,3,2018,NA,1,1.5376419335964,2.40509191299729,1.91921619871868,1.97136692329685,TRUE,0.86744997940089
"CAN","cpi",0.1,2019,3,2018,NA,1.5,3.59893485435884,4.66109490398904,1.91921619871868,4.13001487917394,FALSE,4.79486817327499
"CAN","cpi",0.1,2020,3,2020,NA,0,0.741027039185866,0.755448667350905,0.71139989671781,0.748237853268385,FALSE,0.0802597225384951
"CAN","cpi",0.1,2020,3,2020,NA,0.5,1.05626954930883,1.35649214851956,0.71139989671781,1.20638084891419,FALSE,1.06659960496854
"CAN","cpi",0.1,2020,3,2019,NA,1,1.0898871418696,1.58263216689875,0.71139989671781,1.33625965438418,FALSE,1.33382779203313
"CAN","cpi",0.1,2020,3,2019,NA,1.5,1.94719602913618,3.00935607876637,0.71139989671781,2.47827605395127,FALSE,3.80837367722656
"CAN","cpi",0.1,2021,3,2021,NA,0,3.34014730192371,3.38132748025063,3.31148121717802,3.36073739108717,FALSE,0.104882588872888
"CAN","cpi",0.1,2021,3,2021,NA,0.5,2.72775469321496,3.02797729242569,3.31148121717802,2.87786599282032,FALSE,0.930231320882588
"CAN","cpi",0.1,2021,3,2020,NA,1,1.55930354478316,2.05204856981231,3.31148121717802,1.80567605729774,FALSE,3.2914842413974
"CAN","cpi",0.1,2021,3,2020,NA,1.5,0.832071204509683,1.89423125413988,3.31148121717802,1.36315122932478,FALSE,4.21160441193718
"CAN","cpi",0.1,2022,3,2022,NA,0,6.5490728022324,6.61376205330226,6.50977236228281,6.58141742776733,FALSE,0.152023562068942
"CAN","cpi",0.1,2022,3,2022,NA,0.5,6.58427338297569,6.90160429255605,6.50977236228281,6.74293883776587,FALSE,0.482888733342318
"CAN","cpi",0.1,2022,3,2021,NA,1,4.57926963745114,5.07201466248029,6.50977236228281,4.82564214996571,FALSE,3.68776213570142
"CAN","cpi",0.1,2022,3,2021,NA,1.5,3.40467061833703,4.46683066796722,6.50977236228281,3.93575064315212,FALSE,5.60203048144262
"CAN","cpi",0.1,2023,3,2023,NA,0,3.97769489961089,4.05137081271204,3.78831288758619,4.01453285616146,FALSE,0.494524828711591
"CAN","cpi",0.1,2023,3,2023,NA,0.5,2.84571774190939,3.31205069287551,3.78831288758619,3.07888421739245,FALSE,1.52469338365651
"CAN","cpi",0.1,2023,3,2022,NA,1,3.61036029318249,4.10310531821165,3.78831288758619,3.85673280569707,TRUE,0.492745025029153
"CAN","cpi",0.1,2023,3,2022,NA,1.5,7.54184280964743,8.60400285927763,3.78831288758619,8.07292283446253,FALSE,9.40333765421073
"CAN","cpi",0.1,2024,3,2023,NA,1,4.00662762185415,4.14346745807591,NA,4.07504753996503,NA,NA
"CAN","cpi",0.1,2024,3,2023,NA,1.5,1.88421045838179,2.94637050801198,NA,2.41529048319689,NA,NA
"CAN","cpi",0.2,1959,3,1959,NA,0,1.18925944085356,1.3105648877723,1.19382698397654,1.24991216431293,TRUE,0.121305446918747
"CAN","cpi",0.2,1959,3,1959,NA,0.5,-0.0225395038878052,0.898218967068459,1.19382698397654,0.437839731590327,FALSE,1.65977851322647
"CAN","cpi",0.2,1959,3,1958,NA,1,1.29824839338133,2.21900686433759,1.19382698397654,1.75862762885946,FALSE,1.18181199446824
"CAN","cpi",0.2,1959,3,1958,NA,1.5,-0.295204701060622,3.84334815533593,1.19382698397654,1.77407172713766,TRUE,4.13855285639656
"CAN","cpi",0.2,1960,3,1960,NA,0,0.964503640198784,1.08272244499076,1.34209404870695,1.02361304259477,FALSE,0.766647814082454
"CAN","cpi",0.2,1960,3,1960,NA,0.5,0.0612030765507785,1.01676388381254,1.34209404870695,0.53898348018166,FALSE,1.76888621949779
"CAN","cpi",0.2,1960,3,1959,NA,1,3.42208004080199,4.49310743298685,1.34209404870695,3.95759373689442,FALSE,6.27099237242246
"CAN","cpi",0.2,1960,3,1959,NA,1.5,-2.82057362960547,1.0736199987957,1.34209404870695,-0.873476815404885,FALSE,4.5653787531793
"CAN","cpi",0.2,1961,3,1961,NA,0,0.950104078544083,1.06832288333606,1.00921348094007,1.00921348094007,TRUE,0.118218804791977
"CAN","cpi",0.2,1961,3,1961,NA,0.5,0.363463006700751,1.65496395517939,1.00921348094007,1.00921348094007,TRUE,1.29150094847864
"CAN","cpi",0.2,1961,3,1960,NA,1,-0.591980011635788,0.699520936842854,1.00921348094007,0.0537704626035329,FALSE,2.06573230872169
"CAN","cpi",0.2,1961,3,1960,NA,1.5,-2.80927861314062,1.08491501526055,1.00921348094007,-0.862181798940035,TRUE,3.89419362840116
"CAN","cpi",0.2,1962,3,1962,NA,0,1.04392968798977,1.16071836663979,1.04957947883042,1.10232402731478,TRUE,0.116788678650013
"CAN","cpi",0.2,1962,3,1962,NA,0.5,-0.315441955138068,0.315441955138068,1.04957947883042,0,FALSE,2.466227719507
"CAN","cpi",0.2,1962,3,1961,NA,1,-0.564800644882921,0.564800644882921,1.04957947883042,0,FALSE,2.34154837463458
"CAN","cpi",0.2,1962,3,1961,NA,1.5,-1.87139527988011,1.87139527988011,1.04957947883042,0,TRUE,3.74279055976021
"CAN","cpi",0.2,1963,3,1963,NA,0,1.85883211497563,1.97100247564841,1.60677118395228,1.91491729531202,FALSE,0.742322688231134
"CAN","cpi",0.2,1963,3,1963,NA,0.5,0.176434765982937,1.49722266325207,1.60677118395228,0.836828714617504,FALSE,1.59465919901967
"CAN","cpi",0.2,1963,3,1962,NA,1,1.90372095551687,3.224508852786,1.60677118395228,2.56411490415144,FALSE,2.0631623261806
"CAN","cpi",0.2,1963,3,1962,NA,1.5,-1.41884908933747,1.41884908933747,1.60677118395228,0,FALSE,3.30750341521198
"CAN","cpi",0.2,1964,3,1964,NA,0,1.93268738412409,2.04485774479687,1.88764670034376,1.98877256446048,FALSE,0.224772070123602
"CAN","cpi",0.2,1964,3,1964,NA,0.5,0.723296113641507,2.04408401091064,1.88764670034376,1.38369006227607,TRUE,1.32078789726914
"CAN","cpi",0.2,1964,3,1963,NA,1,4.73004895483799,6.05083685210712,1.88764670034376,5.39044290347256,FALSE,8.42679353350471
"CAN","cpi",0.2,1964,3,1963,NA,1.5,-1.41884908933747,1.41884908933747,1.88764670034376,0,FALSE,4.00969220619066
"CAN","cpi",0.2,1965,3,1965,NA,0,2.2894852938536,2.40165565452638,2.29538304394236,2.34557047418999,TRUE,0.11217036067278
"CAN","cpi",0.2,1965,3,1965,NA,0.5,1.10683784149885,2.11475111763423,2.29538304394236,1.61079447956654,FALSE,1.4594930919057
"CAN","cpi",0.2,1965,3,1964,NA,1,1.46974560346193,3.38063164013501,2.29538304394236,2.42518862179847,TRUE,1.91088603667308
"CAN","cpi",0.2,1965,3,1964,NA,1.5,-0.60074653702107,2.23695164165387,2.29538304394236,0.818102552316399,FALSE,2.98377668439616
"CAN","cpi",0.2,1966,3,1966,NA,0,3.76736533015272,3.87285442712145,3.72486065470629,3.82010987863709,FALSE,0.21175078558481
"CAN","cpi",0.2,1966,3,1966,NA,0.5,3.48727735088795,4.49519062702332,3.72486065470629,3.99123398895563,TRUE,1.00791327613537
"CAN","cpi",0.2,1966,3,1965,NA,1,2.64242004257562,3.77202133234146,3.72486065470629,3.20722068745854,TRUE,1.12960128976584
"CAN","cpi",0.2,1966,3,1965,NA,1.5,0.187789156982115,3.02548733565705,3.72486065470629,1.60663824631958,FALSE,4.58613147629803
"CAN","cpi",0.2,1967,3,1967,NA,0,3.71494394480196,3.82043304177068,3.49360316391996,3.76768849328632,FALSE,0.65884104917372
"CAN","cpi",0.2,1967,3,1967,NA,0.5,2.14108140994826,2.67382807844695,3.49360316391996,2.4074547441976,FALSE,2.58218438218122
"CAN","cpi",0.2,1967,3,1966,NA,1,2.66339326345508,3.69867319795059,3.49360316391996,3.18103323070284,TRUE,1.03527993449551
"CAN","cpi",0.2,1967,3,1966,NA,1.5,3.23243251553501,6.07013069420995,3.49360316391996,4.65128160487248,TRUE,2.83769817867494
"CAN","cpi",0.2,1968,3,1968,NA,0,4.12013490823959,4.22562400520832,3.95128347779386,4.17287945672396,FALSE,0.527617673083071
"CAN","cpi",0.2,1968,3,1968,NA,0.5,3.80459872354918,4.33734539204787,3.95128347779386,4.07097205779852,TRUE,0.532746668498691
"CAN","cpi",0.2,1968,3,1967,NA,1,5.32757685399073,6.36285678848624,3.95128347779386,5.84521682123848,FALSE,4.47601337498769
"CAN","cpi",0.2,1968,3,1967,NA,1.5,1.09798014144974,3.41333702335478,3.95128347779386,2.25565858240226,FALSE,3.66022301800272
"CAN","cpi",0.2,1969,3,1969,NA,0,4.54246209512182,4.64795119209055,4.42679496126681,4.59520664360618,FALSE,0.39465693160624
"CAN","cpi",0.2,1969,3,1969,NA,0.5,2.84643161395248,3.08580877396181,4.42679496126681,2.96612019395715,FALSE,3.59184262827183
"CAN","cpi",0.2,1969,3,1968,NA,1,6.20723633316032,7.24251626765582,4.42679496126681,6.72487630040807,FALSE,5.48638336422926
"CAN","cpi",0.2,1969,3,1968,NA,1.5,3.15896608849289,5.47432297039793,4.42679496126681,4.31664452944541,TRUE,2.31535688190504
"CAN","cpi",0.2,1970,3,1970,NA,0,3.55487083401489,3.66035993098362,3.28128405769805,3.60761538249925,FALSE,0.789456037760838
"CAN","cpi",0.2,1970,3,1970,NA,0.5,4.09378743996757,4.62653410846626,3.28128405769805,4.36016077421692,FALSE,2.56400512417251
"CAN","cpi",0.2,1970,3,1969,NA,1,4.39605451080359,5.4313344452991,3.28128405769805,4.91369447805135,FALSE,3.82220606725938
"CAN","cpi",0.2,1970,3,1969,NA,1.5,1.03015899400088,3.12931795166171,3.28128405769805,2.07973847283129,FALSE,2.47907422275167
"CAN","cpi",0.2,1971,3,1971,NA,0,2.86598446131901,2.97147355828774,2.64123406634756,2.91872900980337,FALSE,0.667365084397349
"CAN","cpi",0.2,1971,3,1971,NA,0.5,1.11719772211373,1.64994439061242,2.64123406634756,1.38357105636307,FALSE,3.01097085783655
"CAN","cpi",0.2,1971,3,1970,NA,1,2.65922614254502,3.69450607704053,2.64123406634756,3.17686610979278,FALSE,1.08026012498916
"CAN","cpi",0.2,1971,3,1970,NA,1.5,3.46298468231023,5.77834156421527,2.64123406634756,4.62066312326275,FALSE,4.36973342181171
"CAN","cpi",0.2,1972,3,1972,NA,0,5.11936237317415,5.22485147014287,4.83230569625923,5.17210692165851,FALSE,0.823130789256018
"CAN","cpi",0.2,1972,3,1972,NA,0.5,4.49586922054012,5.02861588903881,4.83230569625923,4.76224255478946,TRUE,0.532746668498691
"CAN","cpi",0.2,1972,3,1971,NA,1,6.32099501336899,7.3562749478645,4.83230569625923,6.83863498061675,FALSE,4.75700322726991
"CAN","cpi",0.2,1972,3,1971,NA,1.5,0.79673318493812,3.11209006684316,4.83230569625923,1.95441162589064,FALSE,6.61589595544522
"CAN","cpi",0.2,1973,3,1973,NA,0,7.31532903310915,7.50582748097074,7.12388603531779,7.41057825703995,FALSE,0.669105942339995
"CAN","cpi",0.2,1973,3,1973,NA,0.5,5.97554067888774,6.50828734738643,7.12388603531779,6.24191401313708,FALSE,2.0717433883271
"CAN","cpi",0.2,1973,3,1972,NA,1,7.60826886957159,8.6435488040671,7.12388603531779,8.12590883681935,FALSE,2.24623702013002
"CAN","cpi",0.2,1973,3,1972,NA,1.5,3.80362850295971,6.11898538486475,7.12388603531779,4.96130694391223,FALSE,4.82760850803765
"CAN","cpi",0.2,1974,3,1974,NA,0,10.1908545457565,10.3931062739899,10.2717243737774,10.2919804098732,TRUE,0.202251728233438
"CAN","cpi",0.2,1974,3,1974,NA,0.5,8.75042568818359,9.28317235668228,10.2717243737774,9.01679902243293,FALSE,3.00412671123655
"CAN","cpi",0.2,1974,3,1973,NA,1,10.9899987152273,12.0252786497228,10.2717243737774,11.5076386824751,FALSE,2.83096578812031
"CAN","cpi",0.2,1974,3,1973,NA,1.5,5.83696459425223,8.24005576398574,10.2717243737774,7.03851017911898,FALSE,7.48226269421271
"CAN","cpi",0.2,1975,3,1975,NA,0,10.2214502463124,10.411948694174,10.0232981493341,10.3166994702432,FALSE,0.685878690307253
"CAN","cpi",0.2,1975,3,1975,NA,0.5,8.6118049234682,9.14455159196689,10.0232981493341,8.87817825771755,FALSE,2.72961306191677
"CAN","cpi",0.2,1975,3,1974,NA,1,11.1458085444109,12.1810884789064,10.0232981493341,11.6634485116586,FALSE,3.84155592218744
"CAN","cpi",0.2,1975,3,1974,NA,1.5,7.8901138086094,10.2932049783429,10.0232981493341,9.09165939347615,TRUE,2.40309116973351
"CAN","cpi",0.2,1976,3,1976,NA,0,7.16386445010846,7.35436289797006,7.22784311401172,7.25911367403926,TRUE,0.190498447861595
"CAN","cpi",0.2,1976,3,1976,NA,0.5,6.95865231844108,7.49139898693977,7.22784311401172,7.22502565269042,TRUE,0.532746668498689
"CAN","cpi",0.2,1976,3,1975,NA,1,11.9604390765306,12.9957190110261,7.22784311401172,12.4780790437784,FALSE,12.8667698407928
"CAN","cpi",0.2,1976,3,1975,NA,1.5,6.02818169742316,8.3435385793282,7.22784311401172,7.18586013837568,TRUE,2.31535688190504
"CAN","cpi",0.2,1977,3,1977,NA,0,7.49614092566618,7.68663937352778,7.58101410153764,7.59139014959698,TRUE,0.190498447861595
"CAN","cpi",0.2,1977,3,1977,NA,0.5,7.13069798553782,7.37007514554715,7.58101410153764,7.25038656554249,FALSE,0.766724549985563
"CAN","cpi",0.2,1977,3,1976,NA,1,5.3943131432092,6.46557723009962,7.58101410153764,5.92994518665441,FALSE,3.85985626548548
"CAN","cpi",0.2,1977,3,1976,NA,1.5,4.75790439378141,6.62118190549735,7.58101410153764,5.68954314963938,FALSE,4.26285800181668
"CAN","cpi",0.2,1978,3,1978,NA,0,8.65754020807308,8.72008132812816,8.50208927062595,8.68881076810062,FALSE,0.451168463672912
"CAN","cpi",0.2,1978,3,1978,NA,0.5,7.99239650764471,8.23177366765404,8.50208927062595,8.11208508764938,FALSE,0.915166167439089
"CAN","cpi",0.2,1978,3,1977,NA,1,7.37988845365766,9.31355001101719,8.50208927062595,8.34671923233743,TRUE,1.93366155735952
"CAN","cpi",0.2,1978,3,1977,NA,1.5,7.24727653757798,9.18093809493751,8.50208927062595,8.21410731625775,TRUE,1.93366155735952
"CAN","cpi",0.2,1979,3,1979,NA,0,8.53009477362157,8.59263589367665,8.65147652410481,8.56136533364911,FALSE,0.209642696125482
"CAN","cpi",0.2,1979,3,1979,NA,0.5,8.11123731684934,8.35061447685867,8.65147652410481,8.23092589685401,FALSE,0.991532278124675
"CAN","cpi",0.2,1979,3,1978,NA,1,9.01981608105841,10.3098208369282,8.65147652410481,9.66481845899329,FALSE,2.21085364825376
"CAN","cpi",0.2,1979,3,1978,NA,1.5,7.26514568576758,8.55515044163734,8.65147652410481,7.91014806370246,FALSE,1.53081996203843
"CAN","cpi",0.2,1980,3,1980,NA,0,9.50449649855742,9.56703761861251,9.5171912664748,9.53576705858497,TRUE,0.0625411200550872
"CAN","cpi",0.2,1980,3,1980,NA,0.5,8.31284707443345,8.97410214642376,9.5171912664748,8.6434746104286,FALSE,2.0189778721179
"CAN","cpi",0.2,1980,3,1979,NA,1,7.14467011346837,8.43467486933812,9.5171912664748,7.78967249140325,FALSE,3.99629574871144
"CAN","cpi",0.2,1980,3,1979,NA,1.5,7.65281334771697,8.94281810358673,9.5171912664748,8.29781572565185,FALSE,2.72593766308993
"CAN","cpi",0.2,1981,3,1981,NA,0,11.6917767874876,11.7322888596792,11.5813425032741,11.7120328235834,FALSE,0.316597782725256
"CAN","cpi",0.2,1981,3,1981,NA,0.5,11.998990988546,12.6602460605363,11.5813425032741,12.3296185245412,FALSE,1.70537628516999
"CAN","cpi",0.2,1981,3,1980,NA,1,10.1639508031589,11.9073020650628,11.5813425032741,11.0356264341109,TRUE,1.74335126190391
"CAN","cpi",0.2,1981,3,1980,NA,1.5,7.6530729558899,9.39642421779381,11.5813425032741,8.52474858684185,FALSE,7.20564697560474
"CAN","cpi",0.2,1982,3,1982,NA,0,10.2329679952792,10.2734800674708,10.1124203763629,10.253224031375,FALSE,0.341881119482294
"CAN","cpi",0.2,1982,3,1982,NA,0.5,9.79150397062833,10.4527590426186,10.1124203763629,10.1221315066235,TRUE,0.661255071990315
"CAN","cpi",0.2,1982,3,1981,NA,1,11.1070614777177,12.1984936160442,10.1124203763629,11.652777546881,FALSE,3.57803489171339
"CAN","cpi",0.2,1982,3,1981,NA,1.5,12.472625023219,13.9552819440237,10.1124203763629,13.2139534836213,FALSE,7.38316853794475
"CAN","cpi",0.2,1983,3,1983,NA,0,5.82337148737276,5.8638835595643,5.67091787896303,5.84362752346853,FALSE,0.421646093215861
"CAN","cpi",0.2,1983,3,1983,NA,0.5,4.63628833996559,4.77641462290512,5.67091787896303,4.70635148143536,FALSE,2.37638442308431
"CAN","cpi",0.2,1983,3,1982,NA,1,7.74269796838487,9.48604923028878,5.67091787896303,8.61437359933683,FALSE,6.9228014854585
"CAN","cpi",0.2,1983,3,1982,NA,1.5,8.97162739840343,10.7149786603073,5.67091787896303,9.84330302935538,FALSE,9.9951250605049
"CAN","cpi",0.2,1984,3,1984,NA,0,4.1929005956934,4.23341266788494,4.19799576814029,4.21315663178917,TRUE,0.040512072191536
"CAN","cpi",0.2,1984,3,1984,NA,0.5,4.39941452853117,5.06066960052148,4.19799576814029,4.73004206452632,FALSE,1.16480197296751
"CAN","cpi",0.2,1984,3,1983,NA,1,5.43362398738924,7.17697524929314,4.19799576814029,6.30529961834119,FALSE,4.83242181002628
"CAN","cpi",0.2,1984,3,1983,NA,1.5,1.9402187672258,3.68357002912971,4.19799576814029,2.81189439817776,FALSE,3.02941560943035
"CAN","cpi",0.2,1985,3,1985,NA,0,3.88689315333126,3.9240447375516,3.86444262005169,3.90546894544143,FALSE,0.0932779174192497
"CAN","cpi",0.2,1985,3,1985,NA,0.5,3.68113745553154,4.34239252752186,3.86444262005169,4.0117649915267,TRUE,0.661255071990317
"CAN","cpi",0.2,1985,3,1984,NA,1,2.41208678297825,4.16675717826908,3.86444262005169,3.28942198062367,TRUE,1.75467039529083
"CAN","cpi",0.2,1985,3,1984,NA,1.5,3.80236850080052,5.55703889609135,3.86444262005169,4.67970369844593,TRUE,1.75467039529083
"CAN","cpi",0.2,1986,3,1986,NA,0,4.10870168234412,4.14585326656446,4.08685396749431,4.12727747445429,FALSE,0.0917708713448726
"CAN","cpi",0.2,1986,3,1986,NA,0.5,4.42781883678018,4.72246357973019,4.08685396749431,4.57514120825518,FALSE,1.14705691616467
"CAN","cpi",0.2,1986,3,1985,NA,1,3.2699968675753,4.42003814643135,4.08685396749431,3.84501750700332,TRUE,1.15004127885605
"CAN","cpi",0.2,1986,3,1985,NA,1.5,3.77491154548703,5.25756846629172,4.08685396749431,4.51624000588938,TRUE,1.4826569208047
"CAN","cpi",0.2,1987,3,1987,NA,0,4.31904062786363,4.35619221208397,4.23980729277887,4.3376164199738,FALSE,0.235234921932233
"CAN","cpi",0.2,1987,3,1987,NA,0.5,3.7425161987562,4.03716094170621,4.23980729277887,3.8898385702312,FALSE,0.801260620631664
"CAN","cpi",0.2,1987,3,1986,NA,1,4.0752983104566,5.05040041801495,4.23980729277887,4.56284936423577,TRUE,0.975102107558344
"CAN","cpi",0.2,1987,3,1986,NA,1.5,4.66719554052756,5.6422976480859,4.23980729277887,5.15474659430673,FALSE,2.04357272693007
"CAN","cpi",0.2,1988,3,1988,NA,0,3.9817072039381,4.01885878815844,3.92899537638065,4.00028299604827,FALSE,0.168931153113948
"CAN","cpi",0.2,1988,3,1988,NA,0.5,3.20497798538935,3.85864759284141,3.92899537638065,3.53181278911538,FALSE,0.829539066300182
"CAN","cpi",0.2,1988,3,1987,NA,1,4.01489805673358,4.66856766418564,3.92899537638065,4.34173286045961,FALSE,0.868426308334367
"CAN","cpi",0.2,1988,3,1987,NA,1.5,3.02479447541471,4.50745139621941,3.92899537638065,3.76612293581706,TRUE,1.4826569208047
"CAN","cpi",0.2,1989,3,1989,NA,0,4.96564461806786,5.04649163198783,4.82821664544208,5.00606812502784,FALSE,0.424416945484422
"CAN","cpi",0.2,1989,3,1989,NA,0.5,4.17870898272175,4.85171977672633,4.82821664544208,4.51521437972404,TRUE,0.67301079400457
"CAN","cpi",0.2,1989,3,1988,NA,1,3.99053358148781,4.66354437549238,4.82821664544208,4.3270389784901,FALSE,1.08469146887881
"CAN","cpi",0.2,1989,3,1988,NA,1.5,2.99760646968689,3.85637854647702,4.82821664544208,3.42699250808196,FALSE,3.28836732420277
"CAN","cpi",0.2,1990,3,1990,NA,0,4.48128873053061,4.56213574445057,4.64347549432717,4.52171223749059,FALSE,0.284196388611463
"CAN","cpi",0.2,1990,3,1990,NA,0.5,4.91035026688154,5.53635479831762,4.64347549432717,5.22335253259958,FALSE,1.29319146282201
"CAN","cpi",0.2,1990,3,1989,NA,1,5.31090575521235,6.13638072337025,4.64347549432717,5.7236432392913,FALSE,2.49405062037085
"CAN","cpi",0.2,1990,3,1989,NA,1.5,4.17908496093143,5.66174188173612,4.64347549432717,4.92041342133377,TRUE,1.4826569208047
"CAN","cpi",0.2,1991,3,1991,NA,0,5.57575816125712,5.65660517517708,5.4258100696218,5.6161816682171,FALSE,0.455717243008268
"CAN","cpi",0.2,1991,3,1991,NA,0.5,8.51104874029947,9.13705327173554,5.4258100696218,8.8240510060175,FALSE,8.33910120813025
"CAN","cpi",0.2,1991,3,1990,NA,1,3.47896965015524,4.30444461831314,5.4258100696218,3.89170713423419,FALSE,3.62888859642954
"CAN","cpi",0.2,1991,3,1990,NA,1.5,5.27523438607935,6.13400646286948,5.4258100696218,5.70462042447442,TRUE,0.85877207679013
"CAN","cpi",0.2,1992,3,1992,NA,0,1.43441834702419,1.51647099780366,1.47496888572843,1.47544467241393,TRUE,0.0820526507794677
"CAN","cpi",0.2,1992,3,1992,NA,0.5,1.04769157692015,1.67369610835623,1.47496888572843,1.36069384263819,TRUE,0.626004531436074
"CAN","cpi",0.2,1992,3,1991,NA,1,2.08923328832296,2.78078112725454,1.47496888572843,2.43500720778875,FALSE,2.22720884541789
"CAN","cpi",0.2,1992,3,1991,NA,1.5,10.8615237049085,11.5530715438401,1.47496888572843,11.2072976243743,FALSE,24.1579348868819
"CAN","cpi",0.2,1993,3,1993,NA,0,1.77453686543604,1.855383879356,1.84351085411351,1.81496037239602,TRUE,0.080847013919966
"CAN","cpi",0.2,1993,3,1993,NA,0.5,2.28606397939972,2.58070872234973,1.84351085411351,2.43338635087472,FALSE,1.40102755616553
"CAN","cpi",0.2,1993,3,1992,NA,1,1.41651374372782,2.1080615826594,1.84351085411351,1.76228766319361,TRUE,0.691547838931576
"CAN","cpi",0.2,1993,3,1992,NA,1.5,1.25297669413221,1.94452453306379,1.84351085411351,1.598750613598,TRUE,0.691547838931576
"CAN","cpi",0.2,1994,3,1994,NA,0,0.191596745440437,0.24869770887542,0.161630694655448,0.220147227157928,FALSE,0.132016090397456
"CAN","cpi",0.2,1994,3,1994,NA,0.5,-1.04586994743754,-0.437215104649843,0.161630694655448,-0.741542526043691,FALSE,2.10576934105092
"CAN","cpi",0.2,1994,3,1993,NA,1,1.20361889658418,1.81227373937188,0.161630694655448,1.50794631797803,FALSE,3.21362534760954
"CAN","cpi",0.2,1994,3,1993,NA,1.5,2.51364975201711,3.1223045948048,0.161630694655448,2.81797717341095,FALSE,6.48870248619184
"CAN","cpi",0.2,1995,3,1995,NA,0,2.1262963778774,2.18339734131238,2.11688403676572,2.15484685959489,FALSE,0.0806318162141817
"CAN","cpi",0.2,1995,3,1995,NA,0.5,2.60451179521373,3.21316663800143,2.11688403676572,2.90883921660758,FALSE,1.82772423890774
"CAN","cpi",0.2,1995,3,1994,NA,1,1.6474067798193,2.256061622607,2.11688403676572,1.95173420121315,TRUE,0.608654842787694
"CAN","cpi",0.2,1995,3,1994,NA,1.5,-2.48416198221211,-1.87550713942441,2.11688403676572,-2.17983456081826,FALSE,10.589632783263
"CAN","cpi",0.2,1996,3,1996,NA,0,1.40370607091871,1.47963171657705,1.55309584667184,1.44166889374788,FALSE,0.25958597089532
"CAN","cpi",0.2,1996,3,1996,NA,0.5,1.08510878556265,1.63962655437306,1.55309584667184,1.36236766996786,TRUE,0.554517768810419
"CAN","cpi",0.2,1996,3,1995,NA,1,0.63421538374549,1.18873315255591,1.55309584667184,0.911474268150699,FALSE,1.46542450410026
"CAN","cpi",0.2,1996,3,1995,NA,1.5,3.7105888050929,4.26510657390332,1.55309584667184,3.98784768949811,FALSE,5.94825016486306
"CAN","cpi",0.2,1997,3,1997,NA,0,1.65015432262162,1.72607996827996,1.60528783555959,1.68811714545079,FALSE,0.188091863313407
"CAN","cpi",0.2,1997,3,1997,NA,0.5,1.82894979221764,2.38346756102806,1.60528783555959,2.10620867662285,FALSE,1.11367266045555
"CAN","cpi",0.2,1997,3,1996,NA,1,0.481201401654173,1.03571917046459,1.60528783555959,0.758460286059383,FALSE,1.97843943154792
"CAN","cpi",0.2,1997,3,1996,NA,1.5,1.3856196425215,1.94013741133192,1.60528783555959,1.66287852692671,TRUE,0.554517768810419
"CAN","cpi",0.2,1998,3,1998,NA,0,0.932781200241457,1.0087068458998,0.988908029337191,0.970744023070627,TRUE,0.0759256456583417
"CAN","cpi",0.2,1998,3,1998,NA,0.5,1.2273671241461,1.81457017593974,0.988908029337191,1.52096865004292,FALSE,1.18335078881591
"CAN","cpi",0.2,1998,3,1997,NA,1,0.746359063888175,1.33356211568181,0.988908029337191,1.03996058978499,TRUE,0.587203051793634
"CAN","cpi",0.2,1998,3,1997,NA,1.5,1.92699421517947,2.51419726697311,0.988908029337191,2.22059574107629,FALSE,2.93241851639934
"CAN","cpi",0.2,1999,3,1999,NA,0,1.76286416768938,1.81996513112436,1.7107350135213,1.79141464940687,FALSE,0.187423848855192
"CAN","cpi",0.2,1999,3,1999,NA,0.5,0.5614763220759,1.0396284233465,1.7107350135213,0.800552372711202,FALSE,2.15591857670759
"CAN","cpi",0.2,1999,3,1998,NA,1,0.235449374274309,0.713601475544913,1.7107350135213,0.474525424909611,FALSE,2.97098594621156
"CAN","cpi",0.2,1999,3,1998,NA,1.5,1.95300473294575,2.44252521397677,1.7107350135213,2.19776497346126,FALSE,1.09519477959215
"CAN","cpi",0.2,2000,3,2000,NA,0,2.70533812452978,2.76243908796476,2.6718361971244,2.73388860624727,FALSE,0.14085578194844
"CAN","cpi",0.2,2000,3,2000,NA,0.5,1.87618227171707,2.35433437298768,2.6718361971244,2.11525832235237,FALSE,1.27190666161242
"CAN","cpi",0.2,2000,3,1999,NA,1,2.57530477815283,3.05345687942343,2.6718361971244,2.81438082878813,TRUE,0.478152101270603
"CAN","cpi",0.2,2000,3,1999,NA,1.5,0.595475687645258,1.14935154165846,2.6718361971244,0.872413614651861,FALSE,4.36008749267805
"CAN","cpi",0.2,2001,3,2001,NA,0,2.70651667509883,2.76361763853382,2.47906219852806,2.73506715681632,FALSE,0.625737154861908
"CAN","cpi",0.2,2001,3,2001,NA,0.5,1.41683436305291,2.03043662954197,2.47906219852806,1.72363549629744,FALSE,1.7351661889543
"CAN","cpi",0.2,2001,3,2000,NA,1,3.43315648069652,4.04675874718558,2.47906219852806,3.73995761394105,FALSE,2.9988379719102
"CAN","cpi",0.2,2001,3,2000,NA,1.5,1.67619848172779,2.28980074821685,2.47906219852806,1.98299961497232,FALSE,1.08675589226709
"CAN","cpi",0.2,2002,3,2002,NA,0,2.32146352765641,2.3785644910914,2.20880570551249,2.3500140093739,FALSE,0.338745518794797
"CAN","cpi",0.2,2002,3,2002,NA,0.5,1.1633192477956,1.77816979951535,2.20880570551249,1.47074452365548,FALSE,1.69144031671259
"CAN","cpi",0.2,2002,3,2001,NA,1,0.488547455233019,1.10339800695276,2.20880570551249,0.79597273109289,FALSE,3.37836979811906
"CAN","cpi",0.2,2002,3,2001,NA,1.5,0.519593833914864,1.13444438563461,2.20880570551249,0.827019109774735,FALSE,3.30075385141444
"CAN","cpi",0.2,2003,3,2003,NA,0,2.74011490145199,2.79721586488697,2.71189071546809,2.76866538316948,FALSE,0.127661428394739
"CAN","cpi",0.2,2003,3,2003,NA,0.5,4.27472244327407,4.91818791600106,2.71189071546809,4.59645517963757,FALSE,4.55054479224195
"CAN","cpi",0.2,2003,3,2002,NA,1,4.01573256008393,4.65919803281092,2.71189071546809,4.33746529644743,FALSE,3.9030700842666
"CAN","cpi",0.2,2003,3,2002,NA,1.5,2.22765894283688,3.2017188627168,2.71189071546809,2.71468890277684,TRUE,0.974059919879926
"CAN","cpi",0.2,2004,3,2004,NA,0,1.73051411617292,1.80643976183127,1.83151661303942,1.7684769390021,FALSE,0.138617773678732
"CAN","cpi",0.2,2004,3,2004,NA,0.5,1.25606252548861,1.86897285407859,1.83151661303942,1.5625176897836,TRUE,0.61291032858998
"CAN","cpi",0.2,2004,3,2003,NA,1,1.1110888024433,1.72399913103328,1.83151661303942,1.41754396673829,FALSE,0.881704033605334
"CAN","cpi",0.2,2004,3,2003,NA,1.5,5.02005919880405,5.63296952739403,1.83151661303942,5.32651436309904,FALSE,8.58426679300155
"CAN","cpi",0.2,2005,3,2005,NA,0,2.32519490890647,2.43874424430926,2.18071628336509,2.38196957660787,FALSE,0.474745899256239
"CAN","cpi",0.2,2005,3,2005,NA,0.5,1.23950408501933,1.90557476163516,2.18071628336509,1.57253942332725,FALSE,1.35392448094065
"CAN","cpi",0.2,2005,3,2004,NA,1,0.66019761815206,1.32626829476789,2.18071628336509,0.993232956459974,FALSE,2.80219064810883
"CAN","cpi",0.2,2005,3,2004,NA,1.5,1.57286690114524,2.54692682102517,2.18071628336509,2.05989686108521,TRUE,0.974059919879926
"CAN","cpi",0.2,2006,3,2006,NA,0,2.0099507042795,2.12350003968229,1.97519342012289,2.0667253719809,FALSE,0.200442545794335
"CAN","cpi",0.2,2006,3,2006,NA,0.5,1.67549725308562,2.20009065234943,1.97519342012289,1.93779395271753,TRUE,0.524593399263809
"CAN","cpi",0.2,2006,3,2005,NA,1,3.21496708238594,3.73956048164975,1.97519342012289,3.47726378201784,FALSE,3.62402755492144
"CAN","cpi",0.2,2006,3,2005,NA,1.5,1.12439494426398,1.64898834352779,1.97519342012289,1.38669164389589,FALSE,1.34010609075155
"CAN","cpi",0.2,2007,3,2007,NA,0,2.0460209959569,2.17012581420265,2.10062087284572,2.10807340507977,TRUE,0.124104818245748
"CAN","cpi",0.2,2007,3,2007,NA,0.5,2.1511916386027,2.68705229982727,2.10062087284572,2.41912196921498,FALSE,0.662287575617015
"CAN","cpi",0.2,2007,3,2006,NA,1,0.234402754679526,0.770263415904087,2.10062087284572,0.502333085291807,FALSE,3.86175430357865
"CAN","cpi",0.2,2007,3,2006,NA,1.5,1.70249635057232,2.23835701179688,2.10062087284572,1.9704266811846,TRUE,0.535860661224561
"CAN","cpi",0.2,2008,3,2008,NA,0,2.89724034481663,3.01078968021942,2.31447335265955,2.95401501251803,FALSE,1.57046681579549
"CAN","cpi",0.2,2008,3,2008,NA,0.5,0.875229720391769,1.44409183035862,2.31447335265955,1.1596607753752,FALSE,2.74481591571918
"CAN","cpi",0.2,2008,3,2007,NA,1,0.0805991254027468,0.649461235369599,2.31447335265955,0.365030180386173,FALSE,4.73139240319173
"CAN","cpi",0.2,2008,3,2007,NA,1.5,3.46527322579986,4.03413533576671,2.31447335265955,3.74970428078329,FALSE,3.44586179281763
"CAN","cpi",0.2,2009,3,2009,NA,0,0.220548392624284,0.334097728027071,0.284533874408197,0.277323060325678,TRUE,0.113549335402787
"CAN","cpi",0.2,2009,3,2009,NA,0.5,-1.21439782910945,-0.639285872888442,0.284533874408197,-0.926841850998946,FALSE,2.88466132446261
"CAN","cpi",0.2,2009,3,2008,NA,1,4.10411429673398,4.67922625295499,0.284533874408197,4.39167027484448,FALSE,10.1240630120355
"CAN","cpi",0.2,2009,3,2008,NA,1.5,1.01962512859536,1.59473708481637,0.284533874408197,1.30718110670587,FALSE,2.41284009168892
"CAN","cpi",0.2,2010,3,2010,NA,0,1.69215631199474,1.80570564739752,1.75525687020327,1.74893097969613,TRUE,0.113549335402787
"CAN","cpi",0.2,2010,3,2010,NA,0.5,1.28664447422864,1.92364666696717,1.75525687020327,1.60514557059791,TRUE,0.637002192738525
"CAN","cpi",0.2,2010,3,2009,NA,1,-0.0119616378730264,1.30571588069321,1.75525687020327,0.646877121410091,FALSE,2.44152999234139
"CAN","cpi",0.2,2010,3,2009,NA,1.5,-1.94991012764491,-0.632232609078676,1.75525687020327,-1.29107136836179,FALSE,7.28640121677111
"CAN","cpi",0.2,2011,3,2011,NA,0,2.82913171888473,2.84403678335283,2.85717434028225,2.83658425111878,FALSE,0.0477489567916358
"CAN","cpi",0.2,2011,3,2011,NA,0.5,2.6261698537699,3.16416770028155,2.85717434028225,2.89516877702572,TRUE,0.537997846511649
"CAN","cpi",0.2,2011,3,2010,NA,1,1.57191462566702,2.81048856612132,2.85717434028225,2.19120159589417,FALSE,1.35528837585661
"CAN","cpi",0.2,2011,3,2010,NA,1.5,1.34432805651205,2.58290199696635,2.85717434028225,1.9636150267392,FALSE,1.92425479874405
"CAN","cpi",0.2,2012,3,2012,NA,0,1.4526705362206,1.4675756006887,1.50118536134935,1.46012306845465,FALSE,0.0989294661197079
"CAN","cpi",0.2,2012,3,2012,NA,0.5,1.66307605428291,1.96329865349364,1.50118536134935,1.81318735388827,FALSE,0.704949331544638
"CAN","cpi",0.2,2012,3,2011,NA,1,0.448173401421751,1.68674734187605,1.50118536134935,1.0674603716489,TRUE,1.2385739404543
"CAN","cpi",0.2,2012,3,2011,NA,1.5,2.64563481412318,3.88420875457748,1.50118536134935,3.26492178435033,FALSE,4.09969757238888
"CAN","cpi",0.2,2013,3,2013,NA,0,1.03219377170744,1.04709883617554,0.931270594714462,1.03964630394149,FALSE,0.267213006950546
"CAN","cpi",0.2,2013,3,2013,NA,0.5,1.0151166976498,1.31533929686053,0.931270594714462,1.16522799725517,FALSE,0.509837856549075
"CAN","cpi",0.2,2013,3,2012,NA,1,-0.856870417329696,-0.060703481280504,0.931270594714462,-0.4587869493051,FALSE,3.27610212603661
"CAN","cpi",0.2,2013,3,2012,NA,1.5,1.47210250289654,2.26826943894574,0.931270594714462,1.87018597092114,FALSE,2.1482467065044
"CAN","cpi",0.2,2014,3,2014,NA,0,1.98196433224723,1.99686939671532,1.87639912240215,1.98941686448128,FALSE,0.278818089080788
"CAN","cpi",0.2,2014,3,2014,NA,0.5,2.1352368808697,2.43545948008043,1.87639912240215,2.28534818047506,FALSE,0.947316995379598
"CAN","cpi",0.2,2014,3,2013,NA,1,0.535904789951803,1.33207172600099,1.87639912240215,0.933988257976399,FALSE,2.15698542705208
"CAN","cpi",0.2,2014,3,2013,NA,1.5,1.34624475426221,2.14241169031141,1.87639912240215,1.74432822228681,TRUE,0.796166936049192
"CAN","cpi",0.2,2015,3,2015,NA,0,1.25422817451725,1.26913323898535,1.11090953952792,1.2616807067513,FALSE,0.373201651941435
"CAN","cpi",0.2,2015,3,2015,NA,0.5,0.0682517955272053,0.368474394737938,1.11090953952792,0.218363095132572,FALSE,2.15631046118568
"CAN","cpi",0.2,2015,3,2014,NA,1,0.224257930977723,1.02230157548114,1.11090953952792,0.62327975322943,FALSE,1.01956355462036
"CAN","cpi",0.2,2015,3,2014,NA,1.5,3.14942350903982,3.94746715354324,1.11090953952792,3.54844533129153,FALSE,5.89432856828317
"CAN","cpi",0.2,2016,3,2016,NA,0,1.43657796028885,1.45148302475694,1.41168586698797,1.44403049252289,FALSE,0.0771352977202963
"CAN","cpi",0.2,2016,3,2016,NA,0.5,0.793589561237708,1.09381216044844,1.41168586698797,0.943700860843074,FALSE,1.09490686555955
"CAN","cpi",0.2,2016,3,2015,NA,1,1.25903655725083,2.05708020175425,1.41168586698797,1.65805837950254,TRUE,0.798043644503414
"CAN","cpi",0.2,2016,3,2015,NA,1.5,-0.186268617437261,0.611775027066153,1.41168586698797,0.212753204814446,FALSE,2.79782074430795
"CAN","cpi",0.2,2017,3,2017,NA,0,1.51427280834263,1.52917787281073,1.57888581671161,1.52172534057668,FALSE,0.139174924220297
"CAN","cpi",0.2,2017,3,2017,NA,0.5,2.02984621182807,2.3300688110388,1.57888581671161,2.17995751143343,FALSE,1.42762358700187
"CAN","cpi",0.2,2017,3,2016,NA,1,-0.00896962991210914,0.966289942684865,1.57888581671161,0.478660156386378,FALSE,2.50674925766384
"CAN","cpi",0.2,2017,3,2016,NA,1.5,0.459304015669513,1.63630756812351,1.57888581671161,1.04780579189651,TRUE,1.177003552454
"CAN","cpi",0.2,2018,3,2018,NA,0,2.41861610614643,2.43352117061453,2.23316270166586,2.42606863838048,FALSE,0.478538575669534
"CAN","cpi",0.2,2018,3,2018,NA,0.5,2.78705383800434,3.25496864308575,2.23316270166586,3.02101124054505,FALSE,1.85264264592762
"CAN","cpi",0.2,2018,3,2017,NA,1,0.0360682410400827,1.01132781363706,2.23316270166586,0.52369802733857,FALSE,4.02984679266898
"CAN","cpi",0.2,2018,3,2017,NA,1.5,2.55300181840618,3.61516186803638,2.23316270166586,3.08408184322128,FALSE,1.861757841481
"CAN","cpi",0.2,2019,3,2019,NA,0,2.00233326229839,2.04351344062532,1.91921619871868,2.02292335146186,FALSE,0.248972837276212
"CAN","cpi",0.2,2019,3,2019,NA,0.5,1.5265933413878,1.99450814646921,1.91921619871868,1.7605507439285,TRUE,0.467914805081407
"CAN","cpi",0.2,2019,3,2018,NA,1,1.48373713699836,2.45899670959533,1.91921619871868,1.97136692329685,TRUE,0.975259572596975
"CAN","cpi",0.2,2019,3,2018,NA,1.5,3.27909573761852,4.98093402072936,1.91921619871868,4.13001487917394,FALSE,5.10153713036043
"CAN","cpi",0.2,2020,3,2020,NA,0,0.727647764104921,0.768827942431849,0.71139989671781,0.748237853268385,FALSE,0.0817998467947049
"CAN","cpi",0.2,2020,3,2020,NA,0.5,1.04771539412401,1.36504630370437,0.71139989671781,1.20638084891419,FALSE,1.15811965309586
"CAN","cpi",0.2,2020,3,2019,NA,1,0.902534664683731,1.76998464408462,0.71139989671781,1.33625965438418,FALSE,1.34528689931569
"CAN","cpi",0.2,2020,3,2019,NA,1.5,1.62735691239585,3.32919519550669,0.71139989671781,2.47827605395127,FALSE,3.99173082230595
"CAN","cpi",0.2,2021,3,2021,NA,0,3.32839276555224,3.3930820166221,3.31148121717802,3.36073739108717,FALSE,0.106968122005401
"CAN","cpi",0.2,2021,3,2021,NA,0.5,2.71920053803014,3.0365314476105,3.31148121717802,2.87786599282032,FALSE,1.00470533349916
"CAN","cpi",0.2,2021,3,2020,NA,1,1.37195106759729,2.23940104699818,3.31148121717802,1.80567605729774,FALSE,3.54765040485049
"CAN","cpi",0.2,2021,3,2020,NA,1.5,0.512232087769363,2.2140703708802,3.31148121717802,1.36315122932478,FALSE,4.4453653988554
"CAN","cpi",0.2,2022,3,2022,NA,0,6.54457947121675,6.6182553843179,6.50977236228281,6.58141742776733,FALSE,0.160693685436004
"CAN","cpi",0.2,2022,3,2022,NA,0.5,6.50898143522517,6.97689624030657,6.50977236228281,6.74293883776587,TRUE,0.467914805081406
"CAN","cpi",0.2,2022,3,2021,NA,1,4.39191716026527,5.25936713966616,6.50977236228281,4.82564214996571,FALSE,3.99346303594252
"CAN","cpi",0.2,2022,3,2021,NA,1.5,3.0848315015967,4.78666978470754,6.50977236228281,3.93575064315212,FALSE,6.00959472704901
"CAN","cpi",0.2,2023,3,2023,NA,0,3.97347056326677,4.05559514905616,3.78831288758619,4.01453285616146,FALSE,0.545018774990837
"CAN","cpi",0.2,2023,3,2023,NA,0.5,2.84492681485175,3.31284161993316,3.78831288758619,3.07888421739245,FALSE,1.65659297421399
"CAN","cpi",0.2,2023,3,2022,NA,1,3.42300781599663,4.29045779539752,3.78831288758619,3.85673280569707,TRUE,0.86744997940089
"CAN","cpi",0.2,2023,3,2022,NA,1.5,7.22200369290711,8.92384197601795,3.78831288758619,8.07292283446253,FALSE,10.2860652964131
"CAN","cpi",0.2,2024,3,2023,NA,1,3.82867502745045,4.32142005247961,NA,4.07504753996503,NA,NA
"CAN","cpi",0.2,2024,3,2023,NA,1.5,1.56437134164147,3.26620962475231,NA,2.41529048319689,NA,NA
"CAN","cpi",0.3,1959,3,1959,NA,0,1.18309146292581,1.31673286570005,1.19382698397654,1.24991216431293,TRUE,0.133641402774239
"CAN","cpi",0.3,1959,3,1959,NA,0.5,-0.302226653146124,1.17790611632678,1.19382698397654,0.437839731590327,FALSE,1.52562096275794
"CAN","cpi",0.3,1959,3,1958,NA,1,1.01856124412301,2.49869401359591,1.19382698397654,1.75862762885946,TRUE,1.4801327694729
"CAN","cpi",0.3,1959,3,1958,NA,1.5,-0.816240480173583,4.36438393444889,1.19382698397654,1.77407172713766,TRUE,5.18062441462248
"CAN","cpi",0.3,1960,3,1960,NA,0,0.962960319135399,1.08426576605415,1.34209404870695,1.02361304259477,FALSE,0.857957683069621
"CAN","cpi",0.3,1960,3,1960,NA,0.5,-0.121410468452908,1.19937742881623,1.34209404870695,0.53898348018166,FALSE,1.72854966838549
"CAN","cpi",0.3,1960,3,1959,NA,1,3.29719978825986,4.61798768552899,1.34209404870695,3.95759373689442,FALSE,6.90680429599172
"CAN","cpi",0.3,1960,3,1959,NA,1.5,-2.94275324360316,1.19579961279339,1.34209404870695,-0.873476815404885,FALSE,4.55653695900672
"CAN","cpi",0.3,1961,3,1961,NA,0,0.948560757480698,1.06986620439945,1.00921348094007,1.00921348094007,TRUE,0.121305446918747
"CAN","cpi",0.3,1961,3,1961,NA,0.5,0.325257874235965,1.69316908764418,1.00921348094007,1.00921348094007,TRUE,1.36791121340821
"CAN","cpi",0.3,1961,3,1960,NA,1,-0.630185144100573,0.737726069307639,1.00921348094007,0.0537704626035329,FALSE,2.14358953235802
"CAN","cpi",0.3,1961,3,1960,NA,1.5,-2.93145822713831,1.20709462925824,1.00921348094007,-0.862181798940035,TRUE,4.13855285639656
"CAN","cpi",0.3,1962,3,1962,NA,0,1.04321462491879,1.16143342971077,1.04957947883042,1.10232402731478,TRUE,0.118218804791977
"CAN","cpi",0.3,1962,3,1962,NA,0.5,-0.755987252386214,0.755987252386214,1.04957947883042,0,FALSE,2.35080943747015
"CAN","cpi",0.3,1962,3,1961,NA,1,-0.955443018336539,0.955443018336539,1.04957947883042,0,FALSE,2.17984735236987
"CAN","cpi",0.3,1962,3,1961,NA,1.5,-1.94709681420058,1.94709681420058,1.04957947883042,0,TRUE,3.89419362840116
"CAN","cpi",0.3,1963,3,1963,NA,0,1.85652295598701,1.97331163463702,1.60677118395228,1.91491729531202,FALSE,0.830365170177799
"CAN","cpi",0.3,1963,3,1963,NA,0.5,0.0337181460922122,1.6399392831428,1.60677118395228,0.836828714617504,TRUE,1.60622113705058
"CAN","cpi",0.3,1963,3,1962,NA,1,1.6086718858149,3.51955792248798,1.60677118395228,2.56411490415144,FALSE,1.9163166134234
"CAN","cpi",0.3,1963,3,1962,NA,1.5,-1.87139527988011,1.87139527988011,1.60677118395228,0,TRUE,3.74279055976021
"CAN","cpi",0.3,1964,3,1964,NA,0,1.93037822513547,2.04716690378549,1.88764670034376,1.98877256446048,FALSE,0.238878749483477
"CAN","cpi",0.3,1964,3,1964,NA,0.5,0.613747592941294,2.15363253161085,1.88764670034376,1.38369006227607,TRUE,1.53988493866956
"CAN","cpi",0.3,1964,3,1963,NA,1,4.43499988513602,6.3458859218091,1.88764670034376,5.39044290347256,FALSE,9.18903799322239
"CAN","cpi",0.3,1964,3,1963,NA,1.5,-1.60677118395228,1.60677118395228,1.88764670034376,0,FALSE,4.01604384330878
"CAN","cpi",0.3,1965,3,1965,NA,0,2.28717613486498,2.40396481351499,2.29538304394236,2.34557047418999,TRUE,0.116788678650013
"CAN","cpi",0.3,1965,3,1965,NA,0.5,0.854807227180326,2.36678173195275,2.29538304394236,1.61079447956654,TRUE,1.51197450477243
"CAN","cpi",0.3,1965,3,1964,NA,1,1.46784490159931,3.38253234199762,2.29538304394236,2.42518862179847,TRUE,1.91468744039831
"CAN","cpi",0.3,1965,3,1964,NA,1.5,-0.788668631635885,2.42487373626868,2.29538304394236,0.818102552316399,TRUE,3.21354236790457
"CAN","cpi",0.3,1966,3,1966,NA,0,3.7640246983007,3.87619505897348,3.72486065470629,3.82010987863709,FALSE,0.224067628085371
"CAN","cpi",0.3,1966,3,1966,NA,0.5,3.30664542457982,4.67582255333145,3.72486065470629,3.99123398895563,TRUE,1.36917712875163
"CAN","cpi",0.3,1966,3,1965,NA,1,2.251777669122,4.16266370579508,3.72486065470629,3.20722068745854,TRUE,1.91088603667308
"CAN","cpi",0.3,1966,3,1965,NA,1.5,0.129357754693626,3.08391873794554,3.72486065470629,1.60663824631958,FALSE,4.78582360256834
"CAN","cpi",0.3,1967,3,1967,NA,0,3.71160331294993,3.82377367362271,3.49360316391996,3.76768849328632,FALSE,0.735027929329839
"CAN","cpi",0.3,1967,3,1967,NA,0.5,1.90349810612992,2.91141138226529,3.49360316391996,2.4074547441976,FALSE,2.67131836657729
"CAN","cpi",0.3,1967,3,1966,NA,1,2.61623258581992,3.74583387558576,3.49360316391996,3.18103323070284,TRUE,1.12960128976584
"CAN","cpi",0.3,1967,3,1966,NA,1.5,3.17400111324652,6.12856209649844,3.49360316391996,4.65128160487248,TRUE,2.95456098325191
"CAN","cpi",0.3,1968,3,1968,NA,0,4.11679427638757,4.22896463706035,3.95128347779386,4.17287945672396,FALSE,0.585058356654811
"CAN","cpi",0.3,1968,3,1968,NA,0.5,3.56701541973084,4.57492869586621,3.95128347779386,4.07097205779852,TRUE,1.00791327613537
"CAN","cpi",0.3,1968,3,1967,NA,1,5.28041617635556,6.4100174661214,3.95128347779386,5.84521682123848,FALSE,4.92712328565643
"CAN","cpi",0.3,1968,3,1967,NA,1.5,0.836809493064794,3.67450767173973,3.95128347779386,2.25565858240226,FALSE,3.62848619597244
"CAN","cpi",0.3,1969,3,1969,NA,0,4.53912146326979,4.65129182394257,4.42679496126681,4.59520664360618,FALSE,0.433103223538434
"CAN","cpi",0.3,1969,3,1969,NA,0.5,2.6997468597078,3.23249352820649,4.42679496126681,2.96612019395715,FALSE,3.94503647724247
"CAN","cpi",0.3,1969,3,1968,NA,1,6.16007565552515,7.28967694529099,4.42679496126681,6.72487630040807,FALSE,6.08183184478966
"CAN","cpi",0.3,1969,3,1968,NA,1.5,2.89779544010794,5.73549361878287,4.42679496126681,4.31664452944541,TRUE,2.83769817867494
"CAN","cpi",0.3,1970,3,1970,NA,0,3.55153020216286,3.66370056283564,3.28128405769805,3.60761538249925,FALSE,0.884302202000831
"CAN","cpi",0.3,1970,3,1970,NA,0.5,3.85620413614923,4.8641174122846,3.28128405769805,4.36016077421692,FALSE,2.65054207171019
"CAN","cpi",0.3,1970,3,1969,NA,1,4.34889383316843,5.47849512293427,3.28128405769805,4.91369447805135,FALSE,4.17991493396693
"CAN","cpi",0.3,1970,3,1969,NA,1.5,0.922060031878774,3.23741691378381,3.28128405769805,2.07973847283129,FALSE,2.44069157880285
"CAN","cpi",0.3,1971,3,1971,NA,0,2.82347978587258,3.01397823373417,2.64123406634756,2.91872900980337,FALSE,0.711200503647353
"CAN","cpi",0.3,1971,3,1971,NA,0.5,0.879614418295386,1.88752769443076,2.64123406634756,1.38357105636307,FALSE,3.16136005304053
"CAN","cpi",0.3,1971,3,1970,NA,1,2.22142309145624,4.13230912812931,2.64123406634756,3.17686610979278,TRUE,1.91088603667308
"CAN","cpi",0.3,1971,3,1970,NA,1.5,3.419117538396,5.8222087081295,2.64123406634756,4.62066312326275,FALSE,4.62561537558618
"CAN","cpi",0.3,1972,3,1972,NA,0,5.07685769772771,5.26735614558931,4.83230569625923,5.17210692165851,FALSE,0.88921845205726
"CAN","cpi",0.3,1972,3,1972,NA,0.5,4.25828591672178,5.26619919285715,4.83230569625923,4.76224255478946,TRUE,1.00791327613537
"CAN","cpi",0.3,1972,3,1971,NA,1,6.30300293717153,7.37426702406196,4.83230569625923,6.83863498061675,FALSE,5.27325620378272
"CAN","cpi",0.3,1972,3,1971,NA,1.5,0.752866041023887,3.15595721075739,4.83230569625923,1.95441162589064,FALSE,7.19265827116733
"CAN","cpi",0.3,1973,3,1973,NA,0,7.30945239292323,7.51170412115667,7.12388603531779,7.41057825703995,FALSE,0.732441321391833
"CAN","cpi",0.3,1973,3,1973,NA,0.5,5.7379573750694,6.74587065120477,7.12388603531779,6.24191401313708,FALSE,2.087957230744
"CAN","cpi",0.3,1973,3,1972,NA,1,7.59027679337413,8.66154088026456,7.12388603531779,8.12590883681935,FALSE,2.40380910990855
"CAN","cpi",0.3,1973,3,1972,NA,1.5,3.75976135904547,6.16285252877898,7.12388603531779,4.96130694391223,FALSE,5.14890118841582
"CAN","cpi",0.3,1974,3,1974,NA,0,10.1235687275338,10.4603920922126,10.2717243737774,10.2919804098732,TRUE,0.336823364678736
"CAN","cpi",0.3,1974,3,1974,NA,0.5,8.51284238436524,9.52075566050062,10.2717243737774,9.01679902243293,FALSE,3.15353817121195
"CAN","cpi",0.3,1974,3,1973,NA,1,10.9720066390299,12.0432707259203,10.2717243737774,11.5076386824751,FALSE,3.07207055904031
"CAN","cpi",0.3,1974,3,1973,NA,1.5,5.56122968749303,8.51579067074494,10.2717243737774,7.03851017911898,FALSE,7.97151442048756
"CAN","cpi",0.3,1975,3,1975,NA,0,10.2155736061265,10.4178253343599,10.0232981493341,10.3166994702432,FALSE,0.751610176211556
"CAN","cpi",0.3,1975,3,1975,NA,0.5,8.37422161964986,9.38213489578523,10.0232981493341,8.87817825771755,FALSE,2.83980828627506
"CAN","cpi",0.3,1975,3,1974,NA,1,11.1278164682134,12.1990805551039,10.0232981493341,11.6634485116586,FALSE,4.2270307122599
"CAN","cpi",0.3,1975,3,1974,NA,1.5,7.61437890185019,10.5689398851021,10.0232981493341,9.09165939347615,TRUE,2.95456098325192
"CAN","cpi",0.3,1976,3,1976,NA,0,7.09070199169989,7.42752535637863,7.22784311401172,7.25911367403926,TRUE,0.336823364678738
"CAN","cpi",0.3,1976,3,1976,NA,0.5,6.61491534877991,7.83513595660094,7.22784311401172,7.22502565269042,TRUE,1.22022060782103
"CAN","cpi",0.3,1976,3,1975,NA,1,11.8679687398679,13.0881893476889,7.22784311401172,12.4780790437784,FALSE,14.4777223959815
"CAN","cpi",0.3,1976,3,1975,NA,1.5,5.98431455350893,8.38740572324243,7.22784311401172,7.18586013837568,TRUE,2.40309116973351
"CAN","cpi",0.3,1977,3,1977,NA,0,7.42297846725761,7.75980183193635,7.58101410153764,7.59139014959698,TRUE,0.336823364678738
"CAN","cpi",0.3,1977,3,1977,NA,0.5,6.98401323129314,7.51675989979183,7.58101410153764,7.25038656554249,FALSE,0.716330102058156
"CAN","cpi",0.3,1977,3,1976,NA,1,4.92792238515285,6.93196798815597,7.58101410153764,5.92994518665441,FALSE,3.85846306980791
"CAN","cpi",0.3,1977,3,1976,NA,1.5,4.53186470868686,6.8472215905919,7.58101410153764,5.68954314963938,FALSE,4.4119069131786
"CAN","cpi",0.3,1978,3,1978,NA,0,8.52039908576125,8.85722245043999,8.50208927062595,8.68881076810062,FALSE,0.38913712220818
"CAN","cpi",0.3,1978,3,1978,NA,0.5,7.78145755165422,8.44271262364454,8.50208927062595,8.11208508764938,FALSE,0.830902634794346
"CAN","cpi",0.3,1978,3,1977,NA,1,7.14992285751233,9.54351560716252,8.50208927062595,8.34671923233743,TRUE,2.39359274965019
"CAN","cpi",0.3,1978,3,1977,NA,1.5,7.01731094143265,9.41090369108284,8.50208927062595,8.21410731625775,TRUE,2.39359274965019
"CAN","cpi",0.3,1979,3,1979,NA,0,8.39295365130974,8.72977701598848,8.65147652410481,8.56136533364911,TRUE,0.33682336467874
"CAN","cpi",0.3,1979,3,1979,NA,0.5,7.90029836085885,8.56155343284917,8.65147652410481,8.23092589685401,FALSE,0.918178189863586
"CAN","cpi",0.3,1979,3,1978,NA,1,8.58104192671547,10.7485949912711,8.65147652410481,9.66481845899329,TRUE,2.16755306455564
"CAN","cpi",0.3,1979,3,1978,NA,1.5,6.82637153142464,8.99392459598028,8.65147652410481,7.91014806370246,TRUE,2.16755306455564
"CAN","cpi",0.3,1980,3,1980,NA,0,9.44565586812926,9.62587824904067,9.5171912664748,9.53576705858497,TRUE,0.180222380911403
"CAN","cpi",0.3,1980,3,1980,NA,0.5,8.25347042745203,9.03347879340517,9.5171912664748,8.6434746104286,FALSE,2.16204400329492
"CAN","cpi",0.3,1980,3,1979,NA,1,6.91233729375783,8.66700768904866,9.5171912664748,7.78967249140325,FALSE,4.18376633079407
"CAN","cpi",0.3,1980,3,1979,NA,1.5,7.42048052800643,9.17515092329726,9.5171912664748,8.29781572565185,FALSE,2.73192851865521
"CAN","cpi",0.3,1981,3,1981,NA,0,11.6807622635559,11.7433033836109,11.5813425032741,11.7120328235834,FALSE,0.346597578002837
"CAN","cpi",0.3,1981,3,1981,NA,0.5,11.9396143415646,12.7196227075177,11.5813425032741,12.3296185245412,FALSE,1.80364218964016
"CAN","cpi",0.3,1981,3,1980,NA,1,10.0631360887376,12.0081167794841,11.5813425032741,11.0356264341109,TRUE,1.94498069074645
"CAN","cpi",0.3,1981,3,1980,NA,1.5,7.55225824146863,9.49723893221508,11.5813425032741,8.52474858684185,FALSE,7.89956232234377
"CAN","cpi",0.3,1982,3,1982,NA,0,10.2219534713475,10.2844945914026,10.1124203763629,10.253224031375,FALSE,0.375492820010882
"CAN","cpi",0.3,1982,3,1982,NA,0.5,9.73212732364692,10.5121356896001,10.1124203763629,10.1221315066235,TRUE,0.780008365953137
"CAN","cpi",0.3,1982,3,1981,NA,1,10.6859467682012,12.6196083255607,10.1124203763629,11.652777546881,FALSE,3.5723083911831
"CAN","cpi",0.3,1982,3,1981,NA,1.5,12.2471227049416,14.1807842623011,10.1124203763629,13.2139534836213,FALSE,8.03281106758412
"CAN","cpi",0.3,1983,3,1983,NA,0,5.81235696344099,5.87489808349607,5.67091787896303,5.84362752346853,FALSE,0.466652789992101
"CAN","cpi",0.3,1983,3,1983,NA,0.5,4.3757239454402,5.03697901743052,5.67091787896303,4.70635148143536,FALSE,2.47250896208323
"CAN","cpi",0.3,1983,3,1982,NA,1,7.6418832539636,9.58686394471005,5.67091787896303,8.61437359933683,FALSE,7.57631033360521
"CAN","cpi",0.3,1983,3,1982,NA,1.5,8.87081268398216,10.8157933747286,5.67091787896303,9.84330302935538,FALSE,11.0875372765154
"CAN","cpi",0.3,1984,3,1984,NA,0,4.18188607176163,4.24442719181672,4.19799576814029,4.21315663178917,TRUE,0.0625411200550854
"CAN","cpi",0.3,1984,3,1984,NA,0.5,4.34003788154976,5.12004624750289,4.19799576814029,4.73004206452632,FALSE,1.18584297569447
"CAN","cpi",0.3,1984,3,1983,NA,1,5.33280927296797,7.27778996371442,4.19799576814029,6.30529961834119,FALSE,5.1873049902541
"CAN","cpi",0.3,1984,3,1983,NA,1.5,1.83940405280453,3.78438474355098,4.19799576814029,2.81189439817776,FALSE,3.12672647528732
"CAN","cpi",0.3,1985,3,1985,NA,0,3.88521290934566,3.92572498153719,3.86444262005169,3.90546894544143,FALSE,0.0998557558885813
"CAN","cpi",0.3,1985,3,1985,NA,0.5,3.62176080855013,4.40176917450327,3.86444262005169,4.0117649915267,TRUE,0.780008365953137
"CAN","cpi",0.3,1985,3,1984,NA,1,2.20564544834585,4.37319851290149,3.86444262005169,3.28942198062367,TRUE,2.16755306455564
"CAN","cpi",0.3,1985,3,1984,NA,1.5,3.59592716616811,5.76348023072376,3.86444262005169,4.67970369844593,TRUE,2.16755306455564
"CAN","cpi",0.3,1986,3,1986,NA,0,4.09600691442675,4.15854803448184,4.08685396749431,4.12727747445429,FALSE,0.0886923970049148
"CAN","cpi",0.3,1986,3,1986,NA,0.5,4.24451367226002,4.90576874425034,4.08685396749431,4.57514120825518,FALSE,1.11171137132092
"CAN","cpi",0.3,1986,3,1985,NA,1,2.93071600036196,4.75931901364468,4.08685396749431,3.84501750700332,TRUE,1.82860301328272
"CAN","cpi",0.3,1986,3,1985,NA,1.5,3.60193849924801,5.43054151253074,4.08685396749431,4.51624000588938,TRUE,1.82860301328272
"CAN","cpi",0.3,1987,3,1987,NA,0,4.30634585994626,4.36888698000134,4.23980729277887,4.3376164199738,FALSE,0.252651311961898
"CAN","cpi",0.3,1987,3,1987,NA,0.5,3.55921103423605,4.22046610622636,4.23980729277887,3.8898385702312,FALSE,0.716515604997483
"CAN","cpi",0.3,1987,3,1986,NA,1,3.98782872480775,5.1378700036638,4.23980729277887,4.56284936423577,TRUE,1.15004127885605
"CAN","cpi",0.3,1987,3,1986,NA,1.5,4.41341813390438,5.89607505470908,4.23980729277887,5.15474659430673,FALSE,1.97868789544902
"CAN","cpi",0.3,1988,3,1988,NA,0,3.95985948908828,4.04070650300825,3.92899537638065,4.00028299604827,FALSE,0.169030193084623
"CAN","cpi",0.3,1988,3,1988,NA,0.5,3.18184406656771,3.88178151166304,3.92899537638065,3.53181278911538,FALSE,0.834834201431368
"CAN","cpi",0.3,1988,3,1987,NA,1,3.79601679129633,4.88744892962289,3.92899537638065,4.34173286045961,TRUE,1.09143213832656
"CAN","cpi",0.3,1988,3,1987,NA,1.5,2.95086185742282,4.5813840142113,3.92899537638065,3.76612293581706,TRUE,1.63052215678848
"CAN","cpi",0.3,1989,3,1989,NA,0,4.96504179963811,5.04709445041758,4.82821664544208,5.00606812502784,FALSE,0.472981662768129
"CAN","cpi",0.3,1989,3,1989,NA,0.5,4.12521019674747,4.90521856270061,4.82821664544208,4.51521437972404,TRUE,0.780008365953137
"CAN","cpi",0.3,1989,3,1988,NA,1,3.91430149441114,4.73977646256905,4.82821664544208,4.3270389784901,FALSE,1.07816120493799
"CAN","cpi",0.3,1989,3,1988,NA,1.5,2.68566404767961,4.16832096848431,4.82821664544208,3.42699250808196,FALSE,3.36807314068404
"CAN","cpi",0.3,1990,3,1990,NA,0,4.48068591210085,4.56273856288032,4.64347549432717,4.52171223749059,FALSE,0.312729597770462
"CAN","cpi",0.3,1990,3,1990,NA,0.5,4.87338381005191,5.57332125514725,4.64347549432717,5.22335253259958,FALSE,1.35681834716603
"CAN","cpi",0.3,1990,3,1989,NA,1,5.22246557233932,6.22482090624328,4.64347549432717,5.7236432392913,FALSE,2.65661269965296
"CAN","cpi",0.3,1990,3,1989,NA,1.5,4.10515234293953,5.73567449972802,4.64347549432717,4.92041342133377,TRUE,1.63052215678848
"CAN","cpi",0.3,1991,3,1991,NA,0,5.57515534282737,5.65720799360683,5.4258100696218,5.6161816682171,FALSE,0.50875343136681
"CAN","cpi",0.3,1991,3,1991,NA,0.5,8.47408228346984,9.17401972856517,5.4258100696218,8.8240510060175,FALSE,9.4092866275183
"CAN","cpi",0.3,1991,3,1990,NA,1,3.39052946728221,4.39288480118617,5.4258100696218,3.89170713423419,FALSE,3.95357038657717
"CAN","cpi",0.3,1991,3,1990,NA,1.5,4.88935934608018,6.51988150286866,5.4258100696218,5.70462042447442,TRUE,1.63052215678848
"CAN","cpi",0.3,1992,3,1992,NA,0,1.40415705274631,1.54673229208154,1.47496888572843,1.47544467241393,TRUE,0.142575239335226
"CAN","cpi",0.3,1992,3,1992,NA,0.5,1.01072512009052,1.71066256518586,1.47496888572843,1.36069384263819,TRUE,0.699937445095334
"CAN","cpi",0.3,1992,3,1991,NA,1,1.96972535511522,2.90028906046227,1.47496888572843,2.43500720778875,FALSE,2.34415361788074
"CAN","cpi",0.3,1992,3,1991,NA,1.5,10.7420157717008,11.6725794770479,1.47496888572843,11.2072976243743,FALSE,27.407840522411
"CAN","cpi",0.3,1993,3,1993,NA,0,1.77393404700629,1.85598669778575,1.84351085411351,1.81496037239602,TRUE,0.0820526507794677
"CAN","cpi",0.3,1993,3,1993,NA,0.5,2.12038408515669,2.74638861659276,1.84351085411351,2.43338635087472,FALSE,1.41707090584514
"CAN","cpi",0.3,1993,3,1992,NA,1,1.29700581052009,2.22756951586714,1.84351085411351,1.76228766319361,TRUE,0.930563705347047
"CAN","cpi",0.3,1993,3,1992,NA,1.5,1.13346876092448,2.06403246627152,1.84351085411351,1.598750613598,TRUE,0.930563705347047
"CAN","cpi",0.3,1994,3,1994,NA,0,0.179723720197945,0.260570734117911,0.161630694655448,0.220147227157928,FALSE,0.132541372612817
"CAN","cpi",0.3,1994,3,1994,NA,0.5,-1.08871471320344,-0.394370338883943,0.161630694655448,-0.741542526043691,FALSE,2.28291875586061
"CAN","cpi",0.3,1994,3,1993,NA,1,1.16077413081828,1.85511850513778,0.161630694655448,1.50794631797803,FALSE,3.54903990621331
"CAN","cpi",0.3,1994,3,1993,NA,1.5,2.4708049862512,3.1651493605707,0.161630694655448,2.81797717341095,FALSE,7.29198520745023
"CAN","cpi",0.3,1995,3,1995,NA,0,2.1144233526349,2.19527036655487,2.11688403676572,2.15484685959489,TRUE,0.080847013919966
"CAN","cpi",0.3,1995,3,1995,NA,0.5,2.56166702944783,3.25601140376733,2.11688403676572,2.90883921660758,FALSE,1.96515292483983
"CAN","cpi",0.3,1995,3,1994,NA,1,1.6045620140534,2.2989063883729,2.11688403676572,1.95173420121315,TRUE,0.694344374319495
"CAN","cpi",0.3,1995,3,1994,NA,1.5,-2.52700674797801,-1.83266237365851,2.11688403676572,-2.17983456081826,FALSE,11.9787626898173
"CAN","cpi",0.3,1996,3,1996,NA,0,1.4012453867879,1.48209240070786,1.55309584667184,1.44166889374788,FALSE,0.283714002388478
"CAN","cpi",0.3,1996,3,1996,NA,0.5,1.04509395368212,1.67964138625359,1.55309584667184,1.36236766996786,TRUE,0.634547432571461
"CAN","cpi",0.3,1996,3,1995,NA,1,0.594200551864968,1.22874798443643,1.55309584667184,0.911474268150699,FALSE,1.56125561038693
"CAN","cpi",0.3,1996,3,1995,NA,1.5,3.67057397321238,4.30512140578384,1.55309584667184,3.98784768949811,FALSE,6.68448493697299
"CAN","cpi",0.3,1997,3,1997,NA,0,1.64769363849081,1.72854065241077,1.60528783555959,1.68811714545079,FALSE,0.202006450866292
"CAN","cpi",0.3,1997,3,1997,NA,0.5,1.78893496033712,2.42348239290858,1.60528783555959,2.10620867662285,FALSE,1.15925350336441
"CAN","cpi",0.3,1997,3,1996,NA,1,0.441186569773652,1.07573400234511,1.60528783555959,0.758460286059383,FALSE,2.14755838461283
"CAN","cpi",0.3,1997,3,1996,NA,1.5,1.34560481064098,1.98015224321244,1.60528783555959,1.66287852692671,TRUE,0.634547432571461
"CAN","cpi",0.3,1998,3,1998,NA,0,0.912227490568147,1.02926055557311,0.988908029337191,0.970744023070627,TRUE,0.117033065004962
"CAN","cpi",0.3,1998,3,1998,NA,0.5,1.17442060549851,1.86751669458733,0.988908029337191,1.52096865004292,FALSE,1.2231320209783
"CAN","cpi",0.3,1998,3,1997,NA,1,0.693412545240584,1.3865086343294,0.988908029337191,1.03996058978499,TRUE,0.693096089088816
"CAN","cpi",0.3,1998,3,1997,NA,1.5,1.87404769653188,2.5671437856207,0.988908029337191,2.22059574107629,FALSE,3.22206656678793
"CAN","cpi",0.3,1999,3,1999,NA,0,1.7534518265777,1.82937747223604,1.7107350135213,1.79141464940687,FALSE,0.197973682962354
"CAN","cpi",0.3,1999,3,1999,NA,0.5,0.438266373260923,1.16283837216148,1.7107350135213,0.800552372711202,FALSE,2.28999097421432
"CAN","cpi",0.3,1999,3,1998,NA,1,0.112239425459333,0.836811424359889,1.7107350135213,0.474525424909611,FALSE,3.22149653936172
"CAN","cpi",0.3,1999,3,1998,NA,1.5,1.83547897401098,2.56005097291154,1.7107350135213,2.19776497346126,FALSE,1.08098331458537
"CAN","cpi",0.3,2000,3,2000,NA,0,2.6959257834181,2.77185142907644,2.6718361971244,2.73388860624727,FALSE,0.144753035068923
"CAN","cpi",0.3,2000,3,2000,NA,0.5,1.68828870139642,2.54222794330833,2.6718361971244,2.11525832235237,FALSE,1.22424853852926
"CAN","cpi",0.3,2000,3,1999,NA,1,2.38741120783217,3.24135044974408,2.6718361971244,2.81438082878813,TRUE,0.853939241911911
"CAN","cpi",0.3,2000,3,1999,NA,1.5,0.445443993695905,1.29938323560782,2.6718361971244,0.872413614651861,FALSE,4.77523341767358
"CAN","cpi",0.3,2001,3,2001,NA,0,2.69710433398715,2.7730299796455,2.47906219852806,2.73506715681632,FALSE,0.698903175541458
"CAN","cpi",0.3,2001,3,2001,NA,0.5,1.39829522592713,2.04897576666774,2.47906219852806,1.72363549629744,FALSE,1.87949891748438
"CAN","cpi",0.3,2001,3,2000,NA,1,3.41461734357074,4.06529788431135,2.47906219852806,3.73995761394105,FALSE,3.32369524086255
"CAN","cpi",0.3,2001,3,2000,NA,1.5,1.65765934460201,2.30833988534263,2.47906219852806,1.98299961497232,FALSE,1.13845857841329
"CAN","cpi",0.3,2002,3,2002,NA,0,2.31205118654473,2.38797683220307,2.20880570551249,2.3500140093739,FALSE,0.370912734321903
"CAN","cpi",0.3,2002,3,2002,NA,0.5,1.12213929552633,1.81934975178462,2.20880570551249,1.47074452365548,FALSE,1.80994175262362
"CAN","cpi",0.3,2002,3,2001,NA,1,0.447367502963743,1.14457795922204,2.20880570551249,0.79597273109289,FALSE,3.73786115994529
"CAN","cpi",0.3,2002,3,2001,NA,1.5,0.339989149834772,1.3140490697147,2.20880570551249,0.827019109774735,FALSE,3.53050745073075
"CAN","cpi",0.3,2003,3,2003,NA,0,2.73070256034031,2.80662820599865,2.71189071546809,2.76866538316948,FALSE,0.129673773864692
"CAN","cpi",0.3,2003,3,2003,NA,0.5,4.24784995150842,4.94506040776672,2.71189071546809,4.59645517963757,FALSE,5.08566541637353
"CAN","cpi",0.3,2003,3,2002,NA,1,3.98886006831828,4.68607052457658,2.71189071546809,4.33746529644743,FALSE,4.34569432154455
"CAN","cpi",0.3,2003,3,2002,NA,1.5,2.2186263192211,3.21075148633258,2.71189071546809,2.71468890277684,TRUE,0.992125167111485
"CAN","cpi",0.3,2004,3,2004,NA,0,1.7117022713007,1.82525160670349,1.83151661303942,1.7684769390021,FALSE,0.131449353505454
"CAN","cpi",0.3,2004,3,2004,NA,0.5,1.2016538346213,1.92338154494589,1.83151661303942,1.5625176897836,TRUE,0.721727710324592
"CAN","cpi",0.3,2004,3,2003,NA,1,1.05668011157599,1.77840782190059,1.83151661303942,1.41754396673829,FALSE,0.873467113578408
"CAN","cpi",0.3,2004,3,2003,NA,1.5,4.83948440315908,5.813544323039,1.83151661303942,5.32651436309904,FALSE,9.56825360593609
"CAN","cpi",0.3,2005,3,2005,NA,0,2.32345304410538,2.44048610911035,2.18071628336509,2.38196957660787,FALSE,0.5248523814058
"CAN","cpi",0.3,2005,3,2005,NA,0.5,1.09952278982382,2.04555605683068,2.18071628336509,1.57253942332725,FALSE,1.33220534281947
"CAN","cpi",0.3,2005,3,2004,NA,1,0.520216322956545,1.4662495899634,2.18071628336509,0.993232956459974,FALSE,2.98736667672596
"CAN","cpi",0.3,2005,3,2004,NA,1.5,1.56383427752946,2.55595944464095,2.18071628336509,2.05989686108521,TRUE,0.992125167111485
"CAN","cpi",0.3,2006,3,2006,NA,0,2.00467296285802,2.12877778110377,1.97519342012289,2.0667253719809,FALSE,0.208332083203287
"CAN","cpi",0.3,2006,3,2006,NA,0.5,1.4647773192141,2.41081058622096,1.97519342012289,1.93779395271753,TRUE,0.94603326700686
"CAN","cpi",0.3,2006,3,2005,NA,1,3.00424714851441,3.95028041552127,1.97519342012289,3.47726378201784,FALSE,3.88618677669694
"CAN","cpi",0.3,2006,3,2005,NA,1.5,0.899661683955923,1.87372160383585,1.97519342012289,1.38669164389589,FALSE,1.26397939498575
"CAN","cpi",0.3,2007,3,2007,NA,0,2.04503373104244,2.1711130791171,2.10062087284572,2.10807340507977,TRUE,0.126079348074654
"CAN","cpi",0.3,2007,3,2007,NA,0.5,1.91820112815172,2.92004281027825,2.10062087284572,2.41912196921498,TRUE,1.00184168212652
"CAN","cpi",0.3,2007,3,2006,NA,1,-0.061992683938747,1.06665885452236,2.10062087284572,0.502333085291807,FALSE,4.08282873367071
"CAN","cpi",0.3,2007,3,2006,NA,1.5,1.40610091195405,2.53475245041516,2.10062087284572,1.9704266811846,TRUE,1.12865153846111
"CAN","cpi",0.3,2008,3,2008,NA,0,2.89196260339515,3.0160674216409,2.31447335265955,2.95401501251803,FALSE,1.77407410606175
"CAN","cpi",0.3,2008,3,2008,NA,0.5,0.667013247966999,1.65230830278339,2.31447335265955,1.1596607753752,FALSE,2.87719519731971
"CAN","cpi",0.3,2008,3,2007,NA,1,-0.127617347022024,0.857677707794369,2.31447335265955,0.365030180386173,FALSE,5.14756832585977
"CAN","cpi",0.3,2008,3,2007,NA,1.5,3.25705675337509,4.24235180819148,2.31447335265955,3.74970428078329,FALSE,3.67839048543222
"CAN","cpi",0.3,2009,3,2009,NA,0,0.215270651202803,0.339375469448552,0.284533874408197,0.277323060325678,TRUE,0.124104818245748
"CAN","cpi",0.3,2009,3,2009,NA,0.5,-1.45890247170467,-0.394781230293218,0.284533874408197,-0.926841850998946,FALSE,3.00502154055836
"CAN","cpi",0.3,2009,3,2008,NA,1,3.55441363142194,5.22892691826702,0.284533874408197,4.39167027484448,FALSE,11.0170268783129
"CAN","cpi",0.3,2009,3,2008,NA,1.5,0.469924463283328,2.14443775012841,0.284533874408197,1.30718110670587,FALSE,2.20420068363117
"CAN","cpi",0.3,2010,3,2010,NA,0,1.68687857057325,1.810983388819,1.75525687020327,1.74893097969613,TRUE,0.124104818245748
"CAN","cpi",0.3,2010,3,2010,NA,0.5,1.04856769582588,2.16172344536993,1.75525687020327,1.60514557059791,TRUE,1.11315574954405
"CAN","cpi",0.3,2010,3,2009,NA,1,-0.214742652865733,1.50849689568592,1.75525687020327,0.646877121410091,FALSE,2.42826804717267
"CAN","cpi",0.3,2010,3,2009,NA,1.5,-2.15269114263762,-0.42945159408597,1.75525687020327,-1.29107136836179,FALSE,7.9652637322352
"CAN","cpi",0.3,2011,3,2011,NA,0,2.77980958341739,2.89335891882018,2.85717434028225,2.83658425111878,TRUE,0.113549335402787
"CAN","cpi",0.3,2011,3,2011,NA,0.5,2.57666768065646,3.21366987339499,2.85717434028225,2.89516877702572,TRUE,0.637002192738525
"CAN","cpi",0.3,2011,3,2010,NA,1,1.34942864066374,3.0329745511246,2.85717434028225,2.19120159589417,TRUE,1.68354591046086
"CAN","cpi",0.3,2011,3,2010,NA,1.5,1.12184207150877,2.80538798196963,2.85717434028225,1.9636150267392,FALSE,1.8315069342112
"CAN","cpi",0.3,2012,3,2012,NA,0,1.43953297929119,1.48071315761812,1.50118536134935,1.46012306845465,FALSE,0.0996721889875819
"CAN","cpi",0.3,2012,3,2012,NA,0.5,1.54418843063245,2.0821862771441,1.50118536134935,1.81318735388827,FALSE,0.660863758749089
"CAN","cpi",0.3,2012,3,2011,NA,1,0.225687416418471,1.90923332687933,1.50118536134935,1.0674603716489,TRUE,1.68354591046086
"CAN","cpi",0.3,2012,3,2011,NA,1.5,2.4231488291199,4.10669473958076,1.50118536134935,3.26492178435033,FALSE,4.31772724694815
"CAN","cpi",0.3,2013,3,2013,NA,0,1.01905621477803,1.06023639310495,0.931270594714462,1.03964630394149,FALSE,0.291996235651397
"CAN","cpi",0.3,2013,3,2013,NA,0.5,0.89622907399934,1.43422692051099,0.931270594714462,1.16522799725517,TRUE,0.53799784651165
"CAN","cpi",0.3,2013,3,2012,NA,1,-1.30722771181519,0.389653813204991,0.931270594714462,-0.4587869493051,FALSE,3.24435804361867
"CAN","cpi",0.3,2013,3,2012,NA,1.5,1.02174520841105,2.71862673343123,0.931270594714462,1.87018597092114,FALSE,1.95538042129614
"CAN","cpi",0.3,2014,3,2014,NA,0,1.96882677531781,2.01000695364474,1.87639912240215,1.98941686448128,FALSE,0.305259186657388
"CAN","cpi",0.3,2014,3,2014,NA,0.5,2.05139077793436,2.51930558301577,1.87639912240215,2.28534818047506,FALSE,0.967890963744861
"CAN","cpi",0.3,2014,3,2013,NA,1,0.085547495466308,1.78242902048649,1.87639912240215,0.933988257976399,FALSE,1.9653675304935
"CAN","cpi",0.3,2014,3,2013,NA,1.5,0.895887459776719,2.5927689847969,1.87639912240215,1.74432822228681,TRUE,1.69688152502018
"CAN","cpi",0.3,2015,3,2015,NA,0,1.24109061758784,1.28227079591476,1.11090953952792,1.2616807067513,FALSE,0.413126115640985
"CAN","cpi",0.3,2015,3,2015,NA,0.5,-0.0155943074081317,0.452320497673275,1.11090953952792,0.218363095132572,FALSE,2.34959778180896
"CAN","cpi",0.3,2015,3,2014,NA,1,-0.142176567096946,1.38873607355581,1.11090953952792,0.62327975322943,TRUE,1.53091264065275
"CAN","cpi",0.3,2015,3,2014,NA,1.5,2.78298901096515,4.3139016516179,1.11090953952792,3.54844533129153,FALSE,6.30828255904485
"CAN","cpi",0.3,2016,3,2016,NA,0,1.42344040335943,1.46462058168636,1.41168586698797,1.44403049252289,FALSE,0.0747645679596829
"CAN","cpi",0.3,2016,3,2016,NA,0.5,0.709743458302371,1.17765826338378,1.41168586698797,0.943700860843074,FALSE,1.13656510109337
"CAN","cpi",0.3,2016,3,2015,NA,1,0.892602059176166,2.42351469982892,1.41168586698797,1.65805837950254,TRUE,1.53091264065275
"CAN","cpi",0.3,2016,3,2015,NA,1.5,-0.55270311551193,0.978209525140822,1.41168586698797,0.212753204814446,FALSE,2.76941647450173
"CAN","cpi",0.3,2017,3,2017,NA,0,1.50113525141322,1.54231542974015,1.57888581671161,1.52172534057668,FALSE,0.145666998245398
"CAN","cpi",0.3,2017,3,2017,NA,0.5,1.94600010889273,2.41391491397414,1.57888581671161,2.17995751143343,FALSE,1.51681278274175
"CAN","cpi",0.3,2017,3,2016,NA,1,-0.187312588001696,1.14463290077445,1.57888581671161,0.478660156386378,FALSE,2.57266810573946
"CAN","cpi",0.3,2017,3,2016,NA,1.5,0.154246478353466,1.94136510543956,1.57888581671161,1.04780579189651,TRUE,1.7871186270861
"CAN","cpi",0.3,2018,3,2018,NA,0,2.40547854921702,2.44665872754395,2.23316270166586,2.42606863838048,FALSE,0.53351117133024
"CAN","cpi",0.3,2018,3,2018,NA,0.5,2.70900924800612,3.33301323308398,2.23316270166586,3.02101124054505,FALSE,1.98356554605003
"CAN","cpi",0.3,2018,3,2017,NA,1,-0.142274717049504,1.18967077172664,2.23316270166586,0.52369802733857,FALSE,4.31335100288819
"CAN","cpi",0.3,2018,3,2017,NA,1.5,2.19052252967823,3.97764115676433,2.23316270166586,3.08408184322128,TRUE,1.7871186270861
"CAN","cpi",0.3,2019,3,2019,NA,0,1.99057872592693,2.05526797699679,1.91921619871868,2.02292335146186,FALSE,0.268582185950569
"CAN","cpi",0.3,2019,3,2019,NA,0.5,1.44854875138957,2.07255273646743,1.91921619871868,1.7605507439285,TRUE,0.624003985077857
"CAN","cpi",0.3,2019,3,2018,NA,1,1.30539417890877,2.63733966768492,1.91921619871868,1.97136692329685,TRUE,1.33194548877615
"CAN","cpi",0.3,2019,3,2018,NA,1.5,3.23645556563089,5.02357419271699,1.91921619871868,4.13001487917394,FALSE,5.55065967540669
"CAN","cpi",0.3,2020,3,2020,NA,0,0.715893227733457,0.780582478803313,0.71139989671781,0.748237853268385,FALSE,0.0775273396859894
"CAN","cpi",0.3,2020,3,2020,NA,0.5,0.972423446373488,1.4403382514549,0.71139989671781,1.20638084891419,FALSE,1.2136963755262
"CAN","cpi",0.3,2020,3,2019,NA,1,0.848629868085689,1.82388944068266,0.71139989671781,1.33625965438418,FALSE,1.36734520507663
"CAN","cpi",0.3,2020,3,2019,NA,1.5,1.58471674040822,3.37183536749432,0.71139989671781,2.47827605395127,FALSE,4.28230960905871
"CAN","cpi",0.3,2021,3,2021,NA,0,3.3238994345366,3.39757534763775,3.31148121717802,3.36073739108717,FALSE,0.109156534125638
"CAN","cpi",0.3,2021,3,2021,NA,0.5,2.64390859027962,3.11182339536103,3.31148121717802,2.87786599282032,FALSE,1.03836572455854
"CAN","cpi",0.3,2021,3,2020,NA,1,1.31804627099925,2.29330584359623,3.31148121717802,1.80567605729774,FALSE,3.88433206854497
"CAN","cpi",0.3,2021,3,2020,NA,1.5,0.469591915781733,2.25671054286783,3.31148121717802,1.36315122932478,FALSE,4.80074912511522
"CAN","cpi",0.3,2022,3,2022,NA,0,6.54035513487263,6.62247972066202,6.50977236228281,6.58141742776733,FALSE,0.169503936046025
"CAN","cpi",0.3,2022,3,2022,NA,0.5,6.43093684522694,7.0549408303048,6.50977236228281,6.74293883776587,TRUE,0.624003985077856
"CAN","cpi",0.3,2022,3,2021,NA,1,4.33801236366723,5.3132719362642,6.50977236228281,4.82564214996571,FALSE,4.39383221836444
"CAN","cpi",0.3,2022,3,2021,NA,1.5,3.04219132960908,4.82930995669517,6.50977236228281,3.93575064315212,FALSE,6.58843978590792
"CAN","cpi",0.3,2023,3,2023,NA,0,3.96527668225232,4.06378903007061,3.78831288758619,4.01453285616146,FALSE,0.604123189721512
"CAN","cpi",0.3,2023,3,2023,NA,0.5,2.76688222485353,3.39088620993138,3.78831288758619,3.07888421739245,FALSE,1.75950877837731
"CAN","cpi",0.3,2023,3,2022,NA,1,3.36910301939858,4.34436259199556,3.78831288758619,3.85673280569707,TRUE,0.975259572596975
"CAN","cpi",0.3,2023,3,2022,NA,1.5,7.13400745825585,9.01183821066921,3.78831288758619,8.07292283446253,FALSE,11.4369580971838
"CAN","cpi",0.3,2024,3,2023,NA,1,3.58741775366654,4.56267732626352,NA,4.07504753996503,NA,NA
"CAN","cpi",0.3,2024,3,2023,NA,1.5,1.47637510699021,3.35420585940356,NA,2.41529048319689,NA,NA
"CAN","cpi",0.4,1959,3,1959,NA,0,1.18151055259754,1.31831377602832,1.19382698397654,1.24991216431293,TRUE,0.136803223430782
"CAN","cpi",0.4,1959,3,1959,NA,0.5,-0.565461463284935,1.44114092646559,1.19382698397654,0.437839731590327,TRUE,2.00660238975052
"CAN","cpi",0.4,1959,3,1958,NA,1,-0.330390455248133,3.84764571296706,1.19382698397654,1.75862762885946,TRUE,4.17803616821519
"CAN","cpi",0.4,1959,3,1958,NA,1.5,-1.44496212359028,4.99310557786559,1.19382698397654,1.77407172713766,TRUE,6.43806770145587
"CAN","cpi",0.4,1960,3,1960,NA,0,0.956792341207653,1.09043374398189,1.34209404870695,1.02361304259477,FALSE,0.972509085191106
"CAN","cpi",0.4,1960,3,1960,NA,0.5,-0.405635593198814,1.48360255356213,1.34209404870695,0.53898348018166,TRUE,1.88923814676095
"CAN","cpi",0.4,1960,3,1959,NA,1,1.86857565278683,6.04661182100202,1.34209404870695,3.95759373689442,FALSE,5.93297484848144
"CAN","cpi",0.4,1960,3,1959,NA,1.5,-3.46378902271612,1.71683539190635,1.34209404870695,-0.873476815404885,TRUE,5.18062441462248
"CAN","cpi",0.4,1961,3,1961,NA,0,0.940811869224681,1.07761509265546,1.00921348094007,1.00921348094007,TRUE,0.136803223430782
"CAN","cpi",0.4,1961,3,1961,NA,0.5,0.0645944075595981,1.95383255432055,1.00921348094007,1.00921348094007,TRUE,1.88923814676095
"CAN","cpi",0.4,1961,3,1960,NA,1,-2.03524762150406,2.14278854671113,1.00921348094007,0.0537704626035329,TRUE,4.17803616821519
"CAN","cpi",0.4,1961,3,1960,NA,1.5,-3.07775266305187,1.3533890651718,1.00921348094007,-0.862181798940035,TRUE,4.43114172822367
"CAN","cpi",0.4,1962,3,1962,NA,0,1.04167130385541,1.16297675077415,1.04957947883042,1.10232402731478,TRUE,0.121305446918747
"CAN","cpi",0.4,1962,3,1962,NA,0.5,-0.803110568525292,0.803110568525292,1.04957947883042,0,FALSE,2.42778417140099
