isdrw/probabilistic-benchmark-forecasts/results/empirical_quantiles_prediction/empirical_prediction_arima_auto_2026-02-19_11-23-20.csv
"country","target","tau","target_year","target_quarter","forecast_year","forecast_quarter","horizon","lower_bound","upper_bound","truth_value","prediction","covered","IS"
"CAN","cpi",0.1,1959,3,1959,NA,0,1.20221555619279,1.29760877243307,1.19382698397654,1.24991216431293,FALSE,0.114034487831947
"CAN","cpi",0.1,1959,3,1959,NA,0.5,0.113524066985902,0.762155396194752,1.19382698397654,0.437839731590327,FALSE,1.60790152427949
"CAN","cpi",0.1,1959,3,1958,NA,1,1.31564956153408,2.20160569618485,1.19382698397654,1.75862762885946,FALSE,1.15667297366752
"CAN","cpi",0.1,1959,3,1958,NA,1.5,-0.15776811596436,3.70591157023967,1.19382698397654,1.77407172713766,TRUE,3.86367968620403
"CAN","cpi",0.1,1960,3,1960,NA,0,0.975916434474632,1.07130965071491,1.34209404870695,1.02361304259477,FALSE,0.697136322889257
"CAN","cpi",0.1,1960,3,1960,NA,0.5,-0.0604991796741389,1.13846614003746,1.34209404870695,0.53898348018166,FALSE,1.65147178342158
"CAN","cpi",0.1,1960,3,1959,NA,1,3.35811107703862,4.55707639675022,1.34209404870695,3.95759373689442,FALSE,5.67900316044865
"CAN","cpi",0.1,1960,3,1959,NA,1.5,-2.29232590474235,0.545372273932585,1.34209404870695,-0.873476815404885,FALSE,4.60819101150686
"CAN","cpi",0.1,1961,3,1961,NA,0,0.961516872819932,1.05691008906021,1.00921348094007,1.00921348094007,TRUE,0.0953932162402795
"CAN","cpi",0.1,1961,3,1961,NA,0.5,0.409730821084273,1.60869614079587,1.00921348094007,1.00921348094007,TRUE,1.1989653197116
"CAN","cpi",0.1,1961,3,1960,NA,1,-0.545712197252266,0.653253122459331,1.00921348094007,0.0537704626035329,FALSE,1.98998833855769
"CAN","cpi",0.1,1961,3,1960,NA,1.5,-2.2810308882775,0.556667290397434,1.00921348094007,-0.862181798940035,FALSE,3.8433563798808
"CAN","cpi",0.1,1962,3,1962,NA,0,1.06709660309844,1.13755145153111,1.04957947883042,1.10232402731478,FALSE,0.109381791250512
"CAN","cpi",0.1,1962,3,1962,NA,0.5,-0.103473279062765,0.103473279062765,1.04957947883042,0,FALSE,2.30940477983142
"CAN","cpi",0.1,1962,3,1961,NA,1,-0.442978067325383,0.442978067325383,1.04957947883042,0,FALSE,2.23395927132862
"CAN","cpi",0.1,1962,3,1961,NA,1.5,-1.41884908933747,1.41884908933747,1.04957947883042,0,TRUE,2.83769817867494
"CAN","cpi",0.1,1963,3,1963,NA,0,1.86722068719188,1.96261390343216,1.60677118395228,1.91491729531202,FALSE,0.674169890106039
"CAN","cpi",0.1,1963,3,1963,NA,0.5,0.733355435554739,0.940301993680269,1.60677118395228,0.836828714617504,FALSE,1.68798920317445
"CAN","cpi",0.1,1963,3,1962,NA,1,2.12113683682605,3.00709297147682,1.60677118395228,2.56411490415144,FALSE,2.0289909188147
"CAN","cpi",0.1,1963,3,1962,NA,1.5,-1.04957947883042,1.04957947883042,1.60677118395228,0,FALSE,3.33736274682054
"CAN","cpi",0.1,1964,3,1964,NA,0,1.93602801597611,2.04151711294484,1.88764670034376,1.98877256446048,FALSE,0.213003131707294
"CAN","cpi",0.1,1964,3,1964,NA,0.5,1.28021678321331,1.48716334133884,1.88764670034376,1.38369006227607,FALSE,1.09690957813646
"CAN","cpi",0.1,1964,3,1963,NA,1,4.94746483614717,5.83342097079794,1.88764670034376,5.39044290347256,FALSE,7.68555199199169
"CAN","cpi",0.1,1964,3,1963,NA,1.5,-1.04957947883042,1.04957947883042,1.88764670034376,0,FALSE,3.96153056102382
"CAN","cpi",0.1,1965,3,1965,NA,0,2.29282592570562,2.39831502267435,2.29538304394236,2.34557047418999,TRUE,0.105489096968729
"CAN","cpi",0.1,1965,3,1965,NA,0.5,1.50732120050377,1.7142677586293,2.29538304394236,1.61079447956654,FALSE,1.4983138588212
"CAN","cpi",0.1,1965,3,1964,NA,1,1.86038797691555,2.98998926668139,2.29538304394236,2.42518862179847,TRUE,1.12960128976584
"CAN","cpi",0.1,1965,3,1964,NA,1.5,-0.231476926514016,1.86768203114681,2.29538304394236,0.818102552316399,FALSE,3.04960565276204
"CAN","cpi",0.1,1966,3,1966,NA,0,3.76992244838946,3.87029730888472,3.72486065470629,3.82010987863709,FALSE,0.200512179791187
"CAN","cpi",0.1,1966,3,1966,NA,0.5,3.88776070989287,4.0947072680184,3.72486065470629,3.99123398895563,FALSE,0.568946680762375
"CAN","cpi",0.1,1966,3,1965,NA,1,2.76424262013315,3.65019875478392,3.72486065470629,3.20722068745854,FALSE,1.05187146781159
"CAN","cpi",0.1,1966,3,1965,NA,1.5,0.557058767489169,2.65621772515,3.72486065470629,1.60663824631958,FALSE,4.47392102334148
"CAN","cpi",0.1,1967,3,1967,NA,0,3.71750106303869,3.81787592353395,3.49360316391996,3.76768849328632,FALSE,0.597925747425773
"CAN","cpi",0.1,1967,3,1967,NA,0.5,2.30398146513484,2.51092802326037,3.49360316391996,2.4074547441976,FALSE,2.39066909292462
"CAN","cpi",0.1,1967,3,1966,NA,1,2.73805516337745,3.62401129802822,3.49360316391996,3.18103323070284,TRUE,0.885956134650766
"CAN","cpi",0.1,1967,3,1966,NA,1.5,3.60170212604206,5.70086108370289,3.49360316391996,4.65128160487248,FALSE,2.33937887348773
"CAN","cpi",0.1,1968,3,1968,NA,0,4.12269202647633,4.22306688697159,3.95128347779386,4.17287945672396,FALSE,0.481282746456307
"CAN","cpi",0.1,1968,3,1968,NA,0.5,3.96749877873576,4.17444533686129,3.95128347779386,4.07097205779852,FALSE,0.242980560218641
"CAN","cpi",0.1,1968,3,1967,NA,1,5.53264688802136,6.15778675445561,3.95128347779386,5.84521682123848,FALSE,4.13928077805092
"CAN","cpi",0.1,1968,3,1967,NA,1.5,1.20607910357185,3.30523806123268,3.95128347779386,2.25565858240226,FALSE,3.53481543890789
"CAN","cpi",0.1,1969,3,1969,NA,0,4.4187809404913,4.51915580098656,4.42679496126681,4.46896837073893,TRUE,0.100374860495258
"CAN","cpi",0.1,1969,3,1969,NA,0.5,2.86264691489438,3.06959347301991,4.42679496126681,2.96612019395715,FALSE,3.22294986534087
"CAN","cpi",0.1,1969,3,1968,NA,1,6.41230636719095,7.03744623362519,4.42679496126681,6.72487630040807,FALSE,5.03738743515454
"CAN","cpi",0.1,1969,3,1968,NA,1.5,3.26706505061499,5.36622400827582,4.42679496126681,4.31664452944541,TRUE,2.09915895766083
"CAN","cpi",0.1,1970,3,1970,NA,0,3.48480174632153,3.56914856526576,3.28128405769805,3.52697515579364,FALSE,0.536608349218634
"CAN","cpi",0.1,1970,3,1970,NA,0.5,4.53402227276451,4.77339943277383,3.28128405769805,4.65371085276917,FALSE,3.02323986015702
"CAN","cpi",0.1,1970,3,1969,NA,1,4.21490881765995,4.84004868409419,3.28128405769805,4.52747875087707,FALSE,2.69986155523847
"CAN","cpi",0.1,1970,3,1969,NA,1.5,1.49949372967018,2.65998321599241,3.28128405769805,2.07973847283129,FALSE,2.54115802344587
"CAN","cpi",0.1,1971,3,1971,NA,0,2.79714984844479,2.88149666738901,2.64123406634756,2.8393232579169,FALSE,0.430826334715838
"CAN","cpi",0.1,1971,3,1971,NA,0.5,1.94723307705041,2.18661023705974,2.64123406634756,2.06692165705507,FALSE,1.2496523362045
"CAN","cpi",0.1,1971,3,1970,NA,1,2.32849001261783,2.95362987905207,2.64123406634756,2.64105994583495,TRUE,0.625139866434245
"CAN","cpi",0.1,1971,3,1970,NA,1.5,3.59019691017426,5.68935586783509,2.64123406634756,4.63977638900468,FALSE,4.20796527727572
"CAN","cpi",0.1,1972,3,1972,NA,0,4.98830762241007,5.0726544413543,4.83230569625923,5.03048103188219,FALSE,0.431017765946105
"CAN","cpi",0.1,1972,3,1972,NA,0.5,4.94737046355505,5.18674762356438,4.83230569625923,5.06705904355972,FALSE,0.495076642888932
"CAN","cpi",0.1,1972,3,1971,NA,1,5.78711044921139,6.04672160492361,4.83230569625923,5.9169160270675,FALSE,2.38139949560591
"CAN","cpi",0.1,1972,3,1971,NA,1.5,2.0431854755823,4.14234443324313,4.83230569625923,3.09276495441271,FALSE,3.63240620880773
"CAN","cpi",0.1,1973,3,1973,NA,0,6.94246013168381,7.04283499217907,7.12388603531779,6.99264756193144,FALSE,0.280488289692418
"CAN","cpi",0.1,1973,3,1973,NA,0.5,5.29241950154024,5.65697842669684,7.12388603531779,5.47469896411854,FALSE,3.62435361098093
"CAN","cpi",0.1,1973,3,1972,NA,1,6.50834337490007,6.87290230005667,7.12388603531779,6.69062283747837,FALSE,0.9223005590702
"CAN","cpi",0.1,1973,3,1972,NA,1.5,3.68216295703444,5.78132191469527,7.12388603531779,4.73174243586486,FALSE,5.08263478126642
"CAN","cpi",0.1,1974,3,1974,NA,0,9.8941277753927,9.99450263588795,10.2717243737774,9.94431520564033,FALSE,0.716423166916289
"CAN","cpi",0.1,1974,3,1974,NA,0.5,8.1555859549358,8.5201448800924,10.2717243737774,8.3378654175141,FALSE,4.2569578000122
"CAN","cpi",0.1,1974,3,1973,NA,1,6.98484476377289,7.34940368892948,10.2717243737774,7.16712422635118,FALSE,6.85860489148534
"CAN","cpi",0.1,1974,3,1973,NA,1.5,2.89406905082803,5.20942593273306,10.2717243737774,4.05174749178054,FALSE,13.5649089731147
"CAN","cpi",0.1,1975,3,1975,NA,0,10.0429949317302,10.1433697922255,10.0232981493341,10.0931823619779,FALSE,0.144145488042158
"CAN","cpi",0.1,1975,3,1975,NA,0.5,8.80039529839499,9.16495422355158,10.0232981493341,8.98267476097328,FALSE,2.27198987134002
"CAN","cpi",0.1,1975,3,1974,NA,1,7.6015187597271,7.9660776848837,10.0232981493341,7.7837982223054,FALSE,4.93615995726864
"CAN","cpi",0.1,1975,3,1974,NA,1.5,4.60163761213267,6.91699449403771,10.0232981493341,5.75931605308519,FALSE,9.21825389367484
"CAN","cpi",0.1,1976,3,1976,NA,0,7.02259211926954,7.1229669797648,7.22784311401172,7.07277954951717,FALSE,0.333432936599517
"CAN","cpi",0.1,1976,3,1976,NA,0.5,8.40861114180497,8.77317006696157,7.22784311401172,8.59089060438327,FALSE,2.98848787580827
"CAN","cpi",0.1,1976,3,1975,NA,1,10.2318683059359,10.5964272310925,7.22784311401172,10.4141477685142,FALSE,7.04017046276582
"CAN","cpi",0.1,1976,3,1975,NA,1.5,5.2728324203961,7.58818930230114,7.22784311401172,6.43051086134862,TRUE,2.31535688190504
"CAN","cpi",0.1,1977,3,1977,NA,0,7.48312730400398,7.62289572929145,7.58101410153764,7.55301151664772,TRUE,0.139768425287468
"CAN","cpi",0.1,1977,3,1977,NA,0.5,7.74690515291839,8.21641184751936,7.58101410153764,7.98165850021887,FALSE,0.838153475447066
"CAN","cpi",0.1,1977,3,1976,NA,1,3.4087765582189,4.03391642465314,7.58101410153764,3.72134649143602,FALSE,8.50757914839981
"CAN","cpi",0.1,1977,3,1976,NA,1.5,7.20538819209304,8.80005269741924,7.58101410153764,8.00272044475614,TRUE,1.5946645053262
"CAN","cpi",0.1,1978,3,1978,NA,0,8.62910499411631,8.71345181306054,8.50208927062595,8.67127840358843,FALSE,0.366603982256159
"CAN","cpi",0.1,1978,3,1978,NA,0.5,8.14407397088881,8.61358066548978,8.50208927062595,8.3788273181893,TRUE,0.469506694600973
"CAN","cpi",0.1,1978,3,1977,NA,1,7.23526835094338,7.86040821737763,8.50208927062595,7.54783828416051,FALSE,2.05109776254162
"CAN","cpi",0.1,1978,3,1977,NA,1.5,9.30392122020374,10.1473339066407,8.50208927062595,9.72562756342223,FALSE,2.62526146327652
"CAN","cpi",0.1,1979,3,1979,NA,0,8.52159049285258,8.60593731179681,8.65147652410481,8.56376390232469,FALSE,0.185545068517564
"CAN","cpi",0.1,1979,3,1979,NA,0.5,8.17273089723099,8.41925480210429,8.65147652410481,8.29599284966764,FALSE,0.76257217598556
"CAN","cpi",0.1,1979,3,1978,NA,1,8.77563023456023,9.63059977561814,8.65147652410481,9.20311500508918,FALSE,1.13086667540328
"CAN","cpi",0.1,1979,3,1978,NA,1.5,8.12898433100029,8.9839538720582,8.65147652410481,8.55646910152924,TRUE,0.854969541057912
"CAN","cpi",0.1,1980,3,1980,NA,0,9.4618938115972,9.54624063054142,9.5171912664748,9.50406722106931,TRUE,0.0843468189442262
"CAN","cpi",0.1,1980,3,1980,NA,0.5,8.34323579605043,8.81274249065141,9.5171912664748,8.57798914335092,FALSE,2.03494841865295
"CAN","cpi",0.1,1980,3,1979,NA,1,7.90704522227774,8.45045885193857,9.5171912664748,8.17875203710815,FALSE,2.91393010640801
"CAN","cpi",0.1,1980,3,1979,NA,1.5,8.1203408457907,8.66375447545153,9.5171912664748,8.39204766062112,FALSE,2.43993983193475
"CAN","cpi",0.1,1981,3,1981,NA,0,11.68338531353,11.7393904833099,11.5813425032741,11.7113878984199,FALSE,0.282766970348424
"CAN","cpi",0.1,1981,3,1981,NA,0.5,11.9808663279762,12.4503730225772,11.5813425032741,12.2156196752767,FALSE,1.3573374161612
"CAN","cpi",0.1,1981,3,1980,NA,1,10.6222005717734,11.4771701128313,11.5813425032741,11.0496853423024,FALSE,1.08646374204192
"CAN","cpi",0.1,1981,3,1980,NA,1.5,7.91061315121999,8.7655826922779,11.5813425032741,8.33809792174894,FALSE,7.112213565494
"CAN","cpi",0.1,1982,3,1982,NA,0,10.2286642302198,10.2846693999996,10.1124203763629,10.2566668151097,FALSE,0.314324845017286
"CAN","cpi",0.1,1982,3,1982,NA,0.5,9.87378225005401,10.343288944655,10.1124203763629,10.1085355973545,TRUE,0.469506694600973
"CAN","cpi",0.1,1982,3,1981,NA,1,11.343503912595,12.1984734536529,10.1124203763629,11.770988683124,FALSE,3.5907107326847
"CAN","cpi",0.1,1982,3,1981,NA,1.5,12.4426402645992,13.2976098056571,10.1124203763629,12.8701250351281,FALSE,6.03323595936059
"CAN","cpi",0.1,1983,3,1983,NA,0,5.70300955675897,5.75901472653882,5.67091787896303,5.7310121416489,FALSE,0.127320009326374
"CAN","cpi",0.1,1983,3,1983,NA,0.5,4.79016820765989,5.03669211253318,5.67091787896303,4.91343016009654,FALSE,1.65591449693963
"CAN","cpi",0.1,1983,3,1982,NA,1,8.70831974656544,9.66168325075569,5.67091787896303,9.18500149866057,FALSE,7.7031454321956
"CAN","cpi",0.1,1983,3,1982,NA,1.5,9.21004126359854,10.1634047677888,5.67091787896303,9.68672301569366,FALSE,8.81808213671359
"CAN","cpi",0.1,1984,3,1984,NA,0,NA,NA,4.19799576814029,NA,NA,NA
"CAN","cpi",0.1,1984,3,1984,NA,0.5,5.73444490780792,5.98096881268122,4.19799576814029,5.85770686024457,FALSE,3.66085532635693
"CAN","cpi",0.1,1984,3,1983,NA,1,5.28885182786916,6.24221533205941,4.19799576814029,5.76553357996429,FALSE,3.37748808136552
"CAN","cpi",0.1,1984,3,1983,NA,1.5,2.44311792737658,3.39648143156683,4.19799576814029,2.9197996794717,FALSE,2.73450647435349
"CAN","cpi",0.1,1985,3,1985,NA,0,3.8276651704123,3.88069463229526,3.86444262005169,3.85417990135378,TRUE,0.0530294618829652
"CAN","cpi",0.1,1985,3,1985,NA,0.5,4.09663847139234,4.34316237626564,3.86444262005169,4.21990042382899,FALSE,0.762514685630289
"CAN","cpi",0.1,1985,3,1984,NA,1,NA,NA,3.86444262005169,NA,NA,NA
"CAN","cpi",0.1,1985,3,1984,NA,1.5,8.20829025983506,9.05170294627205,3.86444262005169,8.62999660305356,FALSE,10.4964074415111
"CAN","cpi",0.1,1986,3,1986,NA,0,4.0248759792652,4.05055180473466,4.08685396749431,4.03771389199993,FALSE,0.10634729826869
"CAN","cpi",0.1,1986,3,1986,NA,0.5,4.25893137259864,4.50545527747193,4.08685396749431,4.38219332503529,FALSE,0.628918138438469
"CAN","cpi",0.1,1986,3,1985,NA,1,2.89282641470769,3.86417310690929,4.08685396749431,3.37849976080849,FALSE,1.4661930490572
"CAN","cpi",0.1,1986,3,1985,NA,1.5,4.46742524290876,5.43877193511036,4.08685396749431,4.95309858900956,FALSE,1.81706063756705
"CAN","cpi",0.1,1987,3,1987,NA,0,NA,NA,4.23980729277887,NA,NA,NA
"CAN","cpi",0.1,1987,3,1987,NA,0.5,4.0101596583642,4.2566835632375,4.23980729277887,4.13342161080085,TRUE,0.246523904873296
"CAN","cpi",0.1,1987,3,1986,NA,1,3.17573653554718,4.14708322774879,4.23980729277887,3.66140988164798,FALSE,1.17740017004624
"CAN","cpi",0.1,1987,3,1986,NA,1.5,4.31675433533434,5.28810102753594,4.23980729277887,4.80242768143514,FALSE,1.14234012010264
"CAN","cpi",0.1,1988,3,1988,NA,0,3.93127983988962,3.95638340001757,3.92899537638065,3.9438316199536,FALSE,0.0301801457034321
"CAN","cpi",0.1,1988,3,1988,NA,0.5,3.2478064714301,3.46057783538614,3.92899537638065,3.35419215340812,FALSE,1.25369923283273
"CAN","cpi",0.1,1988,3,1987,NA,1,NA,NA,3.92899537638065,NA,NA,NA
"CAN","cpi",0.1,1988,3,1987,NA,1.5,3.47291295204597,4.31632563848295,3.92899537638065,3.89461929526446,TRUE,0.843412686436984
"CAN","cpi",0.1,1989,3,1989,NA,0,4.93875140386438,4.96385496399233,4.82821664544208,4.95130318392835,FALSE,0.270736356621954
"CAN","cpi",0.1,1989,3,1989,NA,0.5,4.12386374549271,4.33663510944875,4.82821664544208,4.23024942747073,FALSE,1.30517477727454
"CAN","cpi",0.1,1989,3,1988,NA,1,3.73709312625292,4.37974276581033,4.82821664544208,4.05841794603162,FALSE,1.63925826096129
"CAN","cpi",0.1,1989,3,1988,NA,1.5,2.27651873960429,2.91916837916171,4.82821664544208,2.597843559383,FALSE,4.88497912018046
"CAN","cpi",0.1,1990,3,1990,NA,0,4.46214323920232,4.48724679933027,4.64347549432717,4.4746950192663,FALSE,0.372278437898838
"CAN","cpi",0.1,1990,3,1990,NA,0.5,4.85848600704677,5.07125737100281,4.64347549432717,4.96487168902479,FALSE,0.69057250333292
"CAN","cpi",0.1,1990,3,1989,NA,1,5.11738891991205,5.76003855946947,4.64347549432717,5.43871373969076,FALSE,1.6957905853016
"CAN","cpi",0.1,1990,3,1989,NA,1.5,3.05192918045939,3.69457882001681,4.64347549432717,3.3732540002381,FALSE,2.75130891580267
"CAN","cpi",0.1,1991,3,1991,NA,0,5.59798191935985,5.62308547948779,5.4258100696218,5.61053369942382,FALSE,0.407707670656952
"CAN","cpi",0.1,1991,3,1991,NA,0.5,7.71560727279792,7.92837863675397,5.4258100696218,7.82199295477594,FALSE,5.30120959323633
"CAN","cpi",0.1,1991,3,1990,NA,1,3.1013333089633,4.23300305871863,5.4258100696218,3.66716818384097,FALSE,3.7823519962068
"CAN","cpi",0.1,1991,3,1990,NA,1.5,4.25898461176397,5.3906543615193,5.4258100696218,4.82481948664164,FALSE,1.20979354553865
"CAN","cpi",0.1,1992,3,1992,NA,0,NA,NA,1.47496888572843,NA,NA,NA
"CAN","cpi",0.1,1992,3,1992,NA,0.5,NA,NA,1.47496888572843,NA,NA,NA
"CAN","cpi",0.1,1992,3,1991,NA,1,2.20197083745447,3.3336405872098,1.47496888572843,2.76780571233213,FALSE,2.74722964247985
"CAN","cpi",0.1,1992,3,1991,NA,1.5,6.58354695172403,7.71521670147936,1.47496888572843,7.14938182660169,FALSE,12.4840654519678
"CAN","cpi",0.1,1993,3,1993,NA,0,NA,NA,NA,NA,NA,NA
"CAN","cpi",0.1,1993,3,1993,NA,0.5,NA,NA,NA,NA,NA,NA
"CAN","cpi",0.1,1993,3,1992,NA,1,NA,NA,NA,NA,NA,NA
"CAN","cpi",0.1,1993,3,1992,NA,1.5,NA,NA,NA,NA,NA,NA
"CAN","cpi",0.1,1994,3,1994,NA,0,NA,NA,NA,NA,NA,NA
"CAN","cpi",0.1,1994,3,1994,NA,0.5,NA,NA,NA,NA,NA,NA
"CAN","cpi",0.1,1994,3,1993,NA,1,NA,NA,NA,NA,NA,NA
"CAN","cpi",0.1,1994,3,1993,NA,1.5,NA,NA,NA,NA,NA,NA
"CAN","cpi",0.1,1995,3,1995,NA,0,NA,NA,2.11688403676572,NA,NA,NA
"CAN","cpi",0.1,1995,3,1995,NA,0.5,2.28072485585875,2.75803136560293,2.11688403676572,2.51937811073084,FALSE,0.841397218839822
"CAN","cpi",0.1,1995,3,1994,NA,1,0.162724903015894,1.276067918628,2.11688403676572,0.719396410821945,FALSE,2.98182327814037
"CAN","cpi",0.1,1995,3,1994,NA,1.5,-1.60321754705433,-0.489874531442233,2.11688403676572,-1.04654603924828,FALSE,6.90613983385199
"CAN","cpi",0.1,1996,3,1996,NA,0,1.41525800243483,1.44035696470569,1.55309584667184,1.42780748357026,FALSE,0.275629811084534
"CAN","cpi",0.1,1996,3,1996,NA,0.5,NA,NA,1.55309584667184,NA,NA,NA
"CAN","cpi",0.1,1996,3,1995,NA,1,NA,NA,1.55309584667184,NA,NA,NA
"CAN","cpi",0.1,1996,3,1995,NA,1.5,2.46535118460621,3.37929423890272,1.55309584667184,2.92232271175447,FALSE,2.94117713859511
"CAN","cpi",0.1,1997,3,1997,NA,0,1.70337031853751,1.76734663760484,1.60528783555959,1.73535847807117,FALSE,0.281937392351588
"CAN","cpi",0.1,1997,3,1997,NA,0.5,1.89102574866217,2.33054152329375,1.60528783555959,2.11078363597796,FALSE,1.07448891485953
"CAN","cpi",0.1,1997,3,1996,NA,1,0.328589848843708,1.6413328257714,1.60528783555959,0.984961337307556,TRUE,1.3127429769277
"CAN","cpi",0.1,1997,3,1996,NA,1.5,NA,NA,1.60528783555959,NA,NA,NA
"CAN","cpi",0.1,1998,3,1998,NA,0,0.966123322817491,1.10404610487671,0.988908029337191,1.0350847138471,TRUE,0.137922782059218
"CAN","cpi",0.1,1998,3,1998,NA,0.5,1.44994456476129,1.92072854398085,0.988908029337191,1.68533655437107,FALSE,1.49530961349534
"CAN","cpi",0.1,1998,3,1997,NA,1,1.74774486344866,2.75544682324648,0.988908029337191,2.25159584334757,FALSE,2.69400603560108
"CAN","cpi",0.1,1998,3,1997,NA,1.5,1.88602718886185,2.89372914865967,0.988908029337191,2.38987816876076,FALSE,3.00130009207485
"CAN","cpi",0.1,1999,3,1999,NA,0,1.74254387645949,1.80982489272974,1.7107350135213,1.77618438459462,FALSE,0.137967378355128
"CAN","cpi",0.1,1999,3,1999,NA,0.5,0.659037557657177,1.39914740217342,1.7107350135213,1.0290924799153,FALSE,1.43252675862263
"CAN","cpi",0.1,1999,3,1998,NA,1,1.28126741495802,2.42228346632607,1.7107350135213,1.85177544064205,TRUE,1.14101605136805
"CAN","cpi",0.1,1999,3,1998,NA,1.5,2.3759492821872,3.51696533355526,1.7107350135213,2.94645730787123,FALSE,2.61926998173674
"CAN","cpi",0.1,2000,3,2000,NA,0,2.65251388211354,2.76799447500945,2.6718361971244,2.7102541785615,TRUE,0.115480592895912
"CAN","cpi",0.1,2000,3,2000,NA,0.5,1.97399709177543,2.71410693629168,2.6718361971244,2.34405201403356,TRUE,0.740109844516248
"CAN","cpi",0.1,2000,3,1999,NA,1,2.59888869089944,3.55197004472474,2.6718361971244,3.07542936781209,TRUE,0.953081353825301
"CAN","cpi",0.1,2000,3,1999,NA,1.5,1.23278757707824,3.32339313895624,2.6718361971244,2.27809035801724,TRUE,2.090605561878
"CAN","cpi",0.1,2001,3,2001,NA,0,2.73239264656273,2.8185390531243,2.47906219852806,2.77546584984351,FALSE,0.649102957749714
"CAN","cpi",0.1,2001,3,2001,NA,0.5,2.11063938735546,2.76069572270662,2.47906219852806,2.43566755503104,TRUE,0.650056335351163
"CAN","cpi",0.1,2001,3,2000,NA,1,3.36455878552285,4.01461512087401,2.47906219852806,3.68958695319843,FALSE,2.6178265286729
"CAN","cpi",0.1,2001,3,2000,NA,1.5,2.47389073730347,3.55152505693999,2.47906219852806,3.01270789712173,TRUE,1.07763431963652
"CAN","cpi",0.1,2002,3,2002,NA,0,2.22888914658272,2.31503555314429,2.20880570551249,2.27196234986351,FALSE,0.130776275606537
"CAN","cpi",0.1,2002,3,2002,NA,0.5,1.36942575263795,1.79748248714457,2.20880570551249,1.58345411989126,FALSE,1.34210833087977
"CAN","cpi",0.1,2002,3,2001,NA,1,1.94027689084137,2.58993158607659,2.20880570551249,2.26510423845898,TRUE,0.649654695235222
"CAN","cpi",0.1,2002,3,2001,NA,1.5,2.52890469204238,3.51225617353781,2.20880570551249,3.02058043279009,FALSE,1.69468256267297
"CAN","cpi",0.1,2003,3,2003,NA,0,2.67019382292589,2.75634022948746,2.71189071546809,2.71326702620668,TRUE,0.0861464065615696
"CAN","cpi",0.1,2003,3,2003,NA,0.5,4.34950337967407,4.67914960579586,2.71189071546809,4.51432649273496,FALSE,3.96878547991285
"CAN","cpi",0.1,2003,3,2002,NA,1,3.69135970440148,4.02100593052327,2.71189071546809,3.85618281746238,FALSE,2.5062439793071
"CAN","cpi",0.1,2003,3,2002,NA,1.5,1.90234815774413,2.88569963923956,2.71189071546809,2.39402389849184,TRUE,0.983351481495432
"CAN","cpi",0.1,2004,3,2004,NA,0,1.7473630436026,1.80197400405769,1.83151661303942,1.77466852383015,FALSE,0.120261202636716
"CAN","cpi",0.1,2004,3,2004,NA,0.5,1.37356176147878,1.73164694155994,1.83151661303942,1.55260435151936,FALSE,0.5800177833689
"CAN","cpi",0.1,2004,3,2003,NA,1,1.61511533594226,1.97320051602343,1.83151661303942,1.79415792598285,TRUE,0.358085180081169
"CAN","cpi",0.1,2004,3,2003,NA,1.5,3.89601059298927,4.63797485792505,1.83151661303942,4.26699272545716,FALSE,5.32972866482433
"CAN","cpi",0.1,2005,3,2005,NA,0,2.31244388743214,2.37446318202693,2.18071628336509,2.34345353472953,FALSE,0.354747303632675
"CAN","cpi",0.1,2005,3,2005,NA,0.5,1.36105373233131,1.64537303401528,2.18071628336509,1.50321338317329,FALSE,1.47397096690577
"CAN","cpi",0.1,2005,3,2004,NA,1,1.49827997628035,1.78259927796432,2.18071628336509,1.64043962712234,FALSE,1.16902375813013
"CAN","cpi",0.1,2005,3,2004,NA,1.5,1.65536280645135,2.41250287581331,2.18071628336509,2.03393284113233,TRUE,0.757140069361959
"CAN","cpi",0.1,2006,3,2006,NA,0,2.06042995455932,2.12985758329382,1.97519342012289,2.09514376892657,FALSE,0.258842149704355
"CAN","cpi",0.1,2006,3,2006,NA,0.5,1.9394801119526,2.24924516002785,1.97519342012289,2.09436263599022,TRUE,0.309765048075258
"CAN","cpi",0.1,2006,3,2005,NA,1,2.80340868204297,3.11317373011823,1.97519342012289,2.9582912060806,FALSE,2.15024340789768
"CAN","cpi",0.1,2006,3,2005,NA,1.5,1.34810114030616,1.94961809930996,1.97519342012289,1.64885961980806,FALSE,0.658351005254747
"CAN","cpi",0.1,2007,3,2007,NA,0,2.06841823958598,2.14525420246017,2.10062087284572,2.10683622102307,TRUE,0.0768359628741946
"CAN","cpi",0.1,2007,3,2007,NA,0.5,2.09330086733962,2.25929717432743,2.10062087284572,2.17629902083353,TRUE,0.165996306987806
"CAN","cpi",0.1,2007,3,2006,NA,1,1.42561877360465,1.59161508059246,2.10062087284572,1.50861692709856,FALSE,1.29712028977283
"CAN","cpi",0.1,2007,3,2006,NA,1.5,1.85842768400215,2.45994464300595,2.10062087284572,2.15918616350405,TRUE,0.601516959003797
"CAN","cpi",0.1,2008,3,2008,NA,0,2.86457920331093,2.87700989966563,2.31447335265955,2.87079455148828,FALSE,1.23488814224665
"CAN","cpi",0.1,2008,3,2008,NA,0.5,1.24406480648552,1.37604148741981,2.31447335265955,1.31005314695267,FALSE,2.21738082591149
"CAN","cpi",0.1,2008,3,2007,NA,1,1.40432215935953,1.53629884029382,2.31447335265955,1.47031049982668,FALSE,1.86125337508036
"CAN","cpi",0.1,2008,3,2007,NA,1.5,2.32657032634863,2.60249358049926,2.31447335265955,2.46453195342394,FALSE,0.302805417904131
"CAN","cpi",0.1,2009,3,2009,NA,0,0.180906998172371,0.193337694527072,0.284533874408197,0.187122346349721,FALSE,0.215088873868313
"CAN","cpi",0.1,2009,3,2009,NA,0.5,-0.138737602513764,-0.00676092157946981,0.284533874408197,-0.0727492620466167,FALSE,0.779298449795776
"CAN","cpi",0.1,2009,3,2008,NA,1,3.75181192310236,3.88378860403666,0.284533874408197,3.81780026356951,FALSE,7.83703901136578
"CAN","cpi",0.1,2009,3,2008,NA,1.5,1.53996808407143,1.83353496853695,0.284533874408197,1.68675152630419,FALSE,3.08342068371715
"CAN","cpi",0.1,2010,3,2010,NA,0,1.60278031645805,1.61521101281275,1.75525687020327,1.6089956646354,FALSE,0.323643712778088
"CAN","cpi",0.1,2010,3,2010,NA,0.5,1.84510668479468,1.97708336572898,1.75525687020327,1.91109502526183,FALSE,0.331642935581875
"CAN","cpi",0.1,2010,3,2009,NA,1,0.926307448027607,1.0582841289619,1.75525687020327,0.992295788494754,FALSE,1.68080499480401
"CAN","cpi",0.1,2010,3,2009,NA,1.5,0.738319610583108,1.03188649504863,1.75525687020327,0.885103052815867,FALSE,1.9010566070314
"CAN","cpi",0.1,2011,3,2011,NA,0,2.86043879244363,2.87286948879833,2.85717434028225,2.86665414062098,FALSE,0.0196850344911073
"CAN","cpi",0.1,2011,3,2011,NA,0.5,2.69984547848056,2.83182215941486,2.85717434028225,2.76583381894771,FALSE,0.188314860639599
"CAN","cpi",0.1,2011,3,2010,NA,1,1.32695810123004,1.45893478216434,2.85717434028225,1.39294644169719,FALSE,3.23917569897409
"CAN","cpi",0.1,2011,3,2010,NA,1.5,1.49574716369087,1.78931404815639,2.85717434028225,1.64253060592363,FALSE,2.66658975585632
"CAN","cpi",0.1,2012,3,2012,NA,0,1.52200976031659,1.53444045667129,1.50118536134935,1.52822510849394,FALSE,0.0587071385041365
"CAN","cpi",0.1,2012,3,2012,NA,0.5,1.85830187926075,1.99027856019504,1.50118536134935,1.92429021972789,FALSE,0.925568942959626
"CAN","cpi",0.1,2012,3,2011,NA,1,1.93346408400364,2.06544076493793,1.50118536134935,1.99945242447079,FALSE,1.0925960646105
"CAN","cpi",0.1,2012,3,2011,NA,1.5,2.33472613174686,2.62829301621238,1.50118536134935,2.48150957397962,FALSE,2.1458797075711
"CAN","cpi",0.1,2013,3,2013,NA,0,1.05008978605476,1.06252048240946,0.931270594714462,1.05630513423211,FALSE,0.276473343777577
"CAN","cpi",0.1,2013,3,2013,NA,0.5,1.09581501840881,1.24345407268983,0.931270594714462,1.16963454554932,FALSE,0.513293329157348
"CAN","cpi",0.1,2013,3,2012,NA,1,1.01486136414691,1.16250041842793,0.931270594714462,1.08868089128742,FALSE,0.333396319686461
"CAN","cpi",0.1,2013,3,2012,NA,1.5,1.99894835307251,2.29251523753803,0.931270594714462,2.14573179530527,FALSE,2.66618412526118
"CAN","cpi",0.1,2014,3,2014,NA,0,1.99241314327381,2.00484383962851,1.87639912240215,1.99862849145116,FALSE,0.270239631625058
"CAN","cpi",0.1,2014,3,2014,NA,0.5,1.70097923949234,1.88366028216141,1.87639912240215,1.79231976082687,TRUE,0.182681042669069
"CAN","cpi",0.1,2014,3,2013,NA,1,1.25455302879612,1.55874676760184,1.87639912240215,1.40664989819898,FALSE,1.01008786058419
"CAN","cpi",0.1,2014,3,2013,NA,1.5,1.36226434837607,1.66645808718178,1.87639912240215,1.51436121777893,FALSE,0.770729372628754
"CAN","cpi",0.1,2015,3,2015,NA,0,1.20082670390906,1.21978630458653,1.11090953952792,1.2103065042478,FALSE,0.218775521524456
"CAN","cpi",0.1,2015,3,2015,NA,0.5,0.374467954142783,0.542626677293335,1.11090953952792,0.458547315718059,FALSE,1.43100952811629
"CAN","cpi",0.1,2015,3,2014,NA,1,1.41845094487849,1.72264468368421,1.11090953952792,1.57054781428135,FALSE,0.987619084029209
"CAN","cpi",0.1,2015,3,2014,NA,1.5,1.73019422600871,2.03438796481443,1.11090953952792,1.88229109541157,FALSE,1.68038193098526
"CAN","cpi",0.1,2016,3,2016,NA,0,1.40682687438119,1.42578647505866,1.41168586698797,1.41630667471992,TRUE,0.0189596006774666
"CAN","cpi",0.1,2016,3,2016,NA,0.5,1.09564222135398,1.26380094450453,1.41168586698797,1.17972158292925,FALSE,0.496791884224855
"CAN","cpi",0.1,2016,3,2015,NA,1,1.56065480202361,2.16707651900979,1.41168586698797,1.8638656605167,FALSE,0.937463794843166
"CAN","cpi",0.1,2016,3,2015,NA,1.5,0.767019168657766,1.37344088564396,1.41168586698797,1.07023002715086,FALSE,0.691410564417324
"CAN","cpi",0.1,2017,3,2017,NA,0,1.49871157829024,1.51114227464494,1.57888581671161,1.50492692646759,FALSE,0.162971900947301
"CAN","cpi",0.1,2017,3,2017,NA,0.5,2.00678682124614,2.17494554439669,1.57888581671161,2.09086618282141,FALSE,1.11904984433839
"CAN","cpi",0.1,2017,3,2016,NA,1,0.845401306381682,1.44763970067481,1.57888581671161,1.14652050352824,FALSE,0.89389642993047
"CAN","cpi",0.1,2017,3,2016,NA,1.5,0.966761648083702,1.56900004237683,1.57888581671161,1.26788084523026,FALSE,0.624206781703758
"CAN","cpi",0.1,2018,3,2018,NA,0,2.40696002678348,2.41939072313818,2.23316270166586,2.41317537496083,FALSE,0.398646974393861
"CAN","cpi",0.1,2018,3,2018,NA,0.5,2.44401183157167,2.61217055472223,2.23316270166586,2.52809119314695,FALSE,0.636712345163476
"CAN","cpi",0.1,2018,3,2017,NA,1,0.876789062187086,1.45921297613484,2.23316270166586,1.16800101916097,FALSE,2.30231219290557
"CAN","cpi",0.1,2018,3,2017,NA,1.5,1.78177206562705,2.36419597957481,2.23316270166586,2.07298402260093,TRUE,0.582423913947758
"CAN","cpi",0.1,2019,3,2019,NA,0,NA,NA,1.91921619871868,NA,NA,NA
"CAN","cpi",0.1,2019,3,2019,NA,0.5,1.38194754169869,1.56462858436776,1.91921619871868,1.47328806303322,FALSE,0.970653519004453
"CAN","cpi",0.1,2019,3,2018,NA,1,1.93843081433918,2.53097480658747,1.91921619871868,2.23470281046333,FALSE,0.635243138071621
"CAN","cpi",0.1,2019,3,2018,NA,1.5,2.02403362955098,2.61657762179927,1.91921619871868,2.32030562567512,FALSE,0.825471616320063
"CAN","cpi",0.1,2020,3,2020,NA,0,0.664594735635542,0.682582537791653,0.71139989671781,0.673588636713597,FALSE,0.0820263775475725
"CAN","cpi",0.1,2020,3,2020,NA,0.5,NA,NA,0.71139989671781,NA,NA,NA
"CAN","cpi",0.1,2020,3,2019,NA,1,NA,NA,0.71139989671781,NA,NA,NA
"CAN","cpi",0.1,2020,3,2019,NA,1.5,1.46604994789769,2.08805989086039,0.71139989671781,1.77705491937904,FALSE,2.29901005669577
"CAN","cpi",0.1,2021,3,2021,NA,0,3.24357076439314,3.26155856654925,3.31148121717802,3.2525646654712,FALSE,0.128927025775602
"CAN","cpi",0.1,2021,3,2021,NA,0.5,2.07712039966833,2.25834921038554,3.31148121717802,2.16773480502693,FALSE,2.52152215914495
"CAN","cpi",0.1,2021,3,2020,NA,1,1.31102876453574,1.91038672499069,3.31148121717802,1.61070774476322,FALSE,3.7129012764268
"CAN","cpi",0.1,2021,3,2020,NA,1.5,NA,NA,3.31148121717802,NA,NA,NA
"CAN","cpi",0.1,2022,3,2022,NA,0,6.57783501693078,6.59582281908689,6.50977236228281,6.58682891800883,FALSE,0.169238145818255
"CAN","cpi",0.1,2022,3,2022,NA,0.5,5.49839072645037,5.67961953716759,6.50977236228281,5.58900513180898,FALSE,2.02601286652882
"CAN","cpi",0.1,2022,3,2021,NA,1,3.05817010399234,3.65377142645952,6.50977236228281,3.35597076522593,FALSE,6.94227006874117
"CAN","cpi",0.1,2022,3,2021,NA,1.5,1.59678156043067,2.19238288289785,6.50977236228281,1.89458222166426,FALSE,10.1898001655449
"CAN","cpi",0.1,2023,3,2023,NA,0,3.93741776095408,3.98701346736074,3.78831288758619,3.96221561415741,FALSE,0.380939869446412
"CAN","cpi",0.1,2023,3,2023,NA,0.5,3.39502126485924,3.82937284847997,3.78831288758619,3.6121970566696,TRUE,0.434351583620737
"CAN","cpi",0.1,2023,3,2022,NA,1,5.18838459490721,5.78398591737439,3.78831288758619,5.4861852561408,FALSE,3.70687178318056
"CAN","cpi",0.1,2023,3,2022,NA,1.5,3.55777009135576,4.15337141382294,3.78831288758619,3.85557075258935,TRUE,0.59560132246718
"CAN","cpi",0.1,2024,3,2023,NA,1,4.49752531009428,4.9480908879805,NA,4.72280809903739,NA,NA
"CAN","cpi",0.1,2024,3,2023,NA,1.5,4.14177230718802,4.59233788507424,NA,4.36705509613113,NA,NA
"CAN","cpi",0.2,1959,3,1959,NA,0,1.19151782498792,1.30830650363794,1.19382698397654,1.24991216431293,TRUE,0.116788678650013
"CAN","cpi",0.2,1959,3,1959,NA,0.5,-0.4343486369102,1.31002810009085,1.19382698397654,0.437839731590327,TRUE,1.74437673700105
"CAN","cpi",0.2,1959,3,1958,NA,1,-0.320519627293474,3.8377748850124,1.19382698397654,1.75862762885946,TRUE,4.15829451230587
"CAN","cpi",0.2,1959,3,1958,NA,1.5,-0.305075529015281,3.85321898329059,1.19382698397654,1.77407172713766,TRUE,4.15829451230587
"CAN","cpi",0.2,1960,3,1960,NA,0,0.967527862258382,1.07969822293116,1.34209404870695,1.02361304259477,FALSE,0.768159925112254
"CAN","cpi",0.2,1960,3,1960,NA,0.5,-0.179511026510064,1.25747798687338,1.34209404870695,0.53898348018166,FALSE,1.64852916796737
"CAN","cpi",0.2,1960,3,1959,NA,1,3.2390992302027,4.67608824358615,1.34209404870695,3.95759373689442,FALSE,6.17950196712282
"CAN","cpi",0.2,1960,3,1959,NA,1.5,-2.8053166585069,1.05836302769713,1.34209404870695,-0.873476815404885,FALSE,4.57300723872858
"CAN","cpi",0.2,1961,3,1961,NA,0,0.953128300603681,1.06529866127646,1.00921348094007,1.00921348094007,TRUE,0.11217036067278
"CAN","cpi",0.2,1961,3,1961,NA,0.5,0.325257874235965,1.69316908764418,1.00921348094007,1.00921348094007,TRUE,1.36791121340821
"CAN","cpi",0.2,1961,3,1960,NA,1,-0.630185144100573,0.737726069307639,1.00921348094007,0.0537704626035329,FALSE,2.04662974248929
"CAN","cpi",0.2,1961,3,1960,NA,1.5,-2.79402164204205,1.06965804416198,1.00921348094007,-0.862181798940035,TRUE,3.86367968620403
"CAN","cpi",0.2,1962,3,1962,NA,0,1.05462741919464,1.15002063543492,1.04957947883042,1.10232402731478,FALSE,0.10801306715084
"CAN","cpi",0.2,1962,3,1962,NA,0.5,-0.660393948634567,0.660393948634567,1.04957947883042,0,FALSE,2.29375172275875
"CAN","cpi",0.2,1962,3,1961,NA,1,-0.660393948634567,0.660393948634567,1.04957947883042,0,FALSE,2.29375172275875
"CAN","cpi",0.2,1962,3,1961,NA,1.5,-1.87139527988011,1.87139527988011,1.04957947883042,0,TRUE,3.74279055976021
"CAN","cpi",0.2,1963,3,1963,NA,0,1.86217274682765,1.96766184379638,1.60677118395228,1.91491729531202,FALSE,0.743993004157147
"CAN","cpi",0.2,1963,3,1963,NA,0.5,0.176434765982937,1.49722266325207,1.60677118395228,0.836828714617504,FALSE,1.59465919901967
"CAN","cpi",0.2,1963,3,1962,NA,1,1.90372095551687,3.224508852786,1.60677118395228,2.56411490415144,FALSE,2.0631623261806
"CAN","cpi",0.2,1963,3,1962,NA,1.5,-1.41884908933747,1.41884908933747,1.60677118395228,0,FALSE,3.30750341521198
"CAN","cpi",0.2,1964,3,1964,NA,0,1.93268738412409,2.04485774479687,1.88764670034376,1.98877256446048,FALSE,0.224772070123602
"CAN","cpi",0.2,1964,3,1964,NA,0.5,0.723296113641507,2.04408401091064,1.88764670034376,1.38369006227607,TRUE,1.32078789726914
"CAN","cpi",0.2,1964,3,1963,NA,1,4.73004895483799,6.05083685210712,1.88764670034376,5.39044290347256,FALSE,8.42679353350471
"CAN","cpi",0.2,1964,3,1963,NA,1.5,-1.41884908933747,1.41884908933747,1.88764670034376,0,FALSE,4.00969220619066
"CAN","cpi",0.2,1965,3,1965,NA,0,2.2894852938536,2.40165565452638,2.29538304394236,2.34557047418999,TRUE,0.11217036067278
"CAN","cpi",0.2,1965,3,1965,NA,0.5,1.10683784149885,2.11475111763423,2.29538304394236,1.61079447956654,FALSE,1.4594930919057
"CAN","cpi",0.2,1965,3,1964,NA,1,1.46974560346193,3.38063164013501,2.29538304394236,2.42518862179847,TRUE,1.91088603667308
"CAN","cpi",0.2,1965,3,1964,NA,1.5,-0.60074653702107,2.23695164165387,2.29538304394236,0.818102552316399,FALSE,2.98377668439616
"CAN","cpi",0.2,1966,3,1966,NA,0,3.76736533015272,3.87285442712145,3.72486065470629,3.82010987863709,FALSE,0.21175078558481
"CAN","cpi",0.2,1966,3,1966,NA,0.5,3.48727735088795,4.49519062702332,3.72486065470629,3.99123398895563,TRUE,1.00791327613537
"CAN","cpi",0.2,1966,3,1965,NA,1,2.64242004257562,3.77202133234146,3.72486065470629,3.20722068745854,TRUE,1.12960128976584
"CAN","cpi",0.2,1966,3,1965,NA,1.5,0.187789156982115,3.02548733565705,3.72486065470629,1.60663824631958,FALSE,4.58613147629803
"CAN","cpi",0.2,1967,3,1967,NA,0,3.71494394480196,3.82043304177068,3.49360316391996,3.76768849328632,FALSE,0.65884104917372
"CAN","cpi",0.2,1967,3,1967,NA,0.5,2.14108140994826,2.67382807844695,3.49360316391996,2.4074547441976,FALSE,2.58218438218122
"CAN","cpi",0.2,1967,3,1966,NA,1,2.66339326345508,3.69867319795059,3.49360316391996,3.18103323070284,TRUE,1.03527993449551
"CAN","cpi",0.2,1967,3,1966,NA,1.5,3.23243251553501,6.07013069420995,3.49360316391996,4.65128160487248,TRUE,2.83769817867494
"CAN","cpi",0.2,1968,3,1968,NA,0,4.12013490823959,4.22562400520832,3.95128347779386,4.17287945672396,FALSE,0.527617673083071
"CAN","cpi",0.2,1968,3,1968,NA,0.5,3.80459872354918,4.33734539204787,3.95128347779386,4.07097205779852,TRUE,0.532746668498691
"CAN","cpi",0.2,1968,3,1967,NA,1,5.32757685399073,6.36285678848624,3.95128347779386,5.84521682123848,FALSE,4.47601337498769
"CAN","cpi",0.2,1968,3,1967,NA,1.5,1.09798014144974,3.41333702335478,3.95128347779386,2.25565858240226,FALSE,3.66022301800272
"CAN","cpi",0.2,1969,3,1969,NA,0,4.41622382225456,4.52171291922329,4.42679496126681,4.46896837073893,TRUE,0.105489096968729
"CAN","cpi",0.2,1969,3,1969,NA,0.5,2.84643161395248,3.08580877396181,4.42679496126681,2.96612019395715,FALSE,3.59184262827183
"CAN","cpi",0.2,1969,3,1968,NA,1,6.20723633316032,7.24251626765582,4.42679496126681,6.72487630040807,FALSE,5.48638336422926
"CAN","cpi",0.2,1969,3,1968,NA,1.5,3.15896608849289,5.47432297039793,4.42679496126681,4.31664452944541,TRUE,2.31535688190504
"CAN","cpi",0.2,1970,3,1970,NA,0,3.47678772554601,3.57716258604127,3.28128405769805,3.52697515579364,FALSE,0.589134030115178
"CAN","cpi",0.2,1970,3,1970,NA,0.5,4.38733751851982,4.92008418701852,3.28128405769805,4.65371085276917,FALSE,3.29788032055314
"CAN","cpi",0.2,1970,3,1969,NA,1,4.00983878362932,5.04511871812483,3.28128405769805,4.52747875087707,FALSE,2.85666674932369
"CAN","cpi",0.2,1970,3,1969,NA,1.5,1.03015899400088,3.12931795166171,3.28128405769805,2.07973847283129,FALSE,2.47907422275167
"CAN","cpi",0.2,1971,3,1971,NA,0,2.78913582766927,2.88951068816453,2.64123406634756,2.8393232579169,FALSE,0.470129263799532
"CAN","cpi",0.2,1971,3,1971,NA,0.5,1.80054832280573,2.33329499130442,2.64123406634756,2.06692165705507,FALSE,1.30259435610655
"CAN","cpi",0.2,1971,3,1970,NA,1,2.1234199785872,3.1586999130827,2.64123406634756,2.64105994583495,TRUE,1.03527993449551
"CAN","cpi",0.2,1971,3,1970,NA,1.5,3.48209794805216,5.7974548299572,2.64123406634756,4.63977638900468,FALSE,4.41751658616653
"CAN","cpi",0.2,1972,3,1972,NA,0,4.98029360163456,5.08066846212982,4.83230569625923,5.03048103188219,FALSE,0.470344623933582
"CAN","cpi",0.2,1972,3,1972,NA,0.5,4.80068570931037,5.33343237780906,4.83230569625923,5.06705904355972,TRUE,0.532746668498691
"CAN","cpi",0.2,1972,3,1971,NA,1,5.60434609385038,6.22948596028462,4.83230569625923,5.9169160270675,FALSE,2.55524086041211
"CAN","cpi",0.2,1972,3,1971,NA,1.5,1.93508651346019,4.25044339536523,4.83230569625923,3.09276495441271,FALSE,3.77001263414004
"CAN","cpi",0.2,1973,3,1973,NA,0,6.93990301344707,7.0453921104158,7.12388603531779,6.99264756193144,FALSE,0.301723909223696
"CAN","cpi",0.2,1973,3,1973,NA,0.5,5.2083256298692,5.74107229836788,7.12388603531779,5.47469896411854,FALSE,3.98978101087345
"CAN","cpi",0.2,1973,3,1972,NA,1,6.37805290426125,7.00319277069549,7.12388603531779,6.69062283747837,FALSE,0.926873027989988
"CAN","cpi",0.2,1973,3,1972,NA,1.5,3.57406399491234,5.88942087681738,7.12388603531779,4.73174243586486,FALSE,5.40151977815607
"CAN","cpi",0.2,1974,3,1974,NA,0,9.84906598170953,10.0395644295711,10.2717243737774,9.94431520564033,FALSE,0.770898308377334
"CAN","cpi",0.2,1974,3,1974,NA,0.5,8.07149208326475,8.60423875176344,10.2717243737774,8.3378654175141,FALSE,4.70146072353363
"CAN","cpi",0.2,1974,3,1973,NA,1,6.85455429313406,7.47969415956831,10.2717243737774,7.16712422635118,FALSE,7.60521540195702
"CAN","cpi",0.2,1974,3,1973,NA,1.5,2.85020190691379,5.2532930766473,10.2717243737774,4.05174749178054,FALSE,14.9491694125588
"CAN","cpi",0.2,1975,3,1975,NA,0,9.99793313804706,10.1884315859087,10.0232981493341,10.0931823619779,TRUE,0.190498447861593
"CAN","cpi",0.2,1975,3,1975,NA,0.5,8.71630142672394,9.24904809522263,10.0232981493341,8.98267476097328,FALSE,2.46837180377742
"CAN","cpi",0.2,1975,3,1974,NA,1,7.47122828908828,8.09636815552252,10.0232981493341,7.7837982223054,FALSE,5.44246485096324
"CAN","cpi",0.2,1975,3,1974,NA,1.5,4.55777046821844,6.96086163795194,10.0232981493341,5.75931605308519,FALSE,10.0591824481889
"CAN","cpi",0.2,1976,3,1976,NA,0,7.00289533687344,7.1426637621609,7.22784311401172,7.07277954951717,FALSE,0.352716804914497
"CAN","cpi",0.2,1976,3,1976,NA,0.5,8.32451727013392,8.85726393863261,7.22784311401172,8.59089060438327,FALSE,3.27443205880421
"CAN","cpi",0.2,1976,3,1975,NA,1,10.101577835297,10.7267177017313,7.22784311401172,10.4141477685142,FALSE,7.80947666964756
"CAN","cpi",0.2,1976,3,1975,NA,1.5,5.22896527648186,7.63205644621537,7.22784311401172,6.43051086134862,TRUE,2.40309116973351
"CAN","cpi",0.2,1977,3,1977,NA,0,7.45776229271692,7.64826074057851,7.58101410153764,7.55301151664772,TRUE,0.190498447861595
"CAN","cpi",0.2,1977,3,1977,NA,0.5,7.71528516596953,8.24803183446822,7.58101410153764,7.98165850021887,FALSE,0.868424329578398
"CAN","cpi",0.2,1977,3,1976,NA,1,3.2880832935966,4.15460968927544,7.58101410153764,3.72134649143602,FALSE,9.43253742633435
"CAN","cpi",0.2,1977,3,1976,NA,1.5,6.84504200380362,9.16039888570866,7.58101410153764,8.00272044475614,TRUE,2.31535688190504
"CAN","cpi",0.2,1978,3,1978,NA,0,8.6013941909447,8.74116261623216,8.50208927062595,8.67127840358843,FALSE,0.388030726084341
"CAN","cpi",0.2,1978,3,1978,NA,0.5,7.97818291950807,8.77947171687053,8.50208927062595,8.3788273181893,TRUE,0.801288797362457
"CAN","cpi",0.2,1978,3,1977,NA,1,7.11457508632109,7.98110148199993,8.50208927062595,7.54783828416051,FALSE,2.16899586724389
"CAN","cpi",0.2,1978,3,1977,NA,1.5,8.92829531075913,10.5229598160853,8.50208927062595,9.72562756342223,FALSE,2.66017960565916
"CAN","cpi",0.2,1979,3,1979,NA,0,8.49387968968096,8.63364811496843,8.65147652410481,8.56376390232469,FALSE,0.184339448128421
"CAN","cpi",0.2,1979,3,1979,NA,0.5,8.06123950236716,8.53074619696813,8.65147652410481,8.29599284966764,FALSE,0.771332512442675
"CAN","cpi",0.2,1979,3,1978,NA,1,8.32732338552491,10.0789066246535,8.65147652410481,9.20311500508918,TRUE,1.75158323912854
"CAN","cpi",0.2,1979,3,1978,NA,1.5,7.68067748196497,9.43226072109351,8.65147652410481,8.55646910152924,TRUE,1.75158323912854
"CAN","cpi",0.2,1980,3,1980,NA,0,9.43418300842558,9.57395143371304,9.5171912664748,9.50406722106931,TRUE,0.139768425287468
"CAN","cpi",0.2,1980,3,1980,NA,0.5,8.22250546891375,8.93347281778809,9.5171912664748,8.57798914335092,FALSE,2.17026347059111
"CAN","cpi",0.2,1980,3,1979,NA,1,7.69207962500672,8.66542444920958,9.5171912664748,8.17875203710815,FALSE,3.10276186736589
"CAN","cpi",0.2,1980,3,1979,NA,1.5,7.90537524851968,8.87872007272255,9.5171912664748,8.39204766062112,FALSE,2.56952280858348
"CAN","cpi",0.2,1981,3,1981,NA,0,11.6415036857762,11.7812721110637,11.5813425032741,11.7113878984199,FALSE,0.290171381542592
"CAN","cpi",0.2,1981,3,1981,NA,0.5,11.8601360008396,12.5711033497139,11.5813425032741,12.2156196752767,FALSE,1.40795109278789
"CAN","cpi",0.2,1981,3,1980,NA,1,10.498046861318,11.6013238232868,11.5813425032741,11.0496853423024,TRUE,1.10327696196875
"CAN","cpi",0.2,1981,3,1980,NA,1.5,7.54076566908584,9.13543017441204,11.5813425032741,8.33809792174894,FALSE,7.70944532748144
"CAN","cpi",0.2,1982,3,1982,NA,0,10.186782602466,10.3265510277535,10.1124203763629,10.2566668151097,FALSE,0.325673990545061
"CAN","cpi",0.2,1982,3,1982,NA,0.5,9.75305192291733,10.4640192717917,10.1124203763629,10.1085355973545,TRUE,0.710967348874334
"CAN","cpi",0.2,1982,3,1981,NA,1,11.2393315221522,12.3026458440957,10.1124203763629,11.770988683124,FALSE,3.88059218641665
"CAN","cpi",0.2,1982,3,1981,NA,1.5,12.072792782465,13.6674572877912,10.1124203763629,12.8701250351281,FALSE,6.49559552058135
"CAN","cpi",0.2,1983,3,1983,NA,0,5.66112792900516,5.80089635429263,5.67091787896303,5.7310121416489,TRUE,0.139768425287468
"CAN","cpi",0.2,1983,3,1983,NA,0.5,4.67867681279605,5.14818350739702,5.67091787896303,4.91343016009654,FALSE,1.776342623516
"CAN","cpi",0.2,1983,3,1982,NA,1,8.63336301767619,9.73663997964494,5.67091787896303,9.18500149866057,FALSE,8.50938980875165
"CAN","cpi",0.2,1983,3,1982,NA,1.5,8.88939076303056,10.4840552683568,5.67091787896303,9.68672301569366,FALSE,9.64084671549502
"CAN","cpi",0.2,1984,3,1984,NA,0,NA,NA,4.19799576814029,NA,NA,NA
"CAN","cpi",0.2,1984,3,1984,NA,0.5,5.5022231858074,6.21319053468174,4.19799576814029,5.85770686024457,FALSE,3.97153589304212
"CAN","cpi",0.2,1984,3,1983,NA,1,5.21389509897991,6.31717206094866,4.19799576814029,5.76553357996429,FALSE,3.64302528906781
"CAN","cpi",0.2,1984,3,1983,NA,1.5,2.1224674268086,3.7171319321348,4.19799576814029,2.9197996794717,FALSE,2.79682409533991
"CAN","cpi",0.2,1985,3,1985,NA,0,3.8005039742271,3.90785582848045,3.86444262005169,3.85417990135378,TRUE,0.107351854253348
"CAN","cpi",0.2,1985,3,1985,NA,0.5,3.86441674939182,4.57538409826615,3.86444262005169,4.21990042382899,TRUE,0.710967348874334
"CAN","cpi",0.2,1985,3,1984,NA,1,NA,NA,3.86444262005169,NA,NA,NA
"CAN","cpi",0.2,1985,3,1984,NA,1.5,7.83266435039046,9.42732885571666,3.86444262005169,8.62999660305356,FALSE,11.5152188311731
"CAN","cpi",0.2,1986,3,1986,NA,0,4.01268701500689,4.06274076899297,4.08685396749431,4.03771389199993,FALSE,0.11033675023944
"CAN","cpi",0.2,1986,3,1986,NA,0.5,4.02673552125799,4.73765112881258,4.08685396749431,4.38219332503529,TRUE,0.71091560755459
"CAN","cpi",0.2,1986,3,1985,NA,1,2.54296939179233,4.21403012982465,4.08685396749431,3.37849976080849,TRUE,1.67106073803233
"CAN","cpi",0.2,1986,3,1985,NA,1.5,4.1175682199934,5.78862895802572,4.08685396749431,4.95309858900956,FALSE,1.74784636928005
"CAN","cpi",0.2,1987,3,1987,NA,0,NA,NA,4.23980729277887,NA,NA,NA
"CAN","cpi",0.2,1987,3,1987,NA,0.5,3.83808225325987,4.42876096834183,4.23980729277887,4.13342161080085,TRUE,0.590678715081951
"CAN","cpi",0.2,1987,3,1986,NA,1,2.98439882010245,4.33842094319352,4.23980729277887,3.66140988164798,TRUE,1.35402212309106
"CAN","cpi",0.2,1987,3,1986,NA,1.5,4.00509542877204,5.59975993409824,4.23980729277887,4.80242768143514,TRUE,1.5946645053262
"CAN","cpi",0.2,1988,3,1988,NA,0,3.92178045085745,3.96588278904975,3.92899537638065,3.9438316199536,TRUE,0.0441023381923014
"CAN","cpi",0.2,1988,3,1988,NA,0.5,3.23093020097147,3.47745410584477,3.92899537638065,3.35419215340812,FALSE,1.37537708121301
"CAN","cpi",0.2,1988,3,1987,NA,1,NA,NA,3.92899537638065,NA,NA,NA
"CAN","cpi",0.2,1988,3,1987,NA,1.5,3.33199890660819,4.45723968392073,3.92899537638065,3.89461929526446,TRUE,1.12524077731254
"CAN","cpi",0.2,1989,3,1989,NA,0,4.93715181962239,4.96545454823431,4.82821664544208,4.95130318392835,FALSE,0.300640664062712
"CAN","cpi",0.2,1989,3,1989,NA,0.5,4.10698747503408,4.35351137990738,4.82821664544208,4.23024942747073,FALSE,1.43328706871004
"CAN","cpi",0.2,1989,3,1988,NA,1,3.49326083216735,4.6235750598959,4.82821664544208,4.05841794603162,FALSE,1.641918191594
"CAN","cpi",0.2,1989,3,1988,NA,1.5,2.03268644551872,3.16300067324727,4.82821664544208,2.597843559383,FALSE,5.29335415821556
"CAN","cpi",0.2,1990,3,1990,NA,0,4.46054365496034,4.48884638357226,4.64347549432717,4.4746950192663,FALSE,0.414875505499205
"CAN","cpi",0.2,1990,3,1990,NA,0.5,4.66953233148381,5.26021104656576,4.64347549432717,4.96487168902479,FALSE,0.655820807973553
"CAN","cpi",0.2,1990,3,1989,NA,1,4.87355662582649,6.00387085355504,4.64347549432717,5.43871373969076,FALSE,1.70551705647684
"CAN","cpi",0.2,1990,3,1989,NA,1.5,2.80809688637382,3.93841111410237,4.64347549432717,3.3732540002381,FALSE,2.89297517829054
"CAN","cpi",0.2,1991,3,1991,NA,0,5.59638233511786,5.62468506372978,5.4258100696218,5.61053369942382,FALSE,0.454733392352084
"CAN","cpi",0.2,1991,3,1991,NA,0.5,7.52665359723497,8.11733231231692,5.4258100696218,7.82199295477594,FALSE,5.84278753411488
"CAN","cpi",0.2,1991,3,1990,NA,1,3.01079669537712,4.32353967230482,5.4258100696218,3.66716818384097,FALSE,4.06841897022015
"CAN","cpi",0.2,1991,3,1990,NA,1.5,3.95857486512639,5.69106410815689,5.4258100696218,4.82481948664164,TRUE,1.7324892430305
"CAN","cpi",0.2,1992,3,1992,NA,0,NA,NA,1.47496888572843,NA,NA,NA
"CAN","cpi",0.2,1992,3,1992,NA,0.5,NA,NA,1.47496888572843,NA,NA,NA
"CAN","cpi",0.2,1992,3,1991,NA,1,2.13912467661013,3.39648674805413,1.47496888572843,2.76780571233213,FALSE,2.91775154864825
"CAN","cpi",0.2,1992,3,1991,NA,1.5,6.52070079087969,7.7780628623237,1.47496888572843,7.14938182660169,FALSE,13.8716918343222
"CAN","cpi",0.2,1993,3,1993,NA,0,NA,NA,NA,NA,NA,NA
"CAN","cpi",0.2,1993,3,1993,NA,0.5,NA,NA,NA,NA,NA,NA
"CAN","cpi",0.2,1993,3,1992,NA,1,NA,NA,NA,NA,NA,NA
"CAN","cpi",0.2,1993,3,1992,NA,1.5,NA,NA,NA,NA,NA,NA
"CAN","cpi",0.2,1994,3,1994,NA,0,NA,NA,NA,NA,NA,NA
"CAN","cpi",0.2,1994,3,1994,NA,0.5,NA,NA,NA,NA,NA,NA
"CAN","cpi",0.2,1994,3,1993,NA,1,NA,NA,NA,NA,NA,NA
"CAN","cpi",0.2,1994,3,1993,NA,1.5,NA,NA,NA,NA,NA,NA
"CAN","cpi",0.2,1995,3,1995,NA,0,NA,NA,2.11688403676572,NA,NA,NA
"CAN","cpi",0.2,1995,3,1995,NA,0.5,2.21361601832721,2.82514020313448,2.11688403676572,2.51937811073084,FALSE,0.853354138711006
"CAN","cpi",0.2,1995,3,1994,NA,1,0.0662536055812699,1.37253921606262,2.11688403676572,0.719396410821945,FALSE,3.16714766223909
"CAN","cpi",0.2,1995,3,1994,NA,1.5,-1.69968884448896,-0.393403234007609,2.11688403676572,-1.04654603924828,FALSE,7.58200378741466
"CAN","cpi",0.2,1996,3,1996,NA,0,1.41297123999732,1.4426437271432,1.55309584667184,1.42780748357026,FALSE,0.305802785967486
"CAN","cpi",0.2,1996,3,1996,NA,0.5,NA,NA,1.55309584667184,NA,NA,NA
"CAN","cpi",0.2,1996,3,1995,NA,1,NA,NA,1.55309584667184,NA,NA,NA
"CAN","cpi",0.2,1996,3,1995,NA,1.5,2.33668020650386,3.50796521700507,1.55309584667184,2.92232271175447,FALSE,3.13024591008126
"CAN","cpi",0.2,1997,3,1997,NA,0,1.68621840257679,1.78449855356556,1.60528783555959,1.73535847807117,FALSE,0.300606568531761
"CAN","cpi",0.2,1997,3,1997,NA,0.5,1.81023291100566,2.41133436095026,1.60528783555959,2.11078363597796,FALSE,1.11346413855977
"CAN","cpi",0.2,1997,3,1996,NA,1,0.264318232076808,1.7056044425383,1.60528783555959,0.984961337307556,TRUE,1.4412862104615
"CAN","cpi",0.2,1997,3,1996,NA,1.5,NA,NA,1.60528783555959,NA,NA,NA
"CAN","cpi",0.2,1998,3,1998,NA,0,0.911998175360824,1.15817125233338,0.988908029337191,1.0350847138471,TRUE,0.246173076972553
"CAN","cpi",0.2,1998,3,1998,NA,0.5,1.34772078381995,2.02295232492219,0.988908029337191,1.68533655437107,FALSE,1.57226342730914
"CAN","cpi",0.2,1998,3,1997,NA,1,1.6375011409128,2.86569054578234,0.988908029337191,2.25159584334757,FALSE,2.84967218380855
"CAN","cpi",0.2,1998,3,1997,NA,1.5,1.77578346632599,3.00397287119554,0.988908029337191,2.38987816876076,FALSE,3.19537799734155
"CAN","cpi",0.2,1999,3,1999,NA,0,1.71462572928943,1.8377430398998,1.7107350135213,1.77618438459462,FALSE,0.132844100030708
"CAN","cpi",0.2,1999,3,1999,NA,0.5,0.605998060659525,1.45218689917108,1.7107350135213,1.0290924799153,FALSE,1.4925591243871
"CAN","cpi",0.2,1999,3,1998,NA,1,1.07688883204097,2.62666204924313,1.7107350135213,1.85177544064205,TRUE,1.54977321720216
"CAN","cpi",0.2,1999,3,1998,NA,1.5,2.07777436044751,3.81514025529495,1.7107350135213,2.94645730787123,FALSE,2.65496426216297
"CAN","cpi",0.2,2000,3,2000,NA,0,2.63327737400559,2.78723098311741,2.6718361971244,2.7102541785615,TRUE,0.153953609111822
"CAN","cpi",0.2,2000,3,2000,NA,0.5,1.92095759477778,2.76714643328933,2.6718361971244,2.34405201403356,TRUE,0.846188838511552
"CAN","cpi",0.2,2000,3,1999,NA,1,2.39531398909669,3.7555447465275,2.6718361971244,3.07542936781209,TRUE,1.36023075743081
"CAN","cpi",0.2,2000,3,1999,NA,1.5,1.02856838377165,3.52761233226283,2.6718361971244,2.27809035801724,TRUE,2.49904394849118
"CAN","cpi",0.2,2001,3,2001,NA,0,2.72543462802092,2.8254970716661,2.47906219852806,2.77546584984351,FALSE,0.715993517377329
"CAN","cpi",0.2,2001,3,2001,NA,0.5,2.09294139376534,2.77839371629674,2.47906219852806,2.43566755503104,TRUE,0.6854523225314
"CAN","cpi",0.2,2001,3,2000,NA,1,3.199300451485,4.17987345491186,2.47906219852806,3.68958695319843,FALSE,2.7811686358192
"CAN","cpi",0.2,2001,3,2000,NA,1.5,2.15782462959366,3.8675911646498,2.47906219852806,3.01270789712173,TRUE,1.70976653505614
"CAN","cpi",0.2,2002,3,2002,NA,0,2.22193112804092,2.3219935716861,2.20880570551249,2.27196234986351,FALSE,0.132875999966255
"CAN","cpi",0.2,2002,3,2002,NA,0.5,1.24072795862556,1.92618028115696,2.20880570551249,1.58345411989126,FALSE,1.39201588342022
"CAN","cpi",0.2,2002,3,2001,NA,1,1.77481773674555,2.75539074017241,2.20880570551249,2.26510423845898,TRUE,0.980573003426861
"CAN","cpi",0.2,2002,3,2001,NA,1.5,2.45999678044183,3.58116408513836,2.20880570551249,3.02058043279009,FALSE,1.74914499201989
"CAN","cpi",0.2,2003,3,2003,NA,0,2.66369434972854,2.76283970268481,2.71189071546809,2.71326702620668,TRUE,0.0991453529562634
"CAN","cpi",0.2,2003,3,2003,NA,0.5,4.21993264982835,4.80872033564158,2.71189071546809,4.51432649273496,FALSE,4.35889252171388
"CAN","cpi",0.2,2003,3,2002,NA,1,3.56178897455576,4.15057666036899,2.71189071546809,3.85618281746238,FALSE,2.71353333353241
"CAN","cpi",0.2,2003,3,2002,NA,1.5,1.7491265884246,3.03892120855909,2.71189071546809,2.39402389849184,TRUE,1.28979462013449
"CAN","cpi",0.2,2004,3,2004,NA,0,1.73314706116392,1.81618998649637,1.83151661303942,1.77466852383015,FALSE,0.121359491690081
"CAN","cpi",0.2,2004,3,2004,NA,0.5,1.25073951952532,1.8544691835134,1.83151661303942,1.55260435151936,TRUE,0.603729663988085
"CAN","cpi",0.2,2004,3,2003,NA,1,1.49229309398881,2.09602275797689,1.83151661303942,1.79415792598285,TRUE,0.603729663988085
"CAN","cpi",0.2,2004,3,2003,NA,1.5,3.81728694255539,4.71669850835892,1.83151661303942,4.26699272545716,FALSE,5.86383738959345
"CAN","cpi",0.2,2005,3,2005,NA,0,2.30038033144875,2.38652673801032,2.18071628336509,2.34345353472953,FALSE,0.385306526770716
"CAN","cpi",0.2,2005,3,2005,NA,0.5,1.29552384121651,1.71090292513008,2.18071628336509,1.50321338317329,FALSE,1.5899124795011
"CAN","cpi",0.2,2005,3,2004,NA,1,1.43275008516555,1.84812916907912,2.18071628336509,1.64043962712234,FALSE,1.24684686962849
"CAN","cpi",0.2,2005,3,2004,NA,1.5,1.55624708633327,2.5116185959314,2.18071628336509,2.03393284113233,TRUE,0.955371509598131
"CAN","cpi",0.2,2006,3,2006,NA,0,2.05051882503122,2.13976871282192,1.97519342012289,2.09514376892657,FALSE,0.277563400061537
"CAN","cpi",0.2,2006,3,2006,NA,0.5,1.87331171245893,2.31541355952152,1.97519342012289,2.09436263599022,TRUE,0.442101847062586
"CAN","cpi",0.2,2006,3,2005,NA,1,2.73724028254931,3.1793421296119,1.97519342012289,2.9582912060806,FALSE,2.34721900312865
"CAN","cpi",0.2,2006,3,2005,NA,1.5,1.27028958512708,2.02742965448904,1.97519342012289,1.64885961980806,TRUE,0.757140069361959
"CAN","cpi",0.2,2007,3,2007,NA,0,2.06065953651316,2.15301290553298,2.10062087284572,2.10683622102307,TRUE,0.0923533690198193
"CAN","cpi",0.2,2007,3,2007,NA,0.5,1.99077117049582,2.36182687117123,2.10062087284572,2.17629902083353,TRUE,0.371055700675417
"CAN","cpi",0.2,2007,3,2006,NA,1,1.32308907676085,1.69414477743627,2.10062087284572,1.50861692709856,FALSE,1.38724593919906
"CAN","cpi",0.2,2007,3,2006,NA,1.5,1.83454575985694,2.48382656715116,2.10062087284572,2.15918616350405,TRUE,0.64928080729422
"CAN","cpi",0.2,2008,3,2008,NA,0,2.83237657005118,2.90921253292538,2.31447335265955,2.87079455148828,FALSE,1.37159400635327
"CAN","cpi",0.2,2008,3,2008,NA,0.5,1.19088393108533,1.42922236282,2.31447335265955,1.31005314695267,FALSE,2.45146590633355
"CAN","cpi",0.2,2008,3,2007,NA,1,1.32927007270593,1.61135092694743,2.31447335265955,1.47031049982668,FALSE,2.03988691852181
"CAN","cpi",0.2,2008,3,2007,NA,1.5,2.18088181139639,2.74818209545149,2.31447335265955,2.46453195342394,TRUE,0.567300284055099
"CAN","cpi",0.2,2009,3,2009,NA,0,0.148704364912624,0.225540327786819,0.284533874408197,0.187122346349721,FALSE,0.224319829427641
"CAN","cpi",0.2,2009,3,2009,NA,0.5,-0.191918477913955,0.0464199538207219,0.284533874408197,-0.0727492620466167,FALSE,0.833623233203366
"CAN","cpi",0.2,2009,3,2008,NA,1,3.67675983644876,3.95884069069026,0.284533874408197,3.81780026356951,FALSE,8.76264575934291
"CAN","cpi",0.2,2009,3,2008,NA,1.5,1.5366929255398,1.83681012706858,0.284533874408197,1.68675152630419,FALSE,3.43051482935779
"CAN","cpi",0.2,2010,3,2010,NA,0,1.5705776831983,1.64741364607249,1.75525687020327,1.6089956646354,FALSE,0.346444023201138
"CAN","cpi",0.2,2010,3,2010,NA,0.5,1.79192580939449,2.03026424112917,1.75525687020327,1.91109502526183,FALSE,0.330010779712727
"CAN","cpi",0.2,2010,3,2009,NA,1,0.851255361374002,1.1333362156155,1.75525687020327,0.992295788494754,FALSE,1.83688249071092
"CAN","cpi",0.2,2010,3,2009,NA,1.5,0.735044452051477,1.03516165358026,1.75525687020327,0.885103052815867,FALSE,2.10035524308632
"CAN","cpi",0.2,2011,3,2011,NA,0,2.82823615918388,2.90507212205808,2.85717434028225,2.86665414062098,TRUE,0.0768359628741946
"CAN","cpi",0.2,2011,3,2011,NA,0.5,2.64666460308037,2.88500303481505,2.85717434028225,2.76583381894771,TRUE,0.238338431734677
"CAN","cpi",0.2,2011,3,2010,NA,1,1.11612055597115,1.66977232742323,2.85717434028225,1.39294644169719,FALSE,3.52215680359962
"CAN","cpi",0.2,2011,3,2010,NA,1.5,1.36570472019759,1.91935649164967,2.85717434028225,1.64253060592363,FALSE,2.89819639303353
"CAN","cpi",0.2,2012,3,2012,NA,0,1.51874530815521,1.53770490883268,1.50118536134935,1.52822510849394,FALSE,0.0628594676921245
"CAN","cpi",0.2,2012,3,2012,NA,0.5,1.83294969839336,2.01563074106243,1.50118536134935,1.92429021972789,FALSE,1.0120918852791
"CAN","cpi",0.2,2012,3,2011,NA,1,1.65428479596721,2.34462005297436,1.50118536134935,1.99945242447079,FALSE,1.07308384355182
"CAN","cpi",0.2,2012,3,2011,NA,1.5,2.13634194547604,2.82667720248319,1.50118536134935,2.48150957397962,FALSE,2.27822671732389
"CAN","cpi",0.2,2013,3,2013,NA,0,1.04682533389337,1.06578493457084,0.931270594714462,1.05630513423211,FALSE,0.307846448624745
"CAN","cpi",0.2,2013,3,2013,NA,0.5,1.05046532968198,1.28880376141666,0.931270594714462,1.16963454554932,FALSE,0.536325269153476
"CAN","cpi",0.2,2013,3,2012,NA,1,0.764518059344505,1.41284372323034,0.931270594714462,1.08868089128742,TRUE,0.648325663885831
"CAN","cpi",0.2,2013,3,2012,NA,1.5,1.82156896336235,2.46989462724818,0.931270594714462,2.14573179530527,FALSE,2.87407158550556
"CAN","cpi",0.2,2014,3,2014,NA,0,1.98914869111243,2.00810829178989,1.87639912240215,1.99862849145116,FALSE,0.300833522453162
"CAN","cpi",0.2,2014,3,2014,NA,0.5,1.67315054495954,1.91148897669421,1.87639912240215,1.79231976082687,TRUE,0.238338431734677
"CAN","cpi",0.2,2014,3,2013,NA,1,1.08248706625606,1.73081273014189,1.87639912240215,1.40664989819898,FALSE,1.01229164453647
"CAN","cpi",0.2,2014,3,2013,NA,1.5,1.19019838583601,1.83852404972184,1.87639912240215,1.51436121777893,FALSE,0.743013345586605
"CAN","cpi",0.2,2015,3,2015,NA,0,1.1832667571032,1.23734625139239,1.11090953952792,1.2103065042478,FALSE,0.234972538227398
"CAN","cpi",0.2,2015,3,2015,NA,0.5,0.367206794383524,0.549887837052593,1.11090953952792,0.458547315718059,FALSE,1.58523529885738
"CAN","cpi",0.2,2015,3,2014,NA,1,1.26064390179757,1.88045172676513,1.11090953952792,1.57054781428135,FALSE,0.994143730641684
"CAN","cpi",0.2,2015,3,2014,NA,1.5,1.57238718292779,2.19219500789535,1.11090953952792,1.88229109541157,FALSE,1.77350193346724
"CAN","cpi",0.2,2016,3,2016,NA,0,1.38926692757533,1.44334642186452,1.41168586698797,1.41630667471992,TRUE,0.0540794942891929
"CAN","cpi",0.2,2016,3,2016,NA,0.5,1.08838106159472,1.27106210426379,1.41168586698797,1.17972158292925,FALSE,0.534240449479514
"CAN","cpi",0.2,2016,3,2015,NA,1,1.55396174803292,2.17376957300048,1.41168586698797,1.8638656605167,FALSE,0.975497527579945
"CAN","cpi",0.2,2016,3,2015,NA,1.5,0.760326114667079,1.38013393963464,1.41168586698797,1.07023002715086,FALSE,0.698687643350872
"CAN","cpi",0.2,2017,3,2017,NA,0,1.49544712612886,1.51440672680632,1.57888581671161,1.50492692646759,FALSE,0.180157325440684
"CAN","cpi",0.2,2017,3,2017,NA,0.5,1.99952566148688,2.18220670415595,1.57888581671161,2.09086618282141,FALSE,1.23428065460724
"CAN","cpi",0.2,2017,3,2016,NA,1,0.753534465994116,1.53950654106237,1.57888581671161,1.14652050352824,FALSE,0.884420264191355
"CAN","cpi",0.2,2017,3,2016,NA,1.5,0.874894807696136,1.66086688276439,1.57888581671161,1.26788084523026,TRUE,0.785972075068256
"CAN","cpi",0.2,2018,3,2018,NA,0,2.4036955746221,2.42265517529956,2.23316270166586,2.41317537496083,FALSE,0.445291783068064
"CAN","cpi",0.2,2018,3,2018,NA,0.5,2.43675067181242,2.61943171448149,2.23316270166586,2.52809119314695,FALSE,0.691650968035463
"CAN","cpi",0.2,2018,3,2017,NA,1,0.786408636655924,1.54959340166601,2.23316270166586,1.16800101916097,FALSE,2.47210801500971
"CAN","cpi",0.2,2018,3,2017,NA,1.5,1.69139164009589,2.45457640510597,2.23316270166586,2.07298402260093,TRUE,0.763184765010082
"CAN","cpi",0.2,2019,3,2019,NA,0,NA,NA,1.91921619871868,NA,NA,NA
"CAN","cpi",0.2,2019,3,2019,NA,0.5,1.31744990797467,1.62912621809178,1.91921619871868,1.47328806303322,FALSE,1.03690126168436
"CAN","cpi",0.2,2019,3,2018,NA,1,1.85311042795828,2.61629519296837,1.91921619871868,2.23470281046333,TRUE,0.763184765010081
"CAN","cpi",0.2,2019,3,2018,NA,1.5,1.93871324317008,2.70189800818016,1.91921619871868,2.32030562567512,FALSE,0.811927376138587
"CAN","cpi",0.2,2020,3,2020,NA,0,0.650060878930173,0.697116394497021,0.71139989671781,0.673588636713597,FALSE,0.0827642711188211
"CAN","cpi",0.2,2020,3,2020,NA,0.5,NA,NA,0.71139989671781,NA,NA,NA
"CAN","cpi",0.2,2020,3,2019,NA,1,NA,NA,0.71139989671781,NA,NA,NA
"CAN","cpi",0.2,2020,3,2019,NA,1.5,1.43559907954194,2.11851075921615,0.71139989671781,1.77705491937904,FALSE,2.49340963673453
"CAN","cpi",0.2,2021,3,2021,NA,0,3.22903690768777,3.27609242325462,3.31148121717802,3.2525646654712,FALSE,0.135527500375354
"CAN","cpi",0.2,2021,3,2021,NA,0.5,2.02479617671318,2.31067343334069,3.31148121717802,2.16773480502693,FALSE,2.78789671622085
"CAN","cpi",0.2,2021,3,2020,NA,1,1.2017181718676,2.01969731765884,3.31148121717802,1.61070774476322,FALSE,4.0474388945892
"CAN","cpi",0.2,2021,3,2020,NA,1.5,NA,NA,3.31148121717802,NA,NA,NA
"CAN","cpi",0.2,2022,3,2022,NA,0,6.56330116022541,6.61035667579226,6.50977236228281,6.58682891800883,FALSE,0.180877510423339
"CAN","cpi",0.2,2022,3,2022,NA,0.5,5.3851656002951,5.79284466332286,6.50977236228281,5.58900513180898,FALSE,2.19999831042764
"CAN","cpi",0.2,2022,3,2021,NA,1,2.98379314569514,3.72814838475671,6.50977236228281,3.35597076522593,FALSE,7.69841518287682
"CAN","cpi",0.2,2022,3,2021,NA,1.5,1.52240460213347,2.26675984119504,6.50977236228281,1.89458222166426,FALSE,11.351886541781
"CAN","cpi",0.2,2023,3,2023,NA,0,3.92655865672512,3.9978725715897,3.78831288758619,3.96221561415741,FALSE,0.416928337711902
"CAN","cpi",0.2,2023,3,2023,NA,0.5,3.37511303918998,3.84928107414923,3.78831288758619,3.6121970566696,TRUE,0.474168034959257
"CAN","cpi",0.2,2023,3,2022,NA,1,5.11400763661001,5.85836287567159,3.78831288758619,5.4861852561408,FALSE,4.05859211162113
"CAN","cpi",0.2,2023,3,2022,NA,1.5,3.48339313305857,4.22774837212014,3.78831288758619,3.85557075258935,TRUE,0.744355239061576
"CAN","cpi",0.2,2024,3,2023,NA,1,4.37789345609054,5.06772274198423,NA,4.72280809903739,NA,NA
"CAN","cpi",0.2,2024,3,2023,NA,1.5,4.02214045318429,4.71196973907797,NA,4.36705509613113,NA,NA
"CAN","cpi",0.3,1959,3,1959,NA,0,1.18925944085356,1.3105648877723,1.19382698397654,1.24991216431293,TRUE,0.121305446918747
"CAN","cpi",0.3,1959,3,1959,NA,0.5,-0.506779341790146,1.3824588049708,1.19382698397654,0.437839731590327,TRUE,1.88923814676095
"CAN","cpi",0.3,1959,3,1958,NA,1,-0.750933537711875,4.2681887954308,1.19382698397654,1.75862762885946,TRUE,5.01912233314267
"CAN","cpi",0.3,1959,3,1958,NA,1.5,-1.44496212359028,4.99310557786559,1.19382698397654,1.77407172713766,TRUE,6.43806770145587
"CAN","cpi",0.3,1960,3,1960,NA,0,0.965218703269765,1.08200738191978,1.34209404870695,1.02361304259477,FALSE,0.859893440899078
"CAN","cpi",0.3,1960,3,1960,NA,0.5,-0.405635593198814,1.48360255356213,1.34209404870695,0.53898348018166,TRUE,1.88923814676095
"CAN","cpi",0.3,1960,3,1959,NA,1,1.87844648074149,6.03674099304736,1.34209404870695,3.95759373689442,FALSE,5.69073003240455
"CAN","cpi",0.3,1960,3,1959,NA,1.5,-2.95262407155782,1.20567044074805,1.34209404870695,-0.873476815404885,FALSE,4.5480762493313
"CAN","cpi",0.3,1961,3,1961,NA,0,0.950819141615065,1.06760782026508,1.00921348094007,1.00921348094007,TRUE,0.116788678650013
"CAN","cpi",0.3,1961,3,1961,NA,0.5,0.137025112439545,1.8814018494406,1.00921348094007,1.00921348094007,TRUE,1.74437673700105
"CAN","cpi",0.3,1961,3,1960,NA,1,-2.0253767935494,2.13291771875647,1.00921348094007,0.0537704626035329,TRUE,4.15829451230587
"CAN","cpi",0.3,1961,3,1960,NA,1.5,-2.94132905509297,1.2169654572129,1.00921348094007,-0.862181798940035,TRUE,4.15829451230587
"CAN","cpi",0.3,1962,3,1962,NA,0,1.04623884697839,1.15840920765117,1.04957947883042,1.10232402731478,TRUE,0.11217036067278
"CAN","cpi",0.3,1962,3,1962,NA,0.5,-0.803110568525292,0.803110568525292,1.04957947883042,0,FALSE,2.31041802363665
"CAN","cpi",0.3,1962,3,1961,NA,1,-0.955443018336539,0.955443018336539,1.04957947883042,0,FALSE,2.17984735236987
"CAN","cpi",0.3,1962,3,1961,NA,1.5,-1.93183984310202,1.93183984310202,1.04957947883042,0,TRUE,3.86367968620403
"CAN","cpi",0.3,1963,3,1963,NA,0,1.85883211497563,1.97100247564841,1.60677118395228,1.91491729531202,FALSE,0.832344449310899
"CAN","cpi",0.3,1963,3,1963,NA,0.5,0.0337181460922122,1.6399392831428,1.60677118395228,0.836828714617504,TRUE,1.60622113705058
"CAN","cpi",0.3,1963,3,1962,NA,1,1.6086718858149,3.51955792248798,1.60677118395228,2.56411490415144,FALSE,1.9163166134234
"CAN","cpi",0.3,1963,3,1962,NA,1.5,-1.87139527988011,1.87139527988011,1.60677118395228,0,TRUE,3.74279055976021
"CAN","cpi",0.3,1964,3,1964,NA,0,1.93037822513547,2.04716690378549,1.88764670034376,1.98877256446048,FALSE,0.238878749483477
"CAN","cpi",0.3,1964,3,1964,NA,0.5,0.613747592941294,2.15363253161085,1.88764670034376,1.38369006227607,TRUE,1.53988493866956
"CAN","cpi",0.3,1964,3,1963,NA,1,4.43499988513602,6.3458859218091,1.88764670034376,5.39044290347256,FALSE,9.18903799322239
"CAN","cpi",0.3,1964,3,1963,NA,1.5,-1.60677118395228,1.60677118395228,1.88764670034376,0,FALSE,4.01604384330878
"CAN","cpi",0.3,1965,3,1965,NA,0,2.28717613486498,2.40396481351499,2.29538304394236,2.34557047418999,TRUE,0.116788678650013
"CAN","cpi",0.3,1965,3,1965,NA,0.5,0.854807227180326,2.36678173195275,2.29538304394236,1.61079447956654,TRUE,1.51197450477243
"CAN","cpi",0.3,1965,3,1964,NA,1,1.46784490159931,3.38253234199762,2.29538304394236,2.42518862179847,TRUE,1.91468744039831
"CAN","cpi",0.3,1965,3,1964,NA,1.5,-0.788668631635885,2.42487373626868,2.29538304394236,0.818102552316399,TRUE,3.21354236790457
"CAN","cpi",0.3,1966,3,1966,NA,0,3.7640246983007,3.87619505897348,3.72486065470629,3.82010987863709,FALSE,0.224067628085371
"CAN","cpi",0.3,1966,3,1966,NA,0.5,3.30664542457982,4.67582255333145,3.72486065470629,3.99123398895563,TRUE,1.36917712875163
"CAN","cpi",0.3,1966,3,1965,NA,1,2.251777669122,4.16266370579508,3.72486065470629,3.20722068745854,TRUE,1.91088603667308
"CAN","cpi",0.3,1966,3,1965,NA,1.5,0.129357754693626,3.08391873794554,3.72486065470629,1.60663824631958,FALSE,4.78582360256834
"CAN","cpi",0.3,1967,3,1967,NA,0,3.71160331294993,3.82377367362271,3.49360316391996,3.76768849328632,FALSE,0.735027929329839
"CAN","cpi",0.3,1967,3,1967,NA,0.5,1.90349810612992,2.91141138226529,3.49360316391996,2.4074547441976,FALSE,2.67131836657729
"CAN","cpi",0.3,1967,3,1966,NA,1,2.61623258581992,3.74583387558576,3.49360316391996,3.18103323070284,TRUE,1.12960128976584
"CAN","cpi",0.3,1967,3,1966,NA,1.5,3.17400111324652,6.12856209649844,3.49360316391996,4.65128160487248,TRUE,2.95456098325191
"CAN","cpi",0.3,1968,3,1968,NA,0,4.11679427638757,4.22896463706035,3.95128347779386,4.17287945672396,FALSE,0.585058356654811
"CAN","cpi",0.3,1968,3,1968,NA,0.5,3.56701541973084,4.57492869586621,3.95128347779386,4.07097205779852,TRUE,1.00791327613537
"CAN","cpi",0.3,1968,3,1967,NA,1,5.28041617635556,6.4100174661214,3.95128347779386,5.84521682123848,FALSE,4.92712328565643
"CAN","cpi",0.3,1968,3,1967,NA,1.5,0.836809493064794,3.67450767173973,3.95128347779386,2.25565858240226,FALSE,3.62848619597244
"CAN","cpi",0.3,1969,3,1969,NA,0,4.41288319040254,4.52505355107532,4.42679496126681,4.46896837073893,TRUE,0.11217036067278
"CAN","cpi",0.3,1969,3,1969,NA,0.5,2.6997468597078,3.23249352820649,4.42679496126681,2.96612019395715,FALSE,3.94503647724247
"CAN","cpi",0.3,1969,3,1968,NA,1,6.16007565552515,7.28967694529099,4.42679496126681,6.72487630040807,FALSE,6.08183184478966
"CAN","cpi",0.3,1969,3,1968,NA,1.5,2.89779544010794,5.73549361878287,4.42679496126681,4.31664452944541,TRUE,2.83769817867494
"CAN","cpi",0.3,1970,3,1970,NA,0,3.47423060730928,3.57971970427801,3.28128405769805,3.52697515579364,FALSE,0.656764953000822
"CAN","cpi",0.3,1970,3,1970,NA,0.5,4.14975421470148,5.15766749083686,3.28128405769805,4.65371085276917,FALSE,3.48925658185948
"CAN","cpi",0.3,1970,3,1969,NA,1,3.96267810599415,5.09227939575999,3.28128405769805,4.52747875087707,FALSE,3.07644142775471
"CAN","cpi",0.3,1970,3,1969,NA,1.5,0.922060031878774,3.23741691378381,3.28128405769805,2.07973847283129,FALSE,2.44069157880285
"CAN","cpi",0.3,1971,3,1971,NA,0,2.78657870943254,2.89206780640126,2.64123406634756,2.8393232579169,FALSE,0.520759505782941
"CAN","cpi",0.3,1971,3,1971,NA,0.5,1.56296501898739,2.57087829512276,2.64123406634756,2.06692165705507,FALSE,1.2089297653491
"CAN","cpi",0.3,1971,3,1970,NA,1,1.68561692749841,3.59650296417149,2.64123406634756,2.64105994583495,TRUE,1.91088603667308
"CAN","cpi",0.3,1971,3,1970,NA,1.5,3.43823080413792,5.84132197387143,2.64123406634756,4.63977638900468,FALSE,4.6802247062774
"CAN","cpi",0.3,1972,3,1972,NA,0,4.97773648339782,5.08322558036655,4.83230569625923,5.03048103188219,FALSE,0.521005631650427
"CAN","cpi",0.3,1972,3,1972,NA,0.5,4.56310240549203,5.5710156816274,4.83230569625923,5.06705904355972,TRUE,1.00791327613537
"CAN","cpi",0.3,1972,3,1971,NA,1,5.39927605981974,6.43455599431525,4.83230569625923,5.9169160270675,FALSE,2.65519525895412
"CAN","cpi",0.3,1972,3,1971,NA,1.5,1.89121936954596,4.29431053927946,4.83230569625923,3.09276495441271,FALSE,3.9402201896757
"CAN","cpi",0.3,1973,3,1973,NA,0,6.89739833800064,7.08789678586224,7.12388603531779,6.99264756193144,FALSE,0.293324874877463
"CAN","cpi",0.3,1973,3,1973,NA,0.5,4.97074232605085,5.97865560218623,7.12388603531779,5.47469896411854,FALSE,4.28000022793984
"CAN","cpi",0.3,1973,3,1972,NA,1,6.17298287023062,7.20826280472612,7.12388603531779,6.69062283747837,TRUE,1.03527993449551
"CAN","cpi",0.3,1973,3,1972,NA,1.5,3.5301968509981,5.93328802073161,7.12388603531779,4.73174243586486,FALSE,5.80479978283688
"CAN","cpi",0.3,1974,3,1974,NA,0,9.84318934152361,10.045441069757,10.2717243737774,9.94431520564033,FALSE,0.848775454005935
"CAN","cpi",0.3,1974,3,1974,NA,0.5,7.86925549956054,8.80647533546765,10.2717243737774,8.3378654175141,FALSE,5.1236456596493
"CAN","cpi",0.3,1974,3,1973,NA,1,6.69851430839763,7.63573414430474,10.2717243737774,7.16712422635118,FALSE,8.46862049154334
"CAN","cpi",0.3,1974,3,1973,NA,1.5,2.57446700015459,5.5290279834065,10.2717243737774,4.05174749178054,FALSE,16.5051220985974
"CAN","cpi",0.3,1975,3,1975,NA,0,9.99205649786114,10.1943082260946,10.0232981493341,10.0931823619779,TRUE,0.202251728233438
"CAN","cpi",0.3,1975,3,1975,NA,0.5,8.51406484301973,9.45128467892684,10.0232981493341,8.98267476097328,FALSE,2.57154403707078
"CAN","cpi",0.3,1975,3,1974,NA,1,7.31518830435185,8.25240814025895,10.0232981493341,7.7837982223054,FALSE,5.99690557612187
"CAN","cpi",0.3,1975,3,1974,NA,1.5,4.28203556145923,7.23659654471115,10.0232981493341,5.75931605308519,FALSE,10.916565567889
"CAN","cpi",0.3,1976,3,1976,NA,0,6.97753032558637,7.16802877344797,7.22784311401172,7.07277954951717,FALSE,0.361396563758019
"CAN","cpi",0.3,1976,3,1976,NA,0.5,8.08710280081731,9.09467840794922,7.22784311401172,8.59089060438327,FALSE,3.46260328371933
"CAN","cpi",0.3,1976,3,1975,NA,1,9.91035996494821,10.9179355720801,7.22784311401172,10.4141477685142,FALSE,8.67190946695046
"CAN","cpi",0.3,1976,3,1975,NA,1.5,4.95323036972266,7.90779135297457,7.22784311401172,6.43051086134862,TRUE,2.95456098325192
"CAN","cpi",0.3,1977,3,1977,NA,0,7.42177304326137,7.68424999003407,7.58101410153764,7.55301151664772,TRUE,0.262476946772702
"CAN","cpi",0.3,1977,3,1977,NA,0.5,7.43568231194875,8.52763468848899,7.58101410153764,7.98165850021887,TRUE,1.09195237654024
"CAN","cpi",0.3,1977,3,1976,NA,1,3.1753703031659,4.26732267970614,7.58101410153764,3.72134649143602,FALSE,10.5596421532017
"CAN","cpi",0.3,1977,3,1976,NA,1.5,6.80117485988938,9.20426602962289,7.58101410153764,8.00272044475614,TRUE,2.40309116973351
"CAN","cpi",0.3,1978,3,1978,NA,0,8.54003993020208,8.80251687697478,8.50208927062595,8.67127840358843,FALSE,0.370907402704507
"CAN","cpi",0.3,1978,3,1978,NA,0.5,7.80451490889681,8.95313972748179,8.50208927062595,8.3788273181893,TRUE,1.14862481858498
"CAN","cpi",0.3,1978,3,1977,NA,1,6.46322795335224,8.63244861496878,8.50208927062595,7.54783828416051,TRUE,2.16922066161654
"CAN","cpi",0.3,1978,3,1977,NA,1.5,8.56794912246971,10.8833060043747,8.50208927062595,9.72562756342223,FALSE,2.50352788717293
"CAN","cpi",0.3,1979,3,1979,NA,0,8.43252542893834,8.69500237571105,8.65147652410481,8.56376390232469,TRUE,0.262476946772701
"CAN","cpi",0.3,1979,3,1979,NA,0.5,7.89534845098641,8.69663724834887,8.65147652410481,8.29599284966764,TRUE,0.801288797362457
"CAN","cpi",0.3,1979,3,1978,NA,1,8.11850467428091,10.2877253358975,8.65147652410481,9.20311500508918,TRUE,2.16922066161654
"CAN","cpi",0.3,1979,3,1978,NA,1.5,7.35492351666249,9.758014686396,8.65147652410481,8.55646910152924,TRUE,2.4030911697335
"CAN","cpi",0.3,1980,3,1980,NA,0,9.41635459928919,9.59177984284942,9.5171912664748,9.50406722106931,TRUE,0.17542524356023
"CAN","cpi",0.3,1980,3,1980,NA,0.5,8.17734474466969,8.97863354203215,9.5171912664748,8.57798914335092,FALSE,2.34002515291288
"CAN","cpi",0.3,1980,3,1979,NA,1,7.30296041754388,9.05454365667242,9.5171912664748,8.17875203710815,FALSE,3.07343355284961
"CAN","cpi",0.3,1980,3,1979,NA,1.5,7.51625604105685,9.26783928018539,9.5171912664748,8.39204766062112,FALSE,2.46401748566971
"CAN","cpi",0.3,1981,3,1981,NA,0,11.6236752766398,11.7991005202,11.5813425032741,11.7113878984199,FALSE,0.296376024604997
"CAN","cpi",0.3,1981,3,1981,NA,0.5,11.8149752765955,12.616264073958,11.5813425032741,12.2156196752767,FALSE,1.46881100685206
"CAN","cpi",0.3,1981,3,1980,NA,1,10.0954343558369,12.0039363287678,11.5813425032741,11.0496853423024,TRUE,1.90850197293088
"CAN","cpi",0.3,1981,3,1980,NA,1.5,7.21295431589526,9.46324152760262,11.5813425032741,8.33809792174894,FALSE,8.30200428505455
"CAN","cpi",0.3,1982,3,1982,NA,0,10.1689541933296,10.3443794368898,10.1124203763629,10.2566668151097,FALSE,0.336950434893533
"CAN","cpi",0.3,1982,3,1982,NA,0.5,9.70789119867327,10.5091799960357,10.1124203763629,10.1085355973545,TRUE,0.801288797362457
"CAN","cpi",0.3,1982,3,1981,NA,1,11.2193502021396,12.3226271641083,10.1124203763629,11.770988683124,FALSE,4.26593360704485
"CAN","cpi",0.3,1982,3,1981,NA,1.5,11.7449814292744,13.9952686409818,10.1124203763629,12.8701250351281,FALSE,6.91474736288302
"CAN","cpi",0.3,1983,3,1983,NA,0,5.64329951986878,5.81872476342901,5.67091787896303,5.7310121416489,TRUE,0.17542524356023
"CAN","cpi",0.3,1983,3,1983,NA,0.5,4.55794648565937,5.2689138345337,5.67091787896303,4.91343016009654,FALSE,1.85955033295814
"CAN","cpi",0.3,1983,3,1982,NA,1,8.23075051219513,10.139252485126,5.67091787896303,9.18500149866057,FALSE,9.22230949645115
"CAN","cpi",0.3,1983,3,1982,NA,1.5,8.56157940983998,10.8118666215473,5.67091787896303,9.68672301569366,FALSE,10.5093201570701
"CAN","cpi",0.3,1984,3,1984,NA,0,NA,NA,4.19799576814029,NA,NA,NA
"CAN","cpi",0.3,1984,3,1984,NA,0.5,5.45706246156334,6.2583512589258,4.19799576814029,5.85770686024457,FALSE,4.39862220714261
"CAN","cpi",0.3,1984,3,1983,NA,1,4.81128259349885,6.71978456642972,4.19799576814029,5.76553357996429,FALSE,3.6607500453839
"CAN","cpi",0.3,1984,3,1983,NA,1.5,1.79465607361802,4.04494328532538,4.19799576814029,2.9197996794717,FALSE,2.68758001974995
"CAN","cpi",0.3,1985,3,1985,NA,0,3.78723267369741,3.92112712901015,3.86444262005169,3.85417990135378,TRUE,0.133894455312744
"CAN","cpi",0.3,1985,3,1985,NA,0.5,3.81925602514776,4.62054482251022,3.86444262005169,4.21990042382899,TRUE,0.801288797362457
"CAN","cpi",0.3,1985,3,1984,NA,1,NA,NA,3.86444262005169,NA,NA,NA
"CAN","cpi",0.3,1985,3,1984,NA,1.5,7.50485299719988,9.75514020890724,3.86444262005169,8.62999660305356,FALSE,12.651459717845
"CAN","cpi",0.3,1986,3,1986,NA,0,3.98724713265285,4.08818065134701,4.08685396749431,4.03771389199993,TRUE,0.100933518694161
"CAN","cpi",0.3,1986,3,1986,NA,0.5,4.02670965059812,4.73767699947245,4.08685396749431,4.38219332503529,TRUE,0.710967348874334
"CAN","cpi",0.3,1986,3,1985,NA,1,2.20433657963351,4.55266294198347,4.08685396749431,3.37849976080849,TRUE,2.34832636234996
"CAN","cpi",0.3,1986,3,1985,NA,1.5,3.77893540783458,6.12726177018454,4.08685396749431,4.95309858900956,TRUE,2.34832636234996
"CAN","cpi",0.3,1987,3,1987,NA,0,NA,NA,4.23980729277887,NA,NA,NA
"CAN","cpi",0.3,1987,3,1987,NA,0.5,3.77796380702356,4.48887941457814,4.23980729277887,4.13342161080085,TRUE,0.71091560755459
"CAN","cpi",0.3,1987,3,1986,NA,1,2.78804659462458,4.53477316867139,4.23980729277887,3.66140988164798,TRUE,1.7467265740468
"CAN","cpi",0.3,1987,3,1986,NA,1.5,3.92906439441174,5.67579096845854,4.23980729277887,4.80242768143514,TRUE,1.74672657404681
"CAN","cpi",0.3,1988,3,1988,NA,0,3.90737403882189,3.98028920108531,3.92899537638065,3.9438316199536,TRUE,0.0729151622634188
"CAN","cpi",0.3,1988,3,1988,NA,0.5,3.05885279586715,3.6495315109491,3.92899537638065,3.35419215340812,FALSE,1.38914690202926
"CAN","cpi",0.3,1988,3,1987,NA,1,NA,NA,3.92899537638065,NA,NA,NA
"CAN","cpi",0.3,1988,3,1987,NA,1.5,3.02837467374921,4.76086391677971,3.92899537638065,3.89461929526446,TRUE,1.7324892430305
"CAN","cpi",0.3,1989,3,1989,NA,0,4.92274540758684,4.97986096026987,4.82821664544208,4.95130318392835,FALSE,0.327197730239489
"CAN","cpi",0.3,1989,3,1989,NA,0.5,3.93491006992976,4.52558878501171,4.82821664544208,4.23024942747073,FALSE,1.45532974488301
"CAN","cpi",0.3,1989,3,1988,NA,1,3.42803781667876,4.68879807538449,4.82821664544208,4.05841794603162,FALSE,1.65909903029884
"CAN","cpi",0.3,1989,3,1988,NA,1.5,1.73159893786775,3.46408818089825,4.82821664544208,2.597843559383,FALSE,5.62999914172716
"CAN","cpi",0.3,1990,3,1990,NA,0,4.44613724292478,4.50325279560781,4.64347549432717,4.4746950192663,FALSE,0.457751834738339
"CAN","cpi",0.3,1990,3,1990,NA,0.5,4.60941388524749,5.32032949280208,4.64347549432717,4.96487168902479,TRUE,0.71091560755459
"CAN","cpi",0.3,1990,3,1989,NA,1,4.8083336103379,6.06909386904362,4.64347549432717,5.43871373969076,FALSE,1.73178344730781
"CAN","cpi",0.3,1990,3,1989,NA,1.5,2.50700937872285,4.23949862175335,4.64347549432717,3.3732540002381,FALSE,2.88670887895571
"CAN","cpi",0.3,1991,3,1991,NA,0,5.5819759230823,5.63909147576534,5.4258100696218,5.61053369942382,FALSE,0.503303705427343
"CAN","cpi",0.3,1991,3,1991,NA,0.5,7.50059676007833,8.14338914947356,5.4258100696218,7.82199295477594,FALSE,6.57075436212818
"CAN","cpi",0.3,1991,3,1990,NA,1,2.93423618006529,4.40010018761664,5.4258100696218,3.66716818384097,FALSE,4.39646367042322
"CAN","cpi",0.3,1991,3,1990,NA,1.5,3.69967588078796,5.94996309249532,5.4258100696218,4.82481948664164,TRUE,2.25028721170736
"CAN","cpi",0.3,1992,3,1992,NA,0,NA,NA,1.47496888572843,NA,NA,NA
"CAN","cpi",0.3,1992,3,1992,NA,0.5,NA,NA,1.47496888572843,NA,NA,NA
"CAN","cpi",0.3,1992,3,1991,NA,1,2.03487370855646,3.50073771610781,1.47496888572843,2.76780571233213,FALSE,3.06559207277427
"CAN","cpi",0.3,1992,3,1991,NA,1.5,6.28313720508644,8.01562644811695,1.47496888572843,7.14938182660169,FALSE,15.4701130126248
"CAN","cpi",0.3,1993,3,1993,NA,0,NA,NA,NA,NA,NA,NA
"CAN","cpi",0.3,1993,3,1993,NA,0.5,NA,NA,NA,NA,NA,NA
"CAN","cpi",0.3,1993,3,1992,NA,1,NA,NA,NA,NA,NA,NA
"CAN","cpi",0.3,1993,3,1992,NA,1.5,NA,NA,NA,NA,NA,NA
"CAN","cpi",0.3,1994,3,1994,NA,0,NA,NA,NA,NA,NA,NA
"CAN","cpi",0.3,1994,3,1994,NA,0.5,NA,NA,NA,NA,NA,NA
"CAN","cpi",0.3,1994,3,1993,NA,1,NA,NA,NA,NA,NA,NA
"CAN","cpi",0.3,1994,3,1993,NA,1.5,NA,NA,NA,NA,NA,NA
"CAN","cpi",0.3,1995,3,1995,NA,0,NA,NA,2.11688403676572,NA,NA,NA
"CAN","cpi",0.3,1995,3,1995,NA,0.5,2.19457575512526,2.84418046633643,2.11688403676572,2.51937811073084,FALSE,0.871581049381295
"CAN","cpi",0.3,1995,3,1994,NA,1,-0.012904588807916,1.45169741045181,2.11688403676572,0.719396410821945,FALSE,3.36513521729946
"CAN","cpi",0.3,1995,3,1994,NA,1.5,-1.77884703887814,-0.314245039618423,2.11688403676572,-1.04654603924828,FALSE,8.41068507464297
"CAN","cpi",0.3,1996,3,1996,NA,0,1.3958193240366,1.45979564310392,1.55309584667184,1.42780748357026,FALSE,0.330548329261383
"CAN","cpi",0.3,1996,3,1996,NA,0.5,NA,NA,1.55309584667184,NA,NA,NA
"CAN","cpi",0.3,1996,3,1995,NA,1,NA,NA,1.55309584667184,NA,NA,NA
"CAN","cpi",0.3,1996,3,1995,NA,1.5,2.21523051336027,3.62941491014866,1.55309584667184,2.92232271175447,FALSE,3.3059977301839
"CAN","cpi",0.3,1997,3,1997,NA,0,1.64924517108084,1.8214717850615,1.60528783555959,1.73535847807117,FALSE,0.297819001184234
"CAN","cpi",0.3,1997,3,1997,NA,0.5,1.79459880871167,2.42696846324425,1.60528783555959,2.11078363597796,FALSE,1.1732581492528
"CAN","cpi",0.3,1997,3,1996,NA,1,0.22745153644203,1.74247113817308,1.60528783555959,0.984961337307556,TRUE,1.51501960173105
"CAN","cpi",0.3,1997,3,1996,NA,1.5,NA,NA,1.60528783555959,NA,NA,NA
"CAN","cpi",0.3,1998,3,1998,NA,0,0.910897263053171,1.15927216464103,0.988908029337191,1.0350847138471,TRUE,0.24837490158786
"CAN","cpi",0.3,1998,3,1998,NA,0.5,1.29906205625944,2.0716110524827,0.988908029337191,1.68533655437107,FALSE,1.65870335885826
"CAN","cpi",0.3,1998,3,1997,NA,1,1.54768687671266,2.95550480998248,0.988908029337191,2.25159584334757,FALSE,3.00432892577115
"CAN","cpi",0.3,1998,3,1997,NA,1.5,1.68596920212585,3.09378713539567,0.988908029337191,2.38987816876076,FALSE,3.39942128409457
"CAN","cpi",0.3,1999,3,1999,NA,0,1.66847981690361,1.88388895228562,1.7107350135213,1.77618438459462,TRUE,0.215409135382007
"CAN","cpi",0.3,1999,3,1999,NA,0.5,0.544197024787581,1.51398793504302,1.7107350135213,1.0290924799153,FALSE,1.53192542019337
"CAN","cpi",0.3,1999,3,1998,NA,1,1.06162510446908,2.64192577681501,1.7107350135213,1.85177544064205,TRUE,1.58030067234593
"CAN","cpi",0.3,1999,3,1998,NA,1.5,1.6663352766828,4.22657933905966,1.7107350135213,2.94645730787123,TRUE,2.56024406237685
"CAN","cpi",0.3,2000,3,2000,NA,0,2.59869507355781,2.82181328356518,2.6718361971244,2.7102541785615,TRUE,0.223118210007371
"CAN","cpi",0.3,2000,3,2000,NA,0.5,1.85915655890584,2.82894746916128,2.6718361971244,2.34405201403356,TRUE,0.96979091025544
"CAN","cpi",0.3,2000,3,1999,NA,1,2.30308671380633,3.84777202181786,2.6718361971244,3.07542936781209,TRUE,1.54468530801153
"CAN","cpi",0.3,2000,3,1999,NA,1.5,0.99796832682881,3.55821238920567,2.6718361971244,2.27809035801724,TRUE,2.56024406237686
"CAN","cpi",0.3,2001,3,2001,NA,0,2.71387101608288,2.83706068360415,2.47906219852806,2.77546584984351,FALSE,0.794072003392167
"CAN","cpi",0.3,2001,3,2001,NA,0.5,2.04811545924077,2.82321965082131,2.47906219852806,2.43566755503104,TRUE,0.775104191580543
"CAN","cpi",0.3,2001,3,2000,NA,1,3.05176928023524,4.32740462616162,2.47906219852806,3.68958695319843,FALSE,2.91194129366116
"CAN","cpi",0.3,2001,3,2000,NA,1.5,1.77353568279788,4.25188011144558,2.47906219852806,3.01270789712173,TRUE,2.47834442864769
"CAN","cpi",0.3,2002,3,2002,NA,0,2.21036751610287,2.33355718362414,2.20880570551249,2.27196234986351,FALSE,0.127651983493797
"CAN","cpi",0.3,2002,3,2002,NA,0.5,1.19590202410099,1.97100621568153,2.20880570551249,1.58345411989126,FALSE,1.45453130538328
"CAN","cpi",0.3,2002,3,2001,NA,1,1.59319919945348,2.93700927746448,2.20880570551249,2.26510423845898,TRUE,1.343810078011
"CAN","cpi",0.3,2002,3,2001,NA,1.5,2.34867539378459,3.6924854717956,2.20880570551249,3.02058043279009,FALSE,1.74343775878845
"CAN","cpi",0.3,2003,3,2003,NA,0,2.65350637382388,2.77302767858947,2.71189071546809,2.71326702620668,TRUE,0.119521304765597
"CAN","cpi",0.3,2003,3,2003,NA,0.5,4.12677439694469,4.90187858852523,2.71189071546809,4.51432649273496,FALSE,4.8176289957994
"CAN","cpi",0.3,2003,3,2002,NA,1,3.43091631401825,4.2814493209065,2.71189071546809,3.85618281746238,FALSE,2.90489185988871
"CAN","cpi",0.3,2003,3,2002,NA,1.5,1.539854414507,3.24819338247668,2.71189071546809,2.39402389849184,TRUE,1.70833896796968
"CAN","cpi",0.3,2004,3,2004,NA,0,1.72679384333613,1.82254320432417,1.83151661303942,1.77466852383015,FALSE,0.121387671603058
"CAN","cpi",0.3,2004,3,2004,NA,0.5,1.13981010490891,1.96539859812981,1.83151661303942,1.55260435151936,TRUE,0.825588493220905
"CAN","cpi",0.3,2004,3,2003,NA,1,1.36889142253872,2.21942442942698,1.83151661303942,1.79415792598285,TRUE,0.850533006888256
"CAN","cpi",0.3,2004,3,2003,NA,1.5,3.7055341239951,4.82845132691922,1.83151661303942,4.26699272545716,FALSE,6.47725294851176
"CAN","cpi",0.3,2005,3,2005,NA,0,2.29300828833988,2.39389878111919,2.18071628336509,2.34345353472953,FALSE,0.421724792707276
"CAN","cpi",0.3,2005,3,2005,NA,0.5,1.20134855117925,1.80507821516734,2.18071628336509,1.50321338317329,FALSE,1.67698128741024
"CAN","cpi",0.3,2005,3,2004,NA,1,1.33857479512829,1.94230445911638,2.18071628336509,1.64043962712234,FALSE,1.28490630469869
"CAN","cpi",0.3,2005,3,2004,NA,1.5,1.38903553106509,2.67883015119957,2.18071628336509,2.03393284113233,TRUE,1.28979462013449
"CAN","cpi",0.3,2006,3,2006,NA,0,2.0414971011271,2.14879043672604,1.97519342012289,2.09514376892657,FALSE,0.296732424182413
"CAN","cpi",0.3,2006,3,2006,NA,0.5,1.74190840883,2.44681686315045,1.97519342012289,2.09436263599022,TRUE,0.704908454320454
"CAN","cpi",0.3,2006,3,2005,NA,1,2.60583697892038,3.31074543324083,1.97519342012289,2.9582912060806,FALSE,2.50674719374185
"CAN","cpi",0.3,2006,3,2005,NA,1.5,1.15718387906034,2.14053536055578,1.97519342012289,1.64885961980806,TRUE,0.983351481495432
"CAN","cpi",0.3,2007,3,2007,NA,0,2.0499881318138,2.16368431023235,2.10062087284572,2.10683622102307,TRUE,0.113696178418553
"CAN","cpi",0.3,2007,3,2007,NA,0.5,1.86317641421392,2.48942162745313,2.10062087284572,2.17629902083353,TRUE,0.626245213239217
"CAN","cpi",0.3,2007,3,2006,NA,1,1.18378957948095,1.83344427471617,2.10062087284572,1.50861692709856,FALSE,1.41301640417681
"CAN","cpi",0.3,2007,3,2006,NA,1.5,1.78566393603459,2.53270839097351,2.10062087284572,2.15918616350405,TRUE,0.747044454938923
"CAN","cpi",0.3,2008,3,2008,NA,0,2.82461786697837,2.91697123599819,2.31447335265955,2.87079455148828,FALSE,1.54990912421644
"CAN","cpi",0.3,2008,3,2008,NA,0.5,1.0311408854326,1.58896540847273,2.31447335265955,1.31005314695267,FALSE,2.63070436357391
"CAN","cpi",0.3,2008,3,2007,NA,1,1.1066170618262,1.83400393782715,2.31447335265955,1.47031049982668,FALSE,2.10015663266495
"CAN","cpi",0.3,2008,3,2007,NA,1.5,2.10083851542347,2.82822539142442,2.31447335265955,2.46453195342394,TRUE,0.727386876000946
"CAN","cpi",0.3,2009,3,2009,NA,0,0.140945661839812,0.233299030859631,0.284533874408197,0.187122346349721,FALSE,0.238738636301437
"CAN","cpi",0.3,2009,3,2009,NA,0.5,-0.35166152356668,0.206162999473447,0.284533874408197,-0.0727492620466167,FALSE,0.781741308567986
"CAN","cpi",0.3,2009,3,2008,NA,1,3.45707026973754,4.17853025740148,0.284533874408197,3.81780026356951,FALSE,9.78584968860492
"CAN","cpi",0.3,2009,3,2008,NA,1.5,1.32602153247222,2.04748152013616,0.284533874408197,1.68675152630419,FALSE,3.69713901070401
"CAN","cpi",0.3,2010,3,2010,NA,0,1.55214757542612,1.66584375384467,1.75525687020327,1.6089956646354,FALSE,0.369162225157405
"CAN","cpi",0.3,2010,3,2010,NA,0.5,1.63218276374177,2.19000728678189,1.75525687020327,1.91109502526183,TRUE,0.557824523040126
"CAN","cpi",0.3,2010,3,2009,NA,1,0.631565794662783,1.35302578232672,1.75525687020327,0.992295788494754,FALSE,1.87069166731122
"CAN","cpi",0.3,2010,3,2009,NA,1.5,0.524373058983897,1.24583304664784,1.75525687020327,0.885103052815867,FALSE,2.17695662639375
"CAN","cpi",0.3,2011,3,2011,NA,0,2.8098060514117,2.92350222983026,2.85717434028225,2.86665414062098,TRUE,0.113696178418554
"CAN","cpi",0.3,2011,3,2011,NA,0.5,2.60999566388915,2.92167197400627,2.85717434028225,2.76583381894771,TRUE,0.311676310117117
"CAN","cpi",0.3,2011,3,2010,NA,1,0.96387470508769,1.82201817830669,2.85717434028225,1.39294644169719,FALSE,3.81573250743487
"CAN","cpi",0.3,2011,3,2010,NA,1.5,1.21345886931413,2.07160234253313,2.85717434028225,1.64253060592363,FALSE,3.10263489535934
"CAN","cpi",0.3,2012,3,2012,NA,0,1.47137701928467,1.58507319770322,1.50118536134935,1.52822510849394,TRUE,0.113696178418553
"CAN","cpi",0.3,2012,3,2012,NA,0.5,1.80512100386055,2.04345943559523,1.50118536134935,1.92429021972789,FALSE,1.1067259817667
"CAN","cpi",0.3,2012,3,2011,NA,1,1.54451704310908,2.45438780583249,1.50118536134935,1.99945242447079,FALSE,1.03367556775123
"CAN","cpi",0.3,2012,3,2011,NA,1.5,2.02657419261791,2.93644495534132,1.50118536134935,2.48150957397962,FALSE,2.41098170920502
"CAN","cpi",0.3,2013,3,2013,NA,0,1.02926538708751,1.0833448813767,0.931270594714462,1.05630513423211,FALSE,0.334064615355045
"CAN","cpi",0.3,2013,3,2013,NA,0.5,1.01379639049076,1.32547270060788,0.931270594714462,1.16963454554932,FALSE,0.547464298049401
"CAN","cpi",0.3,2013,3,2012,NA,1,0.65960915467792,1.51775262789692,0.931270594714462,1.08868089128742,TRUE,0.858143473219002
"CAN","cpi",0.3,2013,3,2012,NA,1.5,1.71666005869577,2.57480353191477,0.931270594714462,2.14573179530527,FALSE,3.10211337030845
"CAN","cpi",0.3,2014,3,2014,NA,0,1.97158874430657,2.02566823859576,1.87639912240215,1.99862849145116,FALSE,0.326049842587521
"CAN","cpi",0.3,2014,3,2014,NA,0.5,1.63648160576832,1.94815791588543,1.87639912240215,1.79231976082687,TRUE,0.311676310117117
"CAN","cpi",0.3,2014,3,2013,NA,1,0.977578161589478,1.83572163480848,1.87639912240215,1.40664989819898,FALSE,0.974364866343775
"CAN","cpi",0.3,2014,3,2013,NA,1.5,1.08528948116942,1.94343295438843,1.87639912240215,1.51436121777893,TRUE,0.858143473219002
"CAN","cpi",0.3,2015,3,2015,NA,0,1.15345841503852,1.26715459345707,1.11090953952792,1.2103065042478,FALSE,0.23526439416313
"CAN","cpi",0.3,2015,3,2015,NA,0.5,0.33937809985072,0.577716531585397,1.11090953952792,0.458547315718059,FALSE,1.76174702585616
"CAN","cpi",0.3,2015,3,2014,NA,1,1.15824738256321,1.98284824599948,1.11090953952792,1.57054781428135,FALSE,0.959851843537114
"CAN","cpi",0.3,2015,3,2014,NA,1.5,1.46999066369343,2.2945915271297,1.11090953952792,1.88229109541157,FALSE,1.8505469324806
"CAN","cpi",0.3,2016,3,2016,NA,0,1.31889514666145,1.5137182027784,1.41168586698797,1.41630667471992,TRUE,0.194823056116951
"CAN","cpi",0.3,2016,3,2016,NA,0.5,1.06055236706191,1.29889079879659,1.41168586698797,1.17972158292925,FALSE,0.560610055138602
"CAN","cpi",0.3,2016,3,2015,NA,1,1.45156522879857,2.27616609223483,1.41168586698797,1.8638656605167,FALSE,0.93854189718084
"CAN","cpi",0.3,2016,3,2015,NA,1.5,0.657929595432727,1.48253045886899,1.41168586698797,1.07023002715086,TRUE,0.824600863436267
"CAN","cpi",0.3,2017,3,2017,NA,0,1.47788717932299,1.53196667361219,1.57888581671161,1.50492692646759,FALSE,0.188134188858975
"CAN","cpi",0.3,2017,3,2017,NA,0.5,1.97169696695408,2.21003539868875,1.57888581671161,2.09086618282141,FALSE,1.360656003856
"CAN","cpi",0.3,2017,3,2016,NA,1,0.740917971508106,1.55212303554838,1.57888581671161,1.14652050352824,FALSE,0.887670153078075
"CAN","cpi",0.3,2017,3,2016,NA,1.5,0.862278313210126,1.6734833772504,1.57888581671161,1.26788084523026,TRUE,0.811205064040276
"CAN","cpi",0.3,2018,3,2018,NA,0,2.38613562781623,2.44021512210543,2.23316270166586,2.41317537496083,FALSE,0.491144997575981
"CAN","cpi",0.3,2018,3,2018,NA,0.5,2.37225303808839,2.68392934820551,2.23316270166586,2.52809119314695,FALSE,0.709077271324355
"CAN","cpi",0.3,2018,3,2017,NA,1,0.767453961865698,1.56854807645623,2.23316270166586,1.16800101916097,FALSE,2.6999930437609
"CAN","cpi",0.3,2018,3,2017,NA,1.5,1.67243696530567,2.4735310798962,2.23316270166586,2.07298402260093,TRUE,0.801094114590535
"CAN","cpi",0.3,2019,3,2019,NA,0,NA,NA,1.91921619871868,NA,NA,NA
"CAN","cpi",0.3,2019,3,2019,NA,0.5,1.24132377897451,1.70525234709194,1.91921619871868,1.47328806303322,FALSE,1.07525385847955
"CAN","cpi",0.3,2019,3,2018,NA,1,1.83415575316806,2.63524986775859,1.91921619871868,2.23470281046333,TRUE,0.801094114590535
"CAN","cpi",0.3,2019,3,2018,NA,1.5,1.91975856837986,2.72085268297039,1.91921619871868,2.32030562567512,FALSE,0.802643742193893
"CAN","cpi",0.3,2020,3,2020,NA,0,0.613705489399404,0.73347178402779,0.71139989671781,0.673588636713597,TRUE,0.119766294628386
"CAN","cpi",0.3,2020,3,2020,NA,0.5,NA,NA,0.71139989671781,NA,NA,NA
"CAN","cpi",0.3,2020,3,2019,NA,1,NA,NA,0.71139989671781,NA,NA,NA
"CAN","cpi",0.3,2020,3,2019,NA,1.5,1.41501701475582,2.13909282400227,0.71139989671781,1.77705491937904,FALSE,2.73441043221218
"CAN","cpi",0.3,2021,3,2021,NA,0,3.21798485932487,3.28714447161753,3.31148121717802,3.2525646654712,FALSE,0.138693171036937
"CAN","cpi",0.3,2021,3,2021,NA,0.5,1.95860835966827,2.3768612503856,3.31148121717802,2.16773480502693,FALSE,3.0885956529814
"CAN","cpi",0.3,2021,3,2020,NA,1,1.16447229533809,2.05694319418834,3.31148121717802,1.61070774476322,FALSE,4.47686525024934
"CAN","cpi",0.3,2021,3,2020,NA,1.5,NA,NA,3.31148121717802,NA,NA,NA
"CAN","cpi",0.3,2022,3,2022,NA,0,6.5522491118625,6.62140872415516,6.50977236228281,6.58682891800883,FALSE,0.19052175394892
"CAN","cpi",0.3,2022,3,2022,NA,0.5,5.35256108100697,5.825449182611,6.50977236228281,5.58900513180898,FALSE,2.42809718638064
"CAN","cpi",0.3,2022,3,2021,NA,1,2.95492139791967,3.75702013253218,6.50977236228281,3.35597076522593,FALSE,8.66710510532859
"CAN","cpi",0.3,2022,3,2021,NA,1.5,1.493532854358,2.29563158897051,6.50977236228281,1.89458222166426,FALSE,12.8425009440762
"CAN","cpi",0.3,2023,3,2023,NA,0,3.90963064996137,4.01480057835345,3.78831288758619,3.96221561415741,FALSE,0.451792106606874
"CAN","cpi",0.3,2023,3,2023,NA,0.5,3.33423792738238,3.89015618595683,3.78831288758619,3.6121970566696,TRUE,0.555918258574444
"CAN","cpi",0.3,2023,3,2022,NA,1,5.08513588883454,5.88723462344706,3.78831288758619,5.4861852561408,FALSE,4.50730730960781
"CAN","cpi",0.3,2023,3,2022,NA,1.5,3.4545213852831,4.25662011989561,3.78831288758619,3.85557075258935,TRUE,0.802098734612514
"CAN","cpi",0.3,2024,3,2023,NA,1,4.33353008465964,5.11208611341514,NA,4.72280809903739,NA,NA
"CAN","cpi",0.3,2024,3,2023,NA,1.5,3.97777708175338,4.75633311050888,NA,4.36705509613113,NA,NA
"CAN","cpi",0.4,1959,3,1959,NA,0,1.16674612473891,1.33307820388695,1.19382698397654,1.24991216431293,TRUE,0.166332079148035
"CAN","cpi",0.4,1959,3,1959,NA,0.5,-0.528684376865976,1.40436384004663,1.19382698397654,0.437839731590327,TRUE,1.93304821691261
"CAN","cpi",0.4,1959,3,1958,NA,1,-0.935786561956125,4.45304181967505,1.19382698397654,1.75862762885946,TRUE,5.38882838163117
"CAN","cpi",0.4,1959,3,1958,NA,1.5,-3.22490506559612,6.77304851987143,1.19382698397654,1.77407172713766,TRUE,9.99795358546755
"CAN","cpi",0.4,1960,3,1960,NA,0,0.962960319135399,1.08426576605415,1.34209404870695,1.02361304259477,FALSE,0.980733055761434
"CAN","cpi",0.4,1960,3,1960,NA,0.5,-0.427540628274643,1.50550758863796,1.34209404870695,0.53898348018166,TRUE,1.93304821691261
"CAN","cpi",0.4,1960,3,1959,NA,1,1.44803257032309,6.46715490346576,1.34209404870695,3.95759373689442,FALSE,5.37225073852979
"CAN","cpi",0.4,1960,3,1959,NA,1.5,-4.09251066613282,2.34555703532305,1.34209404870695,-0.873476815404885,TRUE,6.43806770145587
"CAN","cpi",0.4,1961,3,1961,NA,0,0.948560757480698,1.06986620439945,1.00921348094007,1.00921348094007,TRUE,0.121305446918747
"CAN","cpi",0.4,1961,3,1961,NA,0.5,0.0645944075595981,1.95383255432055,1.00921348094007,1.00921348094007,TRUE,1.88923814676095
"CAN","cpi",0.4,1961,3,1960,NA,1,-2.30879555273805,2.41633647794512,1.00921348094007,0.0537704626035329,TRUE,4.72513203068317
"CAN","cpi",0.4,1961,3,1960,NA,1.5,-3.22474781428162,1.50038421640155,1.00921348094007,-0.862181798940035,TRUE,4.72513203068317
"CAN","cpi",0.4,1962,3,1962,NA,0,1.04392968798977,1.16071836663979,1.04957947883042,1.10232402731478,TRUE,0.116788678650013
"CAN","cpi",0.4,1962,3,1962,NA,0.5,-0.872188368500527,0.872188368500527,1.04957947883042,0,FALSE,2.33568043810068
"CAN","cpi",0.4,1962,3,1961,NA,1,-2.07914725615294,2.07914725615294,1.04957947883042,0,TRUE,4.15829451230587
"CAN","cpi",0.4,1962,3,1961,NA,1.5,-2.07914725615294,2.07914725615294,1.04957947883042,0,TRUE,4.15829451230587
"CAN","cpi",0.4,1963,3,1963,NA,0,1.85652295598701,1.97331163463702,1.60677118395228,1.91491729531202,FALSE,0.94929458543243
"CAN","cpi",0.4,1963,3,1963,NA,0.5,-0.035359653883023,1.70901708311803,1.60677118395228,0.836828714617504,TRUE,1.74437673700105
"CAN","cpi",0.4,1963,3,1962,NA,1,1.51453542532102,3.61369438298185,1.60677118395228,2.56411490415144,TRUE,2.09915895766083
"CAN","cpi",0.4,1963,3,1962,NA,1.5,-1.93183984310202,1.93183984310202,1.60677118395228,0,TRUE,3.86367968620403
"CAN","cpi",0.4,1964,3,1964,NA,0,1.9281198410011,2.04942528791985,1.88764670034376,1.98877256446048,FALSE,0.256215915776564
"CAN","cpi",0.4,1964,3,1964,NA,0.5,0.580579493750783,2.18680063080137,1.88764670034376,1.38369006227607,TRUE,1.60622113705058
"CAN","cpi",0.4,1964,3,1963,NA,1,4.4330991832734,6.34778662367171,1.88764670034376,5.39044290347256,FALSE,10.3995290501638
"CAN","cpi",0.4,1964,3,1963,NA,1.5,-1.87139527988011,1.87139527988011,1.88764670034376,0,FALSE,3.79696196130572
"CAN","cpi",0.4,1965,3,1965,NA,0,2.24444461007327,2.4466963383067,2.29538304394236,2.34557047418999,TRUE,0.202251728233438
"CAN","cpi",0.4,1965,3,1965,NA,0.5,0.84085201023176,2.38073694890132,2.29538304394236,1.61079447956654,TRUE,1.53988493866956
"CAN","cpi",0.4,1965,3,1964,NA,1,1.37560914296805,3.47476810062888,2.29538304394236,2.42518862179847,TRUE,2.09915895766083
"CAN","cpi",0.4,1965,3,1964,NA,1.5,-1.05329272756371,2.68949783219651,2.29538304394236,0.818102552316399,TRUE,3.74279055976021
"CAN","cpi",0.4,1966,3,1966,NA,0,3.76171553931208,3.87850421796209,3.72486065470629,3.82010987863709,FALSE,0.239638294002648
"CAN","cpi",0.4,1966,3,1966,NA,0.5,3.23524673656942,4.74722124134185,3.72486065470629,3.99123398895563,TRUE,1.51197450477243
"CAN","cpi",0.4,1966,3,1965,NA,1,2.24987696725938,4.16456440765769,3.72486065470629,3.20722068745854,TRUE,1.91468744039831
"CAN","cpi",0.4,1966,3,1965,NA,1.5,-0.00013293763270017,3.21340943027187,3.72486065470629,1.60663824631958,FALSE,4.91837978268598
"CAN","cpi",0.4,1967,3,1967,NA,0,3.67243926935552,3.86293771721712,3.49360316391996,3.76768849328632,FALSE,0.786618799313473
"CAN","cpi",0.4,1967,3,1967,NA,0.5,1.72286617982179,3.09204330857342,3.49360316391996,2.4074547441976,FALSE,2.70770997990676
"CAN","cpi",0.4,1967,3,1966,NA,1,2.2255902123663,4.13647624903938,3.49360316391996,3.18103323070284,TRUE,1.91088603667308
"CAN","cpi",0.4,1967,3,1966,NA,1.5,3.0445104209202,6.25805278882476,3.49360316391996,4.65128160487248,TRUE,3.21354236790457
"CAN","cpi",0.4,1968,3,1968,NA,0,4.07763023279316,4.26812868065475,3.95128347779386,4.17287945672396,FALSE,0.611654297859275
"CAN","cpi",0.4,1968,3,1968,NA,0.5,3.3863834934227,4.75556062217434,3.95128347779386,4.07097205779852,TRUE,1.36917712875163
"CAN","cpi",0.4,1968,3,1967,NA,1,4.88977380290194,6.80065983957502,3.95128347779386,5.84521682123848,FALSE,5.0391871203667
"CAN","cpi",0.4,1968,3,1967,NA,1.5,0.778378090776306,3.73293907402822,3.95128347779386,2.25565858240226,FALSE,3.6823756624707
"CAN","cpi",0.4,1969,3,1969,NA,0,4.37371914680813,4.56421759466973,4.42679496126681,4.46896837073893,TRUE,0.190498447861595
"CAN","cpi",0.4,1969,3,1969,NA,0.5,2.46216355588946,3.47007683202483,4.42679496126681,2.96612019395715,FALSE,4.19697370694198
"CAN","cpi",0.4,1969,3,1968,NA,1,5.76943328207153,7.68031931874461,4.42679496126681,6.72487630040807,FALSE,6.38634710602214
"CAN","cpi",0.4,1969,3,1968,NA,1.5,2.83936403781945,5.79392502107136,4.42679496126681,4.31664452944541,TRUE,2.95456098325191
"CAN","cpi",0.4,1970,3,1970,NA,0,3.47088997545725,3.58306033613003,3.28128405769805,3.52697515579364,FALSE,0.744190086536803
"CAN","cpi",0.4,1970,3,1970,NA,0.5,3.96912228839335,5.33829941714499,3.28128405769805,4.65371085276917,FALSE,3.66197123106932
"CAN","cpi",0.4,1970,3,1969,NA,1,3.57203573254053,5.48292176921361,3.28128405769805,4.52747875087707,FALSE,2.88005828614803
"CAN","cpi",0.4,1970,3,1969,NA,1.5,0.602457981205336,3.55701896445725,3.28128405769805,2.07973847283129,TRUE,2.95456098325192
"CAN","cpi",0.4,1971,3,1971,NA,0,2.7440740339861,2.9345724818477,2.64123406634756,2.8393232579169,FALSE,0.533298339990066
"CAN","cpi",0.4,1971,3,1971,NA,0.5,1.38233309267925,2.75151022143089,2.64123406634756,2.06692165705507,TRUE,1.36917712875163
