isdrw/probabilistic-benchmark-forecasts/results/empirical_quantiles_prediction/empirical_prediction_arima1_1_0_2026-02-19_11-23-20.csv
"country","target","tau","target_year","target_quarter","forecast_year","forecast_quarter","horizon","lower_bound","upper_bound","truth_value","prediction","covered","IS"
"CAN","cpi",0.1,1959,3,1959,NA,0,1.13080058856901,1.2627935913627,1.19382698397654,1.19679708996586,TRUE,0.13199300279369
"CAN","cpi",0.1,1959,3,1959,NA,0.5,0.552056499479366,0.758295490174453,1.19382698397654,0.655175994826909,FALSE,1.17408675469973
"CAN","cpi",0.1,1959,3,1958,NA,1,1.22668137241367,2.29209578390595,1.19382698397654,1.75938857815981,FALSE,1.1384241635748
"CAN","cpi",0.1,1959,3,1958,NA,1.5,0.256553777948381,3.29337944231062,1.19382698397654,1.7749666101295,TRUE,3.03682566436224
"CAN","cpi",0.1,1960,3,1960,NA,0,1.02387326926208,1.03873166096489,1.34209404870695,1.03130246511349,FALSE,0.688997031129605
"CAN","cpi",0.1,1960,3,1960,NA,0.5,0.642483157784702,0.848722148479789,1.34209404870695,0.745602653132245,FALSE,1.30262099119989
"CAN","cpi",0.1,1960,3,1959,NA,1,2.79908512508848,3.87266262098027,1.34209404870695,3.33587387303437,FALSE,4.3113354434063
"CAN","cpi",0.1,1960,3,1959,NA,1.5,-1.43043091933112,0.779592730755338,1.34209404870695,-0.32541909428789,FALSE,3.46002657886782
"CAN","cpi",0.1,1961,3,1961,NA,0,1.00178428508867,1.01664267679148,1.00921348094007,1.00921348094007,TRUE,0.0148583917028127
"CAN","cpi",0.1,1961,3,1961,NA,0.5,1.07484174779752,1.54798088236506,1.00921348094007,1.31141131508129,FALSE,0.618979727584096
"CAN","cpi",0.1,1961,3,1960,NA,1,-0.393162842275931,0.680414653615855,1.00921348094007,0.143625905669962,FALSE,1.80424155661227
"CAN","cpi",0.1,1961,3,1960,NA,1.5,-1.44512324919545,0.764900400891007,1.00921348094007,-0.34011142415222,FALSE,2.75294160575104
"CAN","cpi",0.1,1962,3,1962,NA,0,1.10835987631944,1.11430008829808,1.04957947883042,1.11132998230876,FALSE,0.136563317509811
"CAN","cpi",0.1,1962,3,1962,NA,0.5,-0.23656956728377,0.23656956728377,1.04957947883042,1.64134322488006e-44,FALSE,2.27982782689342
"CAN","cpi",0.1,1962,3,1961,NA,1,-0.536788747945893,0.536788747945893,1.04957947883042,-9.44308782563385e-19,FALSE,2.21311245341295
"CAN","cpi",0.1,1962,3,1961,NA,1.5,-0.350627576352477,1.85939607373398,1.04957947883042,0.754384248690751,TRUE,2.21002365008646
"CAN","cpi",0.1,1963,3,1963,NA,0,1.85302500289733,1.85896521487596,1.60677118395228,1.85599510888664,FALSE,0.553170920745396
"CAN","cpi",0.1,1963,3,1963,NA,0.5,0.630102459496205,1.23449812777865,1.60677118395228,0.932300293637426,FALSE,1.43166912644608
"CAN","cpi",0.1,1963,3,1962,NA,1,2.13069647549138,3.20427397138317,1.60677118395228,2.66748522343727,FALSE,2.23785592153422
"CAN","cpi",0.1,1963,3,1962,NA,1.5,-0.581139626152958,0.581139626152958,1.60677118395228,4.10321927477868e-44,FALSE,3.44146049185997
"CAN","cpi",0.1,1964,3,1964,NA,0,1.98597143970071,1.99191165167934,1.88764670034376,1.98894154569002,FALSE,0.22443963277185
"CAN","cpi",0.1,1964,3,1964,NA,0.5,1.08157799332972,1.68597366161216,1.88764670034376,1.38377582747094,FALSE,1.05255797657489
"CAN","cpi",0.1,1964,3,1963,NA,1,4.17607678110841,5.2496542770002,1.88764670034376,4.71286552905431,FALSE,6.15897767536879
"CAN","cpi",0.1,1964,3,1963,NA,1.5,-0.342359952980631,0.819919299325285,1.88764670034376,0.238779673172327,FALSE,3.53500681012475
"CAN","cpi",0.1,1965,3,1965,NA,0,2.35197499911622,2.35791521109485,2.29538304394236,2.35494510510554,FALSE,0.131700112364993
"CAN","cpi",0.1,1965,3,1965,NA,0.5,1.25825113045616,1.8626467987386,2.29538304394236,1.56044896459738,FALSE,1.56603176873522
"CAN","cpi",0.1,1965,3,1964,NA,1,1.8615457248028,2.99266891316934,2.29538304394236,2.42710731898607,TRUE,1.13112318836654
"CAN","cpi",0.1,1965,3,1964,NA,1.5,0.237176131750158,1.39945538405607,2.29538304394236,0.818315757903116,FALSE,3.15322960760877
"CAN","cpi",0.1,1966,3,1966,NA,0,3.84367125791079,3.84961146988943,3.72486065470629,3.84664136390011,FALSE,0.269963774655311
"CAN","cpi",0.1,1966,3,1966,NA,0.5,3.5447161681618,4.14911183644424,3.72486065470629,3.84691400230302,TRUE,0.60439566828244
"CAN","cpi",0.1,1966,3,1965,NA,1,2.780972765151,3.84638717664328,3.72486065470629,3.31367997089714,TRUE,1.06541441149228
"CAN","cpi",0.1,1966,3,1965,NA,1.5,0.900364197982174,2.06264345028809,3.72486065470629,1.48150382413513,FALSE,4.85609526212414
"CAN","cpi",0.1,1967,3,1967,NA,0,3.7656595846421,3.77159979662073,3.49360316391996,3.76862969063141,FALSE,0.610510035805605
"CAN","cpi",0.1,1967,3,1967,NA,0.5,2.23969085967265,2.48379755486612,3.49360316391996,2.36174420726938,FALSE,2.48811915975756
"CAN","cpi",0.1,1967,3,1966,NA,1,3.07115777074125,3.89351913835955,3.49360316391996,3.4823384545504,TRUE,0.822361367618296
"CAN","cpi",0.1,1967,3,1966,NA,1.5,3.71143737828326,4.87371663058918,3.49360316391996,4.29257700443622,FALSE,1.64635528422437
"CAN","cpi",0.1,1968,3,1968,NA,0,4.11043290660338,4.11637311858202,3.95128347779386,4.1134030125927,FALSE,0.359605609333136
"CAN","cpi",0.1,1968,3,1968,NA,0.5,3.7701909898426,4.01429768503606,3.95128347779386,3.89224433743933,TRUE,0.244106695193467
"CAN","cpi",0.1,1968,3,1967,NA,1,5.72424284004857,5.98769139013599,3.95128347779386,5.85596711509228,FALSE,4.20335824398678
"CAN","cpi",0.1,1968,3,1967,NA,1.5,1.56073132535112,2.72301057765703,3.95128347779386,2.14187095150408,FALSE,3.8917745859433
"CAN","cpi",0.1,1969,3,1969,NA,0,4.63966054547385,4.64560075745249,4.42679496126681,4.64263065146317,FALSE,0.478974843549826
"CAN","cpi",0.1,1969,3,1969,NA,0.5,2.95887543343017,3.16511442412526,4.42679496126681,3.06199492877772,FALSE,3.00997351767632
"CAN","cpi",0.1,1969,3,1968,NA,1,5.92409951244258,6.18754806253001,4.42679496126681,6.05582378748629,FALSE,3.59079199714468
"CAN","cpi",0.1,1969,3,1968,NA,1.5,3.29113522504027,4.45341447734618,4.42679496126681,3.87227485119322,TRUE,1.16227925230592
"CAN","cpi",0.1,1970,3,1970,NA,0,3.58699464325491,3.59293485523354,3.28128405769805,3.58996474924422,FALSE,0.685297068771657
"CAN","cpi",0.1,1970,3,1970,NA,0.5,4.04974934893078,4.29385604412425,3.28128405769805,4.17180269652751,FALSE,1.95180734237732
"CAN","cpi",0.1,1970,3,1969,NA,1,5.30693068960667,5.57037923969409,3.28128405769805,5.43865496465038,FALSE,4.76488550988436
"CAN","cpi",0.1,1970,3,1969,NA,1.5,1.76220719972507,2.87124741987225,3.28128405769805,2.31672730979866,FALSE,2.02023274864895
"CAN","cpi",0.1,1971,3,1971,NA,0,2.83468533701718,2.95380945934354,2.64123406634756,2.89424739818036,FALSE,0.549015834925516
"CAN","cpi",0.1,1971,3,1971,NA,0.5,0.953286592038831,1.1973932872323,2.64123406634756,1.07533993963556,FALSE,3.45264175989405
"CAN","cpi",0.1,1971,3,1970,NA,1,2.84988537629372,3.11333392638114,2.64123406634756,2.98160965133743,FALSE,0.727118127745547
"CAN","cpi",0.1,1971,3,1970,NA,1.5,3.60256249683764,4.71160271698483,2.64123406634756,4.15708260691123,FALSE,3.24532562123625
"CAN","cpi",0.1,1972,3,1972,NA,0,5.0436528358556,5.16277695818196,4.83230569625923,5.10321489701878,FALSE,0.588784432540512
"CAN","cpi",0.1,1972,3,1972,NA,0.5,4.453214497148,4.69732119234147,4.83230569625923,4.57526784474473,FALSE,0.544072259455165
"CAN","cpi",0.1,1972,3,1971,NA,1,6.43560709010288,6.69905564019031,4.83230569625923,6.5673313651466,FALSE,3.82634053640666
"CAN","cpi",0.1,1972,3,1971,NA,1.5,0.646750815094876,1.75579103524206,4.83230569625923,1.20127092516847,FALSE,7.94573946685201
"CAN","cpi",0.1,1973,3,1973,NA,0,7.30093698769038,7.42443799464707,7.12388603531779,7.36268749116872,FALSE,0.516947567784666
"CAN","cpi",0.1,1973,3,1973,NA,0.5,5.77227658314643,6.0163832783399,7.12388603531779,5.89432993074317,FALSE,2.70522393292211
"CAN","cpi",0.1,1973,3,1972,NA,1,7.23967508533729,7.50312363542471,7.12388603531779,7.371399360381,FALSE,0.520757550130754
"CAN","cpi",0.1,1973,3,1972,NA,1.5,3.9487266027477,5.05776682289489,7.12388603531779,4.50324671282129,FALSE,5.70041624775364
"CAN","cpi",0.1,1974,3,1974,NA,0,10.2209932878767,10.4235829785692,10.2717243737774,10.3222881332229,TRUE,0.20258969069253
"CAN","cpi",0.1,1974,3,1974,NA,0.5,8.72507568176697,8.96918237696043,10.2717243737774,8.8471290293637,FALSE,3.13864446589788
"CAN","cpi",0.1,1974,3,1973,NA,1,10.8567160074935,11.120164557581,10.2717243737774,10.9884402825372,FALSE,1.56342995834544
"CAN","cpi",0.1,1974,3,1973,NA,1.5,5.39657468028096,6.99452236131349,10.2717243737774,6.19554852079723,FALSE,8.88061881984126
"CAN","cpi",0.1,1975,3,1975,NA,0,10.2051321090728,10.3242562313991,10.0232981493341,10.2646941702359,FALSE,0.523199588412232
"CAN","cpi",0.1,1975,3,1975,NA,0.5,9.09650053445645,9.34060722964992,10.0232981493341,9.21855388205318,FALSE,1.76119762782503
"CAN","cpi",0.1,1975,3,1974,NA,1,11.8587901183466,12.1222386684341,10.0232981493341,11.9905143933903,FALSE,4.34231959233744
"CAN","cpi",0.1,1975,3,1974,NA,1.5,7.88111745078798,9.4790651318205,10.0232981493341,8.68009129130424,FALSE,2.80735438661834
"CAN","cpi",0.1,1976,3,1976,NA,0,7.19426861205904,7.3133927343854,7.22784311401172,7.25383067322222,TRUE,0.119124122326356
"CAN","cpi",0.1,1976,3,1976,NA,0.5,7.29342340845098,7.53753010364444,7.22784311401172,7.41547675604771,FALSE,0.389840682836272
"CAN","cpi",0.1,1976,3,1975,NA,1,11.7834267830705,12.046875333158,7.22784311401172,11.9151510581142,FALSE,10.3869678146626
"CAN","cpi",0.1,1976,3,1975,NA,1.5,7.2143415406806,8.81228922171313,7.22784311401172,8.01331538119686,TRUE,1.59794768103252
"CAN","cpi",0.1,1977,3,1977,NA,0,7.56810753746456,7.66923505635558,7.58101410153764,7.61867129691007,TRUE,0.101127518891015
"CAN","cpi",0.1,1977,3,1977,NA,0.5,6.90082537230159,7.14493206749506,7.58101410153764,7.02287871989832,FALSE,1.21317788195477
"CAN","cpi",0.1,1977,3,1976,NA,1,5.62510571369917,6.12013236382559,7.58101410153764,5.87261903876238,FALSE,3.74143051170877
"CAN","cpi",0.1,1977,3,1976,NA,1.5,5.36775418305579,6.93869871742609,7.58101410153764,6.15322645024094,FALSE,2.9983120546182
"CAN","cpi",0.1,1978,3,1978,NA,0,8.64359687707762,8.71891126782248,8.50208927062595,8.68125407245005,FALSE,0.389775738415248
"CAN","cpi",0.1,1978,3,1978,NA,0.5,7.93745378126622,8.31272106533822,8.50208927062595,8.12508742330222,FALSE,0.796085518044725
"CAN","cpi",0.1,1978,3,1977,NA,1,8.3956743434664,8.89070099359283,8.50208927062595,8.64318766852961,TRUE,0.495026650126423
"CAN","cpi",0.1,1978,3,1977,NA,1.5,6.87481710077989,8.44576163515018,8.50208927062595,7.66028936796504,FALSE,1.69611705764977
"CAN","cpi",0.1,1979,3,1979,NA,0,8.57310226872545,8.6484166594703,8.65147652410481,8.61075946409788,FALSE,0.0821140899326463
"CAN","cpi",0.1,1979,3,1979,NA,0.5,7.91299471070972,8.28826199478171,8.65147652410481,8.10062835274572,FALSE,1.18241068256776
"CAN","cpi",0.1,1979,3,1978,NA,1,9.33512155961969,9.83014820974611,8.65147652410481,9.5826348846829,FALSE,2.01423784015949
"CAN","cpi",0.1,1979,3,1978,NA,1.5,7.15636617958013,8.72731071395042,8.65147652410481,7.94183844676527,TRUE,1.5709445343703
"CAN","cpi",0.1,1980,3,1980,NA,0,9.49343327213043,9.56874766287529,9.5171912664748,9.53109046750286,TRUE,0.0753143907448575
"CAN","cpi",0.1,1980,3,1980,NA,0.5,8.43336056086536,8.93791173744307,9.5171912664748,8.68563614915422,FALSE,1.79183901887043
"CAN","cpi",0.1,1980,3,1979,NA,1,8.07321175337697,8.57776292995468,9.5171912664748,8.32548734166583,FALSE,2.59216970217796
"CAN","cpi",0.1,1980,3,1979,NA,1.5,7.27083294362168,8.69010909830075,9.5171912664748,7.98047102096121,FALSE,3.25723652839918
"CAN","cpi",0.1,1981,3,1981,NA,0,11.6829684183124,11.7349435367335,11.5813425032741,11.708955977523,FALSE,0.277810485172812
"CAN","cpi",0.1,1981,3,1981,NA,0.5,11.8741207024561,12.3786718790338,11.5813425032741,12.1263962907449,FALSE,1.15516939698205
"CAN","cpi",0.1,1981,3,1980,NA,1,10.732664577014,11.2372157535917,11.5813425032741,10.9849401653028,FALSE,1.26927728698318
"CAN","cpi",0.1,1981,3,1980,NA,1.5,7.84187998547132,9.41282451984162,11.5813425032741,8.62735225265647,FALSE,6.38987338644257
"CAN","cpi",0.1,1982,3,1982,NA,0,10.2849874155557,10.3369625339767,10.1124203763629,10.3109749747662,FALSE,0.435457427738237
"CAN","cpi",0.1,1982,3,1982,NA,0.5,9.84740807371083,10.3519592502885,10.1124203763629,10.0996836619997,TRUE,0.50455117657771
"CAN","cpi",0.1,1982,3,1981,NA,1,11.3672039316264,11.8717551082041,10.1124203763629,11.6194795199153,FALSE,3.29295907716323
"CAN","cpi",0.1,1982,3,1981,NA,1.5,11.9339634089591,13.5049079433294,10.1124203763629,12.7194356761443,FALSE,5.61881794013953
"CAN","cpi",0.1,1983,3,1983,NA,0,5.80165984440984,5.85363496283085,5.67091787896303,5.82764740362034,FALSE,0.342512819413907
"CAN","cpi",0.1,1983,3,1983,NA,0.5,4.78780580590731,5.1630730899793,5.67091787896303,4.97543944794331,FALSE,1.50381125959139
"CAN","cpi",0.1,1983,3,1982,NA,1,8.99027064175935,9.48529729188577,5.67091787896303,9.23778396682256,FALSE,7.87136612300713
"CAN","cpi",0.1,1983,3,1982,NA,1.5,9.00322917455338,10.5741737089237,5.67091787896303,9.78870144173853,FALSE,8.9760807467933
"CAN","cpi",0.1,1984,3,1984,NA,0,4.1875878137227,4.23956293214372,4.19799576814029,4.21357537293321,TRUE,0.051975118421014
"CAN","cpi",0.1,1984,3,1984,NA,0.5,4.45495568859966,4.83022297267165,4.19799576814029,4.64258933063566,FALSE,0.946289329537263
"CAN","cpi",0.1,1984,3,1983,NA,1,5.88386322364897,6.37888987377539,4.19799576814029,6.13137654871218,FALSE,4.24139877347904
"CAN","cpi",0.1,1984,3,1983,NA,1.5,2.68285211878392,4.25379665315421,4.19799576814029,3.46832438596907,TRUE,1.5709445343703
"CAN","cpi",0.1,1985,3,1985,NA,0,3.90351365280926,3.9346728623951,3.86444262005169,3.91909325760218,FALSE,0.117983726824873
"CAN","cpi",0.1,1985,3,1985,NA,0.5,3.70386823991439,4.07913552398638,3.86444262005169,3.89150188195039,TRUE,0.375267284071992
"CAN","cpi",0.1,1985,3,1984,NA,1,2.69756841179904,3.89037308774167,3.86444262005169,3.29397074977035,TRUE,1.19280467594264
"CAN","cpi",0.1,1985,3,1984,NA,1.5,3.73693896542717,5.19628172976962,3.86444262005169,4.4666103475984,TRUE,1.45934276434244
"CAN","cpi",0.1,1986,3,1986,NA,0,4.09030893586297,4.12146814544882,4.08685396749431,4.1058885406559,FALSE,0.0388369170717661
"CAN","cpi",0.1,1986,3,1986,NA,0.5,4.38295479968879,4.43707332348618,4.08685396749431,4.41001406158749,FALSE,0.71212037311846
"CAN","cpi",0.1,1986,3,1985,NA,1,3.42256692291307,4.56351066347575,4.08685396749431,3.99303879319441,TRUE,1.14094374056268
"CAN","cpi",0.1,1986,3,1985,NA,1.5,3.5136251614695,4.93290131614858,4.08685396749431,4.22326323880904,TRUE,1.41927615467907
"CAN","cpi",0.1,1987,3,1987,NA,0,4.3441875800159,4.37534678960174,4.23980729277887,4.35976718480882,FALSE,0.263115403445906
"CAN","cpi",0.1,1987,3,1987,NA,0.5,3.88230395204899,3.93642247584638,4.23980729277887,3.90936321394769,FALSE,0.728307005869589
"CAN","cpi",0.1,1987,3,1986,NA,1,4.18989819361088,4.47209498941822,4.23980729277887,4.33099659151455,TRUE,0.282196795807337
"CAN","cpi",0.1,1987,3,1986,NA,1.5,4.15030349281545,5.35463894790886,4.23980729277887,4.75247122036215,TRUE,1.20433545509341
"CAN","cpi",0.1,1988,3,1988,NA,0,3.99711599673116,4.02827520631701,3.92899537638065,4.01269560152408,FALSE,0.182538365920307
"CAN","cpi",0.1,1988,3,1988,NA,0.5,3.44369669724466,3.49781522104204,3.92899537638065,3.47075595914335,FALSE,1.01229664677208
"CAN","cpi",0.1,1988,3,1987,NA,1,4.48780921065076,4.67543955925056,3.92899537638065,4.58162438495066,FALSE,1.42943886920004
"CAN","cpi",0.1,1988,3,1987,NA,1.5,3.30098383573679,4.32631169090336,3.92899537638065,3.81364776332008,TRUE,1.02532785516657
"CAN","cpi",0.1,1989,3,1989,NA,0,5.00837360393815,5.039532813524,4.82821664544208,5.02395320873108,FALSE,0.431508006243792
"CAN","cpi",0.1,1989,3,1989,NA,0.5,4.34083921655283,4.39495774035022,4.82821664544208,4.36789847845152,FALSE,1.01691609066819
"CAN","cpi",0.1,1989,3,1988,NA,1,4.36781044405963,4.55544079265943,4.82821664544208,4.46162561835953,FALSE,0.793798910339017
"CAN","cpi",0.1,1989,3,1988,NA,1.5,3.14197225482538,3.41479079745484,4.82821664544208,3.27838152614011,FALSE,3.41376487148999
"CAN","cpi",0.1,1990,3,1990,NA,0,4.50405168040275,4.5352108899886,4.64347549432717,4.51963128519567,FALSE,0.271747219227126
"CAN","cpi",0.1,1990,3,1990,NA,0.5,4.95728500808535,5.01140353188274,4.64347549432717,4.98434426998405,FALSE,0.751472998815572
"CAN","cpi",0.1,1990,3,1989,NA,1,5.82393421809121,6.011564566691,4.64347549432717,5.9177493923911,FALSE,2.81087195696432
"CAN","cpi",0.1,1990,3,1989,NA,1.5,4.42544931257036,4.69826785519982,4.64347549432717,4.56185858388509,TRUE,0.272818542629459
"CAN","cpi",0.1,1991,3,1991,NA,0,5.60848802316155,5.6396472327474,5.4258100696218,5.62406762795447,FALSE,0.437110217451966
"CAN","cpi",0.1,1991,3,1991,NA,0.5,8.36466157643897,8.41878010023636,5.4258100696218,8.39172083833767,FALSE,6.58489965005778
"CAN","cpi",0.1,1991,3,1990,NA,1,3.77536099121907,3.96299133981887,5.4258100696218,3.86917616551897,FALSE,3.43833863705075
"CAN","cpi",0.1,1991,3,1990,NA,1.5,5.00753736549155,5.2382325916127,5.4258100696218,5.12288497855213,FALSE,0.647534066141361
"CAN","cpi",0.1,1992,3,1992,NA,0,1.46157135674033,1.4996405030635,1.47496888572843,1.48060592990191,TRUE,0.0380691463231742
"CAN","cpi",0.1,1992,3,1992,NA,0.5,1.14492789051663,1.19904641431401,1.47496888572843,1.17198715241532,FALSE,0.667279571384986
"CAN","cpi",0.1,1992,3,1991,NA,1,2.42643010643206,2.61406045503186,1.47496888572843,2.52024528073196,FALSE,2.30198861683008
"CAN","cpi",0.1,1992,3,1991,NA,1.5,10.037990096142,10.2686853222632,1.47496888572843,10.1533377092026,FALSE,19.2596312492624
"CAN","cpi",0.1,1993,3,1993,NA,0,1.78704183846366,1.8182010480495,1.84351085411351,1.80262144325658,FALSE,0.0874032230614185
"CAN","cpi",0.1,1993,3,1993,NA,0.5,2.31535389368712,2.3694724174845,1.84351085411351,2.34241315558581,FALSE,1.10265861173873
"CAN","cpi",0.1,1993,3,1992,NA,1,1.72424428982594,1.91187463842574,1.84351085411351,1.81805946412584,TRUE,0.187630348599797
"CAN","cpi",0.1,1993,3,1992,NA,1.5,1.02491598796583,1.25561121408699,1.84351085411351,1.14026360102641,FALSE,1.53713887062454
"CAN","cpi",0.1,1994,3,1994,NA,0,0.148037023565404,0.17919623315125,0.161630694655448,0.163616628358327,TRUE,0.0311592095858462
"CAN","cpi",0.1,1994,3,1994,NA,0.5,-0.554979646399168,-0.21530054965959,0.161630694655448,-0.385140098029379,FALSE,1.17730408410633
"CAN","cpi",0.1,1994,3,1993,NA,1,1.20490773296404,1.54458682970361,0.161630694655448,1.37474728133383,FALSE,2.65807251520311
"CAN","cpi",0.1,1994,3,1993,NA,1.5,2.42701660474545,2.76669570148503,0.161630694655448,2.59685615311524,FALSE,5.3738700080507
"CAN","cpi",0.1,1995,3,1995,NA,0,2.18792743775945,2.19920152610641,2.11688403676572,2.19356448193293,FALSE,0.169148312777481
"CAN","cpi",0.1,1995,3,1995,NA,0.5,2.50766948705868,2.84734858379826,2.11688403676572,2.67750903542847,FALSE,1.20809120850173
"CAN","cpi",0.1,1995,3,1994,NA,1,1.17108663268219,1.51076572942177,2.11688403676572,1.34092618105198,FALSE,1.68660866861501
"CAN","cpi",0.1,1995,3,1994,NA,1.5,-1.48382376593029,-1.14414466919071,2.11688403676572,-1.3139842175605,FALSE,7.58640955442053
"CAN","cpi",0.1,1996,3,1996,NA,0,1.47642807985373,1.48770216820069,1.55309584667184,1.48206512402721,FALSE,0.15659337383841
"CAN","cpi",0.1,1996,3,1996,NA,0.5,1.06614726038283,1.40582635712241,1.55309584667184,1.23598680875262,FALSE,0.666944629071659
"CAN","cpi",0.1,1996,3,1995,NA,1,1.15999506524368,1.49967416198326,1.55309584667184,1.32983461361347,FALSE,0.458393951603095
"CAN","cpi",0.1,1996,3,1995,NA,1.5,3.25596651113157,3.59564560787115,1.55309584667184,3.42580605950136,FALSE,4.1238361288723
"CAN","cpi",0.1,1997,3,1997,NA,0,1.68486328002516,1.69613736837212,1.60528783555959,1.69050032419864,FALSE,0.188108409381547
"CAN","cpi",0.1,1997,3,1997,NA,0.5,1.94524323994401,2.29434053975433,1.60528783555959,2.11979188984917,FALSE,1.10455375399792
"CAN","cpi",0.1,1997,3,1996,NA,1,1.02069219883175,1.36978949864207,1.60528783555959,1.19524084873691,FALSE,0.872426937404807
"CAN","cpi",0.1,1997,3,1996,NA,1.5,1.18106038871587,1.53015768852618,1.60528783555959,1.35560903862103,FALSE,0.51605318210678
"CAN","cpi",0.1,1998,3,1998,NA,0,0.974450976758046,0.985725065105004,0.988908029337191,0.980088020931525,FALSE,0.0183473421962629
"CAN","cpi",0.1,1998,3,1998,NA,0.5,1.13623482155726,1.48533212136758,0.988908029337191,1.31078347146242,FALSE,0.676490171410468
"CAN","cpi",0.1,1998,3,1997,NA,1,0.89115927579562,1.24025657560594,0.988908029337191,1.06570792570078,TRUE,0.349097299810319
"CAN","cpi",0.1,1998,3,1997,NA,1.5,2.07905804275978,2.4281553425701,0.988908029337191,2.25360669266494,FALSE,2.77165288519385
"CAN","cpi",0.1,1999,3,1999,NA,0,1.81147590925796,1.82274999760492,1.7107350135213,1.81711295343144,FALSE,0.235142745539547
"CAN","cpi",0.1,1999,3,1999,NA,0.5,0.618635383276747,0.958139748172342,1.7107350135213,0.788387565724544,FALSE,2.01193828789327
"CAN","cpi",0.1,1999,3,1998,NA,1,0.405614310406328,0.745118675301922,1.7107350135213,0.575366492854125,FALSE,2.48531844982754
"CAN","cpi",0.1,1999,3,1998,NA,1.5,1.51741758465778,1.85692194955338,1.7107350135213,1.68716976710558,TRUE,0.339504364895594
"CAN","cpi",0.1,2000,3,2000,NA,0,2.72435694309149,2.73563103143845,2.6718361971244,2.72999398726497,FALSE,0.127986857162715
"CAN","cpi",0.1,2000,3,2000,NA,0.5,1.909480059347,2.22649728916359,2.6718361971244,2.06798867425529,FALSE,1.30665924750728
"CAN","cpi",0.1,2000,3,1999,NA,1,2.93301534571477,3.25003257553136,2.6718361971244,3.09152396062306,FALSE,0.897415337795186
"CAN","cpi",0.1,2000,3,1999,NA,1.5,0.684353240355733,1.00137047017233,2.6718361971244,0.842861855264031,FALSE,4.02916328971009
"CAN","cpi",0.1,2001,3,2001,NA,0,2.83644761271263,2.84772170105959,2.47906219852806,2.84208465688611,FALSE,0.805463897645989
"CAN","cpi",0.1,2001,3,2001,NA,0.5,1.72787607112082,2.04489330093742,2.47906219852806,1.88638468602912,FALSE,1.28183700224025
"CAN","cpi",0.1,2001,3,2000,NA,1,3.53938492535684,3.85640215517344,2.47906219852806,3.69789354026514,FALSE,2.67328995610278
"CAN","cpi",0.1,2001,3,2000,NA,1.5,1.709653410473,2.02667064028959,2.47906219852806,1.8681620253813,FALSE,1.32233180367986
"CAN","cpi",0.1,2002,3,2002,NA,0,2.37035861278909,2.38163270113604,2.20880570551249,2.37599565696257,FALSE,0.370280548961624
"CAN","cpi",0.1,2002,3,2002,NA,0.5,0.716622150546374,1.11053108482919,2.20880570551249,0.913576617687781,FALSE,2.83451920246792
"CAN","cpi",0.1,2002,3,2001,NA,1,1.74038635371337,2.13429528799618,2.20880570551249,1.93734082085477,FALSE,0.559487639874607
"CAN","cpi",0.1,2002,3,2001,NA,1.5,0.972999217625324,1.47235681150246,2.20880570551249,1.22267801456389,FALSE,2.1359106916772
"CAN","cpi",0.1,2003,3,2003,NA,0,2.72688181954309,2.73815590789004,2.71189071546809,2.73251886371656,FALSE,0.0445876529580605
"CAN","cpi",0.1,2003,3,2003,NA,0.5,4.11980237955278,4.5137113138356,2.71189071546809,4.31675684669419,FALSE,3.52260152113769
"CAN","cpi",0.1,2003,3,2002,NA,1,4.42166962862401,4.81557856290682,2.71189071546809,4.61862409576541,FALSE,4.19341763018485
"CAN","cpi",0.1,2003,3,2002,NA,1.5,1.11590782973104,1.61526542360817,2.71189071546809,1.3655866266696,FALSE,2.93630268689918
"CAN","cpi",0.1,2004,3,2004,NA,0,1.82108599495208,1.83872601176341,1.83151661303942,1.82990600335775,TRUE,0.0176400168113324
"CAN","cpi",0.1,2004,3,2004,NA,0.5,1.24048851831522,1.63916385680404,1.83151661303942,1.43982618755963,FALSE,0.826125907900777
"CAN","cpi",0.1,2004,3,2003,NA,1,0.830130503983731,1.22880584247255,1.83151661303942,1.02946817322814,FALSE,1.73803260641521
"CAN","cpi",0.1,2004,3,2003,NA,1.5,4.39681639430186,4.89617398817899,1.83151661303942,4.64649519124043,FALSE,6.20002377446033
"CAN","cpi",0.1,2005,3,2005,NA,0,2.38255725325547,2.38652912066123,2.18071628336509,2.38454318695835,FALSE,0.452507356051052
"CAN","cpi",0.1,2005,3,2005,NA,0.5,1.34122838384919,1.87110536526397,2.18071628336509,1.60616687455658,FALSE,1.21790124386171
"CAN","cpi",0.1,2005,3,2004,NA,1,1.38687941694692,1.91675639836169,2.18071628336509,1.65181790765431,FALSE,1.11645450364455
"CAN","cpi",0.1,2005,3,2004,NA,1.5,1.49765450476785,2.02753148618262,2.18071628336509,1.76259299547523,FALSE,0.870287641820263
"CAN","cpi",0.1,2006,3,2006,NA,0,2.12753133760498,2.14517135441631,1.97519342012289,2.13635134601064,FALSE,0.356168722327093
"CAN","cpi",0.1,2006,3,2006,NA,0.5,1.5219122780616,2.05178925947638,1.97519342012289,1.78685076876899,TRUE,0.529876981414777
"CAN","cpi",0.1,2006,3,2005,NA,1,3.23991103519337,3.76978801660815,1.97519342012289,3.50484952590076,FALSE,3.34036057046031
"CAN","cpi",0.1,2006,3,2005,NA,1.5,1.20319993230273,1.73307691371751,1.97519342012289,1.46813842301012,FALSE,1.06791366231562
"CAN","cpi",0.1,2007,3,2007,NA,0,2.19593174799015,2.21357176480148,2.10062087284572,2.20475175639581,FALSE,0.22944196157672
"CAN","cpi",0.1,2007,3,2007,NA,0.5,1.72192777809549,2.24862715670627,2.10062087284572,1.98527746740088,TRUE,0.526699378610776
"CAN","cpi",0.1,2007,3,2006,NA,1,0.984052629521439,1.51075200813221,2.10062087284572,1.24740231882683,FALSE,1.83751907797413
"CAN","cpi",0.1,2007,3,2006,NA,1.5,1.34162239059927,1.86832176921005,2.10062087284572,1.60497207990466,FALSE,1.04291960891227
"CAN","cpi",0.1,2008,3,2008,NA,0,3.00885575238498,3.02649576919631,2.31447335265955,3.01767576079065,FALSE,1.56071201620117
"CAN","cpi",0.1,2008,3,2008,NA,0.5,0.849280990746425,1.22596629345421,2.31447335265955,1.03762364210032,FALSE,2.79558987871965
"CAN","cpi",0.1,2008,3,2007,NA,1,1.14234029189304,1.66348397348932,2.31447335265955,1.40291213269118,FALSE,1.96778674641901
"CAN","cpi",0.1,2008,3,2007,NA,1.5,2.43877582570632,2.9599195073026,2.31447335265955,2.69934766650446,FALSE,0.79737139947798
"CAN","cpi",0.1,2009,3,2009,NA,0,0.31290622292874,0.330546239740072,0.284533874408197,0.321726231334406,FALSE,0.0806896801903152
"CAN","cpi",0.1,2009,3,2009,NA,0.5,-1.51328135419374,-1.13659605148595,0.284533874408197,-1.32493870283985,FALSE,3.53475180469479
"CAN","cpi",0.1,2009,3,2008,NA,1,4.80464254451775,5.34757231383318,0.284533874408197,5.07610742917547,FALSE,10.5876157028922
"CAN","cpi",0.1,2009,3,2008,NA,1.5,0.626191276446003,1.39593990413581,0.284533874408197,1.01106559029091,FALSE,1.52898729888493
"CAN","cpi",0.1,2010,3,2010,NA,0,1.73369781861576,1.77495411511271,1.75525687020327,1.75432596686424,TRUE,0.0412562964969503
"CAN","cpi",0.1,2010,3,2010,NA,0.5,1.30510364870195,1.68178895140974,1.75525687020327,1.49344630005585,FALSE,0.539947344471186
"CAN","cpi",0.1,2010,3,2009,NA,1,0.727822666579941,1.53238474392351,1.75525687020327,1.13010370525173,FALSE,1.29983346907637
"CAN","cpi",0.1,2010,3,2009,NA,1.5,-2.66147288193896,-1.85691080459539,1.75525687020327,-2.25919184326718,FALSE,8.83160135467394
"CAN","cpi",0.1,2011,3,2011,NA,0,2.90671261388507,2.90993383324842,2.85717434028225,2.90832322356675,FALSE,0.113306271814075
"CAN","cpi",0.1,2011,3,2011,NA,0.5,2.62660770508675,3.00329300779453,2.85717434028225,2.81495035644064,TRUE,0.376685302707789
"CAN","cpi",0.1,2011,3,2010,NA,1,1.83105072361292,2.66886177500144,2.85717434028225,2.24995624930718,FALSE,1.25628341867919
"CAN","cpi",0.1,2011,3,2010,NA,1.5,1.27230665735692,2.11011770874544,2.85717434028225,1.69121218305118,FALSE,2.49793689924809
"CAN","cpi",0.1,2012,3,2012,NA,0,1.50698309721092,1.51020431657427,1.50118536134935,1.50859370689259,FALSE,0.0161050768335056
"CAN","cpi",0.1,2012,3,2012,NA,0.5,1.63590924330207,1.86659605419176,1.50118536134935,1.75125264874692,FALSE,0.53007321522908
"CAN","cpi",0.1,2012,3,2011,NA,1,1.37393372895648,2.32095539255712,1.50118536134935,1.8474445607568,TRUE,0.947021663600643
"CAN","cpi",0.1,2012,3,2011,NA,1.5,2.59574974873043,3.54277141233107,1.50118536134935,3.06926058053075,FALSE,3.37938696889193
"CAN","cpi",0.1,2013,3,2013,NA,0,1.05454533998032,1.05776655934367,0.931270594714462,1.05615594966199,FALSE,0.27716509773192
"CAN","cpi",0.1,2013,3,2013,NA,0.5,0.908835959104444,1.13952276999413,0.931270594714462,1.02417936454929,TRUE,0.230686810889683
"CAN","cpi",0.1,2013,3,2012,NA,1,-0.277674680831341,0.414843717983571,0.931270594714462,0.0685845185761151,FALSE,1.84013368043911
"CAN","cpi",0.1,2013,3,2012,NA,1.5,1.30104629927789,2.13729287505761,0.931270594714462,1.71916958716775,FALSE,1.65797036369845
"CAN","cpi",0.1,2014,3,2014,NA,0,2.0622591462692,2.06548036563255,1.87639912240215,2.06386975595087,FALSE,0.416243494623452
"CAN","cpi",0.1,2014,3,2014,NA,0.5,1.8342433423723,2.02006088204194,1.87639912240215,1.92715211220712,TRUE,0.185817539669647
"CAN","cpi",0.1,2014,3,2013,NA,1,0.640212402594411,1.58723406619505,1.87639912240215,1.11372323439473,FALSE,1.58961067739419
"CAN","cpi",0.1,2014,3,2013,NA,1.5,0.926893050600918,1.87391471420156,1.87639912240215,1.40040388240124,FALSE,0.952542570713065
"CAN","cpi",0.1,2015,3,2015,NA,0,1.30571717173061,1.30893839109396,1.11090953952792,1.30732778141228,FALSE,0.436127068702661
"CAN","cpi",0.1,2015,3,2015,NA,0.5,0.0325000499006149,0.134006029510553,1.11090953952792,0.0832530397055839,FALSE,2.27240266853741
"CAN","cpi",0.1,2015,3,2014,NA,1,0.960427534996548,1.90744919859719,1.11090953952792,1.43393836679687,TRUE,0.947021663600643
"CAN","cpi",0.1,2015,3,2014,NA,1.5,2.20201261569592,3.14903427929656,1.11090953952792,2.67552344749624,FALSE,3.37169516619621
"CAN","cpi",0.1,2016,3,2016,NA,0,1.50150701607192,1.51632370715841,1.41168586698797,1.50891536161516,FALSE,0.214419244606382
"CAN","cpi",0.1,2016,3,2016,NA,0.5,0.736098752214247,0.837604731824185,1.41168586698797,0.786851742019216,FALSE,1.37724183552945
"CAN","cpi",0.1,2016,3,2015,NA,1,1.81034329693445,2.50286169574937,1.41168586698797,2.15660249634191,FALSE,1.578423798696
"CAN","cpi",0.1,2016,3,2015,NA,1.5,-0.53534357339561,0.300903002384105,1.41168586698797,-0.117220285505753,FALSE,3.30465294156607
"CAN","cpi",0.1,2017,3,2017,NA,0,1.54140502666442,1.55622171775091,1.57888581671161,1.54881337220766,FALSE,0.0651813554436072
"CAN","cpi",0.1,2017,3,2017,NA,0.5,1.86261698937851,1.96412296898845,1.57888581671161,1.91336997918348,FALSE,0.732019696647488
"CAN","cpi",0.1,2017,3,2016,NA,1,0.841429357305089,1.53394775612,1.57888581671161,1.18768855671255,FALSE,0.792380755685158
"CAN","cpi",0.1,2017,3,2016,NA,1.5,0.188496462838489,1.14048694284031,1.57888581671161,0.6644917028394,FALSE,1.92621019971582
"CAN","cpi",0.1,2018,3,2018,NA,0,2.43782221523438,2.45263890632087,2.23316270166586,2.44523056077762,FALSE,0.469615610127639
"CAN","cpi",0.1,2018,3,2018,NA,0.5,2.75081217388256,2.8523181534925,2.23316270166586,2.80156516368753,FALSE,1.2518381400915
"CAN","cpi",0.1,2018,3,2017,NA,1,0.473932057218414,1.16645045603333,2.23316270166586,0.82019125662587,FALSE,3.0629900557761
"CAN","cpi",0.1,2018,3,2017,NA,1.5,1.95656971232975,2.90856019233157,2.23316270166586,2.43256495233066,TRUE,0.951990480001823
"CAN","cpi",0.1,2019,3,2019,NA,0,2.07748533971173,2.09230203079822,1.91921619871868,2.08489368525497,FALSE,0.366525893293255
"CAN","cpi",0.1,2019,3,2019,NA,0.5,1.42106661609937,1.52257259570931,1.91921619871868,1.47181960590434,FALSE,0.982936208519651
"CAN","cpi",0.1,2019,3,2018,NA,1,1.83497996573384,2.52749836454876,1.91921619871868,2.1812391651413,TRUE,0.692518398814912
"CAN","cpi",0.1,2019,3,2018,NA,1.5,3.20860565650596,3.97835428419577,1.91921619871868,3.59347997035086,FALSE,3.63505853388376
"CAN","cpi",0.1,2020,3,2020,NA,0,0.684724895141398,0.699541586227888,0.71139989671781,0.692133240684643,FALSE,0.0411684921752063
"CAN","cpi",0.1,2020,3,2020,NA,0.5,1.00482754380651,1.10633352341645,0.71139989671781,1.05558053361148,FALSE,0.753567417584824
"CAN","cpi",0.1,2020,3,2019,NA,1,1.69184093252437,2.33789858706228,0.71139989671781,2.01486975979332,FALSE,2.82481551188582
"CAN","cpi",0.1,2020,3,2019,NA,1.5,1.29669492603647,2.24868540603829,0.71139989671781,1.77269016603738,FALSE,2.25264610070996
"CAN","cpi",0.1,2021,3,2021,NA,0,3.36670061235752,3.38151730344401,3.31148121717802,3.37410895790077,FALSE,0.137526458152044
"CAN","cpi",0.1,2021,3,2021,NA,0.5,2.63115494999586,2.7326609296058,3.31148121717802,2.68190793980083,FALSE,1.387773285326
"CAN","cpi",0.1,2021,3,2020,NA,1,0.869445838936834,1.51550349347474,3.31148121717802,1.19247466620579,FALSE,4.63711926276743
"CAN","cpi",0.1,2021,3,2020,NA,1.5,0.518102284482793,1.47009276448462,3.31148121717802,0.994097524483704,FALSE,5.04396481932051
"CAN","cpi",0.1,2022,3,2022,NA,0,6.69288717235712,6.73142048442346,6.50977236228281,6.71215382839029,FALSE,0.445455112231469
"CAN","cpi",0.1,2022,3,2022,NA,0.5,6.37079007230061,6.47229605191054,6.50977236228281,6.42154306210558,FALSE,0.184786669326085
"CAN","cpi",0.1,2022,3,2021,NA,1,4.6489657056704,5.29502336020831,6.50977236228281,4.97199453293936,FALSE,3.34549988137013
"CAN","cpi",0.1,2022,3,2021,NA,1.5,2.98102314810263,3.93301362810445,6.50977236228281,3.45701838810354,FALSE,6.67812100039817
"CAN","cpi",0.1,2023,3,2023,NA,0,4.02285518543083,4.06138849749716,3.78831288758619,4.042121841464,FALSE,0.559738418387754
"CAN","cpi",0.1,2023,3,2023,NA,0.5,2.97174262776468,3.14820122811915,3.78831288758619,3.05997192794191,FALSE,1.59892895472568
"CAN","cpi",0.1,2023,3,2022,NA,1,4.96048882934979,5.60654648388769,3.78831288758619,5.28351765661874,FALSE,3.25089308067923
"CAN","cpi",0.1,2023,3,2022,NA,1.5,6.81153192372621,7.76352240372803,3.78831288758619,7.28752716372712,FALSE,7.67025500475741
"CAN","cpi",0.1,2024,3,2023,NA,1,4.05490813197821,4.70096578651611,NA,4.37793695924716,NA,NA
"CAN","cpi",0.1,2024,3,2023,NA,1.5,1.89298459740677,2.84497507740859,NA,2.36897983740768,NA,NA
"CAN","cpi",0.2,1959,3,1959,NA,0,1.10619994145875,1.28739423847297,1.19382698397654,1.19679708996586,TRUE,0.181194297014219
"CAN","cpi",0.2,1959,3,1959,NA,0.5,0.41860642754314,0.891745562110679,1.19382698397654,0.655175994826909,FALSE,1.22834268923219
"CAN","cpi",0.2,1959,3,1958,NA,1,1.22259983021392,2.29617732610571,1.19382698397654,1.75938857815981,FALSE,1.14550961148523
"CAN","cpi",0.2,1959,3,1958,NA,1.5,0.228325998390498,3.3216072218685,1.19382698397654,1.7749666101295,TRUE,3.093281223478
"CAN","cpi",0.2,1960,3,1960,NA,0,0.965305963716643,1.09729896651033,1.34209404870695,1.03130246511349,FALSE,0.743980708285235
"CAN","cpi",0.2,1960,3,1960,NA,0.5,0.509033085848476,0.982172220416015,1.34209404870695,0.745602653132245,FALSE,1.37294370529488
"CAN","cpi",0.2,1960,3,1959,NA,1,2.7703122788511,3.90143546721765,1.34209404870695,3.33587387303437,FALSE,4.70166876372692
"CAN","cpi",0.2,1960,3,1959,NA,1.5,-1.84383192646901,1.19299373789323,1.34209404870695,-0.32541909428789,FALSE,3.40957644139654
"CAN","cpi",0.2,1961,3,1961,NA,0,0.943216979543227,1.07520998233692,1.00921348094007,1.00921348094007,TRUE,0.13199300279369
"CAN","cpi",0.2,1961,3,1961,NA,0.5,0.77276032593166,1.85006230423092,1.00921348094007,1.31141131508129,TRUE,1.07730197829926
"CAN","cpi",0.2,1961,3,1960,NA,1,-0.42193568851331,0.709187499853234,1.00921348094007,0.143625905669962,FALSE,1.88118814108364
"CAN","cpi",0.2,1961,3,1960,NA,1.5,-1.85852425633334,1.1783014080289,1.00921348094007,-0.34011142415222,TRUE,3.03682566436224
"CAN","cpi",0.2,1962,3,1962,NA,0,1.10390078645736,1.11875917816017,1.04957947883042,1.11132998230876,FALSE,0.150661660770164
"CAN","cpi",0.2,1962,3,1962,NA,0.5,-0.30219783414122,0.30219783414122,1.04957947883042,1.64134322488006e-44,FALSE,2.47284978000543
"CAN","cpi",0.2,1962,3,1961,NA,1,-0.565561594183272,0.565561594183272,1.04957947883042,-9.44308782563385e-19,FALSE,2.3411678999844
"CAN","cpi",0.2,1962,3,1961,NA,1.5,-0.594940656401541,2.10370915378304,1.04957947883042,0.754384248690751,TRUE,2.69864981018458
"CAN","cpi",0.2,1963,3,1963,NA,0,1.84856591303524,1.86342430473805,1.60677118395228,1.85599510888664,FALSE,0.619345214410197
"CAN","cpi",0.2,1963,3,1963,NA,0.5,0.393649304487794,1.47095128278706,1.60677118395228,0.932300293637426,FALSE,1.41685173121233
"CAN","cpi",0.2,1963,3,1962,NA,1,2.101923629254,3.23304681762055,1.60677118395228,2.66748522343727,FALSE,2.36900430162084
"CAN","cpi",0.2,1963,3,1962,NA,1.5,-1.10501182504323,1.10501182504323,1.60677118395228,4.10321927477868e-44,FALSE,3.4644220473591
"CAN","cpi",0.2,1964,3,1964,NA,0,1.98151234983862,1.99637074154143,1.88764670034376,1.98894154569002,FALSE,0.249522515439958
"CAN","cpi",0.2,1964,3,1964,NA,0.5,0.845124838321307,1.92242681662057,1.88764670034376,1.38377582747094,TRUE,1.07730197829926
"CAN","cpi",0.2,1964,3,1963,NA,1,4.14730393487103,5.27842712323758,1.88764670034376,4.71286552905431,FALSE,6.78026627468473
"CAN","cpi",0.2,1964,3,1963,NA,1.5,-0.866232151870901,1.34379149821555,1.88764670034376,0.238779673172327,FALSE,3.56966165540697
"CAN","cpi",0.2,1965,3,1965,NA,0,2.29319460162719,2.41669560858388,2.29538304394236,2.35494510510554,TRUE,0.123501006956694
"CAN","cpi",0.2,1965,3,1965,NA,0.5,1.05657809172456,2.0643198374702,2.29538304394236,1.56044896459738,FALSE,1.58539976192602
"CAN","cpi",0.2,1965,3,1964,NA,1,1.56151974371596,3.29269489425618,2.29538304394236,2.42710731898607,TRUE,1.73117515054022
"CAN","cpi",0.2,1965,3,1964,NA,1.5,-0.286696067140112,1.92332758294634,2.29538304394236,0.818315757903116,FALSE,3.14016230257649
"CAN","cpi",0.2,1966,3,1966,NA,0,3.78707930273693,3.90620342506329,3.72486065470629,3.84664136390011,FALSE,0.274670742402965
"CAN","cpi",0.2,1966,3,1966,NA,0.5,3.3430431294302,4.35078487517584,3.72486065470629,3.84691400230302,TRUE,1.00774174574564
"CAN","cpi",0.2,1966,3,1965,NA,1,2.74811837671387,3.87924156508041,3.72486065470629,3.31367997089714,TRUE,1.13112318836654
"CAN","cpi",0.2,1966,3,1965,NA,1.5,0.376491999091905,2.58651564917836,3.72486065470629,1.48150382413513,FALSE,5.05588616390628
"CAN","cpi",0.2,1967,3,1967,NA,0,3.70906762946823,3.82819175179459,3.49360316391996,3.76862969063141,FALSE,0.657785286197046
"CAN","cpi",0.2,1967,3,1967,NA,0.5,2.05954637312816,2.6639420414106,3.49360316391996,2.36174420726938,FALSE,2.67854847455583
"CAN","cpi",0.2,1967,3,1966,NA,1,2.94963124880426,4.01504566029653,3.49360316391996,3.4823384545504,TRUE,1.06541441149228
"CAN","cpi",0.2,1967,3,1966,NA,1.5,3.18756517939299,5.39758882947945,3.49360316391996,4.29257700443622,TRUE,2.21002365008646
"CAN","cpi",0.2,1968,3,1968,NA,0,4.05384095142952,4.17296507375588,3.95128347779386,4.1134030125927,FALSE,0.375517806415518
"CAN","cpi",0.2,1968,3,1968,NA,0.5,3.59004650329811,4.19444217158055,3.95128347779386,3.89224433743933,TRUE,0.60439566828244
"CAN","cpi",0.2,1968,3,1967,NA,1,5.44478643128313,6.26714779890143,3.95128347779386,5.85596711509228,FALSE,4.55611875134148
"CAN","cpi",0.2,1968,3,1967,NA,1.5,1.34289711098781,2.94084479202034,3.95128347779386,2.14187095150408,FALSE,4.12404439546632
"CAN","cpi",0.2,1969,3,1969,NA,0,4.58306859029999,4.70219271262635,4.42679496126681,4.64263065146317,FALSE,0.509808194909295
"CAN","cpi",0.2,1969,3,1969,NA,0.5,2.93994158118098,3.18404827637445,4.42679496126681,3.06199492877772,FALSE,3.35097340742437
"CAN","cpi",0.2,1969,3,1968,NA,1,5.64464310367714,6.46700447129544,4.42679496126681,6.05582378748629,FALSE,3.86698172364412
"CAN","cpi",0.2,1969,3,1968,NA,1.5,3.07330101067696,4.67124869170949,4.42679496126681,3.87227485119322,TRUE,1.59794768103252
"CAN","cpi",0.2,1970,3,1970,NA,0,3.53040268808105,3.6495268104074,3.28128405769805,3.58996474924422,FALSE,0.741920698283854
"CAN","cpi",0.2,1970,3,1970,NA,0.5,3.86960486238629,4.47400053066873,3.28128405769805,4.17180269652751,FALSE,2.07519768000306
"CAN","cpi",0.2,1970,3,1969,NA,1,5.02747428084123,5.84983564845953,3.28128405769805,5.43865496465038,FALSE,5.18783692547626
"CAN","cpi",0.2,1970,3,1969,NA,1.5,1.7355876836457,2.89786693595162,3.28128405769805,2.31672730979866,FALSE,2.12082205667198
"CAN","cpi",0.2,1971,3,1971,NA,0,2.83249689470202,2.95599790165871,2.64123406634756,2.89424739818036,FALSE,0.601658077842827
"CAN","cpi",0.2,1971,3,1971,NA,0.5,0.773142105494344,1.37753777377678,2.64123406634756,1.07533993963556,FALSE,3.76363639970938
"CAN","cpi",0.2,1971,3,1970,NA,1,2.57042896752828,3.39279033514658,2.64123406634756,2.98160965133743,TRUE,0.822361367618296
"CAN","cpi",0.2,1971,3,1970,NA,1.5,3.35810876639497,4.9560564474275,2.64123406634756,4.15708260691123,FALSE,3.39013443115105
"CAN","cpi",0.2,1972,3,1972,NA,0,5.04146439354043,5.16496540049712,4.83230569625923,5.10321489701878,FALSE,0.646397750159697
"CAN","cpi",0.2,1972,3,1972,NA,0.5,4.27307001060351,4.87746567888595,4.83230569625923,4.57526784474473,TRUE,0.604395668282441
"CAN","cpi",0.2,1972,3,1971,NA,1,6.22695578015673,6.90770695013647,4.83230569625923,6.5673313651466,FALSE,4.16737637972349
"CAN","cpi",0.2,1972,3,1971,NA,1.5,0.402297084652204,2.00024476568473,4.83230569625923,1.20127092516847,FALSE,8.67810000746878
"CAN","cpi",0.2,1973,3,1973,NA,0,7.26139264582246,7.46398233651499,7.12388603531779,7.36268749116872,FALSE,0.546356216954204
"CAN","cpi",0.2,1973,3,1973,NA,0.5,5.63729207922867,6.15136778225767,7.12388603531779,5.89432993074317,FALSE,2.94537133567931
"CAN","cpi",0.2,1973,3,1972,NA,1,7.03102377539113,7.71177494537087,7.12388603531779,7.371399360381,TRUE,0.680751169979734
"CAN","cpi",0.2,1973,3,1972,NA,1.5,3.70427287230503,5.30222055333756,7.12388603531779,4.50324671282129,FALSE,6.15211138598311
"CAN","cpi",0.2,1974,3,1974,NA,0,10.2005074240291,10.4440688424167,10.2717243737774,10.3222881332229,TRUE,0.243561418387642
"CAN","cpi",0.2,1974,3,1974,NA,0.5,8.59485344107484,9.09940461765255,10.2717243737774,8.8471290293637,FALSE,3.43535056688987
"CAN","cpi",0.2,1974,3,1973,NA,1,10.7361646942484,11.2407158708261,10.2717243737774,10.9884402825372,FALSE,1.66565197775512
"CAN","cpi",0.2,1974,3,1973,NA,1.5,5.23099177289784,7.16010526869661,10.2717243737774,6.19554852079723,FALSE,9.70816125850079
"CAN","cpi",0.2,1975,3,1975,NA,0,10.1633993248897,10.3659890155822,10.0232981493341,10.2646941702359,FALSE,0.552842629581423
"CAN","cpi",0.2,1975,3,1975,NA,0.5,8.96627829376433,9.47082947034204,10.0232981493341,9.21855388205318,FALSE,1.88572287405791
"CAN","cpi",0.2,1975,3,1974,NA,1,11.7382388051015,12.2427899816792,10.0232981493341,11.9905143933903,FALSE,4.79190281599612
"CAN","cpi",0.2,1975,3,1974,NA,1.5,7.71553454340486,9.64464803920363,10.0232981493341,8.68009129130424,FALSE,2.87573877112501
"CAN","cpi",0.2,1976,3,1976,NA,0,7.1320499640284,7.37561138241604,7.22784311401172,7.25383067322222,TRUE,0.243561418387644
"CAN","cpi",0.2,1976,3,1976,NA,0.5,7.16320116775886,7.66775234433656,7.22784311401172,7.41547675604771,TRUE,0.504551176577706
"CAN","cpi",0.2,1976,3,1975,NA,1,11.6628754698254,12.1674266464031,7.22784311401172,11.9151510581142,FALSE,11.5921320661119
"CAN","cpi",0.2,1976,3,1975,NA,1.5,7.04875863329748,8.97787212909625,7.22784311401172,8.01331538119686,TRUE,1.92911349579877
"CAN","cpi",0.2,1977,3,1977,NA,0,7.49689058771625,7.74045200610389,7.58101410153764,7.61867129691007,TRUE,0.243561418387644
"CAN","cpi",0.2,1977,3,1977,NA,0.5,6.83524507786233,7.21051236193432,7.58101410153764,7.02287871989832,FALSE,1.30152163308031
"CAN","cpi",0.2,1977,3,1976,NA,1,5.53224345377251,6.21299462375224,7.58101410153764,5.87261903876238,FALSE,4.10079986444323
"CAN","cpi",0.2,1977,3,1976,NA,1.5,5.35425260972467,6.9522002907572,7.58101410153764,6.15322645024094,FALSE,3.16998220798364
"CAN","cpi",0.2,1978,3,1978,NA,0,8.63069031300454,8.73181783189556,8.50208927062595,8.68125407245005,FALSE,0.422630124837506
"CAN","cpi",0.2,1978,3,1978,NA,0.5,7.86804957178772,8.38212527481672,8.50208927062595,8.12508742330222,FALSE,0.813985692552065
"CAN","cpi",0.2,1978,3,1977,NA,1,8.30281208353975,8.98356325351948,8.50208927062595,8.64318766852961,TRUE,0.680751169979736
"CAN","cpi",0.2,1978,3,1977,NA,1.5,6.86131552744877,8.4592632084813,8.50208927062595,7.66028936796504,FALSE,1.70501283639415
"CAN","cpi",0.2,1979,3,1979,NA,0,8.56019570465237,8.66132322354338,8.65147652410481,8.61075946409788,TRUE,0.101127518891015
"CAN","cpi",0.2,1979,3,1979,NA,0.5,7.84359050123122,8.35766620426022,8.65147652410481,8.10062835274572,FALSE,1.24860150264048
"CAN","cpi",0.2,1979,3,1978,NA,1,9.24225929969303,9.92301046967277,8.65147652410481,9.5826348846829,FALSE,2.1577081089503
"CAN","cpi",0.2,1979,3,1978,NA,1.5,7.10003854410436,8.78363834942618,8.65147652410481,7.94183844676527,TRUE,1.68359980532182
"CAN","cpi",0.2,1980,3,1980,NA,0,9.49037340749592,9.57180752750979,9.5171912664748,9.53109046750286,TRUE,0.0814341200138671
"CAN","cpi",0.2,1980,3,1980,NA,0.5,8.32694743299742,9.04432486531101,9.5171912664748,8.68563614915422,FALSE,1.89954343522305
"CAN","cpi",0.2,1980,3,1979,NA,1,7.96679862550903,8.68417605782263,9.5171912664748,8.32548734166583,FALSE,2.79991545394402
"CAN","cpi",0.2,1980,3,1979,NA,1.5,7.19499875377606,8.76594328814636,9.5171912664748,7.98047102096121,FALSE,3.44906448019139
"CAN","cpi",0.2,1981,3,1981,NA,0,11.6712987821505,11.7466131728954,11.5813425032741,11.708955977523,FALSE,0.300205087935828
"CAN","cpi",0.2,1981,3,1981,NA,0.5,11.7677075745881,12.4850850069017,11.5813425032741,12.1263962907449,FALSE,1.18329011059862
"CAN","cpi",0.2,1981,3,1980,NA,1,10.626251449146,11.3436288814596,11.5813425032741,10.9849401653028,FALSE,1.3116614868499
"CAN","cpi",0.2,1981,3,1980,NA,1.5,7.78555234999556,9.46915215531738,11.5813425032741,8.62735225265647,FALSE,6.96407567521373
"CAN","cpi",0.2,1982,3,1982,NA,0,10.2733177793938,10.3486321701386,10.1124203763629,10.3109749747662,FALSE,0.477557898321929
"CAN","cpi",0.2,1982,3,1982,NA,0.5,9.74099494584289,10.4583723781565,10.1124203763629,10.0996836619997,TRUE,0.717377432313594
"CAN","cpi",0.2,1982,3,1981,NA,1,11.2607908037585,11.9781682360721,10.1124203763629,11.6194795199153,FALSE,3.58830350080245
"CAN","cpi",0.2,1982,3,1981,NA,1.5,11.8776357734833,13.5612355788052,10.1124203763629,12.7194356761443,FALSE,6.09663829812281
"CAN","cpi",0.2,1983,3,1983,NA,0,5.78999020824792,5.86530459899277,5.67091787896303,5.82764740362034,FALSE,0.372995213957059
"CAN","cpi",0.2,1983,3,1983,NA,0.5,4.71840159642881,5.23247729945781,5.67091787896303,4.97543944794331,FALSE,1.61017715179207
"CAN","cpi",0.2,1983,3,1982,NA,1,8.64138162885124,9.83418630479388,5.67091787896303,9.23778396682256,FALSE,8.61896405066316
"CAN","cpi",0.2,1983,3,1982,NA,1.5,8.94690153907762,10.6305013443994,5.67091787896303,9.78870144173853,FALSE,9.87355895560829
"CAN","cpi",0.2,1984,3,1984,NA,0,4.17591817756078,4.25123256830564,4.19799576814029,4.21357537293321,TRUE,0.0753143907448557
"CAN","cpi",0.2,1984,3,1984,NA,0.5,4.26558748331193,5.01959117795938,4.19799576814029,4.64258933063566,FALSE,0.922982982576557
"CAN","cpi",0.2,1984,3,1983,NA,1,5.53497421074086,6.7277788866835,4.19799576814029,6.13137654871218,FALSE,4.53525078244407
"CAN","cpi",0.2,1984,3,1983,NA,1.5,2.62652448330816,4.31012428862998,4.19799576814029,3.46832438596907,TRUE,1.68359980532182
"CAN","cpi",0.2,1985,3,1985,NA,0,3.89310569839167,3.94508081681269,3.86444262005169,3.91909325760218,FALSE,0.12363281427096
"CAN","cpi",0.2,1985,3,1985,NA,0.5,3.51450003462666,4.26850372927411,3.86444262005169,3.89150188195039,TRUE,0.754003694647452
"CAN","cpi",0.2,1985,3,1984,NA,1,2.57725484101053,4.01068665853017,3.86444262005169,3.29397074977035,TRUE,1.43343181751964
"CAN","cpi",0.2,1985,3,1984,NA,1.5,3.68113808041325,5.25208261478355,3.86444262005169,4.4666103475984,TRUE,1.5709445343703
"CAN","cpi",0.2,1986,3,1986,NA,0,4.07990098144539,4.13187609986641,4.08685396749431,4.1058885406559,TRUE,0.051975118421014
"CAN","cpi",0.2,1986,3,1986,NA,0.5,4.22238041955149,4.59764770362348,4.08685396749431,4.41001406158749,FALSE,0.714083414214943
"CAN","cpi",0.2,1986,3,1985,NA,1,3.39663645522309,4.58944113116573,4.08685396749431,3.99303879319441,TRUE,1.19280467594264
"CAN","cpi",0.2,1986,3,1985,NA,1.5,3.49359185663782,4.95293462098026,4.08685396749431,4.22326323880904,TRUE,1.45934276434244
"CAN","cpi",0.2,1987,3,1987,NA,0,4.34073261164723,4.37880175797041,4.23980729277887,4.35976718480882,FALSE,0.290382443494082
"CAN","cpi",0.2,1987,3,1987,NA,0.5,3.72172957191169,4.09699685598368,4.23980729277887,3.90936321394769,FALSE,0.732293376059963
"CAN","cpi",0.2,1987,3,1986,NA,1,3.76052472123321,4.90146846179589,4.23980729277887,4.33099659151455,TRUE,1.14094374056268
"CAN","cpi",0.2,1987,3,1986,NA,1.5,4.04283314302262,5.46210929770169,4.23980729277887,4.75247122036215,TRUE,1.41927615467907
"CAN","cpi",0.2,1988,3,1988,NA,0,3.9936610283625,4.03173017468567,3.92899537638065,4.01269560152408,FALSE,0.199733276277783
"CAN","cpi",0.2,1988,3,1988,NA,0.5,3.23862671314493,3.70288520514177,3.92899537638065,3.47075595914335,FALSE,1.02953392009405
"CAN","cpi",0.2,1988,3,1987,NA,1,4.34949513895224,4.81375363094908,3.92899537638065,4.58162438495066,FALSE,1.51550789842581
"CAN","cpi",0.2,1988,3,1987,NA,1.5,3.21148003577337,4.41581549086678,3.92899537638065,3.81364776332008,TRUE,1.20433545509341
"CAN","cpi",0.2,1989,3,1989,NA,0,5.00491863556949,5.04298778189266,4.82821664544208,5.02395320873108,FALSE,0.479824121641703
"CAN","cpi",0.2,1989,3,1989,NA,0.5,4.1357692324531,4.60002772444994,4.82821664544208,4.36789847845152,FALSE,1.03473079447718
"CAN","cpi",0.2,1989,3,1988,NA,1,4.22949637236111,4.69375486435795,4.82821664544208,4.46162561835953,FALSE,0.800412944707157
"CAN","cpi",0.2,1989,3,1988,NA,1.5,2.76571759855682,3.79104545372339,4.82821664544208,3.27838152614011,FALSE,3.61825583446328
"CAN","cpi",0.2,1990,3,1990,NA,0,4.50059671203408,4.53866585835726,4.64347549432717,4.51963128519567,FALSE,0.300093236247954
"CAN","cpi",0.2,1990,3,1990,NA,0.5,4.66118417589087,5.30750436407722,4.64347549432717,4.98434426998405,FALSE,0.690591892095604
"CAN","cpi",0.2,1990,3,1989,NA,1,5.55115836530856,6.28434041947365,4.64347549432717,5.9177493923911,FALSE,3.00238923161856
"CAN","cpi",0.2,1990,3,1989,NA,1.5,4.04919465630181,5.07452251146837,4.64347549432717,4.56185858388509,TRUE,1.02532785516657
"CAN","cpi",0.2,1991,3,1991,NA,0,5.60503305479289,5.64310220111606,5.4258100696218,5.62406762795447,FALSE,0.486126609250899
"CAN","cpi",0.2,1991,3,1991,NA,0.5,8.11633404084085,8.66710763583448,5.4258100696218,8.39172083833767,FALSE,7.27708352304126
"CAN","cpi",0.2,1991,3,1990,NA,1,3.59378936802215,4.14456296301578,5.4258100696218,3.86917616551897,FALSE,3.75389136150866
"CAN","cpi",0.2,1991,3,1990,NA,1.5,4.84749818105531,5.39827177604894,5.4258100696218,5.12288497855213,FALSE,0.619619328925767
"CAN","cpi",0.2,1992,3,1992,NA,0,1.42595529235143,1.5352565674524,1.47496888572843,1.48060592990191,TRUE,0.109301275100971
"CAN","cpi",0.2,1992,3,1992,NA,0.5,0.896600354918502,1.44737394991214,1.47496888572843,1.17198715241532,FALSE,0.619760934534373
"CAN","cpi",0.2,1992,3,1991,NA,1,2.24485848323514,2.79563207822878,1.47496888572843,2.52024528073196,FALSE,2.47549758876041
"CAN","cpi",0.2,1992,3,1991,NA,1.5,9.87795091170577,10.4287245066994,1.47496888572843,10.1533377092026,FALSE,21.558228659937
"CAN","cpi",0.2,1993,3,1993,NA,0,1.78358687009499,1.82165601641817,1.84351085411351,1.80262144325658,FALSE,0.0927062405615331
"CAN","cpi",0.2,1993,3,1993,NA,0.5,2.07375247834901,2.61107383282261,1.84351085411351,2.34241315558581,FALSE,1.11292541506235
"CAN","cpi",0.2,1993,3,1992,NA,1,1.54939878688904,2.08672014136264,1.84351085411351,1.81805946412584,TRUE,0.537321354473593
"CAN","cpi",0.2,1993,3,1992,NA,1.5,0.871602923789613,1.40892427826321,1.84351085411351,1.14026360102641,FALSE,1.62378779409936
"CAN","cpi",0.2,1994,3,1994,NA,0,0.14458205519674,0.182651201519914,0.161630694655448,0.163616628358327,TRUE,0.0380691463231742
"CAN","cpi",0.2,1994,3,1994,NA,0.5,-0.569601611265314,-0.200678584793444,0.161630694655448,-0.385140098029379,FALSE,1.2746962250941
"CAN","cpi",0.2,1994,3,1993,NA,1,1.19028576809789,1.55920879456976,0.161630694655448,1.37474728133383,FALSE,2.94056071007798
"CAN","cpi",0.2,1994,3,1993,NA,1.5,2.41239463987931,2.78131766635118,0.161630694655448,2.59685615311524,FALSE,5.99583288953152
"CAN","cpi",0.2,1995,3,1995,NA,0,2.17798487714001,2.20914408672585,2.11688403676572,2.19356448193293,FALSE,0.183911310521574
"CAN","cpi",0.2,1995,3,1995,NA,0.5,2.49304752219254,2.86197054866441,2.11688403676572,2.67750903542847,FALSE,1.30933174003892
"CAN","cpi",0.2,1995,3,1994,NA,1,1.15646466781605,1.52538769428792,2.11688403676572,1.34092618105198,FALSE,1.84766388266636
"CAN","cpi",0.2,1995,3,1994,NA,1.5,-1.49844573079644,-1.12952270432457,2.11688403676572,-1.3139842175605,FALSE,8.48493987919757
"CAN","cpi",0.2,1996,3,1996,NA,0,1.46303055086562,1.5010996971888,1.55309584667184,1.48206512402721,FALSE,0.168059520030788
"CAN","cpi",0.2,1996,3,1996,NA,0.5,1.05152529551668,1.42044832198855,1.55309584667184,1.23598680875262,FALSE,0.700541838180096
"CAN","cpi",0.2,1996,3,1995,NA,1,1.14537310037754,1.51429612684941,1.55309584667184,1.32983461361347,FALSE,0.465922326027962
"CAN","cpi",0.2,1996,3,1995,NA,1.5,3.24134454626542,3.61026757273729,1.55309584667184,3.42580605950136,FALSE,4.58954477545582
"CAN","cpi",0.2,1997,3,1997,NA,0,1.67146575103705,1.70953489736022,1.60528783555959,1.69050032419864,FALSE,0.203513935016816
"CAN","cpi",0.2,1997,3,1997,NA,0.5,1.93533037661324,2.30425340308511,1.60528783555959,2.11979188984917,FALSE,1.19402937910599
"CAN","cpi",0.2,1997,3,1996,NA,1,1.01077933550098,1.37970236197285,1.60528783555959,1.19524084873691,FALSE,0.932886710438731
"CAN","cpi",0.2,1997,3,1996,NA,1.5,1.17114752538509,1.54007055185696,1.60528783555959,1.35560903862103,FALSE,0.53196623572845
"CAN","cpi",0.2,1998,3,1998,NA,0,0.939198610074594,1.02097743178846,0.988908029337191,0.980088020931525,TRUE,0.0817788217138613
"CAN","cpi",0.2,1998,3,1998,NA,0.5,1.04298876851971,1.57857817440513,0.988908029337191,1.31078347146242,FALSE,0.670791253841713
"CAN","cpi",0.2,1998,3,1997,NA,1,0.797913222758072,1.33350262864349,0.988908029337191,1.06570792570078,TRUE,0.535589405885415
"CAN","cpi",0.2,1998,3,1997,NA,1.5,1.98581198972223,2.52140139560765,0.988908029337191,2.25360669266494,FALSE,3.02784930684802
"CAN","cpi",0.2,1999,3,1999,NA,0,1.80829294502577,1.82593296183711,1.7107350135213,1.81711295343144,FALSE,0.261534845572527
"CAN","cpi",0.2,1999,3,1999,NA,0.5,0.523449075017156,1.05332605643193,1.7107350135213,0.788387565724544,FALSE,2.17339937413819
"CAN","cpi",0.2,1999,3,1998,NA,1,0.310428002146737,0.840304983561513,1.7107350135213,0.575366492854125,FALSE,2.70595205631423
"CAN","cpi",0.2,1999,3,1998,NA,1.5,1.42223127639819,1.95210825781297,1.7107350135213,1.68716976710558,TRUE,0.529876981414777
"CAN","cpi",0.2,2000,3,2000,NA,0,2.7211739788593,2.73881399567064,2.6718361971244,2.72999398726497,FALSE,0.140984471148591
"CAN","cpi",0.2,2000,3,2000,NA,0.5,1.80305018354791,2.33292716496268,2.6718361971244,2.06798867425529,FALSE,1.37714956181907
"CAN","cpi",0.2,2000,3,1999,NA,1,2.82658546991567,3.35646245133045,2.6718361971244,3.09152396062306,FALSE,0.916750163392965
"CAN","cpi",0.2,2000,3,1999,NA,1.5,0.577923364556643,1.10780034597142,2.6718361971244,0.842861855264031,FALSE,4.43996660929723
"CAN","cpi",0.2,2001,3,2001,NA,0,2.83326464848044,2.85090466529177,2.47906219852806,2.84208465688611,FALSE,0.903146141692274
"CAN","cpi",0.2,2001,3,2001,NA,0.5,1.62144619532173,2.15132317673651,2.47906219852806,1.88638468602912,FALSE,1.34922453589367
"CAN","cpi",0.2,2001,3,2000,NA,1,3.43295504955775,3.96283203097253,2.47906219852806,3.69789354026514,FALSE,2.914609108989
"CAN","cpi",0.2,2001,3,2000,NA,1.5,1.60322353467391,2.13310051608868,2.47906219852806,1.8681620253813,FALSE,1.39478118751322
"CAN","cpi",0.2,2002,3,2002,NA,0,2.3671756485569,2.38481566536823,2.20880570551249,2.37599565696257,FALSE,0.413564874422364
"CAN","cpi",0.2,2002,3,2002,NA,0.5,0.641008280095982,1.18614495527958,2.20880570551249,0.913576617687781,FALSE,3.10178855076586
"CAN","cpi",0.2,2002,3,2001,NA,1,1.66477248326297,2.20990915844657,2.20880570551249,1.93734082085477,TRUE,0.545136675183598
"CAN","cpi",0.2,2002,3,2001,NA,1.5,0.919752923494221,1.52560310563356,2.20880570551249,1.22267801456389,FALSE,2.31385668183665
"CAN","cpi",0.2,2003,3,2003,NA,0,2.7236988553109,2.74133887212223,2.71189071546809,2.73251886371656,FALSE,0.0471603664183546
"CAN","cpi",0.2,2003,3,2003,NA,0.5,4.04418850910239,4.58932518428599,2.71189071546809,4.31675684669419,FALSE,3.87588115926935
"CAN","cpi",0.2,2003,3,2002,NA,1,4.34605575817361,4.89119243335721,2.71189071546809,4.61862409576541,FALSE,4.63054928194741
"CAN","cpi",0.2,2003,3,2002,NA,1.5,0.754686453522836,1.97648679981637,2.71189071546809,1.3655866266696,FALSE,3.06031013542283
"CAN","cpi",0.2,2004,3,2004,NA,0,1.80927785510927,1.85053415160622,1.83151661303942,1.82990600335775,TRUE,0.0412562964969503
"CAN","cpi",0.2,2004,3,2004,NA,0.5,1.0787444202943,1.80090795482497,1.83151661303942,1.43982618755963,FALSE,0.798685180066809
"CAN","cpi",0.2,2004,3,2003,NA,1,0.668386405962804,1.39054994049347,1.83151661303942,1.02946817322814,FALSE,1.82458021589554
"CAN","cpi",0.2,2004,3,2003,NA,1.5,4.03559501809366,5.25739536438719,1.83151661303942,4.64649519124043,FALSE,6.73199635892913
"CAN","cpi",0.2,2005,3,2005,NA,0,2.37572317855269,2.39336319536402,2.18071628336509,2.38454318695835,FALSE,0.50515725478032
"CAN","cpi",0.2,2005,3,2005,NA,0.5,1.27458921948783,1.93774452962533,2.18071628336509,1.60616687455658,FALSE,1.2705846944869
"CAN","cpi",0.2,2005,3,2004,NA,1,1.32024025258555,1.98339556272306,2.18071628336509,1.65181790765431,FALSE,1.15645711174259
"CAN","cpi",0.2,2005,3,2004,NA,1.5,1.15169282232847,2.373493168622,2.18071628336509,1.76259299547523,TRUE,1.22180034629353
"CAN","cpi",0.2,2006,3,2006,NA,0,2.11572319776217,2.15697949425912,1.97519342012289,2.13635134601064,FALSE,0.392580740595159
"CAN","cpi",0.2,2006,3,2006,NA,0.5,1.45527311370024,2.11842842383774,1.97519342012289,1.78685076876899,TRUE,0.663155310137504
"CAN","cpi",0.2,2006,3,2005,NA,1,3.17327187083201,3.83642718096951,1.97519342012289,3.50484952590076,FALSE,3.65835143691032
"CAN","cpi",0.2,2006,3,2005,NA,1.5,1.05001513512026,1.88626171089998,1.97519342012289,1.46813842301012,FALSE,1.05857584883699
"CAN","cpi",0.2,2007,3,2007,NA,0,2.18412360814734,2.22537990464429,2.10062087284572,2.20475175639581,FALSE,0.250013134750989
"CAN","cpi",0.2,2007,3,2007,NA,0.5,1.68860730400941,2.28194763079235,2.10062087284572,1.98527746740088,TRUE,0.59334032678294
"CAN","cpi",0.2,2007,3,2006,NA,1,0.950732155435357,1.5440724822183,2.10062087284572,1.24740231882683,FALSE,1.9847113033515
"CAN","cpi",0.2,2007,3,2006,NA,1.5,1.1868487920148,2.02309536779452,2.10062087284572,1.60497207990466,FALSE,1.03006033840773
"CAN","cpi",0.2,2008,3,2008,NA,0,2.99704761254217,3.03830390903912,2.31447335265955,3.01767576079065,FALSE,1.7476919462035
"CAN","cpi",0.2,2008,3,2008,NA,0.5,0.715748199975093,1.35949908422555,2.31447335265955,1.03762364210032,FALSE,3.03118655533547
"CAN","cpi",0.2,2008,3,2007,NA,1,0.992865145868502,1.81295911951386,2.31447335265955,1.40291213269118,FALSE,2.07387955650959
"CAN","cpi",0.2,2008,3,2007,NA,1.5,2.2812243786146,3.11747095439431,2.31447335265955,2.69934766650446,TRUE,0.836246575779715
"CAN","cpi",0.2,2009,3,2009,NA,0,0.301098083085931,0.342354379582881,0.284533874408197,0.321726231334406,FALSE,0.0826668181912836
"CAN","cpi",0.2,2009,3,2009,NA,0.5,-1.64681414496508,-1.00306326071462,0.284533874408197,-1.32493870283985,FALSE,3.8627437220575
"CAN","cpi",0.2,2009,3,2008,NA,1,4.65720190348121,5.49501295486973,0.284533874408197,5.07610742917547,FALSE,11.769481124071
"CAN","cpi",0.2,2009,3,2008,NA,1.5,0.592160064596648,1.42997111598517,0.284533874408197,1.01106559029091,FALSE,1.60687652685965
"CAN","cpi",0.2,2010,3,2010,NA,0,1.71713360993803,1.79151832379045,1.75525687020327,1.75432596686424,TRUE,0.074384713852417
"CAN","cpi",0.2,2010,3,2010,NA,0.5,1.10175587457606,1.88513672553564,1.75525687020327,1.49344630005585,TRUE,0.783380850959581
"CAN","cpi",0.2,2010,3,2009,NA,1,0.656592873451404,1.60361453705205,1.75525687020327,1.13010370525173,FALSE,1.32612749647871
"CAN","cpi",0.2,2010,3,2009,NA,1.5,-2.7327026750675,-1.78568101146686,1.75525687020327,-2.25919184326718,FALSE,9.79936636777596
"CAN","cpi",0.2,2011,3,2011,NA,0,2.88769507531827,2.92895137181522,2.85717434028225,2.90832322356675,FALSE,0.117558134087015
"CAN","cpi",0.2,2011,3,2011,NA,0.5,2.55313978629322,3.07676092658806,2.85717434028225,2.81495035644064,TRUE,0.523621140294845
"CAN","cpi",0.2,2011,3,2010,NA,1,1.73768266498126,2.76222983363311,2.85717434028225,2.24995624930718,FALSE,1.26190843527469
"CAN","cpi",0.2,2011,3,2010,NA,1.5,1.17893859872525,2.2034857673771,2.85717434028225,1.69121218305118,FALSE,2.65876860091471
"CAN","cpi",0.2,2012,3,2012,NA,0,1.48796555864412,1.52922185514107,1.50118536134935,1.50859370689259,TRUE,0.0412562964969503
"CAN","cpi",0.2,2012,3,2012,NA,0.5,1.56290999739302,1.93959530010081,1.50118536134935,1.75125264874692,FALSE,0.530996892816978
"CAN","cpi",0.2,2012,3,2011,NA,1,1.29601111879874,2.39887800271486,1.50118536134935,1.8474445607568,TRUE,1.10286688391612
"CAN","cpi",0.2,2012,3,2011,NA,1.5,2.51782713857269,3.62069402248881,1.50118536134935,3.06926058053075,FALSE,3.64447132697447
"CAN","cpi",0.2,2013,3,2013,NA,0,1.04874760411875,1.06356429520524,0.931270594714462,1.05615594966199,FALSE,0.308509214597206
"CAN","cpi",0.2,2013,3,2013,NA,0.5,0.835836713195391,1.21252201590318,0.931270594714462,1.02417936454929,TRUE,0.376685302707789
"CAN","cpi",0.2,2013,3,2012,NA,1,-0.443689065749809,0.580858102902039,0.931270594714462,0.0685845185761151,FALSE,1.9005783981829
"CAN","cpi",0.2,2013,3,2012,NA,1.5,1.20689600284183,2.23144317149367,0.931270594714462,1.71916958716775,FALSE,1.71361068897026
"CAN","cpi",0.2,2014,3,2014,NA,0,2.05646141040763,2.07127810149412,1.87639912240215,2.06386975595087,FALSE,0.46497241110018
"CAN","cpi",0.2,2014,3,2014,NA,0.5,1.81180870676228,2.04249551765196,1.87639912240215,1.92715211220712,TRUE,0.230686810889683
"CAN","cpi",0.2,2014,3,2013,NA,1,0.56228979243667,1.66515667635279,1.87639912240215,1.11372323439473,FALSE,1.63097299903951
"CAN","cpi",0.2,2014,3,2013,NA,1.5,0.848970440443177,1.9518373243593,1.87639912240215,1.40040388240124,TRUE,1.10286688391612
"CAN","cpi",0.2,2015,3,2015,NA,0,1.29991943586904,1.31473612695553,1.11090953952792,1.30732778141228,FALSE,0.48734143193929
"CAN","cpi",0.2,2015,3,2015,NA,0.5,-0.00965573012923951,0.176161809540407,1.11090953952792,0.0832530397055839,FALSE,2.52268686463842
"CAN","cpi",0.2,2015,3,2014,NA,1,0.892331701308883,1.97554503228486,1.11090953952792,1.43393836679687,TRUE,1.08321333097597
"CAN","cpi",0.2,2015,3,2014,NA,1.5,2.13391678200826,3.21713011298423,1.11090953952792,2.67552344749624,FALSE,3.64073143717682
"CAN","cpi",0.2,2016,3,2016,NA,0,1.47172300468895,1.54610771854137,1.41168586698797,1.50891536161516,FALSE,0.224477558104887
"CAN","cpi",0.2,2016,3,2016,NA,0.5,0.693942972184392,0.879760511854039,1.41168586698797,0.786851742019216,FALSE,1.51563092750446
"CAN","cpi",0.2,2016,3,2015,NA,1,1.65415568848606,2.65904930419776,1.41168586698797,2.15660249634191,FALSE,1.61106816945694
"CAN","cpi",0.2,2016,3,2015,NA,1.5,-0.619667093361601,0.385226522350096,1.41168586698797,-0.117220285505753,FALSE,3.57104197730637
"CAN","cpi",0.2,2017,3,2017,NA,0,1.51162101528146,1.58600572913387,1.57888581671161,1.54881337220766,TRUE,0.074384713852417
"CAN","cpi",0.2,2017,3,2017,NA,0.5,1.82046120934865,2.0062787490183,1.57888581671161,1.91336997918348,FALSE,0.789756021262255
"CAN","cpi",0.2,2017,3,2016,NA,1,0.636255114754483,1.73912199867061,1.57888581671161,1.18768855671255,TRUE,1.10286688391612
"CAN","cpi",0.2,2017,3,2016,NA,1.5,0.113058260881338,1.21592514479746,1.57888581671161,0.6644917028394,FALSE,2.0102685637015
"CAN","cpi",0.2,2018,3,2018,NA,0,2.41515811627367,2.47530300528157,2.23316270166586,2.44523056077762,FALSE,0.515133425527431
"CAN","cpi",0.2,2018,3,2018,NA,0.5,2.70865639385271,2.89447393352235,2.23316270166586,2.80156516368753,FALSE,1.37455177013677
"CAN","cpi",0.2,2018,3,2017,NA,1,0.428993996626803,1.21138851662494,2.23316270166586,0.82019125662587,FALSE,3.33682998260044
"CAN","cpi",0.2,2018,3,2017,NA,1.5,1.9369161593896,2.92821374527173,2.23316270166586,2.43256495233066,TRUE,0.991297585882124
"CAN","cpi",0.2,2019,3,2019,NA,0,2.05482124075102,2.11496612975892,1.91921619871868,2.08489368525497,FALSE,0.399157494088749
"CAN","cpi",0.2,2019,3,2019,NA,0.5,1.37891083606952,1.56472837573916,1.91921619871868,1.47181960590434,FALSE,1.07203709711844
"CAN","cpi",0.2,2019,3,2018,NA,1,1.79004190514223,2.57243642514037,1.91921619871868,2.1812391651413,TRUE,0.782394519998133
"CAN","cpi",0.2,2019,3,2018,NA,1.5,3.11748473034995,4.06947521035177,1.91921619871868,3.59347997035086,FALSE,3.94766180908
"CAN","cpi",0.2,2020,3,2020,NA,0,0.662060796180695,0.722205685188591,0.71139989671781,0.692133240684643,TRUE,0.0601448890078955
"CAN","cpi",0.2,2020,3,2020,NA,0.5,0.962671763776655,1.1484893034463,0.71139989671781,1.05558053361148,FALSE,0.813997207316758
"CAN","cpi",0.2,2020,3,2019,NA,1,1.66861056038587,2.36112895920078,0.71139989671781,2.01486975979332,FALSE,3.08554505798506
"CAN","cpi",0.2,2020,3,2019,NA,1.5,1.04615845015467,2.49922188192009,0.71139989671781,1.77269016603738,FALSE,2.28995981535757
"CAN","cpi",0.2,2021,3,2021,NA,0,3.3548423018676,3.39337561393394,3.31148121717802,3.37410895790077,FALSE,0.146936023790277
"CAN","cpi",0.2,2021,3,2021,NA,0.5,2.588999169966,2.77481670963565,3.31148121717802,2.68190793980083,FALSE,1.52747880852558
"CAN","cpi",0.2,2021,3,2020,NA,1,0.84621546679833,1.53873386561324,3.31148121717802,1.19247466620579,FALSE,5.12438677772687
"CAN","cpi",0.2,2021,3,2020,NA,1.5,0.206198532030415,1.78199651693699,3.31148121717802,0.994097524483704,FALSE,5.39950973550916
"CAN","cpi",0.2,2022,3,2022,NA,0,6.68208138388634,6.74222627289424,6.50977236228281,6.71215382839029,FALSE,0.490917443016721
"CAN","cpi",0.2,2022,3,2022,NA,0.5,6.32863429227075,6.5144518319404,6.50977236228281,6.42154306210558,TRUE,0.185817539669646
"CAN","cpi",0.2,2022,3,2021,NA,1,4.6257353335319,5.31825373234681,6.50977236228281,4.97199453293936,FALSE,3.67131497365491
"CAN","cpi",0.2,2022,3,2021,NA,1.5,2.66911939565025,4.24491738055683,6.50977236228281,3.45701838810354,FALSE,7.23793543922153
"CAN","cpi",0.2,2023,3,2023,NA,0,4.01204939696005,4.07219428596794,3.78831288758619,4.042121841464,FALSE,0.619486162442541
"CAN","cpi",0.2,2023,3,2023,NA,0.5,2.96706315810709,3.15288069777674,3.78831288758619,3.05997192794191,FALSE,1.77439801419328
"CAN","cpi",0.2,2023,3,2022,NA,1,4.93725845721128,5.62977685602619,3.78831288758619,5.28351765661874,FALSE,3.56488232287764
"CAN","cpi",0.2,2023,3,2022,NA,1.5,6.49962817127383,8.07542615618041,3.78831288758619,7.28752716372712,FALSE,8.35408619412567
"CAN","cpi",0.2,2024,3,2023,NA,1,3.98673969924809,4.76913421924622,NA,4.37793695924716,NA,NA
"CAN","cpi",0.2,2024,3,2023,NA,1.5,1.58108084495439,3.15687882986097,NA,2.36897983740768,NA,NA
"CAN","cpi",0.3,1959,3,1959,NA,0,1.09956567987584,1.29402850005587,1.19382698397654,1.19679708996586,TRUE,0.19446282018003
"CAN","cpi",0.3,1959,3,1959,NA,0.5,-0.142289809722522,1.45264179937634,1.19382698397654,0.655175994826909,TRUE,1.59493160909886
"CAN","cpi",0.3,1959,3,1958,NA,1,0.888119044386888,2.63065811193274,1.19382698397654,1.75938857815981,TRUE,1.74253906754585
"CAN","cpi",0.3,1959,3,1958,NA,1.5,-1.20013909021464,4.75007231047364,1.19382698397654,1.7749666101295,TRUE,5.95021140068828
"CAN","cpi",0.3,1960,3,1960,NA,0,0.940705316606379,1.1218996136206,1.34209404870695,1.03130246511349,FALSE,0.8103212544038
"CAN","cpi",0.3,1960,3,1960,NA,0.5,0.206951663982614,1.28425364228188,1.34209404870695,0.745602653132245,FALSE,1.2425602823709
"CAN","cpi",0.3,1960,3,1959,NA,1,2.46460433926145,4.2071434068073,1.34209404870695,3.33587387303437,FALSE,4.94971132627298
"CAN","cpi",0.3,1960,3,1959,NA,1.5,-1.87205970602689,1.22122151745111,1.34209404870695,-0.32541909428789,FALSE,3.4386313127804
"CAN","cpi",0.3,1961,3,1961,NA,0,0.918616332432962,1.09981062944718,1.00921348094007,1.00921348094007,TRUE,0.181194297014219
"CAN","cpi",0.3,1961,3,1961,NA,0.5,0.714919919506586,1.907902710656,1.00921348094007,1.31141131508129,TRUE,1.19298279114941
"CAN","cpi",0.3,1961,3,1960,NA,1,-0.727643628102963,1.01489543944289,1.00921348094007,0.143625905669962,TRUE,1.74253906754585
"CAN","cpi",0.3,1961,3,1960,NA,1.5,-1.88675203589122,1.20652918758678,1.00921348094007,-0.34011142415222,TRUE,3.093281223478
"CAN","cpi",0.3,1962,3,1962,NA,0,1.04533348091192,1.17732648370561,1.04957947883042,1.11132998230876,TRUE,0.13199300279369
"CAN","cpi",0.3,1962,3,1962,NA,0.5,-0.538650989149632,0.538650989149632,1.04957947883042,1.64134322488006e-44,FALSE,2.5370976631015
"CAN","cpi",0.3,1962,3,1961,NA,1,-0.86558757527011,0.86558757527011,1.04957947883042,-9.44308782563385e-19,FALSE,2.25686630356966
"CAN","cpi",0.3,1962,3,1961,NA,1.5,-0.792256363048249,2.30102486042975,1.04957947883042,0.754384248690751,TRUE,3.093281223478
"CAN","cpi",0.3,1963,3,1963,NA,0,1.7942446054083,1.91774561236499,1.60677118395228,1.85599510888664,FALSE,0.659139353973874
"CAN","cpi",0.3,1963,3,1963,NA,0.5,0.335808898062719,1.52879168921213,1.60677118395228,0.932300293637426,FALSE,1.41578134754985
"CAN","cpi",0.3,1963,3,1962,NA,1,1.80189764816716,3.53307279870738,1.60677118395228,2.66748522343727,FALSE,2.28867933401131
"CAN","cpi",0.3,1963,3,1962,NA,1.5,-1.34932490509229,1.34932490509229,1.60677118395228,4.10321927477868e-44,FALSE,3.43421060692742
"CAN","cpi",0.3,1964,3,1964,NA,0,1.92719104221168,2.05069204916837,1.88764670034376,1.98894154569002,FALSE,0.23648484086503
"CAN","cpi",0.3,1964,3,1964,NA,0.5,0.787284431896233,1.98026722304565,1.88764670034376,1.38377582747094,TRUE,1.19298279114941
"CAN","cpi",0.3,1964,3,1963,NA,1,3.8472779537842,5.57845310432442,1.88764670034376,4.71286552905431,FALSE,7.33012158894147
"CAN","cpi",0.3,1964,3,1963,NA,1.5,-1.11054523191997,1.58810457826462,1.88764670034376,0.238779673172327,FALSE,3.55448444469642
"CAN","cpi",0.3,1965,3,1965,NA,0,2.28894860370869,2.42094160650238,2.29538304394236,2.35494510510554,TRUE,0.13199300279369
"CAN","cpi",0.3,1965,3,1965,NA,0.5,1.02179797544775,2.09909995374702,2.29538304394236,1.56044896459738,FALSE,1.63811080742881
"CAN","cpi",0.3,1965,3,1964,NA,1,1.37752784015565,3.47668679781649,2.29538304394236,2.42710731898607,TRUE,2.09915895766083
"CAN","cpi",0.3,1965,3,1964,NA,1.5,-0.531009147189176,2.16764066299541,2.29538304394236,0.818315757903116,FALSE,3.06362804146158
"CAN","cpi",0.3,1966,3,1966,NA,0,3.78489086042176,3.90839186737846,3.72486065470629,3.84664136390011,FALSE,0.295015880429479
"CAN","cpi",0.3,1966,3,1966,NA,0.5,3.30826301315339,4.38556499145265,3.72486065470629,3.84691400230302,TRUE,1.07730197829926
"CAN","cpi",0.3,1966,3,1965,NA,1,2.44809239562703,4.17926754616725,3.72486065470629,3.31367997089714,TRUE,1.73117515054022
"CAN","cpi",0.3,1966,3,1965,NA,1.5,0.132178919042841,2.83082872922742,3.72486065470629,1.48150382413513,FALSE,5.2530267401242
"CAN","cpi",0.3,1967,3,1967,NA,0,3.70687918715307,3.83038019410976,3.49360316391996,3.76862969063141,FALSE,0.732861073337
"CAN","cpi",0.3,1967,3,1967,NA,0.5,1.85787333439656,2.8656150801422,3.49360316391996,2.36174420726938,FALSE,2.80199341368209
"CAN","cpi",0.3,1967,3,1966,NA,1,2.91677686036713,4.04790004873367,3.49360316391996,3.4823384545504,TRUE,1.13112318836654
"CAN","cpi",0.3,1967,3,1966,NA,1.5,2.94325209934393,5.64190190952851,3.49360316391996,4.29257700443622,TRUE,2.69864981018458
"CAN","cpi",0.3,1968,3,1968,NA,0,4.05165250911435,4.17515351607105,3.95128347779386,4.1134030125927,FALSE,0.410269667872397
"CAN","cpi",0.3,1968,3,1968,NA,0.5,3.38837346456651,4.39611521031215,3.95128347779386,3.89224433743933,TRUE,1.00774174574564
"CAN","cpi",0.3,1968,3,1967,NA,1,5.29040552090901,6.42152870927555,3.95128347779386,5.85596711509228,FALSE,4.95718616869555
"CAN","cpi",0.3,1968,3,1967,NA,1.5,1.03685912646085,3.2468827765473,3.95128347779386,2.14187095150408,FALSE,4.22259708221947
"CAN","cpi",0.3,1969,3,1969,NA,0,4.58088014798482,4.70438115494152,4.42679496126681,4.64263065146317,FALSE,0.56374439757957
"CAN","cpi",0.3,1969,3,1969,NA,0.5,2.7597970946365,3.36419276291894,4.42679496126681,3.06199492877772,FALSE,3.64040194927637
"CAN","cpi",0.3,1969,3,1968,NA,1,5.49026219330302,6.62138538166956,4.42679496126681,6.05582378748629,FALSE,4.16960099418427
"CAN","cpi",0.3,1969,3,1968,NA,1.5,2.76726302615,4.97728667623645,4.42679496126681,3.87227485119322,TRUE,2.21002365008646
"CAN","cpi",0.3,1970,3,1970,NA,0,3.52821424576588,3.65171525272257,3.28128405769805,3.58996474924422,FALSE,0.829015830007638
"CAN","cpi",0.3,1970,3,1970,NA,0.5,3.66793182365469,4.67567356940033,3.28128405769805,4.17180269652751,FALSE,2.11244964847892
"CAN","cpi",0.3,1970,3,1969,NA,1,4.87309337046711,6.00421655883365,3.28128405769805,5.43865496465038,FALSE,5.67914979627815
"CAN","cpi",0.3,1970,3,1969,NA,1.5,1.5177534692824,3.11570115031492,3.28128405769805,2.31672730979866,FALSE,2.07104170212716
"CAN","cpi",0.3,1971,3,1971,NA,0,2.7929525528341,2.99554224352663,2.64123406634756,2.89424739818036,FALSE,0.636071080654059
"CAN","cpi",0.3,1971,3,1971,NA,0.5,0.571469066762743,1.57921081250838,2.64123406634756,1.07533993963556,FALSE,4.04209389957186
"CAN","cpi",0.3,1971,3,1970,NA,1,2.11602207606732,3.84719722660754,2.64123406634756,2.98160965133743,TRUE,1.73117515054022
"CAN","cpi",0.3,1971,3,1970,NA,1.5,3.19252585901185,5.12163935481062,2.64123406634756,4.15708260691123,FALSE,3.50423290341102
"CAN","cpi",0.3,1972,3,1972,NA,0,5.00192005167251,5.20450974236504,4.83230569625923,5.10321489701878,FALSE,0.687202134730482
"CAN","cpi",0.3,1972,3,1972,NA,0.5,4.11774206640375,5.03279362308572,4.83230569625923,4.57526784474473,TRUE,0.915051556681968
"CAN","cpi",0.3,1972,3,1971,NA,1,6.10980558680561,7.02485714348758,4.83230569625923,6.5673313651466,FALSE,4.56505124395735
"CAN","cpi",0.3,1972,3,1971,NA,1.5,0.236714177269081,2.16582767306785,4.83230569625923,1.20127092516847,FALSE,9.54762213348842
"CAN","cpi",0.3,1973,3,1973,NA,0,7.2409067819749,7.48446820036255,7.12388603531779,7.36268749116872,FALSE,0.577906408836537
"CAN","cpi",0.3,1973,3,1973,NA,0.5,5.43680415240218,6.35185570908415,7.12388603531779,5.89432993074317,FALSE,3.12085248877808
"CAN","cpi",0.3,1973,3,1972,NA,1,6.91387358204002,7.82892513872198,7.12388603531779,7.371399360381,TRUE,0.915051556681968
"CAN","cpi",0.3,1973,3,1972,NA,1.5,3.53868996492191,5.46780346072068,7.12388603531779,4.50324671282129,FALSE,6.66077799464766
"CAN","cpi",0.3,1974,3,1974,NA,0,10.1601685984241,10.4844076680218,10.2717243737774,10.3222881332229,TRUE,0.324239069597688
"CAN","cpi",0.3,1974,3,1974,NA,0.5,8.42500580043235,9.26925225829504,10.2717243737774,8.8471290293637,FALSE,3.70845250209805
"CAN","cpi",0.3,1974,3,1973,NA,1,10.5663170536059,11.4105635114686,10.2717243737774,10.9884402825372,FALSE,1.68593982880119
"CAN","cpi",0.3,1974,3,1973,NA,1.5,4.71848123475798,7.67261580683647,10.2717243737774,6.19554852079723,FALSE,10.3801590490526
"CAN","cpi",0.3,1975,3,1975,NA,0,10.1429134610421,10.3864748794298,10.0232981493341,10.2646941702359,FALSE,0.585319451839075
"CAN","cpi",0.3,1975,3,1975,NA,0.5,8.79643065312184,9.64067711098453,10.0232981493341,9.21855388205318,FALSE,1.93744942457581
"CAN","cpi",0.3,1975,3,1974,NA,1,11.568391164459,12.4126376223217,10.0232981493341,11.9905143933903,FALSE,5.25879792964804
"CAN","cpi",0.3,1975,3,1974,NA,1.5,7.203024005265,10.1571585773435,10.0232981493341,8.68009129130424,TRUE,2.95413457207848
"CAN","cpi",0.3,1976,3,1976,NA,0,7.09171113842338,7.41595020802107,7.22784311401172,7.25383067322222,TRUE,0.324239069597686
"CAN","cpi",0.3,1976,3,1976,NA,0.5,6.87782192388029,7.95313158821513,7.22784311401172,7.41547675604771,TRUE,1.07530966433484
"CAN","cpi",0.3,1976,3,1975,NA,1,11.3774962259468,12.4528058902817,7.22784311401172,11.9151510581142,FALSE,12.9314614127209
"CAN","cpi",0.3,1976,3,1975,NA,1.5,6.67010852316698,9.35652223922675,7.22784311401172,8.01331538119686,TRUE,2.68641371605976
"CAN","cpi",0.3,1977,3,1977,NA,0,7.45655176211123,7.78079083170891,7.58101410153764,7.61867129691007,TRUE,0.324239069597686
"CAN","cpi",0.3,1977,3,1977,NA,0.5,6.76584086838382,7.27991657141282,7.58101410153764,7.02287871989832,FALSE,1.37435436052849
"CAN","cpi",0.3,1977,3,1976,NA,1,5.46143835495323,6.28379972257152,7.58101410153764,5.87261903876238,FALSE,4.52868816466435
"CAN","cpi",0.3,1977,3,1976,NA,1.5,5.18866970234155,7.11778319814032,7.58101410153764,6.15322645024094,FALSE,3.25263036264826
"CAN","cpi",0.3,1978,3,1978,NA,0,8.51913453765121,8.84337360724889,8.50208927062595,8.68125407245005,FALSE,0.372939832527004
"CAN","cpi",0.3,1978,3,1978,NA,0.5,7.5669520416629,8.68322280494154,8.50208927062595,8.12508742330222,TRUE,1.11627076327865
"CAN","cpi",0.3,1978,3,1977,NA,1,7.9264717597698,9.35990357728943,8.50208927062595,8.64318766852961,TRUE,1.43343181751964
"CAN","cpi",0.3,1978,3,1977,NA,1.5,6.69573262006565,8.62484611586442,8.50208927062595,7.66028936796504,TRUE,1.92911349579877
"CAN","cpi",0.3,1979,3,1979,NA,0,8.44863992929903,8.77287899889672,8.65147652410481,8.61075946409788,TRUE,0.324239069597684
"CAN","cpi",0.3,1979,3,1979,NA,0.5,7.72362650542199,8.47763020006944,8.65147652410481,8.10062835274572,FALSE,1.25070747760564
"CAN","cpi",0.3,1979,3,1978,NA,1,8.86591897592308,10.2993507934427,8.65147652410481,9.5826348846829,FALSE,2.04612453700042
"CAN","cpi",0.3,1979,3,1978,NA,1.5,6.97728169886589,8.90639519466466,8.65147652410481,7.94183844676527,TRUE,1.92911349579877
"CAN","cpi",0.3,1980,3,1980,NA,0,9.48052670805735,9.58165422694836,9.5171912664748,9.53109046750286,TRUE,0.101127518891015
"CAN","cpi",0.3,1980,3,1980,NA,0.5,8.13478797779512,9.23648432051331,9.5171912664748,8.68563614915422,FALSE,1.90371618832243
"CAN","cpi",0.3,1980,3,1979,NA,1,7.60877143290601,9.04220325042565,9.5171912664748,8.32548734166583,FALSE,2.79054043480292
"CAN","cpi",0.3,1980,3,1979,NA,1.5,7.1386711183003,8.82227092362212,9.5171912664748,7.98047102096121,FALSE,3.66908649918661
"CAN","cpi",0.3,1981,3,1981,NA,0,11.668238917516,11.7496730375299,11.5813425032741,11.708955977523,FALSE,0.32970958927639
"CAN","cpi",0.3,1981,3,1981,NA,0.5,11.5755481193859,12.677244462104,11.5813425032741,12.1263962907449,TRUE,1.10169634271818
"CAN","cpi",0.3,1981,3,1980,NA,1,10.268224256543,11.7016560740626,11.5813425032741,10.9849401653028,TRUE,1.43343181751964
"CAN","cpi",0.3,1981,3,1980,NA,1.5,7.66279550475708,9.59190900055585,11.5813425032741,8.62735225265647,FALSE,7.61320921785102
"CAN","cpi",0.3,1982,3,1982,NA,0,10.2702579147593,10.3516920347731,10.1124203763629,10.3109749747662,FALSE,0.532398515431935
"CAN","cpi",0.3,1982,3,1982,NA,0.5,9.55462987452888,10.6447374494705,10.1124203763629,10.0996836619997,TRUE,1.09010757494161
"CAN","cpi",0.3,1982,3,1981,NA,1,11.023077181944,12.2158818578866,10.1124203763629,11.6194795199153,FALSE,3.79468126331698
"CAN","cpi",0.3,1982,3,1981,NA,1.5,11.3762288181144,14.0626425341741,10.1124203763629,12.7194356761443,FALSE,6.29729497820669
"CAN","cpi",0.3,1983,3,1983,NA,0,5.78693034361341,5.86836446362728,5.67091787896303,5.82764740362034,FALSE,0.412898304729226
"CAN","cpi",0.3,1983,3,1983,NA,0.5,4.59843760061958,5.35244129526703,5.67091787896303,4.97543944794331,FALSE,1.66393679092174
"CAN","cpi",0.3,1983,3,1982,NA,1,8.52106805806274,9.95449987558238,5.67091787896303,9.23778396682256,FALSE,9.57671804351881
"CAN","cpi",0.3,1983,3,1982,NA,1.5,8.44549458370865,11.1319082997684,5.67091787896303,9.78870144173853,FALSE,10.6137757296187
"CAN","cpi",0.3,1984,3,1984,NA,0,4.17285831292628,4.25429243294014,4.19799576814029,4.21357537293321,TRUE,0.0814341200138671
"CAN","cpi",0.3,1984,3,1984,NA,0.5,4.09753554316485,5.18764311810646,4.19799576814029,4.64258933063566,TRUE,1.09010757494161
"CAN","cpi",0.3,1984,3,1983,NA,1,5.41466063995236,6.848092457472,4.19799576814029,6.13137654871218,FALSE,4.90961716555413
"CAN","cpi",0.3,1984,3,1983,NA,1.5,2.12511752793919,4.81153124399895,4.19799576814029,3.46832438596907,TRUE,2.68641371605976
"CAN","cpi",0.3,1985,3,1985,NA,0,3.88143606222975,3.95675045297461,3.86444262005169,3.91909325760218,FALSE,0.123867082682163
"CAN","cpi",0.3,1985,3,1985,NA,0.5,3.44690831945502,4.33609544444575,3.86444262005169,3.89150188195039,TRUE,0.889187124990736
"CAN","cpi",0.3,1985,3,1984,NA,1,2.40749161815085,4.18044988138985,3.86444262005169,3.29397074977035,TRUE,1.772958263239
"CAN","cpi",0.3,1985,3,1984,NA,1.5,3.5801312159789,5.3530894792179,3.86444262005169,4.4666103475984,TRUE,1.772958263239
"CAN","cpi",0.3,1986,3,1986,NA,0,4.06823134528347,4.14354573602833,4.08685396749431,4.1058885406559,TRUE,0.0753143907448557
"CAN","cpi",0.3,1986,3,1986,NA,0.5,4.03301221426376,4.78701590891121,4.08685396749431,4.41001406158749,TRUE,0.754003694647452
"CAN","cpi",0.3,1986,3,1985,NA,1,3.13472347931279,4.85135410707603,4.08685396749431,3.99303879319441,TRUE,1.71663062776324
"CAN","cpi",0.3,1986,3,1985,NA,1.5,3.36494792492742,5.08157855269066,4.08685396749431,4.22326323880904,TRUE,1.71663062776324
"CAN","cpi",0.3,1987,3,1987,NA,0,4.33377962559831,4.38575474401933,4.23980729277887,4.35976718480882,FALSE,0.320467497905137
"CAN","cpi",0.3,1987,3,1987,NA,0.5,3.58620311985451,4.23252330804086,4.23980729277887,3.90936321394769,FALSE,0.667131573152089
"CAN","cpi",0.3,1987,3,1986,NA,1,3.73459425354323,4.92739892948587,4.23980729277887,4.33099659151455,TRUE,1.19280467594264
"CAN","cpi",0.3,1987,3,1986,NA,1.5,4.02279983819093,5.48214260253338,4.23980729277887,4.75247122036215,TRUE,1.45934276434244
"CAN","cpi",0.3,1988,3,1988,NA,0,3.97503840615166,4.05035279689651,3.92899537638065,4.01269560152408,FALSE,0.206865904376292
"CAN","cpi",0.3,1988,3,1988,NA,0.5,3.14031188031217,3.80120003797454,3.92899537638065,3.47075595914335,FALSE,1.02601769596557
"CAN","cpi",0.3,1988,3,1987,NA,1,4.01115251466932,5.152096255232,3.92899537638065,4.58162438495066,FALSE,1.37567842138744
"CAN","cpi",0.3,1988,3,1987,NA,1.5,3.10400968598054,4.52328584065961,3.92899537638065,3.81364776332008,TRUE,1.41927615467907
"CAN","cpi",0.3,1989,3,1989,NA,0,4.98323614872414,5.06467026873801,4.82821664544208,5.02395320873108,FALSE,0.524346986534053
"CAN","cpi",0.3,1989,3,1989,NA,0.5,4.03745439962034,4.69834255728271,4.82821664544208,4.36789847845152,FALSE,1.03195698097486
"CAN","cpi",0.3,1989,3,1988,NA,1,3.89115374807819,5.03209748864087,4.82821664544208,4.46162561835953,TRUE,1.14094374056268
"CAN","cpi",0.3,1989,3,1988,NA,1.5,2.6762137985934,3.88054925368681,4.82821664544208,3.27838152614011,FALSE,3.91195657439417
"CAN","cpi",0.3,1990,3,1990,NA,0,4.47891422518874,4.56034834520261,4.64347549432717,4.51963128519567,FALSE,0.318940260369768
"CAN","cpi",0.3,1990,3,1990,NA,0.5,4.65390019115286,5.31478834881523,4.64347549432717,4.98434426998405,FALSE,0.690673005735776
"CAN","cpi",0.3,1990,3,1989,NA,1,5.34727752210976,6.48822126267244,4.64347549432717,5.9177493923911,FALSE,3.15180667708437
"CAN","cpi",0.3,1990,3,1989,NA,1.5,3.95969085633839,5.16402631143179,4.64347549432717,4.56185858388509,TRUE,1.20433545509341
"CAN","cpi",0.3,1991,3,1991,NA,0,5.56941699040399,5.67871826550496,5.4258100696218,5.62406762795447,FALSE,0.519606763050089
"CAN","cpi",0.3,1991,3,1991,NA,0.5,8.06127675950648,8.72216491716885,5.4258100696218,8.39172083833767,FALSE,8.19079298590433
"CAN","cpi",0.3,1991,3,1990,NA,1,3.32760826658666,4.41074406445128,5.4258100696218,3.86917616551897,FALSE,3.9833243840661
"CAN","cpi",0.3,1991,3,1990,NA,1.5,4.58131707961981,5.66445287748444,5.4258100696218,5.12288497855213,TRUE,1.08313579786462
"CAN","cpi",0.3,1992,3,1992,NA,0,1.39690570475848,1.56430615504534,1.47496888572843,1.48060592990191,TRUE,0.167400450286861
"CAN","cpi",0.3,1992,3,1992,NA,0.5,0.841543073584136,1.5024312312465,1.47496888572843,1.17198715241532,TRUE,0.660888157662368
"CAN","cpi",0.3,1992,3,1991,NA,1,2.08354680005645,2.95694376140746,1.47496888572843,2.52024528073196,FALSE,2.61219100228821
"CAN","cpi",0.3,1992,3,1991,NA,1.5,9.71663922852708,10.5900361898781,1.47496888572843,10.1533377092026,FALSE,24.4210265122043
"CAN","cpi",0.3,1993,3,1993,NA,0,1.7479708057061,1.85727208080707,1.84351085411351,1.80262144325658,TRUE,0.109301275100971
"CAN","cpi",0.3,1993,3,1993,NA,0.5,2.01925306149263,2.66557324967899,1.84351085411351,2.34241315558581,FALSE,1.14844078069813
"CAN","cpi",0.3,1993,3,1992,NA,1,1.38136098345034,2.25475794480135,1.84351085411351,1.81805946412584,TRUE,0.87339696135101
"CAN","cpi",0.3,1993,3,1992,NA,1.5,0.703565120350904,1.57696208170191,1.84351085411351,1.14026360102641,FALSE,1.634964882527
"CAN","cpi",0.3,1994,3,1994,NA,0,0.122727217501397,0.204506039215258,0.161630694655448,0.163616628358327,TRUE,0.0817788217138613
"CAN","cpi",0.3,1994,3,1994,NA,0.5,-0.715584176860563,-0.054696019198195,0.161630694655448,-0.385140098029379,FALSE,1.27896448295849
"CAN","cpi",0.3,1994,3,1993,NA,1,1.03998922225772,1.70950534040993,0.161630694655448,1.37474728133383,FALSE,3.17911191130156
"CAN","cpi",0.3,1994,3,1993,NA,1.5,2.26209809403913,2.93161421219135,0.161630694655448,2.59685615311524,FALSE,6.67085154496275
"CAN","cpi",0.3,1995,3,1995,NA,0,2.17452990877134,2.21259905509452,2.11688403676572,2.19356448193293,FALSE,0.202771637767823
"CAN","cpi",0.3,1995,3,1995,NA,0.5,2.34706495659729,3.00795311425965,2.11688403676572,2.67750903542847,FALSE,1.31854792860971
"CAN","cpi",0.3,1995,3,1994,NA,1,1.00616812197587,1.67568424012809,2.11688403676572,1.34092618105198,FALSE,1.93008696568828
"CAN","cpi",0.3,1995,3,1994,NA,1.5,-1.64874227663661,-0.979226158484392,2.11688403676572,-1.3139842175605,FALSE,9.51554524743824
"CAN","cpi",0.3,1996,3,1996,NA,0,1.44117571317028,1.52295453488414,1.55309584667184,1.48206512402721,FALSE,0.167896855393009
"CAN","cpi",0.3,1996,3,1996,NA,0.5,0.905542729921434,1.5664308875838,1.55309584667184,1.23598680875262,TRUE,0.660888157662368
"CAN","cpi",0.3,1996,3,1995,NA,1,0.995076554537363,1.66459267268958,1.55309584667184,1.32983461361347,TRUE,0.669516118152218
"CAN","cpi",0.3,1996,3,1995,NA,1.5,3.09104800042525,3.76056411857747,1.55309584667184,3.42580605950136,FALSE,5.06366512887624
"CAN","cpi",0.3,1997,3,1997,NA,0,1.64961091334171,1.73138973505557,1.60528783555959,1.69050032419864,FALSE,0.208416186805614
"CAN","cpi",0.3,1997,3,1997,NA,0.5,1.8429392339044,2.39664454579395,1.60528783555959,2.11979188984917,FALSE,1.23270930716042
"CAN","cpi",0.3,1997,3,1996,NA,1,0.918388192792135,1.47209350468169,1.60528783555959,1.19524084873691,FALSE,0.934260542969274
"CAN","cpi",0.3,1997,3,1996,NA,1.5,1.05268394755135,1.6585341296907,1.60528783555959,1.35560903862103,TRUE,0.60585018213934
"CAN","cpi",0.3,1998,3,1998,NA,0,0.909057298286892,1.05111874357616,0.988908029337191,0.980088020931525,TRUE,0.142061445289265
"CAN","cpi",0.3,1998,3,1998,NA,0.5,0.973988506859386,1.64757843606545,0.988908029337191,1.31078347146242,TRUE,0.673589929206063
"CAN","cpi",0.3,1998,3,1997,NA,1,0.728912961097748,1.40250289030381,0.988908029337191,1.06570792570078,TRUE,0.673589929206063
"CAN","cpi",0.3,1998,3,1997,NA,1.5,1.91681172806191,2.59040165726797,0.988908029337191,2.25360669266494,FALSE,3.32474335413383
"CAN","cpi",0.3,1999,3,1999,NA,0,1.77622354257451,1.85800236428837,1.7107350135213,1.81711295343144,FALSE,0.268888904723043
"CAN","cpi",0.3,1999,3,1999,NA,0.5,0.451592601121513,1.12518253032758,1.7107350135213,0.788387565724544,FALSE,2.34659702404526
"CAN","cpi",0.3,1999,3,1998,NA,1,0.238571528251094,0.912161457457156,1.7107350135213,0.575366492854125,FALSE,2.95522866081789
"CAN","cpi",0.3,1999,3,1998,NA,1.5,1.35037480250255,2.02396473170861,1.7107350135213,1.68716976710558,TRUE,0.673589929206063
"CAN","cpi",0.3,2000,3,2000,NA,0,2.68910457640804,2.7708833981219,2.6718361971244,2.72999398726497,FALSE,0.131117048238544
"CAN","cpi",0.3,2000,3,2000,NA,0.5,1.73119370965226,2.40478363885833,2.6718361971244,2.06798867425529,FALSE,1.4365972385377
"CAN","cpi",0.3,2000,3,1999,NA,1,2.75472899602003,3.42831892522609,2.6718361971244,3.09152396062306,FALSE,0.910426497479297
"CAN","cpi",0.3,2000,3,1999,NA,1.5,0.506066890661,1.17965681986706,2.6718361971244,0.842861855264031,FALSE,4.93695957851274
"CAN","cpi",0.3,2001,3,2001,NA,0,2.80119524602918,2.88297406774304,2.47906219852806,2.84208465688611,FALSE,1.00215895743133
"CAN","cpi",0.3,2001,3,2001,NA,0.5,1.54551591037224,2.227253461686,2.47906219852806,1.88638468602912,FALSE,1.40119108514823
"CAN","cpi",0.3,2001,3,2000,NA,1,3.34140750131897,4.05437957921132,2.47906219852806,3.69789354026514,FALSE,3.17681580015208
"CAN","cpi",0.3,2001,3,2000,NA,1.5,1.51167598643512,2.22464806432747,2.47906219852806,1.8681620253813,FALSE,1.43986960417976
"CAN","cpi",0.3,2002,3,2002,NA,0,2.33510624610563,2.4168850678195,2.20880570551249,2.37599565696257,FALSE,0.442637509122856
"CAN","cpi",0.3,2002,3,2002,NA,0.5,0.459101973540293,1.36805126183527,2.20880570551249,0.913576617687781,FALSE,3.31110484165845
"CAN","cpi",0.3,2002,3,2001,NA,1,1.48286617670728,2.39181546500226,2.20880570551249,1.93734082085477,TRUE,0.908949288294977
"CAN","cpi",0.3,2002,3,2001,NA,1.5,0.611777841417124,1.83357818771066,2.20880570551249,1.22267801456389,FALSE,2.29387896858447
"CAN","cpi",0.3,2003,3,2003,NA,0,2.69162945285963,2.7734082745735,2.71189071546809,2.73251886371656,TRUE,0.0817788217138613
"CAN","cpi",0.3,2003,3,2003,NA,0.5,3.93157325362918,4.7019404397592,2.71189071546809,4.31675684669419,FALSE,4.25517443801885
"CAN","cpi",0.3,2003,3,2002,NA,1,4.23344050270041,5.00380768883042,2.71189071546809,4.61862409576541,FALSE,5.11765229250806
"CAN","cpi",0.3,2003,3,2002,NA,1.5,0.6623393735825,2.06883387975671,2.71189071546809,1.3655866266696,FALSE,3.24379975106387
"CAN","cpi",0.3,2004,3,2004,NA,0,1.78901659250082,1.87079541421468,1.83151661303942,1.82990600335775,TRUE,0.0817788217138613
"CAN","cpi",0.3,2004,3,2004,NA,0.5,1.04684171808598,1.83281065703328,1.83151661303942,1.43982618755963,TRUE,0.785968938947296
"CAN","cpi",0.3,2004,3,2003,NA,1,0.63648370375449,1.42245264270179,1.83151661303942,1.02946817322814,FALSE,1.95472313991197
"CAN","cpi",0.3,2004,3,2003,NA,1.5,3.94324793815332,5.34974244432753,1.83151661303942,4.64649519124043,FALSE,7.44001257792821
"CAN","cpi",0.3,2005,3,2005,NA,0,2.36391503870988,2.40517133520683,2.18071628336509,2.38454318695835,FALSE,0.564681311767768
"CAN","cpi",0.3,2005,3,2005,NA,0.5,1.14389135400045,2.06844239511271,2.18071628336509,1.60616687455658,FALSE,1.2453335789762
"CAN","cpi",0.3,2005,3,2004,NA,1,1.18954238709817,2.11409342821044,2.18071628336509,1.65181790765431,FALSE,1.11490205583985
"CAN","cpi",0.3,2005,3,2004,NA,1.5,0.776465304526638,2.74872068642383,2.18071628336509,1.76259299547523,TRUE,1.97225538189719
"CAN","cpi",0.3,2006,3,2006,NA,0,2.07819355587008,2.19450913615121,1.97519342012289,2.13635134601064,FALSE,0.410601682415965
"CAN","cpi",0.3,2006,3,2006,NA,0.5,1.32457524821286,2.24912628932512,1.97519342012289,1.78685076876899,TRUE,0.924551041112261
"CAN","cpi",0.3,2006,3,2005,NA,1,3.04257400534463,3.96712504645689,1.97519342012289,3.50484952590076,FALSE,3.97420985603154
"CAN","cpi",0.3,2006,3,2005,NA,1.5,0.857238249863352,2.07903859615689,1.97519342012289,1.46813842301012,TRUE,1.22180034629353
"CAN","cpi",0.3,2007,3,2007,NA,0,2.14659396625524,2.26290954653638,2.10062087284572,2.20475175639581,FALSE,0.247667275736913
"CAN","cpi",0.3,2007,3,2007,NA,0.5,1.59358704192109,2.37696789288067,2.10062087284572,1.98527746740088,TRUE,0.783380850959581
"CAN","cpi",0.3,2007,3,2006,NA,1,0.837355332004148,1.65744930564951,2.10062087284572,1.24740231882683,FALSE,2.08629845134883
"CAN","cpi",0.3,2007,3,2006,NA,1.5,1.09791708279189,2.11202707701743,2.10062087284572,1.60497207990466,TRUE,1.01410999422553
"CAN","cpi",0.3,2008,3,2008,NA,0,2.95951797065008,3.07583355093122,2.31447335265955,3.01767576079065,FALSE,1.95930020311121
"CAN","cpi",0.3,2008,3,2008,NA,0.5,0.645933216620529,1.42931406758011,2.31447335265955,1.03762364210032,FALSE,3.31240737975799
"CAN","cpi",0.3,2008,3,2007,NA,1,0.983224369192518,1.82259989618984,2.31447335265955,1.40291213269118,FALSE,2.24472825976792
"CAN","cpi",0.3,2008,3,2007,NA,1.5,2.20369887356339,3.19499645944552,2.31447335265955,2.69934766650446,TRUE,0.991297585882124
"CAN","cpi",0.3,2009,3,2009,NA,0,0.263568441193836,0.379884021474975,0.284533874408197,0.321726231334406,TRUE,0.116315580281139
"CAN","cpi",0.3,2009,3,2009,NA,0.5,-1.71662912831964,-0.933248277360058,0.284533874408197,-1.32493870283985,FALSE,4.26275842744031
"CAN","cpi",0.3,2009,3,2008,NA,1,4.56383384484954,5.58838101350139,0.284533874408197,5.07610742917547,FALSE,13.25111851277
"CAN","cpi",0.3,2009,3,2008,NA,1.5,0.498792005964984,1.52333917461683,0.284533874408197,1.01106559029091,FALSE,1.6367132588141
"CAN","cpi",0.3,2010,3,2010,NA,0,1.69616817672367,1.81248375700481,1.75525687020327,1.75432596686424,TRUE,0.116315580281139
"CAN","cpi",0.3,2010,3,2010,NA,0.5,0.918896891247341,2.06799570886436,1.75525687020327,1.49344630005585,TRUE,1.14909881761702
"CAN","cpi",0.3,2010,3,2009,NA,1,0.481255088875552,1.7789523216279,1.75525687020327,1.13010370525173,TRUE,1.29769723275235
"CAN","cpi",0.3,2010,3,2009,NA,1.5,-2.90804045964335,-1.610343226891,1.75525687020327,-2.25919184326718,FALSE,10.9136975101646
"CAN","cpi",0.3,2011,3,2011,NA,0,2.87113086664054,2.94551558049296,2.85717434028225,2.90832322356675,FALSE,0.114260503447539
"CAN","cpi",0.3,2011,3,2011,NA,0.5,2.42325993096085,3.20664078192043,2.85717434028225,2.81495035644064,TRUE,0.783380850959581
"CAN","cpi",0.3,2011,3,2010,NA,1,1.68385216827503,2.81606033033934,2.85717434028225,2.24995624930718,FALSE,1.24967676190119
"CAN","cpi",0.3,2011,3,2010,NA,1.5,1.12510810201902,2.25731626408333,2.85717434028225,1.69121218305118,FALSE,2.84608837977549
"CAN","cpi",0.3,2012,3,2012,NA,0,1.47140134996638,1.5457860638188,1.50118536134935,1.50859370689259,TRUE,0.074384713852417
"CAN","cpi",0.3,2012,3,2012,NA,0.5,1.48944207859949,2.01306321889434,1.50118536134935,1.75125264874692,TRUE,0.523621140294846
"CAN","cpi",0.3,2012,3,2011,NA,1,1.28134047972465,2.41354864178896,1.50118536134935,1.8474445607568,TRUE,1.13220816206431
"CAN","cpi",0.3,2012,3,2011,NA,1.5,2.50315649949859,3.6353646615629,1.50118536134935,3.06926058053075,FALSE,3.99498284249073
"CAN","cpi",0.3,2013,3,2013,NA,0,1.03552780141352,1.07678409791047,0.931270594714462,1.05615594966199,FALSE,0.339134029922826
"CAN","cpi",0.3,2013,3,2013,NA,0.5,0.774112077151715,1.27424665194686,0.931270594714462,1.02417936454929,TRUE,0.50013457479514
"CAN","cpi",0.3,2013,3,2012,NA,1,-0.488552025467799,0.625721062620029,0.931270594714462,0.0685845185761151,FALSE,1.98727175121478
"CAN","cpi",0.3,2013,3,2012,NA,1.5,1.16203304312384,2.27630613121167,0.931270594714462,1.71916958716775,FALSE,1.77359436925747
"CAN","cpi",0.3,2014,3,2014,NA,0,2.0432416077024,2.08449790419935,1.87639912240215,2.06386975595087,FALSE,0.517949111640509
"CAN","cpi",0.3,2014,3,2014,NA,0.5,1.73880946085322,2.11549476356101,1.87639912240215,1.92715211220712,TRUE,0.376685302707789
"CAN","cpi",0.3,2014,3,2013,NA,1,0.547619153362575,1.67982731542689,1.87639912240215,1.11372323439473,FALSE,1.69384189627935
"CAN","cpi",0.3,2014,3,2013,NA,1.5,0.834299801369082,1.9665079634334,1.87639912240215,1.40040388240124,TRUE,1.13220816206431
"CAN","cpi",0.3,2015,3,2015,NA,0,1.27013542448607,1.34452013833849,1.11090953952792,1.30732778141228,FALSE,0.529315813732864
"CAN","cpi",0.3,2015,3,2015,NA,0.5,-0.0320903657392575,0.198596445150425,1.11090953952792,0.0832530397055839,FALSE,2.83729565196823
"CAN","cpi",0.3,2015,3,2014,NA,1,0.873537387850565,1.99433934574317,1.11090953952792,1.43393836679687,TRUE,1.12080195789261
"CAN","cpi",0.3,2015,3,2014,NA,1.5,2.11512246854994,3.23592442644255,1.11090953952792,2.67552344749624,FALSE,3.98998175509838
"CAN","cpi",0.3,2016,3,2016,NA,0,1.45776647833066,1.56006424489966,1.41168586698797,1.50891536161516,FALSE,0.233956656119561
"CAN","cpi",0.3,2016,3,2016,NA,0.5,0.671508336574374,0.902195147464057,1.41168586698797,0.786851742019216,FALSE,1.68637458095799
"CAN","cpi",0.3,2016,3,2015,NA,1,1.60516905438385,2.70803593829997,1.41168586698797,2.15660249634191,FALSE,1.6556759907615
"CAN","cpi",0.3,2016,3,2015,NA,1.5,-0.668653727463815,0.434213156452309,1.41168586698797,-0.117220285505753,FALSE,3.89564605687514
"CAN","cpi",0.3,2017,3,2017,NA,0,1.49766448892316,1.59996225549216,1.57888581671161,1.54881337220766,TRUE,0.102297766569002
"CAN","cpi",0.3,2017,3,2017,NA,0.5,1.79802657373864,2.02871338462832,1.57888581671161,1.91336997918348,FALSE,0.856803259538326
"CAN","cpi",0.3,2017,3,2016,NA,1,0.621584475680388,1.7537926377447,1.57888581671161,1.18768855671255,TRUE,1.13220816206431
"CAN","cpi",0.3,2017,3,2016,NA,1.5,0.0983876218072431,1.23059578387156,1.57888581671161,0.6644917028394,FALSE,2.12732254160733
"CAN","cpi",0.3,2018,3,2018,NA,0,2.40803820385141,2.48242291770383,2.23316270166586,2.44523056077762,FALSE,0.574029005811141
"CAN","cpi",0.3,2018,3,2018,NA,0.5,2.68622175824269,2.91690856913237,2.23316270166586,2.80156516368753,FALSE,1.52514125825206
"CAN","cpi",0.3,2018,3,2017,NA,1,0.212973165650808,1.42740934760093,2.23316270166586,0.82019125662587,FALSE,3.51658862213563
"CAN","cpi",0.3,2018,3,2017,NA,1.5,1.70603323644795,3.15909666821337,2.23316270166586,2.43256495233066,TRUE,1.45306343176542
"CAN","cpi",0.3,2019,3,2019,NA,0,2.04770132832876,2.12208604218118,1.91921619871868,2.08489368525497,FALSE,0.441485084166933
"CAN","cpi",0.3,2019,3,2019,NA,0.5,1.22175231850677,1.72188689330191,1.91921619871868,1.47181960590434,FALSE,1.06393259027163
"CAN","cpi",0.3,2019,3,2018,NA,1,1.57402107416624,2.78845725611636,1.91921619871868,2.1812391651413,TRUE,1.21443618195012
"CAN","cpi",0.3,2019,3,2018,NA,1.5,2.86694825446815,4.32001168623357,1.91921619871868,3.59347997035086,FALSE,4.16086930533534
"CAN","cpi",0.3,2020,3,2020,NA,0,0.654940883758435,0.729325597610851,0.71139989671781,0.692133240684643,TRUE,0.074384713852417
"CAN","cpi",0.3,2020,3,2020,NA,0.5,0.805513246213908,1.30564782100905,0.71139989671781,1.05558053361148,FALSE,0.769029859069705
"CAN","cpi",0.3,2020,3,2019,NA,1,1.62367249979426,2.40606701979239,0.71139989671781,2.01486975979332,FALSE,3.38888767164512
"CAN","cpi",0.3,2020,3,2019,NA,1.5,0.984791173584093,2.56058915849067,0.71139989671781,1.77269016603738,FALSE,2.35691591881024
"CAN","cpi",0.3,2021,3,2021,NA,0,3.34403651339682,3.40418140240472,3.31148121717802,3.37410895790077,FALSE,0.153160021061601
"CAN","cpi",0.3,2021,3,2021,NA,0.5,2.43184065240326,2.9319752271984,3.31148121717802,2.68190793980083,FALSE,1.58443740330836
"CAN","cpi",0.3,2021,3,2020,NA,1,0.801277406206719,1.58367192620485,3.31148121717802,1.19247466620579,FALSE,5.71899249420719
"CAN","cpi",0.3,2021,3,2020,NA,1.5,0.0797034106114927,1.90849163835592,3.31148121717802,0.994097524483704,FALSE,5.83732988152188
"CAN","cpi",0.3,2022,3,2022,NA,0,6.66100494510579,6.76330271167479,6.50977236228281,6.71215382839029,FALSE,0.534390860348936
"CAN","cpi",0.3,2022,3,2022,NA,0.5,6.17147577470801,6.67161034950315,6.50977236228281,6.42154306210558,TRUE,0.50013457479514
"CAN","cpi",0.3,2022,3,2021,NA,1,4.58079727294029,5.36319179293842,6.50977236228281,4.97199453293936,FALSE,4.05833900383924
"CAN","cpi",0.3,2022,3,2021,NA,1.5,2.54262427423133,4.37141250197575,6.50977236228281,3.45701838810354,FALSE,7.93838782862173
"CAN","cpi",0.3,2023,3,2023,NA,0,3.97949410074125,4.10474958218674,3.78831288758619,4.042121841464,FALSE,0.671487519031379
"CAN","cpi",0.3,2023,3,2023,NA,0.5,2.80990464054434,3.31003921533948,3.78831288758619,3.05997192794191,FALSE,1.86663078121431
"CAN","cpi",0.3,2023,3,2022,NA,1,4.89232039661967,5.67471491661781,3.78831288758619,5.28351765661874,FALSE,3.93670168866522
"CAN","cpi",0.3,2023,3,2022,NA,1.5,6.37313304985491,8.20192127759933,3.78831288758619,7.28752716372712,FALSE,9.21398869136932
"CAN","cpi",0.3,2024,3,2023,NA,1,3.63302032989321,5.1228535886011,NA,4.37793695924716,NA,NA
"CAN","cpi",0.3,2024,3,2023,NA,1.5,1.45458572353547,3.28337395127989,NA,2.36897983740768,NA,NA
"CAN","cpi",0.4,1959,3,1959,NA,0,1.0888703643502,1.30472381558152,1.19382698397654,1.19679708996586,TRUE,0.215853451231313
"CAN","cpi",0.4,1959,3,1959,NA,0.5,-0.204237303908421,1.51458929356224,1.19382698397654,0.655175994826909,TRUE,1.71882659747066
"CAN","cpi",0.4,1959,3,1958,NA,1,-0.246947230484821,3.76572438680445,1.19382698397654,1.75938857815981,TRUE,4.01267161728927
"CAN","cpi",0.4,1959,3,1958,NA,1.5,-1.22811123413139,4.77804445439039,1.19382698397654,1.7749666101295,TRUE,6.00615568852179
"CAN","cpi",0.4,1960,3,1960,NA,0,0.934071055023473,1.1285338752035,1.34209404870695,1.03130246511349,FALSE,0.906330065191523
"CAN","cpi",0.4,1960,3,1960,NA,0.5,-0.0518631514171863,1.54306845768168,1.34209404870695,0.745602653132245,TRUE,1.59493160909886
"CAN","cpi",0.4,1960,3,1959,NA,1,1.32953806438974,5.34220968167901,1.34209404870695,3.33587387303437,TRUE,4.01267161728927
"CAN","cpi",0.4,1960,3,1959,NA,1.5,-3.30052479463203,2.64968660605625,1.34209404870695,-0.32541909428789,TRUE,5.95021140068828
"CAN","cpi",0.4,1961,3,1961,NA,0,0.901286755324415,1.11714020655573,1.00921348094007,1.00921348094007,TRUE,0.215853451231313
"CAN","cpi",0.4,1961,3,1961,NA,0.5,0.51394551053186,2.10887711963072,1.00921348094007,1.31141131508129,TRUE,1.59493160909886
"CAN","cpi",0.4,1961,3,1960,NA,1,-1.68702057799117,1.97427238933109,1.00921348094007,0.143625905669962,TRUE,3.66129296732226
"CAN","cpi",0.4,1961,3,1960,NA,1.5,-2.17075790781335,1.49053505950891,1.00921348094007,-0.34011142415222,TRUE,3.66129296732226
