isdrw/probabilistic-benchmark-forecasts/results/bayesian_quantile_regression/5000Samples/bqr_prediction_rw_2026-02-27_15-10-24.csv
"country","target","tau","target_year","target_quarter","forecast_year","forecast_quarter","horizon","lower_bound","upper_bound","truth_value","prediction","covered","IS"
"CAN","cpi",0.1,1952,3,1952,NA,0,-23.9048753339692,-25.3072708482549,2.55562336095485,2.49651395855886,FALSE,60.515147172847
"CAN","cpi",0.1,1952,3,1952,NA,0.5,-9.1061278636669,-10.5085233779526,2.55562336095485,3.9078404779387,FALSE,27.6290416832864
"CAN","cpi",0.1,1952,3,1951,NA,1,8.93883107361692,7.53643555933127,2.55562336095485,8.88778808098424,FALSE,12.7825105138523
"CAN","cpi",0.1,1952,3,1951,NA,1.5,-29.1746264415705,-30.5770219558561,2.55562336095485,10.076419411745,FALSE,72.2257051897387
"CAN","cpi",0.1,1953,3,1953,NA,0,-0.472077053820573,-1.18207731119609,-1.01492775838436,-0.954275034924989,FALSE,0.867778092347858
"CAN","cpi",0.1,1953,3,1953,NA,0.5,-16.6540756470388,-17.269390629625,-1.01492775838436,-2.19876634474816,FALSE,35.5057136201708
"CAN","cpi",0.1,1953,3,1952,NA,1,-14.5208115072696,-14.8670046936787,-1.01492775838436,-1.18145267469342,FALSE,30.4362000031338
"CAN","cpi",0.1,1953,3,1952,NA,1.5,-17.5471061645889,-17.4360414968365,-1.01492775838436,0.93216905581622,FALSE,36.6024285309793
"CAN","cpi",0.1,1954,3,1954,NA,0,0.915567695561333,0.68689906415629,0.644425455961438,0.879731201855888,FALSE,0.373869678816946
"CAN","cpi",0.1,1954,3,1954,NA,0.5,1.28735655371193,1.05868792230689,0.644425455961438,-0.358875738913824,FALSE,1.20006714137382
"CAN","cpi",0.1,1954,3,1953,NA,1,11.3252523023159,11.0965836709108,0.644425455961438,3.38326531029323,FALSE,23.5065021382714
"CAN","cpi",0.1,1954,3,1953,NA,1.5,-7.19123884258285,-5.75772918335944,0.644425455961438,-2.85717744192413,FALSE,15.6605199688254
"CAN","cpi",0.1,1955,3,1955,NA,0,0.456487861161247,0.493375841002339,0.173649026558865,0.115254687233858,FALSE,0.66541872340194
"CAN","cpi",0.1,1955,3,1955,NA,0.5,-1.00146431374365,-0.936204298833624,0.173649026558865,-0.770970046821609,FALSE,2.53160073800445
"CAN","cpi",0.1,1955,3,1954,NA,1,8.90080374736119,9.82769179137633,0.173649026558865,3.47019599757395,FALSE,20.3205652013536
"CAN","cpi",0.1,1955,3,1954,NA,1.5,-10.7622956315409,-9.8354075875258,0.173649026558865,-1.89562740163941,FALSE,23.1692360753144
"CAN","cpi",0.1,1956,3,1956,NA,0,1.05480551458208,1.03146889130154,1.32752769429961,1.56059797998755,FALSE,0.634571827826272
"CAN","cpi",0.1,1956,3,1956,NA,0.5,-0.342997493952413,-0.366334117232955,1.32752769429961,-0.709146002056511,FALSE,3.74080073568071
"CAN","cpi",0.1,1956,3,1955,NA,1,1.76030129539574,2.06782560536247,1.32752769429961,0.884549626974225,FALSE,1.2692434235137
"CAN","cpi",0.1,1956,3,1955,NA,1.5,-6.57892383919385,-6.27139952922712,1.32752769429961,-1.89150615642833,FALSE,17.1940292511372
"CAN","cpi",0.1,1957,3,1957,NA,0,1.90686830781418,2.06210316553867,3.24684755852518,3.4151370317006,FALSE,2.78800017547228
"CAN","cpi",0.1,1957,3,1957,NA,0.5,3.51688534120572,4.20325894845364,3.24684755852518,2.23982631608766,FALSE,1.28645756876024
"CAN","cpi",0.1,1957,3,1956,NA,1,10.6407807045633,12.4370284558134,3.24684755852518,6.98754636690555,FALSE,18.2272102980014
"CAN","cpi",0.1,1957,3,1956,NA,1.5,-11.1814052682631,-9.38515751701295,3.24684755852518,-1.88668623310337,FALSE,29.8673701413348
"CAN","cpi",0.1,1958,3,1958,NA,0,1.81212860590011,1.89991722389667,2.33186388641149,2.22387249143335,FALSE,1.04767009025172
"CAN","cpi",0.1,1958,3,1958,NA,0.5,3.98293148108862,4.56122156563423,2.33186388641149,2.22839060734872,FALSE,4.24732918382812
"CAN","cpi",0.1,1958,3,1957,NA,1,2.63554787536552,4.00120349639901,2.33186388641149,4.42088197051908,FALSE,2.04050892982022
"CAN","cpi",0.1,1958,3,1957,NA,1.5,-12.5878869783398,-11.2222313573063,2.33186388641149,0.91301479707402,FALSE,31.4858672737396
"CAN","cpi",0.1,1959,3,1959,NA,0,1.28890552893929,1.36129190044613,1.19382698397654,1.24991216431293,FALSE,0.283672026979612
"CAN","cpi",0.1,1959,3,1959,NA,0.5,1.62871672338333,1.89741025122687,1.19382698397654,0.437839731590327,FALSE,1.23511517096975
"CAN","cpi",0.1,1959,3,1958,NA,1,0.183339057786505,0.83622216440597,1.19382698397654,1.75862762885946,FALSE,1.44756048344296
"CAN","cpi",0.1,1959,3,1958,NA,1.5,-7.22286648018834,-6.56998337356887,1.19382698397654,1.77407172713766,FALSE,17.9057950122759
"CAN","cpi",0.1,1960,3,1960,NA,0,0.949413535541843,1.00477974092947,1.34209404870695,1.02361304259477,FALSE,0.804953556004258
"CAN","cpi",0.1,1960,3,1960,NA,0.5,1.48900699127103,1.6674590593041,1.34209404870695,0.53898348018166,FALSE,0.50492527373103
"CAN","cpi",0.1,1960,3,1959,NA,1,3.80145688958444,4.60530092137143,1.34209404870695,3.95759373689442,FALSE,6.26909478929253
"CAN","cpi",0.1,1960,3,1959,NA,1.5,-5.51841475047609,-4.7145707186891,1.34209404870695,-0.873476815404885,FALSE,14.2630990704449
"CAN","cpi",0.1,1961,3,1961,NA,0,1.00116317711955,1.07798172862953,1.00921348094007,1.00921348094007,TRUE,0.0768185515099864
"CAN","cpi",0.1,1961,3,1961,NA,0.5,1.96262502668065,2.16560438659435,1.00921348094007,1.00921348094007,FALSE,2.32167168378166
"CAN","cpi",0.1,1961,3,1960,NA,1,-0.643240571675088,-0.440261211761386,1.00921348094007,0.0537704626035329,FALSE,3.42403423258361
"CAN","cpi",0.1,1961,3,1960,NA,1.5,-5.19705308106906,-4.83568634352229,1.00921348094007,-0.862181798940035,FALSE,13.3500330141298
"CAN","cpi",0.1,1962,3,1962,NA,0,0.976563016918027,1.03492175406455,1.04957947883042,1.10232402731478,FALSE,0.0909314588484405
"CAN","cpi",0.1,1962,3,1962,NA,0.5,0.874512598546052,0.974990458539646,1.04957947883042,0,FALSE,0.266231238417525
"CAN","cpi",0.1,1962,3,1961,NA,1,-0.19090865687976,-0.0337927612368751,1.04957947883042,0,FALSE,2.56460976245909
"CAN","cpi",0.1,1962,3,1961,NA,1.5,-2.97452217163887,-2.73158985849188,1.04957947883042,0,FALSE,8.64553084052987
"CAN","cpi",0.1,1963,3,1963,NA,0,1.28504792142962,1.36030029320424,1.60677118395228,1.91491729531202,FALSE,0.622965462325827
"CAN","cpi",0.1,1963,3,1963,NA,0.5,1.66193445055237,1.81094228121791,1.60677118395228,0.836828714617504,FALSE,0.271592867554625
"CAN","cpi",0.1,1963,3,1962,NA,1,2.13602855696198,2.49166119839105,1.60677118395228,2.56411490415144,FALSE,1.53176013700617
"CAN","cpi",0.1,1963,3,1962,NA,1.5,-2.18716422053887,-1.83153157910979,1.60677118395228,0,FALSE,7.99630544823368
"CAN","cpi",0.1,1964,3,1964,NA,0,1.42136407807591,1.49497906257743,1.88764670034376,1.98877256446048,FALSE,0.94620973509337
"CAN","cpi",0.1,1964,3,1964,NA,0.5,2.30825650355967,2.45640053628532,1.88764670034376,1.38369006227607,FALSE,1.08283248431657
"CAN","cpi",0.1,1964,3,1963,NA,1,4.36306653618176,4.70850139173231,1.88764670034376,5.39044290347256,FALSE,5.84636782407945
"CAN","cpi",0.1,1964,3,1963,NA,1.5,-2.37844567520766,-2.03301081965711,1.88764670034376,0,FALSE,9.05800712221915
"CAN","cpi",0.1,1965,3,1965,NA,0,1.60793592776985,1.67672068042284,2.29538304394236,2.34557047418999,FALSE,1.44359000491859
"CAN","cpi",0.1,1965,3,1965,NA,0.5,2.55667656392208,2.72882059570403,2.29538304394236,1.61079447956654,FALSE,0.752796298403553
"CAN","cpi",0.1,1965,3,1964,NA,1,1.93170239861323,2.11657446030978,2.29538304394236,2.42518862179847,FALSE,0.58222446976895
"CAN","cpi",0.1,1965,3,1964,NA,1.5,-1.40139815535485,-1.2165260936583,2.29538304394236,0.818102552316399,FALSE,7.98911458969802
"CAN","cpi",0.1,1966,3,1966,NA,0,2.2411529083484,2.34684655158686,3.72486065470629,3.82010987863709,FALSE,3.16794720572608
"CAN","cpi",0.1,1966,3,1966,NA,0.5,4.60247688106763,4.82818795006619,3.72486065470629,3.99123398895563,FALSE,2.17596934980153
"CAN","cpi",0.1,1966,3,1965,NA,1,2.64458240015074,2.8702934691493,3.72486065470629,3.20722068745854,FALSE,2.12474925912521
"CAN","cpi",0.1,1966,3,1965,NA,1.5,-0.677261263699687,-0.451550194701131,3.72486065470629,1.60663824631958,FALSE,9.50662406768172
"CAN","cpi",0.1,1967,3,1967,NA,0,2.58392459301225,2.67944551871239,3.49360316391996,3.76768849328632,FALSE,1.90476013727253
"CAN","cpi",0.1,1967,3,1967,NA,0.5,3.80631782627049,4.01275483087578,3.49360316391996,2.4074547441976,FALSE,0.90135847649535
"CAN","cpi",0.1,1967,3,1966,NA,1,2.5390311704429,3.05330519316929,3.49360316391996,3.18103323070284,FALSE,1.49271395772788
"CAN","cpi",0.1,1967,3,1966,NA,1.5,1.89134796986515,2.40562199259154,3.49360316391996,4.65128160487248,FALSE,2.93200995901177
"CAN","cpi",0.1,1968,3,1968,NA,0,2.66493897669824,2.75696478767726,3.95128347779386,4.17287945672396,FALSE,2.74606734457147
"CAN","cpi",0.1,1968,3,1968,NA,0.5,5.03155529818347,5.32732971652459,3.95128347779386,4.07097205779852,FALSE,2.69637846365138
"CAN","cpi",0.1,1968,3,1967,NA,1,5.17537951614175,5.7816868600174,3.95128347779386,5.84521682123848,FALSE,3.32652076242653
"CAN","cpi",0.1,1968,3,1967,NA,1.5,0.445108757732611,1.05141610160826,3.95128347779386,2.25565858240226,FALSE,7.05045706873253
"CAN","cpi",0.1,1969,3,1969,NA,0,2.90425556053036,3.02067330761872,4.42679496126681,4.59520664360618,FALSE,3.24113253297302
"CAN","cpi",0.1,1969,3,1969,NA,0.5,4.33534084929102,4.6110605811727,4.42679496126681,2.96612019395715,TRUE,0.275719731881683
"CAN","cpi",0.1,1969,3,1968,NA,1,5.85761354342284,6.76484658957991,4.42679496126681,6.72487630040807,FALSE,4.08682989539268
"CAN","cpi",0.1,1969,3,1968,NA,1.5,3.09003122040475,3.99726426656182,4.42679496126681,4.31664452944541,FALSE,1.86174570105705
"CAN","cpi",0.1,1970,3,1970,NA,0,2.67060749417447,2.75997154730435,3.28128405769805,3.60761538249925,FALSE,1.2478362984492
"CAN","cpi",0.1,1970,3,1970,NA,0.5,5.65163043339191,5.99067806966861,3.28128405769805,4.36016077421692,FALSE,5.6064840267075
"CAN","cpi",0.1,1970,3,1969,NA,1,4.07158371404142,4.88357482301459,3.28128405769805,4.91369447805135,FALSE,2.56821256751401
"CAN","cpi",0.1,1970,3,1969,NA,1.5,0.496068893012679,1.30806000198585,3.28128405769805,2.07973847283129,FALSE,5.19693345500028
"CAN","cpi",0.1,1971,3,1971,NA,0,2.13912029740234,2.222600183162,2.64123406634756,2.91872900980337,FALSE,1.0137774039498
"CAN","cpi",0.1,1971,3,1971,NA,0.5,2.83571410962118,3.01534816067753,2.64123406634756,1.38357105636307,FALSE,0.611811924997718
"CAN","cpi",0.1,1971,3,1970,NA,1,2.77730017140763,3.39634478751178,2.64123406634756,3.17686610979278,FALSE,0.92141373845986
"CAN","cpi",0.1,1971,3,1970,NA,1.5,4.85176582960282,5.7551414856491,2.64123406634756,4.62066312326275,FALSE,5.81566846328019
"CAN","cpi",0.1,1972,3,1972,NA,0,2.78148285914763,2.88092518917332,4.83230569625923,5.17210692165851,FALSE,4.43584345688327
"CAN","cpi",0.1,1972,3,1972,NA,0.5,5.28741896796659,5.71138803790142,4.83230569625923,4.76224255478946,FALSE,1.43533189595118
"CAN","cpi",0.1,1972,3,1971,NA,1,6.44980177204177,7.30129572407197,4.83230569625923,6.83863498061675,FALSE,4.4459296759914
"CAN","cpi",0.1,1972,3,1971,NA,1.5,1.74703198495353,2.59852593698373,4.83230569625923,1.95441162589064,FALSE,5.81544897264242
"CAN","cpi",0.1,1973,3,1973,NA,0,4.11632517286263,4.25797734966629,7.12388603531779,7.41057825703995,FALSE,6.51033814491811
"CAN","cpi",0.1,1973,3,1973,NA,0.5,7.22176920794557,7.65917439405765,7.12388603531779,6.24191401313708,FALSE,0.654923347507143
"CAN","cpi",0.1,1973,3,1972,NA,1,7.28320948824999,8.49807760003021,7.12388603531779,8.12590883681935,FALSE,1.56892022940732
"CAN","cpi",0.1,1973,3,1972,NA,1.5,5.38459380579767,6.59946191757789,7.12388603531779,4.96130694391223,FALSE,2.38025504009111
"CAN","cpi",0.1,1974,3,1974,NA,0,5.69727450697766,5.88794774772648,10.2717243737774,10.2919804098732,FALSE,9.93239907641758
"CAN","cpi",0.1,1974,3,1974,NA,0.5,10.3267887610607,11.0651938622479,10.2717243737774,9.01679902243293,FALSE,0.860770406261073
"CAN","cpi",0.1,1974,3,1973,NA,1,9.90325890873884,11.4691608299856,10.2717243737774,11.5076386824751,TRUE,1.5659019212468
"CAN","cpi",0.1,1974,3,1973,NA,1.5,8.16368719596622,10.3637152365182,10.2717243737774,7.03851017911898,TRUE,2.20002804055196
"CAN","cpi",0.1,1975,3,1975,NA,0,6.36182807985055,6.59441611846681,10.0232981493341,10.3166994702432,FALSE,7.85232588498806
"CAN","cpi",0.1,1975,3,1975,NA,0.5,11.4868475360266,12.4429106063725,10.0232981493341,8.87817825771755,FALSE,4.20839504077364
"CAN","cpi",0.1,1975,3,1974,NA,1,8.40884349883218,9.87595978200543,10.0232981493341,11.6634485116586,FALSE,1.79453487723701
"CAN","cpi",0.1,1975,3,1974,NA,1.5,10.4684915338122,12.835525449289,10.0232981493341,9.09165939347615,FALSE,3.35635254765022
"CAN","cpi",0.1,1976,3,1976,NA,0,5.30285262394576,5.51460686477231,7.22784311401172,7.25911367403926,FALSE,4.01894590580301
"CAN","cpi",0.1,1976,3,1976,NA,0.5,10.0408716216221,10.9772293099275,7.22784311401172,7.22502565269042,FALSE,7.18753214966184
"CAN","cpi",0.1,1976,3,1975,NA,1,7.71553732851294,8.96424580654398,7.22784311401172,12.4780790437784,FALSE,2.33247339914487
"CAN","cpi",0.1,1976,3,1975,NA,1.5,6.35097033601403,7.59967881404507,7.22784311401172,7.18586013837568,TRUE,1.24870847803104
"CAN","cpi",0.1,1977,3,1977,NA,0,4.69280446459239,4.86599379436809,7.58101410153764,7.59139014959698,FALSE,6.20656779015249
"CAN","cpi",0.1,1977,3,1977,NA,0.5,9.0616078892629,9.84580730797857,7.58101410153764,7.25038656554249,FALSE,4.07440783588291
"CAN","cpi",0.1,1977,3,1976,NA,1,3.48517114631472,4.26937056503038,7.58101410153764,5.92994518665441,FALSE,8.14340727762068
"CAN","cpi",0.1,1977,3,1976,NA,1.5,5.32138309039747,7.08347091270041,7.58101410153764,5.68954314963938,FALSE,2.86773935305236
"CAN","cpi",0.1,1978,3,1978,NA,0,5.15078223939892,5.34520350895194,8.50208927062595,8.68881076810062,FALSE,7.20972296216192
"CAN","cpi",0.1,1978,3,1978,NA,0.5,9.91049684566254,10.654472496713,8.50208927062595,8.11208508764938,FALSE,3.87377026224289
"CAN","cpi",0.1,1978,3,1977,NA,1,5.20423713616685,6.37708909156111,8.50208927062595,8.34671923233743,FALSE,5.89507457553834
"CAN","cpi",0.1,1978,3,1977,NA,1.5,8.70952319313191,10.5860687652077,8.50208927062595,8.21410731625775,FALSE,2.33750984431127
"CAN","cpi",0.1,1979,3,1979,NA,0,5.30852439110239,5.5539875481421,8.65147652410481,8.56136533364911,FALSE,7.1287719925124
"CAN","cpi",0.1,1979,3,1979,NA,0.5,10.3940683344734,11.2249756347966,8.65147652410481,8.23092589685401,FALSE,4.70333354558671
"CAN","cpi",0.1,1979,3,1978,NA,1,5.66798048036182,6.72673411968423,8.65147652410481,9.66481845899329,FALSE,5.33595898247925
"CAN","cpi",0.1,1979,3,1978,NA,1.5,8.55723306705892,10.4820564458557,8.65147652410481,7.91014806370246,TRUE,1.92482337879673
"CAN","cpi",0.1,1980,3,1980,NA,0,5.66251348803483,5.90594537284667,9.5171912664748,9.53576705858497,FALSE,8.26842275954101
"CAN","cpi",0.1,1980,3,1980,NA,0.5,10.7412314174712,11.5372031238711,9.5171912664748,8.6434746104286,FALSE,3.51606093083635
"CAN","cpi",0.1,1980,3,1979,NA,1,3.67373712119792,4.86687075317048,9.5171912664748,7.78967249140325,FALSE,11.5271792170933
"CAN","cpi",0.1,1980,3,1979,NA,1.5,9.56028731856417,11.0062146688762,9.5171912664748,8.29781572565185,FALSE,1.54169635495512
"CAN","cpi",0.1,1981,3,1981,NA,0,6.56137941367223,6.84797811676324,11.5813425032741,11.7120328235834,FALSE,10.8051862286708
"CAN","cpi",0.1,1981,3,1981,NA,0.5,13.9169385866213,15.0605424063476,11.5813425032741,12.3296185245412,FALSE,6.33381733827562
"CAN","cpi",0.1,1981,3,1980,NA,1,5.75947333731711,7.32110383435652,11.5813425032741,11.0356264341109,FALSE,11.0288275390786
"CAN","cpi",0.1,1981,3,1980,NA,1.5,9.4193903823096,11.1108054091207,11.5813425032741,8.52474858684185,FALSE,2.73705301381875
"CAN","cpi",0.1,1982,3,1982,NA,0,6.53898102980094,6.91172789364222,10.1124203763629,10.253224031375,FALSE,7.4853968254429
"CAN","cpi",0.1,1982,3,1982,NA,0.5,13.2135490442772,14.2438942155634,10.1124203763629,10.1221315066235,FALSE,7.92174221109571
"CAN","cpi",0.1,1982,3,1981,NA,1,4.80429466708437,6.52572899274063,10.1124203763629,11.652777546881,FALSE,9.69185962259474
"CAN","cpi",0.1,1982,3,1981,NA,1.5,15.0286295235769,17.0451183019899,10.1124203763629,13.2139534836213,FALSE,12.941397994444
"CAN","cpi",0.1,1983,3,1983,NA,0,4.76694065134103,4.99427271114918,5.67091787896303,5.84362752346853,FALSE,1.73098798828339
"CAN","cpi",0.1,1983,3,1983,NA,0.5,8.63863288363944,9.27926097721642,5.67091787896303,4.70635148143536,FALSE,7.23555032619122
"CAN","cpi",0.1,1983,3,1982,NA,1,3.52528898513746,4.5665907801794,5.67091787896303,8.61437359933683,FALSE,3.49536201456112
"CAN","cpi",0.1,1983,3,1982,NA,1.5,10.6570363982516,11.8229354421318,5.67091787896303,9.84330302935538,FALSE,12.2461624200771
"CAN","cpi",0.1,1984,3,1984,NA,0,3.11321672779749,3.26373122802646,4.19799576814029,4.21315663178917,FALSE,2.22665792270414
"CAN","cpi",0.1,1984,3,1984,NA,0.5,6.64944863748071,7.1180530401425,4.19799576814029,4.73004206452632,FALSE,5.91627744564051
"CAN","cpi",0.1,1984,3,1983,NA,1,3.28168325283646,3.94208542341637,4.19799576814029,6.30529961834119,FALSE,1.22909182552195
"CAN","cpi",0.1,1984,3,1983,NA,1.5,2.56075446514821,3.22115663572811,4.19799576814029,2.81189439817776,FALSE,2.83115579816253
"CAN","cpi",0.1,1985,3,1985,NA,0,2.64422004247011,2.78160550653493,3.86444262005169,3.90546894544143,FALSE,2.54369016076874
"CAN","cpi",0.1,1985,3,1985,NA,0.5,5.35120189302683,5.79003526118947,3.86444262005169,4.0117649915267,FALSE,3.74274286366294
"CAN","cpi",0.1,1985,3,1984,NA,1,1.35358918003842,1.91916676126363,3.86444262005169,3.28942198062367,FALSE,4.88841282297646
"CAN","cpi",0.1,1985,3,1984,NA,1.5,5.84353470458565,6.62513210857248,3.86444262005169,4.67970369844593,FALSE,5.17957981406228
"CAN","cpi",0.1,1986,3,1986,NA,0,2.6631433685564,2.78583682714287,4.08685396749431,4.12727747445429,FALSE,3.01384265936745
"CAN","cpi",0.1,1986,3,1986,NA,0.5,5.55338397209771,6.01707867105953,4.08685396749431,4.57514120825518,FALSE,3.72265026474715
"CAN","cpi",0.1,1986,3,1985,NA,1,2.02149507856125,2.68097124241574,4.08685396749431,3.84501750700332,FALSE,3.78365999736242
"CAN","cpi",0.1,1986,3,1985,NA,1.5,5.51646978606699,6.17594594992148,4.08685396749431,4.51624000588938,FALSE,3.83640020512711
"CAN","cpi",0.1,1987,3,1987,NA,0,2.81035213559174,2.93575184907211,4.23980729277887,4.3376164199738,FALSE,3.02330069949539
"CAN","cpi",0.1,1987,3,1987,NA,0.5,5.12180264810504,5.5078842701643,4.23980729277887,3.8898385702312,FALSE,2.34607130056186
"CAN","cpi",0.1,1987,3,1986,NA,1,2.78972811701714,3.40726336614969,4.23980729277887,4.56284936423577,FALSE,2.46763286386406
"CAN","cpi",0.1,1987,3,1986,NA,1.5,6.18746084692147,6.80499609605402,4.23980729277887,5.15474659430673,FALSE,4.94565425833832
"CAN","cpi",0.1,1988,3,1988,NA,0,2.74852840984279,2.85541281007221,3.92899537638065,4.00028299604827,FALSE,2.4926234364704
"CAN","cpi",0.1,1988,3,1988,NA,0.5,4.86580832450356,5.24626816274725,3.92899537638065,3.53181278911538,FALSE,2.46226638962792
"CAN","cpi",0.1,1988,3,1987,NA,1,2.72559354740362,3.13130884539152,3.92899537638065,4.34173286045961,FALSE,2.17835203351931
"CAN","cpi",0.1,1988,3,1987,NA,1.5,4.44274007815032,4.84845537613822,3.92899537638065,3.76612293581706,FALSE,1.54737019080938
"CAN","cpi",0.1,1989,3,1989,NA,0,3.01339540994144,3.11301001469128,4.82821664544208,5.00606812502784,FALSE,3.91118489530717
"CAN","cpi",0.1,1989,3,1988,NA,1,2.83748097656427,3.14488603097743,4.82821664544208,4.3270389784901,FALSE,4.04813975322349
"CAN","cpi",0.1,1989,3,1988,NA,1.5,4.08009076998004,4.38749582439319,4.82821664544208,3.42699250808196,FALSE,1.28678465674401
"CAN","cpi",0.1,1990,3,1990,NA,0,3.06232844633272,3.1864142942159,4.64347549432717,4.52171223749059,FALSE,3.36199962590823
"CAN","cpi",0.1,1990,3,1990,NA,0.5,6.25113377686613,6.67346802617766,4.64347549432717,5.22335253259958,FALSE,3.99490821050922
"CAN","cpi",0.1,1990,3,1989,NA,1,3.85622354918465,4.4101018768838,4.64347549432717,5.7236432392913,FALSE,1.07248636646219
"CAN","cpi",0.1,1990,3,1989,NA,1.5,5.80436434311767,6.35824267081682,4.64347549432717,4.92041342133377,FALSE,3.13363132501137
"CAN","cpi",0.1,1991,3,1991,NA,0,3.41741608653939,3.53010105286166,5.4258100696218,5.6161816682171,FALSE,4.32537167023369
"CAN","cpi",0.1,1991,3,1991,NA,0.5,8.70514095577765,9.16969991266116,5.4258100696218,8.8240510060175,FALSE,7.75196092611874
"CAN","cpi",0.1,1991,3,1990,NA,1,2.50952225481163,2.97408121169514,5.4258100696218,3.89170713423419,FALSE,5.91284530783164
"CAN","cpi",0.1,1991,3,1990,NA,1.5,6.8074999953658,7.2720589522493,5.4258100696218,5.70462042447442,FALSE,3.5349810140924
"CAN","cpi",0.1,1992,3,1992,NA,0,2.21227158556833,2.30812093474977,1.47496888572843,1.47544467241393,FALSE,1.7342997932701
"CAN","cpi",0.1,1992,3,1992,NA,0.5,3.60272489651127,3.8979074502856,1.47496888572843,1.36069384263819,FALSE,5.02352924440286
"CAN","cpi",0.1,1992,3,1991,NA,1,1.30407576177329,1.94152465152035,1.47496888572843,2.43500720778875,TRUE,0.637448889747056
"CAN","cpi",0.1,1992,3,1991,NA,1.5,13.4031059097024,14.1043934857907,1.47496888572843,11.2072976243743,FALSE,27.2082587404749
"CAN","cpi",0.1,1993,3,1993,NA,0,1.29656247434845,1.34066169268381,1.84351085411351,1.81496037239602,FALSE,1.16154179929026
"CAN","cpi",0.1,1993,3,1993,NA,0.5,2.85212182114055,3.02043542860905,1.84351085411351,2.43338635087472,FALSE,2.40967131197303
"CAN","cpi",0.1,1993,3,1992,NA,1,1.41044212049473,1.57875572796323,1.84351085411351,1.76228766319361,FALSE,0.756658332246895
"CAN","cpi",0.1,1993,3,1992,NA,1.5,2.06671808996478,2.23503169743328,1.84351085411351,1.598750613598,FALSE,0.664329687137979
"CAN","cpi",0.1,1994,3,1994,NA,0,0.869087819237504,0.905755299823743,0.161630694655448,0.220147227157928,FALSE,1.60879442410192
"CAN","cpi",0.1,1994,3,1994,NA,0.5,0.682850922579938,0.791695115592398,0.161630694655448,-0.741542526043691,FALSE,1.26711136617799
"CAN","cpi",0.1,1994,3,1993,NA,1,1.19386500035161,1.40017300054876,0.161630694655448,1.50794631797803,FALSE,2.50016201285529
"CAN","cpi",0.1,1994,3,1993,NA,1.5,3.32432164430979,3.53062964450694,0.161630694655448,2.81797717341095,FALSE,7.23451011054014
"CAN","cpi",0.1,1995,3,1995,NA,0,1.06508678531824,1.09494038913766,2.11688403676572,2.15484685959489,FALSE,2.30083948743732
"CAN","cpi",0.1,1995,3,1995,NA,0.5,2.6615549761367,2.74746247892594,2.11688403676572,2.90883921660758,FALSE,1.29628736805809
"CAN","cpi",0.1,1995,3,1994,NA,1,1.74800347192624,1.83391097471548,2.11688403676572,1.95173420121315,FALSE,0.71473652956755
"CAN","cpi",0.1,1995,3,1994,NA,1.5,-1.96582010301522,-1.87991260022598,2.11688403676572,-2.17983456081826,FALSE,8.96767780721523
"CAN","cpi",0.1,1996,3,1996,NA,0,1.36696183515675,1.40926928900788,1.55309584667184,1.44166889374788,FALSE,0.361922026437711
"CAN","cpi",0.1,1996,3,1996,NA,0.5,2.21168673742473,2.40562158190722,1.55309584667184,1.36236766996786,FALSE,1.65747015726669
"CAN","cpi",0.1,1996,3,1995,NA,1,0.693014190447098,0.886949034929584,1.55309584667184,0.911474268150699,FALSE,1.67426109279862
"CAN","cpi",0.1,1996,3,1995,NA,1.5,4.47506543394031,4.6690002784228,1.55309584667184,3.98784768949811,FALSE,6.68720059396797
"CAN","cpi",0.1,1997,3,1997,NA,0,1.30387286043008,1.34473103524985,1.60528783555959,1.68811714545079,FALSE,0.619873286619198
"CAN","cpi",0.1,1997,3,1997,NA,0.5,2.48675650940406,2.69708296275331,1.60528783555959,2.10620867662285,FALSE,2.16914572855917
"CAN","cpi",0.1,1997,3,1996,NA,1,0.70085048748408,0.917760000238829,1.60528783555959,0.758460286059383,FALSE,1.74474914680089
"CAN","cpi",0.1,1997,3,1996,NA,1.5,1.89927596293824,2.11618547569299,1.60528783555959,1.66287852692671,FALSE,0.870216462485087
"CAN","cpi",0.1,1998,3,1998,NA,0,1.07861346274962,1.10769666425807,0.988908029337191,0.970744023070627,FALSE,0.228428609091624
"CAN","cpi",0.1,1998,3,1998,NA,0.5,2.05571468815901,2.25921954396083,0.988908029337191,1.52096865004292,FALSE,2.5741863198503
"CAN","cpi",0.1,1998,3,1997,NA,1,0.991878208794356,1.19538306459617,0.988908029337191,1.03996058978499,FALSE,0.210105254595514
"CAN","cpi",0.1,1998,3,1997,NA,1.5,2.40034275233362,2.60384760813543,0.988908029337191,2.22059574107629,FALSE,3.34002646246054
"CAN","cpi",0.1,1999,3,1999,NA,0,1.19121963903127,1.22164041063465,1.7107350135213,1.79141464940687,FALSE,1.11729766690704
"CAN","cpi",0.1,1999,3,1999,NA,0.5,1.33772502527116,1.48926909507761,1.7107350135213,0.800552372711202,FALSE,0.643690555236865
"CAN","cpi",0.1,1999,3,1998,NA,1,0.60243378733169,0.755318638397553,1.7107350135213,0.474525424909611,FALSE,2.27603235134085
"CAN","cpi",0.1,1999,3,1998,NA,1.5,2.36093021983086,2.51381507089673,1.7107350135213,2.19776497346126,FALSE,1.59776308730934
"CAN","cpi",0.1,2000,3,2000,NA,0,1.70750168474879,1.7520843906901,2.6718361971244,2.73388860624727,FALSE,2.08847560912865
"CAN","cpi",0.1,2000,3,2000,NA,0.5,2.50146490983703,2.72507133536592,2.6718361971244,2.11525832235237,TRUE,0.223606425528889
"CAN","cpi",0.1,2000,3,1999,NA,1,2.41155335837249,2.63515978390137,2.6718361971244,2.81438082878813,FALSE,0.305109566024502
"CAN","cpi",0.1,2000,3,1999,NA,1.5,1.06760884335906,1.29121526888795,2.6718361971244,0.872413614651861,FALSE,3.29165293272099
"CAN","cpi",0.1,2001,3,2001,NA,0,1.98598038954134,2.0327163748042,2.47906219852806,2.73506715681632,FALSE,1.03861559353811
"CAN","cpi",0.1,2001,3,2001,NA,0.5,2.56325154913797,2.83556753505369,2.47906219852806,1.72363549629744,FALSE,0.459403431715518
"CAN","cpi",0.1,2001,3,2000,NA,1,3.09789419013843,3.41072500922879,2.47906219852806,3.73995761394105,FALSE,1.68801302266896
"CAN","cpi",0.1,2001,3,2000,NA,1.5,2.12139546104091,2.43422628013128,2.47906219852806,1.98299961497232,FALSE,0.41246619330545
"CAN","cpi",0.1,2002,3,2002,NA,0,1.7948045477035,1.83667675579633,2.20880570551249,2.3500140093739,FALSE,0.868825429684282
"CAN","cpi",0.1,2002,3,2002,NA,0.5,2.38392489093597,2.620819921604,2.20880570551249,1.47074452365548,FALSE,0.626048776053542
"CAN","cpi",0.1,2002,3,2001,NA,1,0.837184151172261,1.12233484127978,2.20880570551249,0.79597273109289,FALSE,2.69953038840242
"CAN","cpi",0.1,2002,3,2001,NA,1.5,0.984259453568014,1.26941014367554,2.20880570551249,0.827019109774735,FALSE,2.37269638307852
"CAN","cpi",0.1,2003,3,2003,NA,0,1.8505805382145,1.89704034374884,2.71189071546809,2.76866538316948,FALSE,1.85723840935489
"CAN","cpi",0.1,2003,3,2003,NA,0.5,4.45468715635174,4.7070221744011,2.71189071546809,4.59645517963757,FALSE,4.1252159977908
"CAN","cpi",0.1,2003,3,2002,NA,1,3.60309464035747,3.8582828336564,2.71189071546809,4.33746529644743,FALSE,2.23564135971977
"CAN","cpi",0.1,2003,3,2002,NA,1.5,2.75627660268145,3.01146479598038,2.71189071546809,2.71468890277684,FALSE,0.353823498217503
"CAN","cpi",0.1,2004,3,2004,NA,0,1.66262694977538,1.70495813282362,1.83151661303942,1.7684769390021,FALSE,0.323572250194469
"CAN","cpi",0.1,2004,3,2004,NA,0.5,2.5299666554831,2.76625490515615,1.83151661303942,1.5625176897836,FALSE,1.78839945510345
"CAN","cpi",0.1,2004,3,2003,NA,1,1.3585686872025,1.65191209300399,1.83151661303942,1.41754396673829,FALSE,0.692464561435785
"CAN","cpi",0.1,2004,3,2003,NA,1.5,5.25057915385444,5.54392255965594,1.83151661303942,5.32651436309904,FALSE,7.8912601631682
"CAN","cpi",0.1,2005,3,2005,NA,0,1.62387853397578,1.66289363282676,2.18071628336509,2.38196957660787,FALSE,1.18973210004727
"CAN","cpi",0.1,2005,3,2005,NA,0.5,2.19792384170896,2.39225604728417,2.18071628336509,1.57253942332725,FALSE,0.232571224117147
"CAN","cpi",0.1,2005,3,2004,NA,1,1.06731180767566,1.26164401325087,2.18071628336509,0.993232956459974,FALSE,2.23671502805125
"CAN","cpi",0.1,2005,3,2004,NA,1.5,2.17185463289052,2.36618683846573,2.18071628336509,2.05989686108521,TRUE,0.194332205575211
"CAN","cpi",0.1,2006,3,2006,NA,0,1.61209242037659,1.65588619069977,1.97519342012289,2.0667253719809,FALSE,0.753365391263438
"CAN","cpi",0.1,2006,3,2006,NA,0.5,2.55696766527213,2.79670185419368,1.97519342012289,1.93779395271753,FALSE,1.53256584480876
"CAN","cpi",0.1,2006,3,2005,NA,1,2.86852428685947,3.17914767970156,1.97519342012289,3.47726378201784,FALSE,2.29580309670117
"CAN","cpi",0.1,2006,3,2005,NA,1.5,1.54001006711412,1.85063345995622,1.97519342012289,1.38669164389589,FALSE,0.587423304323584
"CAN","cpi",0.1,2007,3,2007,NA,0,1.56743599795974,1.60298691163496,2.10062087284572,2.10807340507977,FALSE,1.14140416081026
"CAN","cpi",0.1,2007,3,2007,NA,0.5,2.79621940745422,3.00891319793868,2.10062087284572,2.41912196921498,FALSE,1.75846831183668
"CAN","cpi",0.1,2007,3,2006,NA,1,0.719797572084349,0.932491362568804,2.10062087284572,0.502333085291807,FALSE,2.80853714665539
"CAN","cpi",0.1,2007,3,2006,NA,1.5,2.06084226919158,2.27353605967603,2.10062087284572,1.9704266811846,TRUE,0.212693790484455
"CAN","cpi",0.1,2008,3,2008,NA,0,1.89010829705543,1.93475479067367,2.31447335265955,2.95401501251803,FALSE,0.888465520253529
"CAN","cpi",0.1,2008,3,2008,NA,0.5,1.95190217732946,2.16530681437072,2.31447335265955,1.1596607753752,FALSE,0.54488583323866
"CAN","cpi",0.1,2008,3,2007,NA,1,0.710173820306227,0.923578457347487,2.31447335265955,0.365030180386173,FALSE,3.30428218217918
"CAN","cpi",0.1,2008,3,2007,NA,1.5,3.61771560994975,3.83112024699101,2.31447335265955,3.74970428078329,FALSE,3.10949854213059
"CAN","cpi",0.1,2009,3,2009,NA,0,1.04845351841242,1.07708506953927,0.284533874408197,0.277323060325678,FALSE,1.72623076002512
"CAN","cpi",0.1,2009,3,2009,NA,0.5,0.593807216669051,0.839576494774087,0.284533874408197,-0.926841850998946,FALSE,0.933043372018045
"CAN","cpi",0.1,2009,3,2008,NA,1,3.6774733112483,3.92523771283011,0.284533874408197,4.39167027484448,FALSE,7.78762981678203
"CAN","cpi",0.1,2009,3,2008,NA,1.5,1.54725040458959,1.7950148061714,0.284533874408197,1.30718110670587,FALSE,3.05380113531824
"CAN","cpi",0.1,2010,3,2010,NA,0,0.975854773438221,0.996630928784979,1.75525687020327,1.74893097969613,FALSE,1.70661158072074
"CAN","cpi",0.1,2010,3,2010,NA,0.5,1.69695847005708,1.77594584575755,1.75525687020327,1.60514557059791,TRUE,0.0789873757004718
"CAN","cpi",0.1,2010,3,2009,NA,1,0.851226440334217,0.930213816034689,1.75525687020327,0.646877121410091,FALSE,1.91241638496399
"CAN","cpi",0.1,2010,3,2009,NA,1.5,-0.680395569460142,-0.60140819375967,1.75525687020327,-1.29107136836179,FALSE,5.31602085117368
"CAN","cpi",0.1,2011,3,2011,NA,0,1.76185413409766,1.80260079040558,2.85717434028225,2.83658425111878,FALSE,2.38424343381162
"CAN","cpi",0.1,2011,3,2011,NA,0.5,3.01854219025895,3.24410979534507,2.85717434028225,2.89516877702572,FALSE,0.584162827256568
"CAN","cpi",0.1,2011,3,2010,NA,1,2.08840123634395,2.31396884143007,2.85717434028225,2.19120159589417,FALSE,1.43269093586873
"CAN","cpi",0.1,2011,3,2010,NA,1.5,2.12186019389073,2.34742779897685,2.85717434028225,1.9636150267392,FALSE,1.35833769687589
"CAN","cpi",0.1,2012,3,2012,NA,0,1.61566573442952,1.65673449512597,1.50118536134935,1.46012306845465,FALSE,0.295469589763497
"CAN","cpi",0.1,2012,3,2012,NA,0.5,2.61903573388792,2.8930486823416,1.50118536134935,1.81318735388827,FALSE,2.75812488742829
"CAN","cpi",0.1,2012,3,2011,NA,1,1.35894710535849,1.63296005381218,1.50118536134935,1.0674603716489,TRUE,0.274012948453689
"CAN","cpi",0.1,2012,3,2011,NA,1.5,3.35033207140181,3.6243450198555,1.50118536134935,3.26492178435033,FALSE,4.38322785968139
"CAN","cpi",0.1,2013,3,2013,NA,0,1.09239720256793,1.12118825664697,0.931270594714462,1.03964630394149,FALSE,0.386850182642305
"CAN","cpi",0.1,2013,3,2013,NA,0.5,1.731153775724,1.90034829713912,0.931270594714462,1.16522799725517,FALSE,1.94671270143632
"CAN","cpi",0.1,2013,3,2012,NA,1,0.114738728911899,0.283933250327011,0.931270594714462,-0.4587869493051,FALSE,1.60772195338722
"CAN","cpi",0.1,2013,3,2012,NA,1.5,2.07710543784744,2.24629995926255,0.931270594714462,1.87018597092114,FALSE,2.71549417282172
"CAN","cpi",0.1,2014,3,2014,NA,0,1.24536617769605,1.2771389975618,1.87639912240215,1.98941686448128,FALSE,1.36346198617763
"CAN","cpi",0.1,2014,3,2014,NA,0.5,2.2537182891423,2.41806320050248,1.87639912240215,2.28534818047506,FALSE,1.00283194856051
"CAN","cpi",0.1,2014,3,2013,NA,1,1.12368967298175,1.28803458434194,1.87639912240215,0.933988257976399,FALSE,1.4718216626051
"CAN","cpi",0.1,2014,3,2013,NA,1.5,1.89376916411664,2.05811407547682,1.87639912240215,1.74432822228681,FALSE,0.202945004059049
"CAN","cpi",0.1,2015,3,2015,NA,0,1.26598268029139,1.29564528831905,1.11090953952792,1.2616807067513,FALSE,0.374269587502049
"CAN","cpi",0.1,2015,3,2015,NA,0.5,1.14403114570644,1.35935889271955,1.11090953952792,0.218363095132572,FALSE,0.288931316298712
"CAN","cpi",0.1,2015,3,2014,NA,1,0.99993598213503,1.21526372914814,1.11090953952792,0.62327975322943,TRUE,0.215327747013114
"CAN","cpi",0.1,2015,3,2014,NA,1.5,3.48985512075443,3.70518286776755,1.11090953952792,3.54844533129153,FALSE,5.50187348307204
"CAN","cpi",0.1,2016,3,2016,NA,0,1.10377852755629,1.13236404556236,1.41168586698797,1.44403049252289,FALSE,0.649300676729637
"CAN","cpi",0.1,2016,3,2016,NA,0.5,1.39609719881564,1.58090198614495,1.41168586698797,0.943700860843074,TRUE,0.184804787329311
"CAN","cpi",0.1,2016,3,2015,NA,1,1.66163468204493,1.85010106906128,1.41168586698797,1.65805837950254,FALSE,0.743908198254044
"CAN","cpi",0.1,2016,3,2015,NA,1.5,0.587671377670219,0.776137764686565,1.41168586698797,0.212753204814446,FALSE,1.60079550324168
"CAN","cpi",0.1,2017,3,2017,NA,0,1.21949343510637,1.25075223268592,1.57888581671161,1.52172534057668,FALSE,0.760444539858874
"CAN","cpi",0.1,2017,3,2017,NA,0.5,2.30580577964532,2.49838723462846,1.57888581671161,2.17995751143343,FALSE,1.80795915039138
"CAN","cpi",0.1,2017,3,2016,NA,1,0.836318463020224,1.02889991800337,1.57888581671161,0.478660156386378,FALSE,1.41477234100147
"CAN","cpi",0.1,2017,3,2016,NA,1.5,1.2710306781725,1.46361213315564,1.57888581671161,1.04780579189651,FALSE,0.448745196218635
"CAN","cpi",0.1,2018,3,2018,NA,0,1.57752706976234,1.61478667873184,2.23316270166586,2.42606863838048,FALSE,1.41142854882287
"CAN","cpi",0.1,2018,3,2018,NA,0.5,2.87008312532514,3.08895141206427,2.23316270166586,3.02101124054505,FALSE,1.63424700598198
"CAN","cpi",0.1,2018,3,2017,NA,1,0.912641793502065,1.13151008024119,2.23316270166586,0.52369802733857,FALSE,2.66698522323839
"CAN","cpi",0.1,2018,3,2017,NA,1.5,2.97648393341055,3.19535222014968,2.23316270166586,3.08408184322128,FALSE,1.87069324617178
"CAN","cpi",0.1,2019,3,2019,NA,0,1.6210600058085,1.6650267067693,1.91921619871868,2.02292335146186,FALSE,0.608832238626088
"CAN","cpi",0.1,2019,3,2019,NA,0.5,2.19893379447712,2.4793858318993,1.91921619871868,1.7605507439285,FALSE,0.902046694663161
"CAN","cpi",0.1,2019,3,2018,NA,1,2.05334312249078,2.33379515991296,1.91921619871868,1.97136692329685,FALSE,0.578511868026842
"CAN","cpi",0.1,2019,3,2018,NA,1.5,3.89194373384202,4.1723957712642,1.91921619871868,4.13001487917394,FALSE,4.66429100436293
"CAN","cpi",0.1,2020,3,2020,NA,0,1.10485136521364,1.13329367497712,0.71139989671781,0.748237853268385,FALSE,0.902778906420886
"CAN","cpi",0.1,2020,3,2020,NA,0.5,1.725323165239,1.96762670276996,0.71139989671781,1.20638084891419,FALSE,2.49546635646693
"CAN","cpi",0.1,2020,3,2019,NA,1,1.53962395679867,1.78192749432963,0.71139989671781,1.33625965438418,FALSE,2.08280144882176
"CAN","cpi",0.1,2020,3,2019,NA,1.5,2.48228940872261,2.72459294625357,0.71139989671781,2.47827605395127,FALSE,4.17761356420829
"CAN","cpi",0.1,2021,3,2021,NA,0,1.62958291635005,1.66899840124451,3.31148121717802,3.36073739108717,FALSE,3.68937729808004
"CAN","cpi",0.1,2021,3,2021,NA,0.5,2.43050062952754,2.60938557094328,3.31148121717802,2.87786599282032,FALSE,1.73909748860406
"CAN","cpi",0.1,2021,3,2020,NA,1,1.71123924121746,1.8901241826332,3.31148121717802,1.80567605729774,FALSE,3.33745612929314
"CAN","cpi",0.1,2021,3,2020,NA,1.5,1.478877720153,1.65776266156874,3.31148121717802,1.36315122932478,FALSE,3.85381506499192
"CAN","cpi",0.1,2022,3,2022,NA,0,3.4507074479132,3.53523819753688,6.50977236228281,6.58141742776733,FALSE,6.69460667128131
"CAN","cpi",0.1,2022,3,2022,NA,0.5,5.59486740389991,6.09554974855609,6.50977236228281,6.74293883776587,FALSE,1.42117704182667
"CAN","cpi",0.1,2022,3,2021,NA,1,4.1847237474655,4.68540609212168,6.50977236228281,4.82564214996571,FALSE,4.55482961168091
"CAN","cpi",0.1,2022,3,2021,NA,1.5,3.6498376030127,4.15051994766887,6.50977236228281,3.93575064315212,FALSE,5.74346548824271
"CAN","cpi",0.1,2023,3,2023,NA,0,3.50988028503452,3.60475791313151,3.78831288758619,4.01453285616146,FALSE,0.502777571329618
"CAN","cpi",0.1,2023,3,2023,NA,0.5,4.20002611701661,4.90310848552069,3.78831288758619,3.07888421739245,FALSE,1.61800065612724
"CAN","cpi",0.1,2023,3,2022,NA,1,3.87917608376865,4.58225845227273,3.78831288758619,3.85673280569707,FALSE,0.905000582242878
"CAN","cpi",0.1,2023,3,2022,NA,1.5,7.3382522442817,8.04133461278578,3.78831288758619,8.07292283446253,FALSE,8.5918364944941
"CAN","cpi",0.1,2024,3,2023,NA,1,3.79633566872181,4.23617407396789,NA,4.07504753996503,NA,NA
"CAN","cpi",0.1,2024,3,2023,NA,1.5,2.53076622778732,2.9706046330334,NA,2.41529048319689,NA,NA
"CAN","cpi",0.2,1952,3,1952,NA,0,-21.2189938430936,-14.2667361498758,2.55562336095485,2.49651395855886,FALSE,49.0081564702945
"CAN","cpi",0.2,1952,3,1952,NA,0.5,-20.8541302372631,-9.76190897929394,2.55562336095485,3.9078404779387,FALSE,41.8860521085912
"CAN","cpi",0.2,1952,3,1951,NA,1,4.83938261612361,15.9316038740928,2.55562336095485,8.88778808098424,FALSE,16.8016193958911
"CAN","cpi",0.2,1952,3,1951,NA,1.5,-22.2278298731025,-11.1356086151333,2.55562336095485,10.076419411745,FALSE,45.3203011981895
"CAN","cpi",0.2,1953,3,1953,NA,0,-0.925617434459967,-1.12019852493943,-1.01492775838436,-0.954275034924989,FALSE,0.291871635719196
"CAN","cpi",0.2,1953,3,1953,NA,0.5,-16.2997204714111,-15.3575879108177,-1.01492775838436,-2.19876634474816,FALSE,36.7987829416768
"CAN","cpi",0.2,1953,3,1952,NA,1,-14.8493651645545,-13.6177210499122,-1.01492775838436,-1.18145267469342,FALSE,32.7386273434619
"CAN","cpi",0.2,1953,3,1952,NA,1.5,-18.3574841863268,-15.7946711875923,-1.01492775838436,0.93216905581622,FALSE,39.5121715717543
"CAN","cpi",0.2,1954,3,1954,NA,0,1.09208326622701,0.543560828182524,0.644425455961438,0.879731201855888,FALSE,0.822783657066735
"CAN","cpi",0.2,1954,3,1954,NA,0.5,1.33808194400952,0.789559505965025,0.644425455961438,-0.358875738913824,FALSE,1.1856187820757
"CAN","cpi",0.2,1954,3,1953,NA,1,11.5732403968463,11.0247179588018,0.644425455961438,3.38326531029323,FALSE,26.7735149141676
"CAN","cpi",0.2,1954,3,1953,NA,1.5,-5.9161350309519,-6.46465746899639,0.644425455961438,-2.85717744192413,FALSE,17.2241848743501
"CAN","cpi",0.2,1955,3,1955,NA,0,0.441082249452774,0.508077846629814,0.173649026558865,0.115254687233858,FALSE,0.735578654411813
"CAN","cpi",0.2,1955,3,1955,NA,0.5,-1.04321809368304,-0.912900262637832,0.173649026558865,-0.770970046821609,FALSE,2.84669105403695
"CAN","cpi",0.2,1955,3,1954,NA,1,8.93055031912304,10.7235511210436,0.173649026558865,3.47019599757395,FALSE,23.685254033331
"CAN","cpi",0.2,1955,3,1954,NA,1.5,-10.9659470522237,-9.17294625030314,0.173649026558865,-1.89562740163941,FALSE,25.1594889940756
"CAN","cpi",0.2,1956,3,1956,NA,0,1.04823765242228,1.05673777310038,1.32752769429961,1.56059797998755,FALSE,0.685474923676178
"CAN","cpi",0.2,1956,3,1956,NA,0.5,-0.352569045331055,-0.344068924652955,1.32752769429961,-0.709146002056511,FALSE,4.18749166805951
"CAN","cpi",0.2,1956,3,1955,NA,1,1.76177247454759,2.11865042830767,1.32752769429961,0.884549626974225,FALSE,1.44248990438004
"CAN","cpi",0.2,1956,3,1955,NA,1.5,-6.71629802354323,-6.35942006978316,1.32752769429961,-1.89150615642833,FALSE,19.574247363967
"CAN","cpi",0.2,1957,3,1957,NA,0,1.83718141782188,2.15939295075129,3.24684755852518,3.4151370317006,FALSE,3.04084805236414
"CAN","cpi",0.2,1957,3,1957,NA,0.5,3.23022433446025,4.53138367870986,3.24684755852518,2.23982631608766,TRUE,1.30115934424962
"CAN","cpi",0.2,1957,3,1956,NA,1,10.0572246953246,13.8706254599615,3.24684755852518,6.98754636690555,FALSE,20.8393436066355
"CAN","cpi",0.2,1957,3,1956,NA,1.5,-11.8544430444111,-8.04104227977421,3.24684755852518,-1.88668623310337,FALSE,32.0331253603854
"CAN","cpi",0.2,1958,3,1958,NA,0,1.7703249312954,1.96804934745074,2.33186388641149,2.22387249143335,FALSE,1.10726076355721
"CAN","cpi",0.2,1958,3,1958,NA,0.5,3.66782917486106,4.80135734159514,2.33186388641149,2.22839060734872,FALSE,4.47344138785801
"CAN","cpi",0.2,1958,3,1957,NA,1,1.56471129169529,4.87053399961259,2.33186388641149,4.42088197051908,TRUE,3.3058227079173
"CAN","cpi",0.2,1958,3,1957,NA,1.5,-13.334895707822,-10.0290729999047,2.33186388641149,0.91301479707402,FALSE,34.2081649237078
"CAN","cpi",0.2,1959,3,1959,NA,0,1.25493910135241,1.40429168354756,1.19382698397654,1.24991216431293,FALSE,0.30213287563482
"CAN","cpi",0.2,1959,3,1959,NA,0.5,1.53760916945854,2.09186336548459,1.19382698397654,0.437839731590327,FALSE,1.41370965973105
"CAN","cpi",0.2,1959,3,1958,NA,1,-0.284167139059469,1.19440052048967,1.19382698397654,1.75862762885946,TRUE,1.47856765954914
"CAN","cpi",0.2,1959,3,1958,NA,1.5,-7.52204728464535,-6.04347962509622,1.19382698397654,1.77407172713766,FALSE,19.571834182231
"CAN","cpi",0.2,1960,3,1960,NA,0,0.926643716652847,1.02934505078037,1.34209404870695,1.02361304259477,FALSE,0.884573828943981
"CAN","cpi",0.2,1960,3,1960,NA,0.5,1.4368165557459,1.76792711588714,1.34209404870695,0.53898348018166,FALSE,0.567916827738621
"CAN","cpi",0.2,1960,3,1959,NA,1,3.41436264245503,4.98226111315571,1.34209404870695,3.95759373689442,FALSE,6.74856995507088
"CAN","cpi",0.2,1960,3,1959,NA,1.5,-6.06544204766579,-4.4975435769651,1.34209404870695,-0.873476815404885,FALSE,16.1669925348808
"CAN","cpi",0.2,1961,3,1961,NA,0,0.977735631179304,1.12093219617162,1.00921348094007,1.00921348094007,TRUE,0.143196564992317
"CAN","cpi",0.2,1961,3,1961,NA,0.5,1.88892994019967,2.25900072754941,1.00921348094007,1.00921348094007,FALSE,2.56936193549874
"CAN","cpi",0.2,1961,3,1960,NA,1,-0.759391609083308,-0.329961510224124,1.00921348094007,0.0537704626035329,FALSE,3.77736757676967
"CAN","cpi",0.2,1961,3,1960,NA,1.5,-5.49012176575163,-4.81325664772857,1.00921348094007,-0.862181798940035,FALSE,15.2330404396947
"CAN","cpi",0.2,1962,3,1962,NA,0,0.948564659932732,1.06808996553737,1.04957947883042,1.10232402731478,TRUE,0.119525305604641
"CAN","cpi",0.2,1962,3,1962,NA,0.5,0.819724222754417,1.04248824101331,1.04957947883042,0,FALSE,0.240492112801651
"CAN","cpi",0.2,1962,3,1961,NA,1,-0.321715251047164,0.0268148463193313,1.04957947883042,0,FALSE,2.90544167864421
"CAN","cpi",0.2,1962,3,1961,NA,1.5,-3.1130372702831,-2.75546943989716,1.04957947883042,0,FALSE,9.87019012720489
"CAN","cpi",0.2,1963,3,1963,NA,0,1.25480766856082,1.40374821655761,1.60677118395228,1.91491729531202,FALSE,0.65649796648348
"CAN","cpi",0.2,1963,3,1963,NA,0.5,1.5934867897782,1.86887440847675,1.60677118395228,0.836828714617504,TRUE,0.275387618698549
"CAN","cpi",0.2,1963,3,1962,NA,1,2.04508581583977,2.71428312344584,1.60677118395228,2.56411490415144,FALSE,1.76498388732478
"CAN","cpi",0.2,1963,3,1962,NA,1.5,-2.43394319961196,-1.76474589200589,1.60677118395228,0,FALSE,9.0979899975015
"CAN","cpi",0.2,1964,3,1964,NA,0,1.38941836727349,1.54019789135283,1.88764670034376,1.98877256446048,FALSE,1.01940154655666
"CAN","cpi",0.2,1964,3,1964,NA,0.5,2.22673381906558,2.5591515732625,1.88764670034376,1.38369006227607,FALSE,1.18013555100146
"CAN","cpi",0.2,1964,3,1963,NA,1,4.22671350745679,4.965929867592,1.88764670034376,5.39044290347256,FALSE,6.58688337791778
"CAN","cpi",0.2,1964,3,1963,NA,1.5,-2.74768804947668,-2.00847168934148,1.88764670034376,0,FALSE,10.4795123343483
"CAN","cpi",0.2,1965,3,1965,NA,0,1.57523926754294,1.73708818464142,2.29538304394236,2.34557047418999,FALSE,1.55758606535082
"CAN","cpi",0.2,1965,3,1965,NA,0.5,2.4802830109092,2.80636285056817,2.29538304394236,1.61079447956654,FALSE,0.788329757076086
"CAN","cpi",0.2,1965,3,1964,NA,1,1.70457632574717,2.27367619008789,2.29538304394236,2.42518862179847,FALSE,0.623366998976887
"CAN","cpi",0.2,1965,3,1964,NA,1.5,-1.7530196469512,-1.18391978261048,2.29538304394236,0.818102552316399,FALSE,9.26735693072282
"CAN","cpi",0.2,1966,3,1966,NA,0,2.20934021178958,2.38962882894444,3.72486065470629,3.82010987863709,FALSE,3.51836818155949
"CAN","cpi",0.2,1966,3,1966,NA,0.5,4.46975868132715,4.95798243264173,3.72486065470629,3.99123398895563,FALSE,2.35046881786673
"CAN","cpi",0.2,1966,3,1965,NA,1,2.4563091554102,3.02423844090432,3.72486065470629,3.20722068745854,FALSE,2.31948481999905
"CAN","cpi",0.2,1966,3,1965,NA,1.5,-0.99038908746342,-0.422459801969297,3.72486065470629,1.60663824631958,FALSE,10.9362304271831
"CAN","cpi",0.2,1967,3,1967,NA,0,2.53139237885008,2.72873622759375,3.49360316391996,3.76768849328632,FALSE,2.1095111895592
"CAN","cpi",0.2,1967,3,1967,NA,0.5,3.70976971661849,4.16315708581951,3.49360316391996,2.4074547441976,FALSE,0.993803750947352
"CAN","cpi",0.2,1967,3,1966,NA,1,2.1667013444662,3.27150803119817,3.49360316391996,3.18103323070284,FALSE,1.66004451853644
"CAN","cpi",0.2,1967,3,1966,NA,1.5,1.71664597121984,2.82145265795181,3.49360316391996,4.65128160487248,FALSE,2.78518295165235
"CAN","cpi",0.2,1968,3,1968,NA,0,2.60381791767491,2.81335041367134,3.95128347779386,4.17287945672396,FALSE,3.05436515630272
"CAN","cpi",0.2,1968,3,1968,NA,0.5,4.90798219010696,5.538651914896,3.95128347779386,4.07097205779852,FALSE,3.0224165055718
"CAN","cpi",0.2,1968,3,1967,NA,1,4.76546387411986,6.22477941533229,3.95128347779386,5.84521682123848,FALSE,3.49476653202743
"CAN","cpi",0.2,1968,3,1967,NA,1.5,0.080898099082939,1.54021364029536,3.95128347779386,2.25565858240226,FALSE,7.48699013495866
"CAN","cpi",0.2,1969,3,1969,NA,0,2.85233670945861,3.07076871288892,4.42679496126681,4.59520664360618,FALSE,3.60849762437504
"CAN","cpi",0.2,1969,3,1969,NA,0.5,4.2427237245801,4.76398381125432,4.42679496126681,2.96612019395715,TRUE,0.521260086674216
"CAN","cpi",0.2,1969,3,1968,NA,1,5.44680543140649,7.3913028634401,4.42679496126681,6.72487630040807,FALSE,4.49452360738279
"CAN","cpi",0.2,1969,3,1968,NA,1.5,2.58175439124021,4.52625182327382,4.42679496126681,4.31664452944541,TRUE,1.94449743203361
"CAN","cpi",0.2,1970,3,1970,NA,0,2.6233155589574,2.81678927515469,3.28128405769805,3.60761538249925,FALSE,1.35471067255568
"CAN","cpi",0.2,1970,3,1970,NA,0.5,5.51836607150568,6.24491339876741,3.28128405769805,4.36016077421692,FALSE,6.31925236178081
"CAN","cpi",0.2,1970,3,1969,NA,1,3.81587221558562,5.30609473815187,3.28128405769805,4.91369447805135,FALSE,2.82669291728518
"CAN","cpi",0.2,1970,3,1969,NA,1.5,-0.0543153585323904,1.43590716403386,3.28128405769805,2.07973847283129,FALSE,6.10366475672672
"CAN","cpi",0.2,1971,3,1971,NA,0,2.09503121095152,2.2488614840209,2.64123406634756,2.91872900980337,FALSE,1.13476172888603
"CAN","cpi",0.2,1971,3,1971,NA,0.5,2.77059391321373,3.15256710105165,2.64123406634756,1.38357105636307,FALSE,0.70537280500333
"CAN","cpi",0.2,1971,3,1970,NA,1,2.5325539102344,3.74016570622774,2.64123406634756,3.17686610979278,TRUE,1.20761179599334
"CAN","cpi",0.2,1971,3,1970,NA,1.5,4.29413901938838,6.11474754956065,2.64123406634756,4.62066312326275,FALSE,5.95287091277431
"CAN","cpi",0.2,1972,3,1972,NA,0,2.73731999228998,2.92446226256881,4.83230569625923,5.17210692165851,FALSE,4.95675085450488
"CAN","cpi",0.2,1972,3,1972,NA,0.5,5.15861039545726,5.95500972585381,4.83230569625923,4.76224255478946,FALSE,1.61216107839163
"CAN","cpi",0.2,1972,3,1971,NA,1,5.99916370803765,7.6700990856815,4.83230569625923,6.83863498061675,FALSE,4.5880804070899
"CAN","cpi",0.2,1972,3,1971,NA,1.5,1.40505299253788,3.07598837018173,4.83230569625923,1.95441162589064,FALSE,6.06172869283759
"CAN","cpi",0.2,1973,3,1973,NA,0,4.04545556899197,4.32548021384841,7.12388603531779,7.41057825703995,FALSE,7.27603919852989
"CAN","cpi",0.2,1973,3,1973,NA,0.5,7.11593207881079,8.06293426975659,7.12388603531779,6.24191401313708,TRUE,0.947002190945803
"CAN","cpi",0.2,1973,3,1972,NA,1,6.61008381276442,8.89004799533953,7.12388603531779,8.12590883681935,TRUE,2.27996418257511
"CAN","cpi",0.2,1973,3,1972,NA,1.5,5.04066909678567,7.73509968501229,7.12388603531779,4.96130694391223,TRUE,2.69443058822663
"CAN","cpi",0.2,1974,3,1974,NA,0,5.55566854024251,5.98430622687824,10.2717243737774,10.2919804098732,FALSE,11.1471830538837
"CAN","cpi",0.2,1974,3,1974,NA,0.5,10.0934350823928,11.5590234804709,10.2717243737774,9.01679902243293,TRUE,1.46558839807808
"CAN","cpi",0.2,1974,3,1973,NA,1,8.65875096991222,12.7828594405715,10.2717243737774,11.5076386824751,TRUE,4.12410847065925
"CAN","cpi",0.2,1974,3,1973,NA,1.5,7.35073826174094,11.4877235426128,10.2717243737774,7.03851017911898,TRUE,4.13698528087189
"CAN","cpi",0.2,1975,3,1975,NA,0,6.20675402708143,6.72103304178426,10.0232981493341,10.3166994702432,FALSE,8.76994178357749
"CAN","cpi",0.2,1975,3,1975,NA,0.5,11.1622792675406,12.9856574142435,10.0232981493341,8.87817825771755,FALSE,4.67083094221903
"CAN","cpi",0.2,1975,3,1974,NA,1,7.28366869635752,10.6716195907311,10.0232981493341,11.6634485116586,TRUE,3.38795089437358
"CAN","cpi",0.2,1975,3,1974,NA,1.5,8.9403135105521,13.4186288683542,10.0232981493341,9.09165939347615,TRUE,4.47831535780207
"CAN","cpi",0.2,1976,3,1976,NA,0,5.15946348534505,5.60021487101915,7.22784311401172,7.25911367403926,FALSE,4.5098219931555
"CAN","cpi",0.2,1976,3,1976,NA,0.5,9.60793333152441,11.4277372965903,7.22784311401172,7.22502565269042,FALSE,7.77002950884763
"CAN","cpi",0.2,1976,3,1975,NA,1,7.03759497377841,9.98002349911274,7.22784311401172,12.4780790437784,TRUE,2.94242852533433
"CAN","cpi",0.2,1976,3,1975,NA,1.5,5.32126261138682,8.26369113672114,7.22784311401172,7.18586013837568,TRUE,2.94242852533433
"CAN","cpi",0.2,1977,3,1977,NA,0,4.61080622498807,4.9616537930449,7.58101410153764,7.59139014959698,FALSE,6.89924833928869
"CAN","cpi",0.2,1977,3,1977,NA,0.5,8.70866520639044,10.146898296479,7.58101410153764,7.25038656554249,FALSE,4.25736085222055
"CAN","cpi",0.2,1977,3,1976,NA,1,3.00615470725793,4.82931927616589,7.58101410153764,5.92994518665441,FALSE,8.70240163233735
"CAN","cpi",0.2,1977,3,1976,NA,1.5,4.52989932563091,7.85746010794497,7.58101410153764,5.68954314963938,TRUE,3.32756078231406
"CAN","cpi",0.2,1978,3,1978,NA,0,5.02470062355402,5.44422068683044,8.50208927062595,8.68881076810062,FALSE,8.06419152276518
"CAN","cpi",0.2,1978,3,1978,NA,0.5,9.49925279114823,11.0985723278304,8.50208927062595,8.11208508764938,FALSE,4.09222833798793
"CAN","cpi",0.2,1978,3,1977,NA,1,4.60374909287696,6.84444698533036,8.50208927062595,8.34671923233743,FALSE,6.38480360569237
"CAN","cpi",0.2,1978,3,1977,NA,1.5,7.39656814715107,11.2617909221016,8.50208927062595,8.21410731625775,TRUE,3.86522277495052
"CAN","cpi",0.2,1979,3,1979,NA,0,5.20585111834612,5.64493154660541,8.65147652410481,8.56136533364911,FALSE,7.95544287200779
"CAN","cpi",0.2,1979,3,1979,NA,0.5,9.99200116362999,11.6657540611484,8.65147652410481,8.23092589685401,FALSE,5.02506449633136
"CAN","cpi",0.2,1979,3,1978,NA,1,4.80274164443623,7.7863054048542,8.65147652410481,9.66481845899329,FALSE,5.1464915585445
"CAN","cpi",0.2,1979,3,1978,NA,1.5,7.73956112611976,11.0692284599193,8.65147652410481,7.91014806370246,TRUE,3.32966733379958
"CAN","cpi",0.2,1980,3,1980,NA,0,5.55141824639397,6.03066064508624,9.5171912664748,9.53576705858497,FALSE,9.19556895216365
"CAN","cpi",0.2,1980,3,1980,NA,0.5,10.3813820695074,11.9700162502559,9.5171912664748,8.6434746104286,FALSE,3.74911118833002
"CAN","cpi",0.2,1980,3,1979,NA,1,3.08744900017767,5.54222009434622,9.5171912664748,7.78967249140325,FALSE,12.39219902449
"CAN","cpi",0.2,1980,3,1979,NA,1.5,8.47763364460358,11.7554111419495,9.5171912664748,8.29781572565185,TRUE,3.27777749734592
"CAN","cpi",0.2,1981,3,1981,NA,0,6.42290483304345,6.97535852708366,11.5813425032741,11.7120328235834,FALSE,12.0674136345164
"CAN","cpi",0.2,1981,3,1981,NA,0.5,13.3797218045442,15.4155617284802,11.5813425032741,12.3296185245412,FALSE,6.53178817711117
"CAN","cpi",0.2,1981,3,1980,NA,1,4.95090737313408,7.99925158133873,11.5813425032741,11.0356264341109,FALSE,12.0035715130432
"CAN","cpi",0.2,1981,3,1980,NA,1.5,8.47865531352513,11.6013481578694,11.5813425032741,8.52474858684185,TRUE,3.12269284434431
"CAN","cpi",0.2,1982,3,1982,NA,0,6.4590329352909,7.01940713210953,10.1124203763629,10.253224031375,FALSE,8.29290730745217
"CAN","cpi",0.2,1982,3,1982,NA,0.5,12.5878591234282,14.6517919922483,10.1124203763629,10.1221315066235,FALSE,8.25252973648315
"CAN","cpi",0.2,1982,3,1981,NA,1,4.12472535719354,7.36502411515386,10.1124203763629,11.652777546881,FALSE,10.108789410983
"CAN","cpi",0.2,1982,3,1981,NA,1.5,13.85410389121,18.1352257844347,10.1124203763629,13.2139534836213,FALSE,13.6353306803423
"CAN","cpi",0.2,1983,3,1983,NA,0,4.65670235329232,5.1359844034216,5.67091787896303,5.84362752346853,FALSE,1.81661573898286
"CAN","cpi",0.2,1983,3,1983,NA,0.5,8.19158677756652,9.60335768690317,5.67091787896303,4.70635148143536,FALSE,7.71344315584537
"CAN","cpi",0.2,1983,3,1982,NA,1,2.49577090725283,5.61125104468206,5.67091787896303,8.61437359933683,FALSE,3.26464722313166
"CAN","cpi",0.2,1983,3,1982,NA,1.5,9.80129972213383,12.9167798595631,5.67091787896303,9.84330302935538,FALSE,13.4414347453562
"CAN","cpi",0.2,1984,3,1984,NA,0,3.0392629524004,3.33056558447634,4.19799576814029,4.21315663178917,FALSE,2.45987809123581
"CAN","cpi",0.2,1984,3,1984,NA,0.5,6.32374512121704,7.35890682683652,4.19799576814029,4.73004206452632,FALSE,6.34953508831135
"CAN","cpi",0.2,1984,3,1983,NA,1,3.05145270787345,4.49773718537581,4.19799576814029,6.30529961834119,TRUE,1.44628447750236
"CAN","cpi",0.2,1984,3,1983,NA,1.5,2.14947364560582,3.59575812310818,4.19799576814029,2.81189439817776,FALSE,2.95187859008263
"CAN","cpi",0.2,1985,3,1985,NA,0,2.60587992772005,2.84141866577894,3.86444262005169,3.90546894544143,FALSE,2.79309862374078
"CAN","cpi",0.2,1985,3,1985,NA,0.5,5.15038306403652,5.97092690792064,3.86444262005169,4.0117649915267,FALSE,4.0353949538462
"CAN","cpi",0.2,1985,3,1984,NA,1,0.952865441588381,2.39722921963943,3.86444262005169,3.28942198062367,FALSE,5.11239727908171
"CAN","cpi",0.2,1985,3,1984,NA,1.5,5.26819190538355,7.11291581994528,3.86444262005169,4.67970369844593,FALSE,5.35409712789137
"CAN","cpi",0.2,1986,3,1986,NA,0,2.60538220136078,2.83186465253897,4.08685396749431,4.12727747445429,FALSE,3.36395573856654
"CAN","cpi",0.2,1986,3,1986,NA,0.5,5.33329247149177,6.22393479861582,4.08685396749431,4.57514120825518,FALSE,4.0067385871177
"CAN","cpi",0.2,1986,3,1985,NA,1,1.66572803776581,2.99641812867817,4.08685396749431,3.84501750700332,FALSE,4.05677968795272
"CAN","cpi",0.2,1986,3,1985,NA,1.5,5.11546571962663,6.48361322196974,4.08685396749431,4.51624000588938,FALSE,3.93967688267391
"CAN","cpi",0.2,1987,3,1987,NA,0,2.74602004787134,2.97997514879549,4.23980729277887,4.3376164199738,FALSE,3.3835354608826
"CAN","cpi",0.2,1987,3,1987,NA,0.5,4.83860503651419,5.71498148469465,4.23980729277887,3.8898385702312,FALSE,2.37337080751875
"CAN","cpi",0.2,1987,3,1986,NA,1,2.35233283998391,3.64817757567359,4.23980729277887,4.56284936423577,FALSE,2.77491902845289
"CAN","cpi",0.2,1987,3,1986,NA,1.5,5.91566550499848,7.21151024068816,4.23980729277887,5.15474659430673,FALSE,5.48549026623871
"CAN","cpi",0.2,1988,3,1988,NA,0,2.68270229308353,2.90804198697364,3.92899537638065,4.00028299604827,FALSE,2.77772316740764
"CAN","cpi",0.2,1988,3,1988,NA,0.5,4.62777668873815,5.46886961431185,3.92899537638065,3.53181278911538,FALSE,2.58804620646744
"CAN","cpi",0.2,1988,3,1987,NA,1,2.39981642352145,3.34879018265111,3.92899537638065,4.34173286045961,FALSE,2.39948674345352
"CAN","cpi",0.2,1988,3,1987,NA,1.5,4.2291497135378,5.17812347266747,3.92899537638065,3.76612293581706,FALSE,1.69935960202254
"CAN","cpi",0.2,1989,3,1989,NA,0,2.95857511891853,3.15758705136943,4.82821664544208,5.00606812502784,FALSE,4.37558591763252
"CAN","cpi",0.2,1989,3,1989,NA,0.5,5.24410926091288,6.00284546965469,4.82821664544208,4.51521437972404,FALSE,1.79846774741882
"CAN","cpi",0.2,1989,3,1988,NA,1,2.62703140192834,3.38576761067015,4.82821664544208,4.3270389784901,FALSE,4.36485879567164
"CAN","cpi",0.2,1989,3,1988,NA,1.5,3.89093409419271,4.64967030293452,4.82821664544208,3.42699250808196,FALSE,1.20510206501069
"CAN","cpi",0.2,1990,3,1990,NA,0,3.00201483765235,3.22993446566602,4.64347549432717,4.52171223749059,FALSE,3.76177219966655
"CAN","cpi",0.2,1990,3,1990,NA,0.5,6.0507143746209,6.92342984618482,4.64347549432717,5.22335253259958,FALSE,4.39081267229824
"CAN","cpi",0.2,1990,3,1989,NA,1,3.62086769732868,4.54840907198539,4.64347549432717,5.7236432392913,FALSE,1.16520743051117
"CAN","cpi",0.2,1990,3,1989,NA,1.5,5.68443402276244,6.61197539741915,4.64347549432717,4.92041342133377,FALSE,3.52993769574489
"CAN","cpi",0.2,1991,3,1991,NA,0,3.33747896568412,3.5800111426311,5.4258100696218,5.6161816682171,FALSE,4.85702949442371
"CAN","cpi",0.2,1991,3,1991,NA,0.5,8.4458021810505,9.46227092852258,5.4258100696218,8.8240510060175,FALSE,8.56644902604385
"CAN","cpi",0.2,1991,3,1990,NA,1,2.20906750875449,3.22553625622657,5.4258100696218,3.89170713423419,FALSE,6.51715328096015
"CAN","cpi",0.2,1991,3,1990,NA,1.5,6.48542206225774,7.50189080972982,5.4258100696218,5.70462042447442,FALSE,3.66549872906194
"CAN","cpi",0.2,1992,3,1992,NA,0,2.14943288232754,2.35016772811827,1.47496888572843,1.47544467241393,FALSE,1.8868948372885
"CAN","cpi",0.2,1992,3,1992,NA,0.5,3.39001073948596,4.12464298900647,1.47496888572843,1.36069384263819,FALSE,5.52223688391433
"CAN","cpi",0.2,1992,3,1991,NA,1,0.962333480631251,2.03243792937622,1.47496888572843,2.43500720778875,TRUE,1.07010444874497
"CAN","cpi",0.2,1992,3,1991,NA,1.5,12.8779062022968,14.4896655623156,1.47496888572843,11.2072976243743,FALSE,30.1191026514397
"CAN","cpi",0.2,1993,3,1993,NA,0,1.27035891284966,1.36172964994082,1.84351085411351,1.81496037239602,FALSE,1.29582374752289
"CAN","cpi",0.2,1993,3,1993,NA,0.5,2.7163028285634,3.14625499155764,1.84351085411351,2.43338635087472,FALSE,2.61193209911896
"CAN","cpi",0.2,1993,3,1992,NA,1,1.25386279842491,1.70592490659621,1.84351085411351,1.76228766319361,FALSE,0.796026976964555
"CAN","cpi",0.2,1993,3,1992,NA,1.5,1.91135208081425,2.36341418898556,1.84351085411351,1.598750613598,FALSE,0.621665174923159
"CAN","cpi",0.2,1994,3,1994,NA,0,0.844201651730046,0.917893314897019,0.161630694655448,0.220147227157928,FALSE,1.78011905585347
"CAN","cpi",0.2,1994,3,1994,NA,0.5,0.60196437056015,0.82462031475893,0.161630694655448,-0.741542526043691,FALSE,1.32349013396054
"CAN","cpi",0.2,1994,3,1993,NA,1,1.03949331658376,1.49153738089308,0.161630694655448,1.50794631797803,FALSE,2.64670061913011
"CAN","cpi",0.2,1994,3,1993,NA,1.5,3.20924639335945,3.66129045766877,0.161630694655448,2.81797717341095,FALSE,8.07108331106932
"CAN","cpi",0.2,1995,3,1995,NA,0,1.05123295251852,1.10928240159288,2.11688403676572,2.15484685959489,FALSE,2.57705353700646
"CAN","cpi",0.2,1995,3,1995,NA,0.5,2.61941164261066,2.82792711481951,2.11688403676572,2.90883921660758,FALSE,1.46483448682121
"CAN","cpi",0.2,1995,3,1994,NA,1,1.68759634633722,1.89611181854607,2.11688403676572,1.95173420121315,FALSE,0.760446017757967
"CAN","cpi",0.2,1995,3,1994,NA,1.5,-1.95603908789064,-1.74752361568179,2.11688403676572,-2.17983456081826,FALSE,9.86953460332761
"CAN","cpi",0.2,1996,3,1996,NA,0,1.3435504282795,1.42824611164729,1.55309584667184,1.44166889374788,FALSE,0.396820020929182
"CAN","cpi",0.2,1996,3,1996,NA,0.5,2.07549151665528,2.53121860743011,1.55309584667184,1.36236766996786,FALSE,1.76171626573341
"CAN","cpi",0.2,1996,3,1995,NA,1,0.508537483302921,1.06113838839605,1.55309584667184,0.911474268150699,FALSE,1.78249455078261
"CAN","cpi",0.2,1996,3,1995,NA,1.5,4.30947798390112,4.86207888899425,1.55309584667184,3.98784768949811,FALSE,7.44355624816632
"CAN","cpi",0.2,1997,3,1997,NA,0,1.27757320981191,1.36480754148357,1.60528783555959,1.68811714545079,FALSE,0.688435066861712
"CAN","cpi",0.2,1997,3,1997,NA,0.5,2.37463973012296,2.79589753403044,1.60528783555959,2.10620867662285,FALSE,2.34463754031591
"CAN","cpi",0.2,1997,3,1996,NA,1,0.554053777921101,0.975311581828579,1.60528783555959,0.758460286059383,FALSE,1.99619843823501
"CAN","cpi",0.2,1997,3,1996,NA,1.5,1.82228791094436,2.24354571485184,1.60528783555959,1.66287852692671,FALSE,0.963757992369405
"CAN","cpi",0.2,1998,3,1998,NA,0,1.05469137679366,1.12430569166304,0.988908029337191,0.970744023070627,FALSE,0.234072683510557
"CAN","cpi",0.2,1998,3,1998,NA,0.5,1.93138462236404,2.34972057645905,0.988908029337191,1.52096865004292,FALSE,2.77452743666213
"CAN","cpi",0.2,1998,3,1997,NA,1,0.853468733065503,1.27180468716051,0.988908029337191,1.03996058978499,TRUE,0.418335954095011
"CAN","cpi",0.2,1998,3,1997,NA,1.5,2.30804459645324,2.72638055054825,0.988908029337191,2.22059574107629,FALSE,3.71617737188514
"CAN","cpi",0.2,1999,3,1999,NA,0,1.17026948530652,1.23620404864931,1.7107350135213,1.79141464940687,FALSE,1.25226197552276
"CAN","cpi",0.2,1999,3,1999,NA,0.5,1.24230117451507,1.5347164741202,1.7107350135213,0.800552372711202,FALSE,0.732461648107869
"CAN","cpi",0.2,1999,3,1998,NA,1,0.513088891380541,0.805504190985679,1.7107350135213,0.474525424909611,FALSE,2.55549235594418
"CAN","cpi",0.2,1999,3,1998,NA,1.5,2.26367899142216,2.5560942910273,1.7107350135213,2.19776497346126,FALSE,1.6747752443573
"CAN","cpi",0.2,2000,3,2000,NA,0,1.68357530829929,1.76912160691672,2.6718361971244,2.73388860624727,FALSE,2.34233277413663
"CAN","cpi",0.2,2000,3,2000,NA,0.5,2.34394667133112,2.83098777104439,2.6718361971244,2.11525832235237,TRUE,0.487041099713272
"CAN","cpi",0.2,2000,3,1999,NA,1,2.30193793791834,2.78897903763161,2.6718361971244,2.81438082878813,TRUE,0.487041099713272
"CAN","cpi",0.2,2000,3,1999,NA,1.5,0.971519324810315,1.45856042452359,2.6718361971244,0.872413614651861,FALSE,3.5202305312153
"CAN","cpi",0.2,2001,3,2001,NA,0,1.95840478971719,2.0557943260655,2.47906219852806,2.73506715681632,FALSE,1.15555921750472
"CAN","cpi",0.2,2001,3,2001,NA,0.5,2.34571399073381,2.97047315810065,2.47906219852806,1.72363549629744,TRUE,0.624759167366843
"CAN","cpi",0.2,2001,3,2000,NA,1,2.96113180204279,3.58902836725155,2.47906219852806,3.73995761394105,FALSE,1.83307057399557
"CAN","cpi",0.2,2001,3,2000,NA,1.5,2.0073217075574,2.63521827276616,2.47906219852806,1.98299961497232,TRUE,0.627896565208765
"CAN","cpi",0.2,2002,3,2002,NA,0,1.7662375723787,1.85794684245832,2.20880570551249,2.3500140093739,FALSE,0.968856427715037
"CAN","cpi",0.2,2002,3,2002,NA,0.5,2.20814901003878,2.71094770496769,2.20880570551249,1.47074452365548,TRUE,0.502798694928906
"CAN","cpi",0.2,2002,3,2001,NA,1,0.678024372968028,1.18082306789693,2.20880570551249,0.79597273109289,FALSE,3.07275528896779
"CAN","cpi",0.2,2002,3,2001,NA,1.5,0.962593274458828,1.46539196938773,2.20880570551249,0.827019109774735,FALSE,2.36133303524079
"CAN","cpi",0.2,2003,3,2003,NA,0,1.8244221083248,1.91531603648945,2.71189071546809,2.76866538316948,FALSE,2.08233062561125
"CAN","cpi",0.2,2003,3,2003,NA,0.5,4.24512551904655,4.8372154988059,2.71189071546809,4.59645517963757,FALSE,4.42517698870549
"CAN","cpi",0.2,2003,3,2002,NA,1,3.43756778457085,4.05548798564244,2.71189071546809,4.33746529644743,FALSE,2.43211287382849
"CAN","cpi",0.2,2003,3,2002,NA,1.5,2.66010750655112,3.2780277076227,2.71189071546809,2.71468890277684,TRUE,0.617920201071584
"CAN","cpi",0.2,2004,3,2004,NA,0,1.63256187105547,1.72280983310733,1.83151661303942,1.7684769390021,FALSE,0.362014911882095
"CAN","cpi",0.2,2004,3,2004,NA,0.5,2.29958794193129,2.83956177783551,1.83151661303942,1.5625176897836,FALSE,1.71015215813388
"CAN","cpi",0.2,2004,3,2003,NA,1,1.13666014928797,1.76997477014754,1.83151661303942,1.41754396673829,FALSE,0.78716922808927
"CAN","cpi",0.2,2004,3,2003,NA,1.5,5.08343542478032,5.71675004563989,1.83151661303942,5.32651436309904,FALSE,8.76311165021181
"CAN","cpi",0.2,2005,3,2005,NA,0,1.6030877347619,1.6828698967217,2.18071628336509,2.38196957660787,FALSE,1.32439812856828
"CAN","cpi",0.2,2005,3,2005,NA,0.5,2.03006139907923,2.46409408661604,2.18071628336509,1.57253942332725,TRUE,0.434032687536801
"CAN","cpi",0.2,2005,3,2004,NA,1,0.928611746869888,1.36264443440669,2.18071628336509,0.993232956459974,FALSE,2.47921230993281
"CAN","cpi",0.2,2005,3,2004,NA,1.5,2.10167578406184,2.53570847159864,2.18071628336509,2.05989686108521,TRUE,0.434032687536801
"CAN","cpi",0.2,2006,3,2006,NA,0,1.58690635232425,1.67135204045851,1.97519342012289,2.0667253719809,FALSE,0.844049137295203
"CAN","cpi",0.2,2006,3,2006,NA,0.5,2.39811478154467,2.87889377969392,1.97519342012289,1.93779395271753,FALSE,1.53808240170371
"CAN","cpi",0.2,2006,3,2005,NA,1,2.85099848614699,3.33177748429625,1.97519342012289,3.47726378201784,FALSE,2.67029166320952
"CAN","cpi",0.2,2006,3,2005,NA,1.5,1.51282948172524,1.99360847987449,1.97519342012289,1.38669164389589,TRUE,0.480778998149252
"CAN","cpi",0.2,2007,3,2007,NA,0,1.54107172678557,1.61955944315387,2.10062087284572,2.10807340507977,FALSE,1.28114129059793
"CAN","cpi",0.2,2007,3,2006,NA,1,0.611836512968747,1.0181080533837,2.10062087284572,0.502333085291807,FALSE,3.11255358907001
"CAN","cpi",0.2,2007,3,2006,NA,1.5,2.05581716251805,2.462088702933,2.10062087284572,1.9704266811846,TRUE,0.40627154041495
"CAN","cpi",0.2,2008,3,2008,NA,0,1.85754215102227,1.95053437891166,2.31447335265955,2.95401501251803,FALSE,1.00283966225912
"CAN","cpi",0.2,2008,3,2008,NA,0.5,1.78343735655817,2.21880372504083,2.31447335265955,1.1596607753752,FALSE,0.674540437529465
"CAN","cpi",0.2,2008,3,2007,NA,1,0.566922580374573,1.00228894885724,2.31447335265955,0.365030180386173,FALSE,3.71582737798845
"CAN","cpi",0.2,2008,3,2007,NA,1.5,3.57210729778258,4.00747366626524,2.31447335265955,3.74970428078329,FALSE,3.57945123129023
"CAN","cpi",0.2,2009,3,2009,NA,0,1.0288924216749,1.09042211576042,0.284533874408197,0.277323060325678,FALSE,1.92242606225228
"CAN","cpi",0.2,2009,3,2009,NA,0.5,0.463851126612631,0.898844627597761,0.284533874408197,-0.926841850998946,FALSE,0.883286631496214
"CAN","cpi",0.2,2009,3,2008,NA,1,3.61841792676284,4.14466353585583,0.284533874408197,4.39167027484448,FALSE,8.8609557399796
"CAN","cpi",0.2,2009,3,2008,NA,1.5,1.46669966497788,1.99294527407087,0.284533874408197,1.30718110670587,FALSE,3.4816600855172
"CAN","cpi",0.2,2010,3,2010,NA,0,0.962613771818655,1.00407717822835,1.75525687020327,1.74893097969613,FALSE,1.919412636347
"CAN","cpi",0.2,2010,3,2010,NA,0.5,1.64971828550879,1.7946833520736,1.75525687020327,1.60514557059791,TRUE,0.144965066564815
"CAN","cpi",0.2,2010,3,2009,NA,1,0.827773734361707,0.972738800926522,1.75525687020327,0.646877121410091,FALSE,2.10126023975669
"CAN","cpi",0.2,2010,3,2009,NA,1.5,-0.699699800873426,-0.55473473430861,1.75525687020327,-1.29107136836179,FALSE,5.91994407784452
"CAN","cpi",0.2,2011,3,2011,NA,0,1.73772596766401,1.82130372990798,2.85717434028225,2.83658425111878,FALSE,2.67325428817964
"CAN","cpi",0.2,2011,3,2011,NA,0.5,2.84080850566741,3.30581885507193,2.85717434028225,2.89516877702572,TRUE,0.465010349404512
"CAN","cpi",0.2,2011,3,2010,NA,1,1.97835631892058,2.4433666683251,2.85717434028225,2.19120159589417,FALSE,1.49952952929739
"CAN","cpi",0.2,2011,3,2010,NA,1.5,2.02290846023862,2.48791880964313,2.85717434028225,1.9636150267392,FALSE,1.3881491760023
"CAN","cpi",0.2,2012,3,2012,NA,0,1.58497591827332,1.67557464635079,1.50118536134935,1.46012306845465,FALSE,0.300075120387408
"CAN","cpi",0.2,2012,3,2012,NA,0.5,2.38529351052631,2.9980315100755,1.50118536134935,1.81318735388827,FALSE,2.82300837249161
"CAN","cpi",0.2,2012,3,2011,NA,1,1.19493090576921,1.8076689053184,1.50118536134935,1.0674603716489,TRUE,0.612737999549189
"CAN","cpi",0.2,2012,3,2011,NA,1.5,3.24917732855606,3.86191532810525,1.50118536134935,3.26492178435033,FALSE,4.98271791756598
"CAN","cpi",0.2,2013,3,2013,NA,0,1.07494505089678,1.13253533026936,0.931270594714462,1.03964630394149,FALSE,0.416776419828375
"CAN","cpi",0.2,2013,3,2013,NA,0.5,1.61173421961977,1.95331111191215,0.931270594714462,1.16522799725517,FALSE,2.04273595455564
"CAN","cpi",0.2,2013,3,2012,NA,1,0.0382543477595449,0.379831240051926,0.931270594714462,-0.4587869493051,FALSE,1.72017527894872
"CAN","cpi",0.2,2013,3,2012,NA,1.5,2.0301977701557,2.37177466244808,0.931270594714462,1.87018597092114,FALSE,3.08889483089547
"CAN","cpi",0.2,2014,3,2014,NA,0,1.22542389368514,1.29050515332954,1.87639912240215,1.98941686448128,FALSE,1.52981618232592
"CAN","cpi",0.2,2014,3,2014,NA,0.5,2.1418680362972,2.47180430604056,1.87639912240215,2.28534818047506,FALSE,0.993608554480981
"CAN","cpi",0.2,2014,3,2013,NA,1,1.06316452117578,1.39310079091913,1.87639912240215,0.933988257976399,FALSE,1.53818209845089
"CAN","cpi",0.2,2014,3,2013,NA,1.5,1.81511297708672,2.14504924683007,1.87639912240215,1.74432822228681,TRUE,0.329936269743353
"CAN","cpi",0.2,2015,3,2015,NA,0,1.2467334953957,1.31470640994269,1.11090953952792,1.2616807067513,FALSE,0.407532804216441
"CAN","cpi",0.2,2015,3,2015,NA,0.5,1.01211935820848,1.44111095353572,1.11090953952792,0.218363095132572,TRUE,0.428991595327246
"CAN","cpi",0.2,2015,3,2014,NA,1,0.913397616169797,1.34238921149704,1.11090953952792,0.62327975322943,TRUE,0.428991595327246
"CAN","cpi",0.2,2015,3,2014,NA,1.5,3.37403765048445,3.91867642267537,1.11090953952792,3.54844533129153,FALSE,6.20245904958225
"CAN","cpi",0.2,2016,3,2016,NA,0,1.08985073739443,1.14945451354068,1.41168586698797,1.44403049252289,FALSE,0.715182159764457
"CAN","cpi",0.2,2016,3,2016,NA,0.5,1.30285626406741,1.63418284925875,1.41168586698797,0.943700860843074,TRUE,0.331326585191338
"CAN","cpi",0.2,2016,3,2015,NA,1,1.64014285879122,1.97146944398255,1.41168586698797,1.65805837950254,FALSE,0.902469064699464
"CAN","cpi",0.2,2016,3,2015,NA,1.5,0.557647993261724,0.888974578453062,1.41168586698797,0.212753204814446,FALSE,1.6381048065286
"CAN","cpi",0.2,2017,3,2017,NA,0,1.20384823337507,1.2633362302898,1.57888581671161,1.52172534057668,FALSE,0.848361962969263
"CAN","cpi",0.2,2017,3,2017,NA,0.5,2.18025595866116,2.57259397828555,1.57888581671161,2.17995751143343,FALSE,1.89576337449825
"CAN","cpi",0.2,2017,3,2016,NA,1,0.756757429607518,1.14909544923191,1.57888581671161,0.478660156386378,FALSE,1.46681393832364
"CAN","cpi",0.2,2017,3,2016,NA,1.5,1.25601432739398,1.64835234701838,1.57888581671161,1.04780579189651,TRUE,0.392338019624393
"CAN","cpi",0.2,2018,3,2018,NA,0,1.55395600225217,1.63116212321023,2.23316270166586,2.42606863838048,FALSE,1.58220756709714
"CAN","cpi",0.2,2018,3,2018,NA,0.5,2.70049019893172,3.14289869856191,2.23316270166586,3.02101124054505,FALSE,1.61072724279484
"CAN","cpi",0.2,2018,3,2017,NA,1,0.80423587842804,1.24664437805822,2.23316270166586,0.52369802733857,FALSE,2.90870430864927
"CAN","cpi",0.2,2018,3,2017,NA,1.5,2.87770250864977,3.32011100827995,2.23316270166586,3.08408184322128,FALSE,2.05375801708996
"CAN","cpi",0.2,2019,3,2019,NA,0,1.59166031356852,1.68692029627088,1.91921619871868,2.02292335146186,FALSE,0.675999738821859
"CAN","cpi",0.2,2019,3,2019,NA,0.5,1.98631764621288,2.58612541204717,1.91921619871868,1.7605507439285,FALSE,0.767561384569779
"CAN","cpi",0.2,2019,3,2018,NA,1,1.93856832483128,2.53837609066557,1.91921619871868,1.97136692329685,FALSE,0.648188081115788
"CAN","cpi",0.2,2019,3,2018,NA,1.5,3.79375747344193,4.39356523927623,1.91921619871868,4.13001487917394,FALSE,5.28616095264243
"CAN","cpi",0.2,2020,3,2020,NA,0,1.08635827744386,1.14811509303278,0.71139989671781,0.748237853268385,FALSE,0.999152767404054
"CAN","cpi",0.2,2020,3,2020,NA,0.5,1.59203836336005,2.06586965857096,0.71139989671781,1.20638084891419,FALSE,2.67542746181651
"CAN","cpi",0.2,2020,3,2019,NA,1,1.43356170520027,1.90739300041117,0.71139989671781,1.33625965438418,FALSE,2.27923581641705
"CAN","cpi",0.2,2020,3,2019,NA,1.5,2.42713261911063,2.90096391432154,0.71139989671781,2.47827605395127,FALSE,4.76316310119296
"CAN","cpi",0.2,2021,3,2021,NA,0,1.60798269736216,1.68641158560023,3.31148121717802,3.36073739108717,FALSE,4.14110296718256
"CAN","cpi",0.2,2021,3,2021,NA,0.5,2.2861787261264,2.64522189692801,3.31148121717802,2.87786599282032,FALSE,2.02469147142665
"CAN","cpi",0.2,2021,3,2020,NA,1,1.66502609640543,2.02406926720705,3.31148121717802,1.80567605729774,FALSE,3.57757304572906
"CAN","cpi",0.2,2021,3,2020,NA,1.5,1.42587611420937,1.78491928501099,3.31148121717802,1.36315122932478,FALSE,4.17544800121921
"CAN","cpi",0.2,2022,3,2022,NA,0,3.40459969096193,3.57420994368725,6.50977236228281,6.58141742776733,FALSE,7.50851629921421
"CAN","cpi",0.2,2022,3,2022,NA,0.5,5.24997366883987,6.22068682434507,6.50977236228281,6.74293883776587,FALSE,1.69342700034956
"CAN","cpi",0.2,2022,3,2021,NA,1,4.05594083717717,5.02665399268237,6.50977236228281,4.82564214996571,FALSE,4.6785090795063
"CAN","cpi",0.2,2022,3,2021,NA,1.5,3.55001779550496,4.52073095101016,6.50977236228281,3.93575064315212,FALSE,5.94331668368683
"CAN","cpi",0.2,2023,3,2023,NA,0,3.45630120373897,3.65498564885631,3.78831288758619,4.01453285616146,FALSE,0.53200254194205
"CAN","cpi",0.2,2023,3,2023,NA,0.5,3.75168537945005,5.19307358182818,3.78831288758619,3.07888421739245,TRUE,1.44138820237813
"CAN","cpi",0.2,2023,3,2022,NA,1,3.52162959330561,4.96301779568373,3.78831288758619,3.85673280569707,TRUE,1.44138820237813
"CAN","cpi",0.2,2023,3,2022,NA,1.5,7.21669700375888,8.65808520613701,3.78831288758619,8.07292283446253,FALSE,10.0123484928099
"CAN","cpi",0.2,2024,3,2023,NA,1,3.64653107695001,4.48250335261995,NA,4.07504753996503,NA,NA
"CAN","cpi",0.2,2024,3,2023,NA,1.5,2.51238233760815,3.34835461327808,NA,2.41529048319689,NA,NA
"CAN","cpi",0.3,1952,3,1952,NA,0,-30.6929856852948,-24.6751958676107,2.55562336095485,2.49651395855886,FALSE,83.8201304707285
"CAN","cpi",0.3,1952,3,1952,NA,0.5,-29.224190316181,-4.71922526067257,2.55562336095485,3.9078404779387,FALSE,45.2902468315868
"CAN","cpi",0.3,1952,3,1951,NA,1,-2.08003368634925,22.4249313691592,2.55562336095485,8.88778808098424,TRUE,24.5049650555084
"CAN","cpi",0.3,1952,3,1951,NA,1.5,-51.199333650381,-13.4479860942913,2.55562336095485,10.076419411745,FALSE,83.4759459996501
"CAN","cpi",0.3,1953,3,1953,NA,0,-2.13406121905808,-2.22100969662156,-1.01492775838436,-0.954275034924989,FALSE,3.35899991739994
"CAN","cpi",0.3,1953,3,1953,NA,0.5,-15.3106090138999,-14.1903022783892,-1.01492775838436,-2.19876634474816,FALSE,38.7642339355244
"CAN","cpi",0.3,1953,3,1952,NA,1,-15.5039186638993,-12.3914487280406,-1.01492775838436,-1.18145267469342,FALSE,35.616815563448
"CAN","cpi",0.3,1953,3,1952,NA,1.5,-19.1851911224228,-16.0727211865641,-1.01492775838436,0.93216905581622,FALSE,46.1347368735151
"CAN","cpi",0.3,1954,3,1954,NA,0,1.08333744104528,0.494932957764015,0.644425455961438,0.879731201855888,FALSE,1.09275118323663
"CAN","cpi",0.3,1954,3,1954,NA,0.5,1.50881199264788,0.920407509366623,0.644425455961438,-0.358875738913824,FALSE,1.88127133582287
"CAN","cpi",0.3,1954,3,1953,NA,1,11.7821904955251,11.1937860122439,0.644425455961438,3.38326531029323,FALSE,31.2337813440436
"CAN","cpi",0.3,1954,3,1953,NA,1.5,-6.30362906361402,-6.89203354689528,0.644425455961438,-2.85717744192413,FALSE,20.9443355248808
"CAN","cpi",0.3,1955,3,1955,NA,0,0.419991498736281,0.531949582015604,0.173649026558865,0.115254687233858,FALSE,0.815793718071941
"CAN","cpi",0.3,1955,3,1955,NA,0.5,-1.17225714040689,-0.776051661476376,0.173649026558865,-0.770970046821609,FALSE,3.10963601617406
"CAN","cpi",0.3,1955,3,1954,NA,1,7.72281254530314,10.7286791250579,0.173649026558865,3.47019599757395,FALSE,24.5749052047384
"CAN","cpi",0.3,1955,3,1954,NA,1.5,-11.4647657561781,-8.45889917642334,0.173649026558865,-1.89562740163941,FALSE,27.6702900168467
"CAN","cpi",0.3,1956,3,1956,NA,0,1.04355077062378,1.07989197545704,1.32752769429961,1.56059797998755,FALSE,0.743871830097743
"CAN","cpi",0.3,1956,3,1956,NA,0.5,-0.407119894420826,-0.370778689587574,1.32752769429961,-0.709146002056511,FALSE,4.88864515879663
"CAN","cpi",0.3,1956,3,1955,NA,1,1.4990905434481,2.67322158342829,1.32752769429961,0.884549626974225,FALSE,1.66431060897588
"CAN","cpi",0.3,1956,3,1955,NA,1.5,-6.99556212326327,-5.82143108328308,1.32752769429961,-1.89150615642833,FALSE,21.5997275473593
"CAN","cpi",0.3,1957,3,1957,NA,0,1.77397452176517,2.22677663456387,3.24684755852518,3.4151370317006,FALSE,3.36729046697385
"CAN","cpi",0.3,1957,3,1957,NA,0.5,2.94103357620947,4.97088729324316,3.24684755852518,2.23982631608766,TRUE,2.02985371703369
"CAN","cpi",0.3,1957,3,1956,NA,1,8.93733649313312,14.913251520248,3.24684755852518,6.98754636690555,FALSE,22.2344548402804
"CAN","cpi",0.3,1957,3,1956,NA,1.5,-12.9639783537426,-6.98806332662779,3.24684755852518,-1.88668623310337,FALSE,35.2185175561233
"CAN","cpi",0.3,1958,3,1958,NA,0,1.71167696059917,2.03161128107244,2.33186388641149,2.22387249143335,FALSE,1.17779890715627
"CAN","cpi",0.3,1958,3,1958,NA,0.5,3.3128644159212,5.22678785120609,2.33186388641149,2.22839060734872,FALSE,4.71678209102693
"CAN","cpi",0.3,1958,3,1957,NA,1,1.24045452000064,6.00731538753832,2.33186388641149,4.42088197051908,TRUE,4.76686086753768
"CAN","cpi",0.3,1958,3,1957,NA,1.5,-13.8271821371391,-9.06032126960144,2.33186388641149,0.91301479707402,FALSE,37.3159613132889
"CAN","cpi",0.3,1959,3,1959,NA,0,1.2222546591728,1.4628066798862,1.19382698397654,1.24991216431293,FALSE,0.321773949845569
"CAN","cpi",0.3,1959,3,1959,NA,0.5,1.36776949277987,2.24085862390369,1.19382698397654,0.437839731590327,FALSE,1.37006772770476
"CAN","cpi",0.3,1959,3,1958,NA,1,-0.55593044249026,1.60382131836041,1.19382698397654,1.75862762885946,TRUE,2.15975176085067
"CAN","cpi",0.3,1959,3,1958,NA,1.5,-7.8450817028888,-5.68532994203814,1.19382698397654,1.77407172713766,FALSE,21.8144858351783
"CAN","cpi",0.3,1960,3,1960,NA,0,0.905968988401385,1.06305684034162,1.34209404870695,1.02361304259477,FALSE,0.954337018698316
"CAN","cpi",0.3,1960,3,1960,NA,0.5,1.34384710922075,1.82580085517954,1.34209404870695,0.53898348018166,FALSE,0.48696249028392
"CAN","cpi",0.3,1960,3,1959,NA,1,3.11942301815951,5.41309110197343,1.34209404870695,3.95759373689442,FALSE,7.37175085367838
"CAN","cpi",0.3,1960,3,1959,NA,1.5,-6.3758665028778,-4.08219841906388,1.34209404870695,-0.873476815404885,FALSE,17.7916465631592
"CAN","cpi",0.3,1961,3,1961,NA,0,0.950542494535288,1.15722818865783,1.00921348094007,1.00921348094007,TRUE,0.206685694122544
"CAN","cpi",0.3,1961,3,1961,NA,0.5,1.81945922570097,2.40436228360351,1.00921348094007,1.00921348094007,FALSE,2.89989090007652
"CAN","cpi",0.3,1961,3,1960,NA,1,-0.921826802483858,-0.213443977701254,1.00921348094007,0.0537704626035329,FALSE,4.20168984947211
"CAN","cpi",0.3,1961,3,1960,NA,1.5,-5.52721169900788,-4.71881724644976,1.00921348094007,-0.862181798940035,FALSE,17.1741965308148
"CAN","cpi",0.3,1962,3,1962,NA,0,0.929174397735148,1.1089733401482,1.04957947883042,1.10232402731478,TRUE,0.179798942413051
"CAN","cpi",0.3,1962,3,1962,NA,0.5,0.777013650599215,1.10174611931896,1.04957947883042,0,TRUE,0.324732468719741
"CAN","cpi",0.3,1962,3,1961,NA,1,-0.376097389966524,0.0348383819441324,1.04957947883042,0,FALSE,3.31019604872861
"CAN","cpi",0.3,1962,3,1961,NA,1.5,-3.18032944681971,-2.76939367490905,1.04957947883042,0,FALSE,11.3222876397377
"CAN","cpi",0.3,1963,3,1963,NA,0,1.22540604839885,1.43487546447082,1.60677118395228,1.91491729531202,FALSE,0.70060004316186
"CAN","cpi",0.3,1963,3,1963,NA,0.5,1.52042163299281,1.97012402931644,1.60677118395228,0.836828714617504,TRUE,0.449702396323627
"CAN","cpi",0.3,1963,3,1962,NA,1,1.96594443032669,2.88862422603264,1.60677118395228,2.56411490415144,FALSE,1.9488890710614
"CAN","cpi",0.3,1963,3,1962,NA,1.5,-2.63790734226121,-1.71522754655526,1.60677118395228,0,FALSE,10.4141047400132
"CAN","cpi",0.3,1964,3,1964,NA,0,1.35123893001297,1.58833598115432,1.88764670034376,1.98877256446048,FALSE,1.09227053453975
"CAN","cpi",0.3,1964,3,1964,NA,0.5,2.12428668638375,2.67036598390671,1.88764670034376,1.38369006227607,FALSE,1.2221935433515
"CAN","cpi",0.3,1964,3,1963,NA,1,4.08347224746969,5.46562149249109,1.88764670034376,5.39044290347256,FALSE,7.65593652252406
"CAN","cpi",0.3,1964,3,1963,NA,1.5,-3.15758762743132,-1.77543838240993,1.88764670034376,0,FALSE,11.8481066243176
"CAN","cpi",0.3,1965,3,1965,NA,0,1.5394770237529,1.78583785371735,2.29538304394236,2.34557047418999,FALSE,1.70220423060734
"CAN","cpi",0.3,1965,3,1965,NA,0.5,2.40353094759817,2.94592529339658,2.29538304394236,1.61079447956654,FALSE,0.851388356243586
"CAN","cpi",0.3,1965,3,1964,NA,1,1.60147213286376,2.28885603153796,2.29538304394236,2.42518862179847,FALSE,0.706032505543914
"CAN","cpi",0.3,1965,3,1964,NA,1.5,-1.85586616428165,-1.16848226560745,2.29538304394236,0.818102552316399,FALSE,10.5841419259594
"CAN","cpi",0.3,1966,3,1966,NA,0,2.15294375355053,2.46245133759811,3.72486065470629,3.82010987863709,FALSE,3.91639134721381
"CAN","cpi",0.3,1966,3,1966,NA,0.5,4.41970856954389,5.1683840833624,3.72486065470629,3.99123398895563,FALSE,2.73395527049736
"CAN","cpi",0.3,1966,3,1965,NA,1,2.21954047987077,3.15418656456132,3.72486065470629,3.20722068745854,FALSE,2.56514348510474
"CAN","cpi",0.3,1966,3,1965,NA,1.5,-1.17467770996172,-0.240031625271164,3.72486065470629,1.60663824631958,FALSE,12.262909741769
"CAN","cpi",0.3,1967,3,1967,NA,0,2.47835960952862,2.80067173396487,3.49360316391996,3.76768849328632,FALSE,2.30211621002223
"CAN","cpi",0.3,1967,3,1967,NA,0.5,3.62784363345012,4.30282893410591,3.49360316391996,2.4074547441976,FALSE,1.0585294993134
"CAN","cpi",0.3,1967,3,1966,NA,1,1.97154498450371,3.49461234873723,3.49360316391996,3.18103323070284,TRUE,1.52306736423353
"CAN","cpi",0.3,1967,3,1966,NA,1.5,1.2749736127091,2.79804097694262,3.49360316391996,4.65128160487248,FALSE,3.51038789845448
"CAN","cpi",0.3,1968,3,1968,NA,0,2.54428684534578,2.88181157288315,3.95128347779386,4.17287945672396,FALSE,3.39315874156796
"CAN","cpi",0.3,1968,3,1968,NA,0.5,4.79445140232053,5.80603853273799,3.95128347779386,4.07097205779852,FALSE,3.42063834335082
"CAN","cpi",0.3,1968,3,1967,NA,1,4.44149800974273,6.58429301884531,3.95128347779386,5.84521682123848,FALSE,3.54340795752793
"CAN","cpi",0.3,1968,3,1967,NA,1.5,-0.384750050452945,1.75804495864964,3.95128347779386,2.25565858240226,FALSE,8.40919077808607
"CAN","cpi",0.3,1969,3,1969,NA,0,2.80329109902497,3.14687442897106,4.42679496126681,4.59520664360618,FALSE,4.00049913650539
"CAN","cpi",0.3,1969,3,1969,NA,0.5,4.11540243843402,4.94063147537074,4.42679496126681,2.96612019395715,TRUE,0.825229036936719
"CAN","cpi",0.3,1969,3,1968,NA,1,4.90379434393916,7.81840337860879,4.42679496126681,6.72487630040807,FALSE,4.27746441373347
"CAN","cpi",0.3,1969,3,1968,NA,1.5,1.9675609924487,4.88217002711833,4.42679496126681,4.31664452944541,TRUE,2.91460903466963
"CAN","cpi",0.3,1970,3,1970,NA,0,2.5752846321237,2.87404748273181,3.28128405769805,3.60761538249925,FALSE,1.46229592194022
"CAN","cpi",0.3,1970,3,1970,NA,0.5,5.3788046487703,6.54219064284359,3.28128405769805,4.36016077421692,FALSE,7.15630196856543
"CAN","cpi",0.3,1970,3,1969,NA,1,3.48346101913905,5.78104527466909,3.28128405769805,4.91369447805135,FALSE,2.87523271679005
"CAN","cpi",0.3,1970,3,1969,NA,1.5,-0.378945984804614,1.91863827072543,3.28128405769805,2.07973847283129,FALSE,6.19085793259466
"CAN","cpi",0.3,1971,3,1971,NA,0,2.05674354347066,2.29742597164692,2.64123406634756,2.91872900980337,FALSE,1.22299127017809
"CAN","cpi",0.3,1971,3,1971,NA,0.5,2.67370025735382,3.32007267628814,2.64123406634756,1.38357105636307,FALSE,0.739132964666486
"CAN","cpi",0.3,1971,3,1970,NA,1,2.11159439765943,4.11244381064985,2.64123406634756,3.17686610979278,TRUE,2.00084941299042
"CAN","cpi",0.3,1971,3,1970,NA,1.5,3.87787805374086,7.02007382090858,2.64123406634756,4.62066312326275,FALSE,6.67546430257715
"CAN","cpi",0.3,1972,3,1972,NA,0,2.67049484171308,2.98343881307498,4.83230569625923,5.17210692165851,FALSE,5.59542078045975
"CAN","cpi",0.3,1972,3,1972,NA,0.5,5.0230363450143,6.26534103467808,4.83230569625923,4.76224255478946,FALSE,1.78724940039255
"CAN","cpi",0.3,1972,3,1971,NA,1,5.51537951353202,8.03209006923766,4.83230569625923,6.83863498061675,FALSE,4.46835003362789
"CAN","cpi",0.3,1972,3,1971,NA,1.5,1.04474569719023,3.56145625289587,4.83230569625923,1.95441162589064,FALSE,6.14770896531524
"CAN","cpi",0.3,1973,3,1973,NA,0,3.96219907647939,4.407917193485,7.12388603531779,7.41057825703995,FALSE,8.20562909367073
"CAN","cpi",0.3,1973,3,1973,NA,0.5,6.91955587452805,8.50346958935846,7.12388603531779,6.24191401313708,TRUE,1.58391371483041
"CAN","cpi",0.3,1973,3,1972,NA,1,5.74089872526982,9.820421572207,7.12388603531779,8.12590883681935,TRUE,4.07952284693718
"CAN","cpi",0.3,1973,3,1972,NA,1.5,4.48693043958227,8.56645328651945,7.12388603531779,4.96130694391223,TRUE,4.07952284693718
"CAN","cpi",0.3,1974,3,1974,NA,0,5.41723156844162,6.11459216245965,10.2717243737774,10.2919804098732,FALSE,12.5748811977831
"CAN","cpi",0.3,1974,3,1974,NA,0.5,9.86389210314842,12.0453975205346,10.2717243737774,9.01679902243293,TRUE,2.18150541738619
"CAN","cpi",0.3,1974,3,1973,NA,1,7.67972745628545,13.3309462375537,10.2717243737774,11.5076386824751,TRUE,5.6512187812683
"CAN","cpi",0.3,1974,3,1973,NA,1.5,6.48968798738128,12.2843872011247,10.2717243737774,7.03851017911898,TRUE,5.7946992137434
"CAN","cpi",0.3,1975,3,1975,NA,0,6.1063965991117,6.84270798545964,10.0232981493341,10.3166994702432,FALSE,9.82371185456075
"CAN","cpi",0.3,1975,3,1975,NA,0.5,10.7035941408335,13.5111629573634,10.0232981493341,8.87817825771755,FALSE,4.75127164938539
"CAN","cpi",0.3,1975,3,1974,NA,1,6.46012801414224,11.7208615917644,10.0232981493341,11.6634485116586,TRUE,5.26073357762214
"CAN","cpi",0.3,1975,3,1974,NA,1.5,7.89052186185764,13.1512554394798,10.0232981493341,9.09165939347615,TRUE,5.26073357762214
"CAN","cpi",0.3,1976,3,1976,NA,0,5.0402755170366,5.7059439353336,7.22784311401172,7.25911367403926,FALSE,5.01395178594877
"CAN","cpi",0.3,1976,3,1976,NA,0.5,9.08671305620447,11.7246120461157,7.22784311401172,7.22502565269042,FALSE,7.94895596760478
"CAN","cpi",0.3,1976,3,1975,NA,1,6.44810758515436,10.8602056057867,7.22784311401172,12.4780790437784,TRUE,4.4120980206323
"CAN","cpi",0.3,1976,3,1975,NA,1.5,4.5802066520791,8.9923046727114,7.22784311401172,7.18586013837568,TRUE,4.4120980206323
"CAN","cpi",0.3,1977,3,1977,NA,0,4.49362438373384,5.05501970188518,7.58101410153764,7.59139014959698,FALSE,7.77852217430123
"CAN","cpi",0.3,1977,3,1977,NA,0.5,8.1660932238715,10.5014695557477,7.58101410153764,7.25038656554249,FALSE,4.00703096711575
"CAN","cpi",0.3,1977,3,1976,NA,1,2.34528911981032,5.38869940014994,7.58101410153764,5.92994518665441,FALSE,9.30716657001878
"CAN","cpi",0.3,1977,3,1976,NA,1.5,3.60695321602096,8.29878081025391,7.58101410153764,5.68954314963938,TRUE,4.69182759423295
"CAN","cpi",0.3,1978,3,1978,NA,0,4.93477766761731,5.54354482877565,8.50208927062595,8.68881076810062,FALSE,9.06175128073063
"CAN","cpi",0.3,1978,3,1978,NA,0.5,8.93098296670663,11.4463419090047,8.50208927062595,8.11208508764938,FALSE,3.74076950252859
"CAN","cpi",0.3,1978,3,1977,NA,1,3.82352811273619,7.53461192373015,8.50208927062595,8.34671923233743,FALSE,6.47530480212481
"CAN","cpi",0.3,1978,3,1977,NA,1.5,6.3554600069702,11.7327883800225,8.50208927062595,8.21410731625775,TRUE,5.37732837305231
"CAN","cpi",0.3,1979,3,1979,NA,0,5.08418723044853,5.74985181778899,8.65147652410481,8.56136533364911,FALSE,8.95602089109995
"CAN","cpi",0.3,1979,3,1979,NA,0.5,9.43131272379598,12.0536519093976,8.65147652410481,8.23092589685401,FALSE,4.85044261329062
"CAN","cpi",0.3,1979,3,1978,NA,1,4.04904018971246,8.26042344386502,8.65147652410481,9.66481845899329,FALSE,5.32867776912338
"CAN","cpi",0.3,1979,3,1978,NA,1.5,6.26237064914029,11.9842623779747,8.65147652410481,7.91014806370246,TRUE,5.72189172883442
"CAN","cpi",0.3,1980,3,1980,NA,0,5.40679865872779,6.14488701388085,9.5171912664748,9.53576705858497,FALSE,10.3732433625643
"CAN","cpi",0.3,1980,3,1980,NA,0.5,9.80091696294071,12.3922941901352,9.5171912664748,8.6434746104286,FALSE,3.40202207424
"CAN","cpi",0.3,1980,3,1979,NA,1,2.59736251514048,6.2385164064687,9.5171912664748,7.78967249140325,FALSE,13.0087963484885
"CAN","cpi",0.3,1980,3,1979,NA,1.5,7.10171340335466,12.4525329717313,9.5171912664748,8.29781572565185,TRUE,5.35081956837665
"CAN","cpi",0.3,1981,3,1981,NA,0,6.27699284719129,7.16761736519561,11.5813425032741,11.7120328235834,FALSE,13.5012677696573
"CAN","cpi",0.3,1981,3,1981,NA,0.5,12.7686885719728,16.0012771433665,11.5813425032741,12.3296185245412,FALSE,6.62500591053273
"CAN","cpi",0.3,1981,3,1980,NA,1,4.52737572949644,8.71810107688153,11.5813425032741,11.0356264341109,FALSE,12.3714151370783
"CAN","cpi",0.3,1981,3,1980,NA,1.5,6.96399396810347,12.69510715155,11.5813425032741,8.52474858684185,TRUE,5.73111318344649
"CAN","cpi",0.3,1982,3,1982,NA,0,6.25402420174693,7.19902769648162,10.1124203763629,10.253224031375,FALSE,9.2689825801099
"CAN","cpi",0.3,1982,3,1982,NA,0.5,12.0697133086214,15.1445695067611,10.1124203763629,10.1221315066235,FALSE,8.66712171887824
"CAN","cpi",0.3,1982,3,1981,NA,1,3.34382109578108,8.42775707408118,10.1124203763629,11.652777546881,FALSE,9.89725969910514
"CAN","cpi",0.3,1982,3,1981,NA,1.5,11.9142056332701,18.6503262413546,10.1124203763629,13.2139534836213,FALSE,11.8840784849622
"CAN","cpi",0.3,1983,3,1983,NA,0,4.53254215605273,5.2514330898696,5.67091787896303,5.84362752346853,FALSE,1.91741890265525
"CAN","cpi",0.3,1983,3,1983,NA,0.5,7.71027528691387,9.90489046362069,5.67091787896303,4.70635148143536,FALSE,8.02135062799492
"CAN","cpi",0.3,1983,3,1982,NA,1,1.79694605666139,6.394825345595,5.67091787896303,8.61437359933683,TRUE,4.5978792889336
"CAN","cpi",0.3,1983,3,1982,NA,1.5,8.75892027366038,13.356799562594,5.67091787896303,9.84330302935538,FALSE,13.4207432737832
"CAN","cpi",0.3,1984,3,1984,NA,0,2.95534844955,3.41350153304201,4.19799576814029,4.21315663178917,FALSE,2.6995651837728
"CAN","cpi",0.3,1984,3,1984,NA,0.5,6.10566548840102,7.59196852449597,4.19799576814029,4.73004206452632,FALSE,6.93678795112561
"CAN","cpi",0.3,1984,3,1983,NA,1,2.57843135646299,4.88954784231293,4.19799576814029,6.30529961834119,TRUE,2.31111648584994
"CAN","cpi",0.3,1984,3,1983,NA,1.5,1.52819479463443,3.83931128048437,4.19799576814029,2.81189439817776,FALSE,3.33592930772399
"CAN","cpi",0.3,1985,3,1985,NA,0,2.51778170492999,2.90821431716066,3.86444262005169,3.90546894544143,FALSE,3.12251347763362
"CAN","cpi",0.3,1985,3,1985,NA,0.5,4.91445304580078,6.25043439675686,3.86444262005169,4.0117649915267,FALSE,4.33601113881061
"CAN","cpi",0.3,1985,3,1984,NA,1,0.603428180425193,2.7902245621906,3.86444262005169,3.28942198062367,FALSE,5.2559908327971
"CAN","cpi",0.3,1985,3,1984,NA,1.5,4.66683868004291,7.46691005664382,3.86444262005169,4.67970369844593,FALSE,5.09263154800439
"CAN","cpi",0.3,1986,3,1986,NA,0,2.53473314834099,2.89415926068481,4.08685396749431,4.12727747445429,FALSE,3.76712527465667
"CAN","cpi",0.3,1986,3,1986,NA,0.5,5.07270986081371,6.45773302633485,4.08685396749431,4.57514120825518,FALSE,4.20175428929086
"CAN","cpi",0.3,1986,3,1985,NA,1,1.35885054800731,3.25969402363804,4.08685396749431,3.84501750700332,FALSE,4.26415760093436
"CAN","cpi",0.3,1986,3,1985,NA,1.5,4.73150509536796,6.68014075473689,4.08685396749431,4.51624000588938,FALSE,3.79049602472221
"CAN","cpi",0.3,1987,3,1987,NA,0,2.6775071810065,3.01984861654098,4.23980729277887,4.3376164199738,FALSE,3.82793765335704
"CAN","cpi",0.3,1987,3,1987,NA,0.5,4.48535358507824,5.94271177608167,4.23980729277887,3.8898385702312,FALSE,2.15891902614449
"CAN","cpi",0.3,1987,3,1986,NA,1,2.10911664611873,4.10008140867052,4.23980729277887,4.56284936423577,FALSE,2.39018157428993
"CAN","cpi",0.3,1987,3,1986,NA,1.5,5.52144137377081,7.60949329791567,4.23980729277887,5.15474659430673,FALSE,5.74986358412183
"CAN","cpi",0.3,1988,3,1988,NA,0,2.61849982258396,2.94344829027478,3.92899537638065,4.00028299604827,FALSE,3.14079728513617
"CAN","cpi",0.3,1988,3,1988,NA,0.5,4.34847364756654,5.68132805608226,3.92899537638065,3.53181278911538,FALSE,2.53136375476111
"CAN","cpi",0.3,1988,3,1987,NA,1,2.16525564105142,3.60727131766295,3.92899537638065,4.34173286045961,FALSE,2.36122727294783
"CAN","cpi",0.3,1988,3,1987,NA,1.5,4.02393007301285,5.46594574962438,3.92899537638065,3.76612293581706,FALSE,1.71325766698923
"CAN","cpi",0.3,1989,3,1989,NA,0,2.89048868657281,3.19784880866617,4.82821664544208,5.00606812502784,FALSE,4.9655539414531
"CAN","cpi",0.3,1989,3,1989,NA,0.5,4.9732820946813,6.24000062452564,4.82821664544208,4.51521437972404,FALSE,1.6811912419564
"CAN","cpi",0.3,1989,3,1988,NA,1,2.33277748976008,3.59949601960442,4.82821664544208,4.3270389784901,FALSE,4.77734888938051
"CAN","cpi",0.3,1989,3,1988,NA,1.5,3.71142087697549,4.97813940681983,4.82821664544208,3.42699250808196,TRUE,1.26671852984434
"CAN","cpi",0.3,1990,3,1990,NA,0,2.94367373188901,3.27025928907357,4.64347549432717,4.52171223749059,FALSE,4.25006042933771
"CAN","cpi",0.3,1990,3,1990,NA,0.5,5.81578524011013,7.21091114967134,4.64347549432717,5.22335253259958,FALSE,4.74458232608394
"CAN","cpi",0.3,1990,3,1989,NA,1,3.15716906998561,4.84384055233378,4.64347549432717,5.7236432392913,TRUE,1.68667148234817
"CAN","cpi",0.3,1990,3,1989,NA,1.5,5.30272637966899,6.98939786201716,4.64347549432717,4.92041342133377,FALSE,3.57024544046765
"CAN","cpi",0.3,1991,3,1991,NA,0,3.26496557770591,3.62775569688399,5.4258100696218,5.6161816682171,FALSE,5.50008832700038
"CAN","cpi",0.3,1991,3,1991,NA,0.5,8.24917347492369,9.83183034568908,5.4258100696218,8.8240510060175,FALSE,9.64940945734223
"CAN","cpi",0.3,1991,3,1990,NA,1,1.8598283540936,3.442485224859,5.4258100696218,3.89170713423419,FALSE,7.24929928437339
"CAN","cpi",0.3,1991,3,1990,NA,1.5,6.26345544535114,7.84611231611653,5.4258100696218,5.70462042447442,FALSE,3.97592937284923
"CAN","cpi",0.3,1992,3,1992,NA,0,2.0990079101913,2.37301430045495,1.47496888572843,1.47544467241393,FALSE,2.05697503158613
"CAN","cpi",0.3,1992,3,1992,NA,0.5,3.1453546201164,4.30038375628739,1.47496888572843,1.36069384263819,FALSE,5.92755980585089
"CAN","cpi",0.3,1992,3,1991,NA,1,0.575785775630802,2.26657609140002,1.47496888572843,2.43500720778875,TRUE,1.69079031576922
"CAN","cpi",0.3,1992,3,1991,NA,1.5,12.5629673224008,14.8947644948273,1.47496888572843,11.2072976243743,FALSE,34.011792705776
"CAN","cpi",0.3,1993,3,1993,NA,0,1.24383207788845,1.3758513980258,1.84351085411351,1.81496037239602,FALSE,1.46818919467367
"CAN","cpi",0.3,1993,3,1993,NA,0.5,2.6157233283929,3.27700675000817,1.84351085411351,2.43338635087472,FALSE,2.86760477669923
"CAN","cpi",0.3,1993,3,1992,NA,1,1.12676761172469,1.78805103333995,1.84351085411351,1.76228766319361,FALSE,0.819740052396863
"CAN","cpi",0.3,1993,3,1992,NA,1.5,1.83237802830229,2.49366144991755,1.84351085411351,1.598750613598,TRUE,0.661283421615266
"CAN","cpi",0.3,1994,3,1994,NA,0,0.827297794893226,0.931445891205514,0.161630694655448,0.220147227157928,FALSE,2.00605409699165
"CAN","cpi",0.3,1994,3,1994,NA,0.5,0.434693482237416,0.872636900333177,0.161630694655448,-0.741542526043691,FALSE,1.2181228111871
"CAN","cpi",0.3,1994,3,1993,NA,1,0.848380226772471,1.63203019970159,0.161630694655448,1.50794631797803,FALSE,2.74579149326347
"CAN","cpi",0.3,1994,3,1993,NA,1.5,3.02493998061808,3.8085899535472,0.161630694655448,2.81797717341095,FALSE,8.96453364710808
"CAN","cpi",0.3,1995,3,1995,NA,0,1.03129490846549,1.12196153939279,2.11688403676572,2.15484685959489,FALSE,2.9333023377071
"CAN","cpi",0.3,1995,3,1995,NA,0.5,2.61283616438047,2.87579775392905,2.11688403676572,2.90883921660758,FALSE,1.67996766844788
"CAN","cpi",0.3,1995,3,1994,NA,1,1.68074682828496,1.94370841783354,2.11688403676572,1.95173420121315,FALSE,0.75774907221194
"CAN","cpi",0.3,1995,3,1994,NA,1.5,-1.96916273614831,-1.70620114659973,2.11688403676572,-2.17983456081826,FALSE,11.1860621134498
"CAN","cpi",0.3,1996,3,1996,NA,0,1.3050522993036,1.44567911906867,1.55309584667184,1.44166889374788,FALSE,0.447531755774129
"CAN","cpi",0.3,1996,3,1996,NA,0.5,1.88358750357655,2.63131790739794,1.55309584667184,1.36236766996786,FALSE,1.69199228069199
"CAN","cpi",0.3,1996,3,1995,NA,1,0.195830084660825,1.2452008714096,1.55309584667184,0.911474268150699,FALSE,1.92907071606948
"CAN","cpi",0.3,1996,3,1995,NA,1.5,4.01354165896768,5.06291244571645,1.55309584667184,3.98784768949811,FALSE,8.07921596473689
"CAN","cpi",0.3,1997,3,1997,NA,0,1.25024027919182,1.37901280576925,1.60528783555959,1.68811714545079,FALSE,0.775272611692693
"CAN","cpi",0.3,1997,3,1997,NA,0.5,2.22432123048956,2.92653171325639,1.60528783555959,2.10620867662285,FALSE,2.47087732542388
"CAN","cpi",0.3,1997,3,1996,NA,1,0.412345451244424,1.11455593401126,1.60528783555959,0.758460286059383,FALSE,2.10430163004778
"CAN","cpi",0.3,1997,3,1996,NA,1.5,1.69352864478632,2.39573912755316,1.60528783555959,1.66287852692671,FALSE,0.954327080557491
"CAN","cpi",0.3,1998,3,1998,NA,0,1.03619643926447,1.13695825206396,0.988908029337191,0.970744023070627,FALSE,0.235871555448857
"CAN","cpi",0.3,1998,3,1998,NA,0.5,1.76443135654967,2.46032661070983,0.988908029337191,1.52096865004292,FALSE,2.91167618905295
"CAN","cpi",0.3,1998,3,1997,NA,1,0.70766083721885,1.40600988394056,0.988908029337191,1.03996058978499,TRUE,0.698349046721709
"CAN","cpi",0.3,1998,3,1997,NA,1.5,2.19131076304732,2.88965980976902,0.988908029337191,2.22059574107629,FALSE,4.13378542875064
"CAN","cpi",0.3,1999,3,1999,NA,0,1.15005429293266,1.25177441082175,1.7107350135213,1.79141464940687,FALSE,1.41303612560208
"CAN","cpi",0.3,1999,3,1999,NA,0.5,1.10766922280951,1.62125968478657,1.7107350135213,0.800552372711202,FALSE,0.769234258361986
"CAN","cpi",0.3,1999,3,1998,NA,1,0.385550216714334,0.905686983701363,1.7107350135213,0.474525424909611,FALSE,2.82027399504398
"CAN","cpi",0.3,1999,3,1998,NA,1.5,2.13970593276332,2.69861999357964,1.7107350135213,2.19776497346126,FALSE,1.78454525865067
"CAN","cpi",0.3,2000,3,2000,NA,0,1.65587501323803,1.79296652587815,2.6718361971244,2.73388860624727,FALSE,2.64814771620084
"CAN","cpi",0.3,2000,3,2000,NA,0.5,2.13855301070987,2.95845301712331,2.6718361971244,2.11525832235237,TRUE,0.819900006413442
"CAN","cpi",0.3,2000,3,1999,NA,1,2.06373925667091,2.98664861988291,2.6718361971244,2.81438082878813,TRUE,0.922909363212002
"CAN","cpi",0.3,2001,3,2001,NA,0,1.91742391882959,2.07913108891196,2.47906219852806,2.73506715681632,FALSE,1.30436748327124
"CAN","cpi",0.3,2001,3,2001,NA,0.5,2.14477351216134,3.07691169477256,2.47906219852806,1.72363549629744,TRUE,0.932138182611219
"CAN","cpi",0.3,2001,3,2000,NA,1,2.82897293083294,3.76111111344416,2.47906219852806,3.73995761394105,FALSE,1.93188313205371
"CAN","cpi",0.3,2001,3,2000,NA,1.5,1.89040471742619,2.82254290003741,2.47906219852806,1.98299961497232,TRUE,0.932138182611219
"CAN","cpi",0.3,2002,3,2002,NA,0,1.73150834646985,1.87827733367061,2.20880570551249,2.3500140093739,FALSE,1.09113576389184
"CAN","cpi",0.3,2002,3,2002,NA,0.5,1.99518162161046,2.78101996312833,2.20880570551249,1.47074452365548,TRUE,0.785838341517871
"CAN","cpi",0.3,2002,3,2001,NA,1,0.537309770706612,1.32314811222448,2.20880570551249,0.79597273109289,FALSE,3.31628860805503
"CAN","cpi",0.3,2002,3,2001,NA,1.5,0.87672560921869,1.66256395073656,2.20880570551249,0.827019109774735,FALSE,2.34652906944909
"CAN","cpi",0.3,2003,3,2003,NA,0,1.79090829447501,1.94012715776414,2.71189071546809,2.76866538316948,FALSE,2.35425759958614
"CAN","cpi",0.3,2003,3,2003,NA,0.5,4.01504570194329,4.98728303531268,2.71189071546809,4.59645517963757,FALSE,4.69553729472711
"CAN","cpi",0.3,2003,3,2002,NA,1,3.24807276571082,4.24431677365441,2.71189071546809,4.33746529644743,FALSE,2.52819272292281
"CAN","cpi",0.3,2003,3,2002,NA,1.5,2.46901782114345,3.46526182908705,2.71189071546809,2.71468890277684,TRUE,0.996244007943597
"CAN","cpi",0.3,2004,3,2004,NA,0,1.60000202188504,1.73764109518511,1.83151661303942,1.7684769390021,FALSE,0.405854838598106
"CAN","cpi",0.3,2004,3,2004,NA,0.5,2.04901041066157,2.96940853807883,1.83151661303942,1.5625176897836,FALSE,1.54180897776625
"CAN","cpi",0.3,2004,3,2003,NA,1,1.00735071376648,1.92774884118373,1.83151661303942,1.41754396673829,TRUE,0.920398127417255
"CAN","cpi",0.3,2004,3,2003,NA,1.5,4.79748367566322,5.9917459192826,1.83151661303942,5.32651436309904,FALSE,9.66845385111595
"CAN","cpi",0.3,2005,3,2005,NA,0,1.57329345442048,1.7018833569946,2.18071628336509,2.38196957660787,FALSE,1.49668397791838
"CAN","cpi",0.3,2005,3,2005,NA,0.5,1.87000837597514,2.53990700053416,2.18071628336509,1.57253942332725,TRUE,0.669898624559027
"CAN","cpi",0.3,2005,3,2004,NA,1,0.828115194241635,1.49801381880066,2.18071628336509,0.993232956459974,FALSE,2.62047709474311
"CAN","cpi",0.3,2005,3,2004,NA,1.5,1.98573777037421,2.697576018971,2.18071628336509,2.05989686108521,TRUE,0.711838248596798
"CAN","cpi",0.3,2006,3,2006,NA,0,1.54947396614557,1.68666723259278,1.97519342012289,2.0667253719809,FALSE,0.961553802247512
"CAN","cpi",0.3,2006,3,2006,NA,0.5,2.18321788929193,2.95954364187821,1.97519342012289,1.93779395271753,FALSE,1.37068137878356
"CAN","cpi",0.3,2006,3,2005,NA,1,2.71370924579727,3.49003499838355,1.97519342012289,3.47726378201784,FALSE,2.88637096879881
"CAN","cpi",0.3,2006,3,2005,NA,1.5,1.40408494705027,2.18041069963655,1.97519342012289,1.38669164389589,TRUE,0.776325752586276
"CAN","cpi",0.3,2007,3,2007,NA,0,1.51423644284259,1.63619076105733,2.10062087284572,2.10807340507977,FALSE,1.44889749475299
"CAN","cpi",0.3,2007,3,2007,NA,0.5,2.4621087177652,3.14758768006203,2.10062087284572,2.41912196921498,FALSE,1.71830137635248
