isdrw/probabilistic-benchmark-forecasts/results/bayesian_quantile_regression/5000Samples/bqr_prediction_weo_2026-02-27_15-10-24.csv
"country","target","tau","target_year","target_quarter","forecast_year","forecast_quarter","horizon","lower_bound","upper_bound","truth_value","prediction","covered","IS"
"Canada","cpi",0.1,1994,4,1994,NA,0,-7.35604585139178,-6.18808717703226,0.198089708456428,0.186873981074975,FALSE,15.3594628643344
"Canada","cpi",0.1,1994,4,1994,NA,0.5,-6.14747167473332,-4.20882348291483,0.198089708456428,0.522791476131479,FALSE,11.731788617088
"Canada","cpi",0.1,1995,4,1995,NA,0,1.90574216283559,2.26285226619638,1.91968793597725,2.14305230586886,TRUE,0.357110103360791
"Canada","cpi",0.1,1995,4,1995,NA,0.5,2.00969062937575,2.36680073273654,1.91968793597725,1.99619126700588,FALSE,0.557116088690791
"Canada","cpi",0.1,1995,4,1994,NA,1,7.91061056517365,8.26772066853445,1.91968793597725,1.5978236120703,FALSE,13.670271501575
"Canada","cpi",0.1,1995,4,1994,NA,1.5,8.39373926290813,9.91751034523996,1.91968793597725,1.71534821064654,FALSE,15.9105518088449
"Canada","cpi",0.1,1996,4,1996,NA,0,1.29134345483575,1.39350139026368,1.6556711728335,1.50166806813312,FALSE,0.684757452249751
"Canada","cpi",0.1,1996,4,1996,NA,0.5,0.636656742473241,0.814638078351329,1.6556711728335,1.32822008967348,FALSE,2.04694376806069
"Canada","cpi",0.1,1996,4,1995,NA,1,-0.143511630497436,0.545935404008047,1.6556711728335,2.02244327395347,FALSE,3.15552652078427
"Canada","cpi",0.1,1996,4,1995,NA,1.5,-1.6570114139718,-0.96756437946632,1.6556711728335,1.92718935452521,FALSE,6.51885937294953
"Canada","cpi",0.1,1997,4,1997,NA,0,1.38475193656527,1.47036983259216,1.42496507679055,1.54744278954444,TRUE,0.085617896026891
"Canada","cpi",0.1,1997,4,1997,NA,0.5,1.18367004593094,1.38952693231417,1.42496507679055,1.72303237316327,FALSE,0.28460831855297
"Canada","cpi",0.1,1997,4,1996,NA,1,0.127576133683669,0.346216186313499,1.42496507679055,2.0413885682107,FALSE,2.6158598092455
"Canada","cpi",0.1,1997,4,1996,NA,1.5,1.64701484184456,1.97503432830966,1.42496507679055,1.91986951679499,FALSE,0.821463408807353
"Canada","cpi",0.1,1998,4,1998,NA,0,1.20741889880875,1.25040357259004,1.0323682372128,1.32960503394646,FALSE,0.43198614399451
"Canada","cpi",0.1,1998,4,1998,NA,0.5,0.992742352169533,1.12870098708769,1.0323682372128,1.50726100317662,TRUE,0.135958634918152
"Canada","cpi",0.1,1998,4,1997,NA,1,-0.0399976813023,0.296493566474269,1.0323682372128,1.58792609966374,FALSE,1.97176829386219
"Canada","cpi",0.1,1998,4,1997,NA,1.5,2.05450308956048,2.39099433733705,1.0323682372128,1.82722544395564,FALSE,2.60790203077142
"Canada","cpi",0.1,1999,4,1999,NA,0,1.18025542903312,1.20252374735596,1.74454349830908,1.50828275233879,FALSE,1.22675665377421
"Canada","cpi",0.1,1999,4,1999,NA,0.5,0.786482421868897,0.808750740191735,1.74454349830908,1.16115671553538,FALSE,2.10180778080583
"Canada","cpi",0.1,1999,4,1998,NA,1,0.990735703350493,1.01300402167333,1.74454349830908,1.9024836587632,FALSE,1.64791159973561
"Canada","cpi",0.1,1999,4,1998,NA,1.5,3.08401051042001,3.10627882874285,1.74454349830908,1.8746928929805,FALSE,2.99886167856934
"Canada","cpi",0.1,2000,4,2000,NA,0,1.70971547343406,1.83611181927756,2.73434549437299,2.29889507469385,FALSE,2.1224711793889
"Canada","cpi",0.1,2000,4,2000,NA,0.5,1.42292360648749,1.62963956580845,2.73434549437299,2.08273990461669,FALSE,2.66161802279772
"Canada","cpi",0.1,2000,4,1999,NA,1,-0.400642229449461,-0.174577402465396,2.73434549437299,1.72008921565576,FALSE,6.69033793106937
"Canada","cpi",0.1,2000,4,1999,NA,1.5,-0.0355081135131666,0.190556713470899,2.73434549437299,1.58716870538138,FALSE,5.87892878454427
"Canada","cpi",0.1,2001,4,2001,NA,0,2.37673848603342,2.54245988269998,2.54467897330315,3.10277295629358,FALSE,0.170652709118051
"Canada","cpi",0.1,2001,4,2001,NA,0.5,2.03772727393565,2.43366570475136,2.54467897330315,2.99102328155023,FALSE,0.642634583153022
"Canada","cpi",0.1,2001,4,2000,NA,1,-0.725768684920929,-0.0136542230890537,2.54467897330315,2.05716779240688,FALSE,6.39729934270344
"Canada","cpi",0.1,2001,4,2000,NA,1.5,0.70546141424367,1.66016717588785,2.54467897330315,1.950224564531,FALSE,2.92028753367818
"Canada","cpi",0.1,2002,4,2002,NA,0,1.54814266029691,1.69991312824832,2.27695832736599,1.75121322657836,FALSE,1.43409313265734
"Canada","cpi",0.1,2002,4,2002,NA,0.5,0.558232489652327,0.738492878030498,2.27695832736599,0.885081053587844,FALSE,3.5990724980126
"Canada","cpi",0.1,2002,4,2001,NA,1,1.03757907578111,1.77416947268745,2.27695832736599,2.30325950597698,FALSE,1.85389896285866
"Canada","cpi",0.1,2002,4,2001,NA,1.5,3.30958858980458,4.04617898671093,2.27695832736599,2.15511557897725,FALSE,3.03132431343655
"Canada","cpi",0.1,2003,4,2003,NA,0,2.21659431473137,2.39341245124434,2.73694526109434,2.83169100406533,FALSE,0.940224380624079
"Canada","cpi",0.1,2003,4,2003,NA,0.5,2.50238792617919,2.97762747527078,2.73694526109434,3.07009215555252,TRUE,0.47523954909159
"Canada","cpi",0.1,2003,4,2002,NA,1,0.506898303095569,1.37154574677147,2.73694526109434,2.1323009571345,FALSE,3.89886858661561
"Canada","cpi",0.1,2003,4,2002,NA,1.5,2.74304876881179,3.60769621248769,2.73694526109434,1.8128899881162,FALSE,0.878210794159128
"Canada","cpi",0.1,2004,4,2004,NA,0,1.75820366188353,1.8766437684384,1.84630058591067,1.94326335025052,TRUE,0.118440106554866
"Canada","cpi",0.1,2004,4,2004,NA,0.5,1.00476147878545,1.27578578322238,1.84630058591067,1.41202996286323,FALSE,1.53883497707758
"Canada","cpi",0.1,2004,4,2003,NA,1,-1.47141846325667,-0.91540359360433,1.84630058591067,1.72195310807912,FALSE,6.69313526857456
"Canada","cpi",0.1,2004,4,2003,NA,1.5,3.88455813787662,4.77275823253738,1.84630058591067,2.05203708097148,FALSE,5.41766132125176
"Canada","cpi",0.1,2005,4,2005,NA,0,1.78617459149522,1.91131311912912,2.23456211948951,2.2118960782598,FALSE,0.843469639545878
"Canada","cpi",0.1,2005,4,2005,NA,0.5,1.85773430050281,2.12183913182687,2.23456211948951,2.13787262164946,FALSE,0.514600359463257
"Canada","cpi",0.1,2005,4,2004,NA,1,2.09878069762699,2.65154852303455,2.23456211948951,2.16431636867425,TRUE,0.552767825407566
"Canada","cpi",0.1,2005,4,2004,NA,1.5,4.44797103891384,5.00073886432141,2.23456211948951,1.90121867779545,FALSE,5.47145431301719
"Canada","cpi",0.1,2006,4,2006,NA,0,1.86229662773758,1.97975232985282,2.00218136491059,2.21916154315092,FALSE,0.167298002243619
"Canada","cpi",0.1,2006,4,2006,NA,0.5,1.61088786859588,1.85851567915595,2.00218136491059,1.81971630867743,FALSE,0.566884890014826
"Canada","cpi",0.1,2006,4,2005,NA,1,1.85426606703671,2.46154320385222,2.00218136491059,2.47429489273694,TRUE,0.607277136815503
"Canada","cpi",0.1,2006,4,2005,NA,1.5,4.29345069886632,4.90072783568183,2.00218136491059,1.87720365668618,FALSE,5.69898676782825
"Canada","cpi",0.1,2007,4,2007,NA,0,1.76135185451592,1.90096386565221,2.14602107835604,2.18183020638083,FALSE,0.684183594922581
"Canada","cpi",0.1,2007,4,2007,NA,0.5,1.63020877008225,1.83308708144113,2.14602107835604,1.70657479409257,FALSE,0.898287193392004
"Canada","cpi",0.1,2007,4,2006,NA,1,1.38988173721918,1.78795176597374,2.14602107835604,1.88218856041089,FALSE,1.19377961182633
"Canada","cpi",0.1,2007,4,2006,NA,1.5,4.78823208281682,5.18630211157138,2.14602107835604,2.02111311333697,FALSE,6.2696500386674
"Canada","cpi",0.1,2008,4,2008,NA,0,1.9982105795137,2.1075995123705,2.38540342481082,2.5304444255341,FALSE,0.726730960501951
"Canada","cpi",0.1,2008,4,2008,NA,0.5,1.60094042633074,1.83416669074112,2.38540342481082,1.59687536789142,FALSE,1.45819678456528
"Canada","cpi",0.1,2008,4,2007,NA,1,1.57905414485602,2.01521196992294,2.38540342481082,1.90970285875554,FALSE,1.25880550259553
"Canada","cpi",0.1,2008,4,2007,NA,1.5,4.51170129884932,4.94785912391624,2.38540342481082,1.9732512990275,FALSE,5.16126421181914
"Canada","cpi",0.1,2009,4,2009,NA,0,0.813080007780025,0.858283130149382,0.292141396435586,0.146533060789067,FALSE,1.20284448091256
"Canada","cpi",0.1,2009,4,2009,NA,0.5,0.304304820045043,0.533235234865555,0.292141396435586,0.034043559717678,FALSE,0.25596024506375
"Canada","cpi",0.1,2009,4,2008,NA,1,2.05075049751692,2.60691813363804,0.292141396435586,2.12782728451457,FALSE,4.4641878607463
"Canada","cpi",0.1,2009,4,2008,NA,1.5,4.62686582303025,5.18303345915136,0.292141396435586,2.00999852974699,FALSE,10.1888885841093
"Canada","cpi",0.1,2010,4,2010,NA,0,1.25633701168654,1.3316886059693,1.77674215393546,1.77238598089253,FALSE,1.064359478652
"Canada","cpi",0.1,2010,4,2010,NA,0.5,1.80243643770857,1.9273032269094,1.77674215393546,1.77913637602991,FALSE,0.181965197585514
"Canada","cpi",0.1,2010,4,2009,NA,1,2.75159646513569,2.87646325433652,1.77674215393546,1.25701172011297,FALSE,2.29120970297912
"Canada","cpi",0.1,2010,4,2009,NA,1.5,2.09692114106175,2.22178793026258,1.77674215393546,0.529947261879338,FALSE,0.836375649481474
"Canada","cpi",0.1,2011,4,2011,NA,0,2.06482050947837,2.17501916306361,2.8902561167552,2.90478393121871,FALSE,1.69961410623321
"Canada","cpi",0.1,2011,4,2011,NA,0.5,2.13754642491766,2.31609537210999,2.8902561167552,2.23130448324878,FALSE,1.45446171307057
"Canada","cpi",0.1,2011,4,2010,NA,1,2.49911315403575,2.9742524770903,2.8902561167552,2.01837757685623,TRUE,0.475139323054553
"Canada","cpi",0.1,2011,4,2010,NA,1.5,3.68274018076831,4.15787950382287,2.8902561167552,1.95623721047276,FALSE,2.23621502086147
"Canada","cpi",0.1,2012,4,2012,NA,0,1.80749034145476,1.90122251716264,1.5156782312455,1.79054609126241,FALSE,0.742203531728457
"Canada","cpi",0.1,2012,4,2012,NA,0.5,2.18633025237058,2.40328863765661,1.5156782312455,2.15830835181476,FALSE,1.70729621000843
"Canada","cpi",0.1,2012,4,2011,NA,1,1.52247057614716,2.13383996942901,1.5156782312455,2.06841506112034,FALSE,0.626463493063316
"Canada","cpi",0.1,2012,4,2011,NA,1.5,3.17586482155533,3.78723421483719,1.5156782312455,1.90016524544498,FALSE,4.30067292730371
"Canada","cpi",0.1,2013,4,2013,NA,0,1.19470928031665,1.25522693026446,0.958904109588499,1.14597712094762,FALSE,0.584529140454809
"Canada","cpi",0.1,2013,4,2013,NA,0.5,1.57429649833057,1.74326333068513,0.958904109588499,1.48934937362812,FALSE,1.5365054740036
"Canada","cpi",0.1,2013,4,2012,NA,1,2.40550701621805,2.90769529570592,0.958904109588499,1.95908925659181,FALSE,3.71686140533131
"Canada","cpi",0.1,2013,4,2012,NA,1.5,3.61469478165391,4.16444887210383,0.958904109588499,1.95931269932679,FALSE,6.45151113948416
"Canada","cpi",0.1,2014,4,2014,NA,0,1.40999240388276,1.47896095869572,1.89959294436879,1.93595035364857,FALSE,1.00370630075311
"Canada","cpi",0.1,2014,4,2014,NA,0.5,1.45527473459744,1.64070256025412,1.89959294436879,1.46400358003393,FALSE,0.760739790355944
"Canada","cpi",0.1,2014,4,2013,NA,1,2.45707259021844,2.80146580722247,1.89959294436879,1.64292796635188,FALSE,1.5832368744477
"Canada","cpi",0.1,2014,4,2013,NA,1.5,3.69556436768008,4.03995758468411,1.89959294436879,1.80659536932475,FALSE,4.33544082436246
"Canada","cpi",0.1,2015,4,2015,NA,0,1.18747013845303,1.24798819547569,1.10526666222837,0.996929389764856,FALSE,0.243192448633014
"Canada","cpi",0.1,2015,4,2015,NA,0.5,1.11189255119429,1.28248458283889,1.10526666222837,0.861748608895607,FALSE,0.185316229346642
"Canada","cpi",0.1,2015,4,2014,NA,1,2.19208889145798,2.67690144290078,1.10526666222837,1.95513831061374,FALSE,2.89997306084192
"Canada","cpi",0.1,2015,4,2014,NA,1.5,3.35505019377334,3.83986274521614,1.10526666222837,1.89794664118146,FALSE,5.48433151043163
"Canada","cpi",0.1,2016,4,2016,NA,0,1.31367155084516,1.36278230240771,1.40891434590795,1.6213393128403,FALSE,0.151626403785296
"Canada","cpi",0.1,2016,4,2016,NA,0.5,1.44260227841277,1.58654450641292,1.40891434590795,1.34742733904194,FALSE,0.218804300233088
"Canada","cpi",0.1,2016,4,2015,NA,1,2.23094046416807,2.58521133864051,1.40891434590795,1.60624886613732,FALSE,2.18099558171716
"Canada","cpi",0.1,2016,4,2015,NA,1.5,3.6871735063655,4.12030234056526,1.40891434590795,1.9555852361093,FALSE,5.49592696854988
"Canada","cpi",0.1,2017,4,2017,NA,0,1.35486338272653,1.41506945191784,1.6100759592282,1.60345984100552,FALSE,0.493553863214333
"Canada","cpi",0.1,2017,4,2017,NA,0.5,1.87229078351737,2.038019328348,1.6100759592282,1.97179134396859,FALSE,0.74842815436212
"Canada","cpi",0.1,2017,4,2016,NA,1,2.57566012400412,2.99745722831478,1.6100759592282,2.06723461080021,FALSE,2.56753969270159
"Canada","cpi",0.1,2017,4,2016,NA,1.5,3.45017988905209,3.919025570606,1.6100759592282,1.88056227767026,FALSE,4.557965525607
"Canada","cpi",0.1,2018,4,2018,NA,0,1.82708177265818,1.90169364776078,2.24252491694275,2.56836987799731,FALSE,0.832014695506974
"Canada","cpi",0.1,2018,4,2018,NA,0.5,1.95443489309714,2.14581049633016,2.24252491694275,2.15070147257197,FALSE,0.406296537927663
"Canada","cpi",0.1,2018,4,2017,NA,1,1.99595361287052,2.42831785623952,2.24252491694275,1.78758120401781,TRUE,0.432364243368996
"Canada","cpi",0.1,2018,4,2017,NA,1.5,3.67931576707296,4.1911215256438,2.24252491694275,2.09839963444063,FALSE,3.70467431441575
"Canada","cpi",0.1,2019,4,2019,NA,0,1.71364384284947,1.79389229800666,1.94926902411596,2.01327426888733,FALSE,0.425530068733407
"Canada","cpi",0.1,2019,4,2019,NA,0.5,1.73347028739947,1.91305436576816,1.94926902411596,1.69254280527951,FALSE,0.260061096919357
"Canada","cpi",0.1,2019,4,2018,NA,1,2.36227577504694,3.01023484915062,1.94926902411596,2.22638738015912,FALSE,1.5657518539503
"Canada","cpi",0.1,2019,4,2018,NA,1.5,3.39988645872406,4.04784553282774,1.94926902411596,2.16219381067517,FALSE,3.87155337323279
"Canada","cpi",0.1,2020,4,2020,NA,0,1.03721888080537,1.10715512321869,0.716999632307869,0.616002459846787,FALSE,0.781534572407774
"Canada","cpi",0.1,2020,4,2020,NA,0.5,1.00816818441706,1.11213478879257,0.716999632307869,0.610467294263994,FALSE,0.75100783128483
"Canada","cpi",0.1,2020,4,2019,NA,1,2.22872370045777,2.80943099242537,0.716999632307869,2.02696644348777,FALSE,3.94009411007849
"Canada","cpi",0.1,2020,4,2019,NA,1.5,3.14265497992568,3.74004268784654,0.716999632307869,1.92866243701917,FALSE,5.98773292484932
"Canada","cpi",0.1,2021,4,2021,NA,0,1.89234057841774,1.93520363340717,3.39519318527535,3.15216265299885,FALSE,3.28728428136317
"Canada","cpi",0.1,2021,4,2021,NA,0.5,1.54029704333695,1.65549360593534,3.39519318527535,1.6932278955534,FALSE,3.98119562779841
"Canada","cpi",0.1,2021,4,2020,NA,1,1.92558298621553,2.22197962590762,3.39519318527535,1.26767182443679,FALSE,2.90353788273149
"Canada","cpi",0.1,2021,4,2020,NA,1.5,2.40620674142699,2.77775001641301,3.39519318527535,1.26085388904433,FALSE,1.74363920579123
"Canada","cpi",0.1,2022,4,2022,NA,0,4.17238650558509,4.29294599186176,6.79651641755912,6.89724461197294,FALSE,5.68404932115969
"Canada","cpi",0.1,2022,4,2022,NA,0.5,4.55728287492403,4.9552267345289,6.79651641755912,5.63726787323957,FALSE,4.48969871078314
"Canada","cpi",0.1,2022,4,2021,NA,1,2.86868884231581,3.64488317745582,6.79651641755912,2.63737521674188,FALSE,7.77982375759179
"Canada","cpi",0.1,2022,4,2021,NA,1.5,2.95099708622415,3.72719142136417,6.79651641755912,1.99992665814555,FALSE,7.59691654890658
"Canada","cpi",0.1,2023,4,2023,NA,0,3.44785989117711,3.65228621942857,3.87900159788375,3.62206654600981,FALSE,0.70823828037408
"Canada","cpi",0.1,2023,4,2023,NA,0.5,3.69389060752665,3.89831693577811,3.87900159788375,3.8990209221998,TRUE,0.204426328251465
"Canada","cpi",0.1,2023,4,2022,NA,1,2.33484796959405,3.73052582341115,3.87900159788375,4.1992923554854,FALSE,1.72562401931177
"Canada","cpi",0.1,2023,4,2022,NA,1.5,2.05582077435106,3.45149862816815,3.87900159788375,2.36848892603156,FALSE,2.34568445318509
"Canada","cpi",0.1,2024,4,2024,NA,0,2.21363026516278,2.35122640961795,NA,2.43931175105141,NA,NA
"Canada","cpi",0.1,2024,4,2024,NA,0.5,2.51637543178908,2.75426781179582,NA,2.6060205122928,NA,NA
"Canada","cpi",0.1,2024,4,2023,NA,1,0.951497371429455,1.77878393574827,NA,2.43231375635082,NA,NA
"Canada","cpi",0.1,2024,4,2023,NA,1.5,3.91350847598701,4.92849326323616,NA,2.38514817358868,NA,NA
"Canada","cpi",0.1,2025,4,2024,NA,1,NA,NA,NA,1.87361390656267,NA,NA
"Canada","cpi",0.1,2025,4,2024,NA,1.5,NA,NA,NA,1.85379387622673,NA,NA
"Canada","cpi",0.2,1994,4,1994,NA,0,-5.89910246623546,-3.69936156193803,0.198089708456428,0.186873981074975,FALSE,11.9433690802836
"Canada","cpi",0.2,1994,4,1994,NA,0.5,-6.84191294891119,-4.64217204461377,0.198089708456428,0.522791476131479,FALSE,14.3003952869729
"Canada","cpi",0.2,1995,4,1995,NA,0,1.89281551748705,2.28373141627332,1.91968793597725,2.14305230586886,TRUE,0.390915898786268
"Canada","cpi",0.2,1995,4,1995,NA,0.5,1.81286562035816,2.25379269684633,1.91968793597725,1.99619126700588,TRUE,0.440927076488176
"Canada","cpi",0.2,1995,4,1994,NA,1,7.26679983950588,8.132781634939,1.91968793597725,1.5978236120703,FALSE,14.2337615542547
"Canada","cpi",0.2,1995,4,1994,NA,1.5,9.27949313122647,10.1454749266596,1.91968793597725,1.71534821064654,FALSE,19.2654947835562
"Canada","cpi",0.2,1996,4,1996,NA,0,1.16289987932358,1.44037341945076,1.6556711728335,1.50166806813312,FALSE,0.815717923584028
"Canada","cpi",0.2,1996,4,1996,NA,0.5,0.56573856508841,0.926260407336275,1.6556711728335,1.32822008967348,FALSE,2.18404875599093
"Canada","cpi",0.2,1996,4,1995,NA,1,-0.328610434263068,0.532166979284189,1.6556711728335,2.02244327395347,FALSE,3.66953789742053
"Canada","cpi",0.2,1996,4,1995,NA,1.5,-1.85506630305836,-0.145965550600845,1.6556711728335,1.92718935452521,FALSE,6.21319256104338
"Canada","cpi",0.2,1997,4,1997,NA,0,1.32671761772004,1.49736055518649,1.42496507679055,1.54744278954444,TRUE,0.170642937466445
"Canada","cpi",0.2,1997,4,1997,NA,0.5,1.10889733633413,1.48734559329286,1.42496507679055,1.72303237316327,TRUE,0.378448256958735
"Canada","cpi",0.2,1997,4,1996,NA,1,-0.266132054419199,0.591427094004904,1.42496507679055,2.0413885682107,FALSE,2.94140410538822
"Canada","cpi",0.2,1997,4,1996,NA,1.5,1.43328797230515,2.49181029083483,1.42496507679055,1.91986951679499,FALSE,1.07932955731619
"Canada","cpi",0.2,1998,4,1998,NA,0,1.16366124041884,1.29827025579705,1.0323682372128,1.32960503394646,FALSE,0.462841523393307
"Canada","cpi",0.2,1998,4,1998,NA,0.5,0.926686863780339,1.2784191159005,1.0323682372128,1.50726100317662,TRUE,0.351732252120158
"Canada","cpi",0.2,1998,4,1997,NA,1,-0.122917820835726,0.525270162596442,1.0323682372128,1.58792609966374,FALSE,1.91593316997306
"Canada","cpi",0.2,1998,4,1997,NA,1.5,1.98780442443564,2.6359924078678,1.0323682372128,1.82722544395564,FALSE,3.03677845148926
"Canada","cpi",0.2,1999,4,1999,NA,0,1.1155606343728,1.27263044556093,1.74454349830908,1.50828275233879,FALSE,1.33685244305851
"Canada","cpi",0.2,1999,4,1999,NA,0.5,0.70551824191855,0.893430491166302,1.74454349830908,1.16115671553538,FALSE,2.3156947671047
"Canada","cpi",0.2,1999,4,1998,NA,1,0.901232946025657,1.15717038231961,1.74454349830908,1.9024836587632,FALSE,1.72437022626763
"Canada","cpi",0.2,1999,4,1998,NA,1.5,3.14154258616229,3.39748002245624,1.74454349830908,1.8746928929805,FALSE,3.74843515592698
"Canada","cpi",0.2,2000,4,2000,NA,0,1.64311030397175,1.89626040954664,2.73434549437299,2.29889507469385,FALSE,2.34836281764077
"Canada","cpi",0.2,2000,4,2000,NA,0.5,1.28677077716692,1.7609096464278,2.73434549437299,2.08273990461669,FALSE,2.90772848912386
"Canada","cpi",0.2,2000,4,1999,NA,1,-0.485667363883931,0.0187570793871146,2.73434549437299,1.72008921565576,FALSE,7.29339548073573
"Canada","cpi",0.2,2000,4,1999,NA,1.5,-0.204072007155226,0.307147209903632,2.73434549437299,1.58716870538138,FALSE,6.57921492823225
"Canada","cpi",0.2,2001,4,2001,NA,0,2.2499751677896,2.62105168633822,2.54467897330315,3.10277295629358,TRUE,0.371076518548618
"Canada","cpi",0.2,2001,4,2001,NA,0.5,1.81671219216866,2.68643399175081,2.54467897330315,2.99102328155023,TRUE,0.869721799582155
"Canada","cpi",0.2,2001,4,2000,NA,1,-1.00408896702917,0.387013894814917,2.54467897330315,2.05716779240688,FALSE,6.78526555806467
"Canada","cpi",0.2,2001,4,2000,NA,1.5,0.349160088556043,1.74026295040013,2.54467897330315,1.950224564531,FALSE,3.40214291910163
"Canada","cpi",0.2,2002,4,2002,NA,0,1.47900069727735,1.74151238043941,2.27695832736599,1.75121322657836,FALSE,1.60112655047851
"Canada","cpi",0.2,2002,4,2002,NA,0.5,0.505989986713791,0.847595617452279,2.27695832736599,0.885081053587844,FALSE,3.91501240552277
"Canada","cpi",0.2,2002,4,2001,NA,1,0.374184789396162,2.11383086067624,2.27695832736599,2.30325950597698,FALSE,2.14746473800445
"Canada","cpi",0.2,2002,4,2001,NA,1.5,2.66904383130983,4.40868990258991,2.27695832736599,2.15511557897725,FALSE,2.71985983113968
"Canada","cpi",0.2,2003,4,2003,NA,0,2.10834275911831,2.53254542248694,2.73694526109434,2.83169100406533,FALSE,0.93520225988712
"Canada","cpi",0.2,2003,4,2003,NA,0.5,2.26495036032698,3.10025306170079,2.73694526109434,3.07009215555252,TRUE,0.835302701373815
"Canada","cpi",0.2,2003,4,2002,NA,1,0.247708672930814,1.77096994750661,2.73694526109434,2.1323009571345,FALSE,3.93819955854513
"Canada","cpi",0.2,2003,4,2002,NA,1.5,2.45840098790451,3.9816622624803,2.73694526109434,1.8128899881162,TRUE,1.52326127457579
"Canada","cpi",0.2,2004,4,2004,NA,0,1.67662082164635,1.95641558588969,1.84630058591067,1.94326335025052,TRUE,0.279794764243337
"Canada","cpi",0.2,2004,4,2004,NA,0.5,0.936878014975935,1.35095048361549,1.84630058591067,1.41202996286323,FALSE,1.65244772437751
"Canada","cpi",0.2,2004,4,2003,NA,1,-1.54186322485249,-0.574843405027585,1.84630058591067,1.72195310807912,FALSE,7.01987979717054
"Canada","cpi",0.2,2004,4,2003,NA,1.5,3.85069674728941,4.81771656711431,1.84630058591067,2.05203708097148,FALSE,5.97801022327175
"Canada","cpi",0.2,2005,4,2005,NA,0,1.72395256117845,1.97283356716505,2.23456211948951,2.2118960782598,FALSE,0.903202386797747
"Canada","cpi",0.2,2005,4,2005,NA,0.5,1.67967891695991,2.26330419422692,2.23456211948951,2.13787262164946,TRUE,0.583625277267006
"Canada","cpi",0.2,2005,4,2004,NA,1,2.0257396759674,2.7805644301498,2.23456211948951,2.16431636867425,TRUE,0.754824754182401
"Canada","cpi",0.2,2005,4,2004,NA,1.5,4.39326437645494,5.14808913063734,2.23456211948951,1.90121867779545,FALSE,6.15158039659597
"Canada","cpi",0.2,2006,4,2006,NA,0,1.79842985108561,2.04872215573827,2.00218136491059,2.21916154315092,TRUE,0.250292304652656
"Canada","cpi",0.2,2006,4,2006,NA,0.5,1.47959723653863,2.02403264341736,2.00218136491059,1.81971630867743,TRUE,0.544435406878724
"Canada","cpi",0.2,2006,4,2005,NA,1,1.62342866020019,2.93346594545709,2.00218136491059,2.47429489273694,TRUE,1.3100372852569
"Canada","cpi",0.2,2006,4,2005,NA,1.5,3.84566502967417,5.15570231493106,2.00218136491059,1.87720365668618,FALSE,5.91874644716584
"Canada","cpi",0.2,2007,4,2007,NA,0,1.71638450957479,1.94062110190421,2.14602107835604,2.18183020638083,FALSE,0.737736533458996
"Canada","cpi",0.2,2007,4,2007,NA,0.5,1.48890944455747,1.92866129502746,2.14602107835604,1.70657479409257,FALSE,0.983151308791441
"Canada","cpi",0.2,2007,4,2006,NA,1,1.2412365180704,2.03093401296591,2.14602107835604,1.88218856041089,FALSE,1.07741515837083
"Canada","cpi",0.2,2007,4,2006,NA,1.5,4.60106042628454,5.39075792118005,2.14602107835604,2.02111311333697,FALSE,6.92729586471676
"Canada","cpi",0.2,2008,4,2008,NA,0,1.91877607133864,2.14244329348275,2.38540342481082,2.5304444255341,FALSE,0.831067550464283
"Canada","cpi",0.2,2008,4,2008,NA,0.5,1.45776979101054,1.93385276729902,2.38540342481082,1.59687536789142,FALSE,1.60495962006798
"Canada","cpi",0.2,2008,4,2007,NA,1,1.32704270368375,2.23868735314186,2.38540342481082,1.90970285875554,FALSE,1.27843482863051
"Canada","cpi",0.2,2008,4,2007,NA,1.5,4.34194678572125,5.25359143517936,2.38540342481082,1.9732512990275,FALSE,5.80300305173419
"Canada","cpi",0.2,2009,4,2009,NA,0,0.79401746671557,0.886071548459593,0.292141396435586,0.146533060789067,FALSE,1.34674425744398
"Canada","cpi",0.2,2009,4,2009,NA,0.5,0.207581116463089,0.556921274087222,0.292141396435586,0.034043559717678,TRUE,0.349340157624133
"Canada","cpi",0.2,2009,4,2008,NA,1,1.70839128948243,2.74139793938384,0.292141396435586,2.12782728451457,FALSE,4.57363138251852
"Canada","cpi",0.2,2009,4,2008,NA,1.5,4.34378880859157,5.37679545849299,0.292141396435586,2.00999852974699,FALSE,11.1621251802914
"Canada","cpi",0.2,2010,4,2010,NA,0,1.2444735564666,1.3600451436278,1.77674215393546,1.77238598089253,FALSE,1.15731411293035
"Canada","cpi",0.2,2010,4,2010,NA,0.5,1.69608313046558,1.96417270229792,1.77674215393546,1.77913637602991,TRUE,0.26808957183234
"Canada","cpi",0.2,2010,4,2009,NA,1,2.64034377021139,2.90843334204373,1.77674215393546,1.25701172011297,FALSE,2.42709361252217
"Canada","cpi",0.2,2010,4,2009,NA,1.5,2.05550397749277,2.32359354932511,1.77674215393546,0.529947261879338,FALSE,0.964994130725618
"Canada","cpi",0.2,2011,4,2011,NA,0,2.01704600004955,2.2201902163789,2.8902561167552,2.90478393121871,FALSE,1.8783089672701
"Canada","cpi",0.2,2011,4,2011,NA,0.5,1.97874309369279,2.41199795124277,2.8902561167552,2.23130448324878,FALSE,1.62890027133104
"Canada","cpi",0.2,2011,4,2010,NA,1,2.24869466952805,3.20452465421964,2.8902561167552,2.01837757685623,TRUE,0.955829984691588
"Canada","cpi",0.2,2011,4,2010,NA,1.5,3.50559382574944,4.46142381044102,2.8902561167552,1.95623721047276,FALSE,2.49417425717718
"Canada","cpi",0.2,2012,4,2012,NA,0,1.75027755177265,1.94291702020547,1.5156782312455,1.79054609126241,FALSE,0.779137769750695
"Canada","cpi",0.2,2012,4,2012,NA,0.5,2.03073885948849,2.47474229520685,1.5156782312455,2.15830835181476,FALSE,1.73165500632583
"Canada","cpi",0.2,2012,4,2011,NA,1,1.29557590029483,2.59870070885798,1.5156782312455,2.06841506112034,TRUE,1.30312480856315
"Canada","cpi",0.2,2012,4,2011,NA,1.5,2.80463415021329,4.10775895877644,1.5156782312455,1.90016524544498,FALSE,4.52551460598263
"Canada","cpi",0.2,2013,4,2013,NA,0,1.1627612946496,1.28833746347023,0.958904109588499,1.14597712094762,FALSE,0.635219131473385
"Canada","cpi",0.2,2013,4,2013,NA,0.5,1.44966517658066,1.81400180224527,0.958904109588499,1.48934937362812,FALSE,1.59123929314501
"Canada","cpi",0.2,2013,4,2012,NA,1,2.22012778761675,3.27195719815427,0.958904109588499,1.95908925659181,FALSE,4.20488860560815
"Canada","cpi",0.2,2013,4,2012,NA,1.5,3.33517606465522,4.38700547519274,0.958904109588499,1.95931269932679,FALSE,6.99250929820433
"Canada","cpi",0.2,2014,4,2014,NA,0,1.36938644342354,1.5162331612836,1.89959294436879,1.93595035364857,FALSE,1.10524617557304
"Canada","cpi",0.2,2014,4,2014,NA,0.5,1.34054729297335,1.68858983552402,1.89959294436879,1.46400358003393,FALSE,0.875550314662595
"Canada","cpi",0.2,2014,4,2013,NA,1,2.30336922107038,3.0555436523027,1.89959294436879,1.64292796635188,FALSE,1.76161512298629
"Canada","cpi",0.2,2014,4,2013,NA,1.5,3.43614230053015,4.18831673176247,1.89959294436879,1.80659536932475,FALSE,4.59354782163571
"Canada","cpi",0.2,2015,4,2015,NA,0,1.14785333871153,1.2869442015345,1.10526666222837,0.996929389764856,FALSE,0.245557554030876
"Canada","cpi",0.2,2015,4,2015,NA,0.5,0.986100132705739,1.34477177042051,1.10526666222837,0.861748608895607,TRUE,0.358671637714773
"Canada","cpi",0.2,2015,4,2014,NA,1,1.95229828307516,2.87822200979401,1.10526666222837,1.95513831061374,FALSE,3.04350277883582
"Canada","cpi",0.2,2015,4,2014,NA,1.5,3.08464777987329,4.01057150659214,1.10526666222837,1.89794664118146,FALSE,5.87437652083115
"Canada","cpi",0.2,2016,4,2016,NA,0,1.28071082794071,1.4001576811044,1.40891434590795,1.6213393128403,FALSE,0.141338515172572
"Canada","cpi",0.2,2016,4,2016,NA,0.5,1.34009525406988,1.62334541063054,1.40891434590795,1.34742733904194,TRUE,0.283250156560659
"Canada","cpi",0.2,2016,4,2015,NA,1,2.01842524230713,2.74210612542255,1.40891434590795,1.60624886613732,FALSE,2.24745812411336
"Canada","cpi",0.2,2016,4,2015,NA,1.5,3.50350697470474,4.35448145628895,1.40891434590795,1.9555852361093,FALSE,6.08745605357619
"Canada","cpi",0.2,2017,4,2017,NA,0,1.30817956664064,1.44905332961109,1.6100759592282,1.60345984100552,FALSE,0.543430337013217
"Canada","cpi",0.2,2017,4,2017,NA,0.5,1.75959210361123,2.09092715679598,1.6100759592282,1.97179134396859,FALSE,0.705125414142332
"Canada","cpi",0.2,2017,4,2016,NA,1,2.32820726555357,3.23466422391996,1.6100759592282,2.06723461080021,FALSE,2.70178522417982
"Canada","cpi",0.2,2017,4,2016,NA,1.5,3.25215243131053,4.15860938967692,1.6100759592282,1.88056227767026,FALSE,5.01164813857221
"Canada","cpi",0.2,2018,4,2018,NA,0,1.78816424021447,1.93519155620298,2.24252491694275,2.56836987799731,FALSE,0.915360717837943
"Canada","cpi",0.2,2018,4,2018,NA,0.5,1.84788495717853,2.23206306583082,2.24252491694275,2.15070147257197,FALSE,0.410332736432114
"Canada","cpi",0.2,2018,4,2017,NA,1,1.84572959228882,2.70592400098222,2.24252491694275,1.78758120401781,TRUE,0.860194408693404
"Canada","cpi",0.2,2018,4,2017,NA,1.5,3.52161903703893,4.42860403634506,2.24252491694275,2.09839963444063,FALSE,4.10472029954658
"Canada","cpi",0.2,2019,4,2019,NA,0,1.66941252259836,1.83585558658234,1.94926902411596,2.01327426888733,FALSE,0.44997665781803
"Canada","cpi",0.2,2019,4,2019,NA,0.5,1.60017849701451,1.96427255259152,1.94926902411596,1.69254280527951,TRUE,0.364094055577009
"Canada","cpi",0.2,2019,4,2018,NA,1,2.14940296589377,3.2350569314705,1.94926902411596,2.22638738015912,FALSE,1.58598882002125
"Canada","cpi",0.2,2019,4,2018,NA,1.5,3.18210464288778,4.26775860846452,1.94926902411596,2.16219381067517,FALSE,4.16774301250629
"Canada","cpi",0.2,2020,4,2020,NA,0,0.99966574817255,1.13116039813055,0.716999632307869,0.616002459846787,FALSE,0.838159939619706
"Canada","cpi",0.2,2020,4,2020,NA,0.5,0.913122306693053,1.14119433772311,0.716999632307869,0.610467294263994,FALSE,0.718378716993015
"Canada","cpi",0.2,2020,4,2019,NA,1,2.01184851126579,3.07742622538968,0.716999632307869,2.02696644348777,FALSE,4.30269991151869
"Canada","cpi",0.2,2020,4,2019,NA,1.5,2.91189181696647,3.97746953109036,0.716999632307869,1.92866243701917,FALSE,6.55280817577039
"Canada","cpi",0.2,2021,4,2021,NA,0,1.8572091255294,1.94235842983866,3.39519318527535,3.15216265299885,FALSE,3.71723619290098
"Canada","cpi",0.2,2021,4,2021,NA,0.5,1.50350793917881,1.72413692817186,3.39519318527535,1.6932278955534,FALSE,4.39826963175177
"Canada","cpi",0.2,2021,4,2020,NA,1,1.78372901498196,2.38491392990067,3.39519318527535,1.26767182443679,FALSE,3.12688305335541
"Canada","cpi",0.2,2021,4,2020,NA,1.5,2.2945888905651,2.92366009835127,3.39519318527535,1.26085388904433,FALSE,1.80790392509637
"Canada","cpi",0.2,2022,4,2022,NA,0,4.10454047296103,4.38687847490914,6.79651641755912,6.89724461197294,FALSE,6.30643285857306
"Canada","cpi",0.2,2022,4,2022,NA,0.5,4.30808672980601,5.09471980074212,6.79651641755912,5.63726787323957,FALSE,5.0411246129786
"Canada","cpi",0.2,2022,4,2021,NA,1,2.35100918853421,4.03442742849201,6.79651641755912,2.63737521674188,FALSE,8.58864071262557
"Canada","cpi",0.2,2022,4,2021,NA,1.5,2.59020855993505,4.27362679989285,6.79651641755912,1.99992665814555,FALSE,7.99064228412347
"Canada","cpi",0.2,2023,4,2023,NA,0,3.39239958878476,3.7313314105991,3.87900159788375,3.62206654600981,FALSE,0.70810729002596
"Canada","cpi",0.2,2023,4,2023,NA,0.5,3.39631303124414,4.02200598721518,3.87900159788375,3.8990209221998,TRUE,0.62569295597104
"Canada","cpi",0.2,2023,4,2022,NA,1,1.54086094057765,3.88056905524082,3.87900159788375,4.1992923554854,TRUE,2.33970811466316
"Canada","cpi",0.2,2023,4,2022,NA,1.5,1.55225713661121,3.89196525127437,3.87900159788375,2.36848892603156,TRUE,2.33970811466316
"Canada","cpi",0.2,2024,4,2024,NA,0,2.18279151905273,2.3944940082896,NA,2.43931175105141,NA,NA
"Canada","cpi",0.2,2024,4,2024,NA,0.5,2.32584009011697,2.91082667559184,NA,2.6060205122928,NA,NA
"Canada","cpi",0.2,2024,4,2023,NA,1,0.57246878620721,2.16549577578128,NA,2.43231375635082,NA,NA
"Canada","cpi",0.2,2024,4,2023,NA,1.5,3.66625420606687,5.25928119564094,NA,2.38514817358868,NA,NA
"Canada","cpi",0.2,2025,4,2024,NA,1,NA,NA,NA,1.87361390656267,NA,NA
"Canada","cpi",0.2,2025,4,2024,NA,1.5,NA,NA,NA,1.85379387622673,NA,NA
"Canada","cpi",0.3,1994,4,1994,NA,0,-6.90671748536921,-7.07534649289537,0.198089708456428,0.186873981074975,FALSE,20.6126172820504
"Canada","cpi",0.3,1994,4,1994,NA,0.5,-7.7853113375319,-4.06160432640095,0.198089708456428,0.522791476131479,FALSE,15.8942613964377
"Canada","cpi",0.3,1995,4,1995,NA,0,2.21056641786893,3.17156368808122,1.91968793597725,2.14305230586886,FALSE,1.79207864704566
"Canada","cpi",0.3,1995,4,1995,NA,0.5,1.2835853990527,2.24458266926499,1.91968793597725,1.99619126700588,TRUE,0.960997270212298
"Canada","cpi",0.3,1995,4,1994,NA,1,7.30766777123514,8.26866504144744,1.91968793597725,1.5978236120703,FALSE,16.3552253709491
"Canada","cpi",0.3,1995,4,1994,NA,1.5,8.56586386046265,9.52686113067495,1.91968793597725,1.71534821064654,FALSE,19.9500713401706
"Canada","cpi",0.3,1996,4,1996,NA,0,1.11738802288135,1.48350345488335,1.6556711728335,1.50166806813312,FALSE,0.858023197573866
"Canada","cpi",0.3,1996,4,1996,NA,0.5,0.331319065820007,1.04393695757886,1.6556711728335,1.32822008967348,FALSE,2.46042993534353
"Canada","cpi",0.3,1996,4,1995,NA,1,-0.814376949782515,1.3790841194734,1.6556711728335,2.02244327395347,FALSE,2.98370979314191
"Canada","cpi",0.3,1996,4,1995,NA,1.5,-2.45572819337244,-0.0363419959911848,1.6556711728335,1.92718935452521,FALSE,7.25370953688035
"Canada","cpi",0.3,1997,4,1997,NA,0,1.27028643021776,1.54396987632497,1.42496507679055,1.54744278954444,TRUE,0.273683446107208
"Canada","cpi",0.3,1997,4,1997,NA,0.5,0.919425831837779,1.60124710816431,1.42496507679055,1.72303237316327,TRUE,0.681821276326529
"Canada","cpi",0.3,1997,4,1996,NA,1,-0.511564751460899,0.931492976546663,1.42496507679055,2.0413885682107,FALSE,2.85297801441867
"Canada","cpi",0.3,1997,4,1996,NA,1.5,1.03568845337022,2.47874618137778,1.42496507679055,1.91986951679499,TRUE,1.44305772800756
"Canada","cpi",0.3,1998,4,1998,NA,0,1.14258042142293,1.33653932980117,1.0323682372128,1.32960503394646,FALSE,0.508850863264324
"Canada","cpi",0.3,1998,4,1998,NA,0.5,0.881127523277789,1.31478527755164,1.0323682372128,1.50726100317662,TRUE,0.43365775427385
"Canada","cpi",0.3,1998,4,1997,NA,1,-0.223867413680154,0.408237124841266,1.0323682372128,1.58792609966374,FALSE,2.41533628815437
"Canada","cpi",0.3,1998,4,1997,NA,1.5,2.06981322940016,2.70191776792158,1.0323682372128,1.82722544395564,FALSE,3.59623308762815
"Canada","cpi",0.3,1999,4,1999,NA,0,1.08625516506132,1.29081831071506,1.74454349830908,1.50828275233879,FALSE,1.5009208244938
"Canada","cpi",0.3,1999,4,1999,NA,0.5,0.680673615764153,0.973113189393679,1.74454349830908,1.16115671553538,FALSE,2.49652617053067
"Canada","cpi",0.3,1999,4,1998,NA,1,0.968590045111862,1.26102961874139,1.74454349830908,1.9024836587632,FALSE,1.67390780096579
"Canada","cpi",0.3,1999,4,1998,NA,1.5,3.08287244636924,3.37531201999877,1.74454349830908,1.8746928929805,FALSE,4.11623656808713
"Canada","cpi",0.3,2000,4,2000,NA,0,1.60346985155421,1.95363696391857,2.73434549437299,2.29889507469385,FALSE,2.58076291366271
"Canada","cpi",0.3,2000,4,2000,NA,0.5,1.19732055751867,1.8923057238119,2.73434549437299,2.08273990461669,FALSE,3.10081308218207
"Canada","cpi",0.3,2000,4,1999,NA,1,-0.577627989789392,0.146914448650043,2.73434549437299,1.72008921565576,FALSE,8.11720256907642
"Canada","cpi",0.3,2000,4,1999,NA,1.5,-0.289389869799018,0.435152568640417,2.73434549437299,1.58716870538138,FALSE,7.29366508338964
"Canada","cpi",0.3,2001,4,2001,NA,0,2.16247746745245,2.755752614765,2.54467897330315,3.10277295629358,TRUE,0.593275147312551
"Canada","cpi",0.3,2001,4,2001,NA,0.5,1.63985595736264,2.88372441198386,2.54467897330315,2.99102328155023,TRUE,1.24386845462121
"Canada","cpi",0.3,2001,4,2000,NA,1,-1.24084470510749,0.805457123375348,2.54467897330315,2.05716779240688,FALSE,7.01550711399085
"Canada","cpi",0.3,2001,4,2000,NA,1.5,0.155252726404087,2.20155455488693,2.54467897330315,1.950224564531,FALSE,3.02665730967204
"Canada","cpi",0.3,2002,4,2002,NA,0,1.3834882317189,1.84669588622416,2.27695832736599,1.75121322657836,FALSE,1.69252891491049
"Canada","cpi",0.3,2002,4,2002,NA,0.5,0.456356402388942,0.930478402296998,2.27695832736599,0.885081053587844,FALSE,4.32120750010518
"Canada","cpi",0.3,2002,4,2001,NA,1,0.244226924075239,2.43582644547662,2.27695832736599,2.30325950597698,TRUE,2.19159952140138
"Canada","cpi",0.3,2002,4,2001,NA,1.5,2.62730617292525,4.81890569432663,2.27695832736599,2.15511557897725,FALSE,3.19259336585641
"Canada","cpi",0.3,2003,4,2003,NA,0,2.04744133138287,2.59956159236096,2.73694526109434,2.83169100406533,FALSE,0.944645028787745
"Canada","cpi",0.3,2003,4,2003,NA,0.5,2.00592314287915,3.41757722551068,2.73694526109434,3.07009215555252,TRUE,1.41165408263153
"Canada","cpi",0.3,2003,4,2002,NA,1,0.0150079756630248,2.14439918708158,2.73694526109434,2.1323009571345,FALSE,3.82237999431216
"Canada","cpi",0.3,2003,4,2002,NA,1.5,2.21780771056459,4.34719892198314,2.73694526109434,1.8128899881162,TRUE,2.12939121141855
"Canada","cpi",0.3,2004,4,2004,NA,0,1.62041121229145,2.02760438445358,1.84630058591067,1.94326335025052,TRUE,0.407193172162128
"Canada","cpi",0.3,2004,4,2004,NA,0.5,0.831976763035752,1.60911070866171,1.84630058591067,1.41202996286323,FALSE,1.45481930919442
"Canada","cpi",0.3,2004,4,2003,NA,1,-1.90036487498381,-0.329980102140413,1.84630058591067,1.72195310807912,FALSE,7.7883295958465
"Canada","cpi",0.3,2004,4,2003,NA,1.5,3.43761924659735,5.22074807516365,1.84630058591067,2.05203708097148,FALSE,6.32975357338538
"Canada","cpi",0.3,2005,4,2005,NA,0,1.6494702042905,2.03954270058849,2.23456211948951,2.2118960782598,FALSE,0.947270836015184
"Canada","cpi",0.3,2005,4,2005,NA,0.5,1.50564765557458,2.43387963539886,2.23456211948951,2.13787262164946,TRUE,0.928231979824275
"Canada","cpi",0.3,2005,4,2004,NA,1,1.57125425751327,3.09672131429863,2.23456211948951,2.16431636867425,TRUE,1.52546705678536
"Canada","cpi",0.3,2005,4,2004,NA,1.5,4.00456842922731,5.53003548601267,2.23456211948951,1.90121867779545,FALSE,6.5826279417505
"Canada","cpi",0.3,2006,4,2006,NA,0,1.74951227989131,2.09270243644498,2.00218136491059,2.21916154315092,TRUE,0.343190156553671
"Canada","cpi",0.3,2006,4,2006,NA,0.5,1.33304180126781,2.10952160025943,2.00218136491059,1.81971630867743,TRUE,0.776479798991624
"Canada","cpi",0.3,2006,4,2005,NA,1,1.44651797448838,3.24211521651376,2.00218136491059,2.47429489273694,TRUE,1.79559724202538
"Canada","cpi",0.3,2006,4,2005,NA,1.5,3.67377746528392,5.4693747073093,2.00218136491059,1.87720365668618,FALSE,6.57158610023489
"Canada","cpi",0.3,2007,4,2007,NA,0,1.6527218758021,2.02443408998015,2.14602107835604,2.18183020638083,FALSE,0.719103609537738
"Canada","cpi",0.3,2007,4,2007,NA,0.5,1.31296274365401,2.01729399774471,2.14602107835604,1.70657479409257,FALSE,1.07212291298022
"Canada","cpi",0.3,2007,4,2006,NA,1,1.07775982983274,2.22639067544536,2.14602107835604,1.88218856041089,TRUE,1.14863084561262
"Canada","cpi",0.3,2007,4,2006,NA,1.5,4.49255160645088,5.6411824520635,2.14602107835604,2.02111311333697,FALSE,7.85300378302645
"Canada","cpi",0.3,2008,4,2008,NA,0,1.8342585666515,2.20918538727514,2.38540342481082,2.5304444255341,FALSE,0.878406927868429
"Canada","cpi",0.3,2008,4,2008,NA,0.5,1.33472861799962,2.00026895964269,2.38540342481082,1.59687536789142,FALSE,1.76592452783772
"Canada","cpi",0.3,2008,4,2007,NA,1,1.15883484225844,2.3767036968173,2.38540342481082,1.90970285875554,FALSE,1.24272522025462
"Canada","cpi",0.3,2008,4,2007,NA,1.5,4.26077412782269,5.47864298238155,2.38540342481082,1.9732512990275,FALSE,6.5760708631642
"Canada","cpi",0.3,2009,4,2009,NA,0,0.756686699301566,0.880181004504959,0.292141396435586,0.146533060789067,FALSE,1.45076659910619
"Canada","cpi",0.3,2009,4,2009,NA,0.5,0.114043824304367,0.664025512458268,0.292141396435586,0.034043559717678,TRUE,0.549981688153901
"Canada","cpi",0.3,2009,4,2008,NA,1,1.37785645067598,2.88792630686198,0.292141396435586,2.12782728451457,FALSE,4.61211286830142
"Canada","cpi",0.3,2009,4,2008,NA,1.5,4.14593839712336,5.65600825330936,0.292141396435586,2.00999852974699,FALSE,12.5209184295796
"Canada","cpi",0.3,2010,4,2010,NA,0,1.20064258196385,1.37778435888617,1.77674215393546,1.77238598089253,FALSE,1.31702119134886
"Canada","cpi",0.3,2010,4,2010,NA,0.5,1.58321072527106,2.01914002915728,1.77674215393546,1.77913637602991,TRUE,0.435929303886219
"Canada","cpi",0.3,2010,4,2009,NA,1,2.47048515968266,2.90641446356887,1.77674215393546,1.25701172011297,FALSE,2.41805217744964
"Canada","cpi",0.3,2010,4,2009,NA,1.5,1.97837728331229,2.41430658719851,1.77674215393546,0.529947261879338,FALSE,1.01202967353431
"Canada","cpi",0.3,2011,4,2011,NA,0,1.98180011443344,2.28239061002479,2.8902561167552,2.90478393121871,FALSE,2.03734908624967
"Canada","cpi",0.3,2011,4,2011,NA,0.5,1.80656252859618,2.46619341459754,2.8902561167552,2.23130448324878,FALSE,1.87123860645182
"Canada","cpi",0.3,2011,4,2010,NA,1,1.95171549808451,3.40816640549044,2.8902561167552,2.01837757685623,TRUE,1.45645090740592
"Canada","cpi",0.3,2011,4,2010,NA,1.5,3.20191553923159,4.65836644663751,2.8902561167552,1.95623721047276,FALSE,2.34690640019561
"Canada","cpi",0.3,2012,4,2012,NA,0,1.72009274522754,1.98144042705954,1.5156782312455,1.79054609126241,FALSE,0.845389150352119
"Canada","cpi",0.3,2012,4,2012,NA,0.5,1.82752565786186,2.5542279438922,1.5156782312455,2.15830835181476,FALSE,1.61769493350565
"Canada","cpi",0.3,2012,4,2011,NA,1,0.792958004337921,2.64077902048635,1.5156782312455,2.06841506112034,TRUE,1.84782101614843
"Canada","cpi",0.3,2012,4,2011,NA,1.5,2.44595203206323,4.29377304821166,1.5156782312455,1.90016524544498,FALSE,4.50574616134196
"Canada","cpi",0.3,2013,4,2013,NA,0,1.12762843154386,1.31101741226465,0.958904109588499,1.14597712094762,FALSE,0.665458472021818
"Canada","cpi",0.3,2013,4,2013,NA,0.5,1.30831350036228,1.85374691772475,0.958904109588499,1.48934937362812,FALSE,1.54374596243041
"Canada","cpi",0.3,2013,4,2012,NA,1,2.10643130089868,3.48687023476995,0.958904109588499,1.95908925659181,FALSE,4.65908805190036
"Canada","cpi",0.3,2013,4,2012,NA,1.5,3.12732042919737,4.50775936306864,0.958904109588499,1.95931269932679,FALSE,7.57591413275376
"Canada","cpi",0.3,2014,4,2014,NA,0,1.33985182511451,1.55563552223216,1.89959294436879,1.93595035364857,FALSE,1.1985191889366
"Canada","cpi",0.3,2014,4,2014,NA,0.5,1.21169260225157,1.77402372247473,1.89959294436879,1.46400358003393,FALSE,0.921100325634752
"Canada","cpi",0.3,2014,4,2013,NA,1,2.06419829057277,3.22234216396621,1.89959294436879,1.64292796635188,FALSE,1.62844486254767
"Canada","cpi",0.3,2014,4,2013,NA,1.5,3.21056726076891,4.36871113416236,1.89959294436879,1.80659536932475,FALSE,4.9037847773938
"Canada","cpi",0.3,2015,4,2015,NA,0,1.11806532066042,1.30832430755475,1.10526666222837,0.996929389764856,FALSE,0.226826582414477
"Canada","cpi",0.3,2015,4,2015,NA,0.5,0.857332190742874,1.42449759903938,1.10526666222837,0.861748608895607,TRUE,0.567165408296502
"Canada","cpi",0.3,2015,4,2014,NA,1,1.74242439879126,3.08225967302493,1.10526666222837,1.95513831061374,FALSE,3.16028595012765
"Canada","cpi",0.3,2015,4,2014,NA,1.5,2.90773609547297,4.24757136970665,1.10526666222837,1.89794664118146,FALSE,6.48974794064682
"Canada","cpi",0.3,2016,4,2016,NA,0,1.24930250823612,1.42084086095456,1.40891434590795,1.6213393128403,TRUE,0.171538352718438
"Canada","cpi",0.3,2016,4,2016,NA,0.5,1.23019142151387,1.70628209291877,1.40891434590795,1.34742733904194,TRUE,0.476090671404906
"Canada","cpi",0.3,2016,4,2015,NA,1,1.77506914482153,2.96100085957129,1.40891434590795,1.60624886613732,FALSE,2.23208828307428
"Canada","cpi",0.3,2016,4,2015,NA,1.5,3.30280474266747,4.48873645741723,1.40891434590795,1.9555852361093,FALSE,6.59704713406267
"Canada","cpi",0.3,2017,4,2017,NA,0,1.27322653973874,1.47620707654693,1.6100759592282,1.60345984100552,FALSE,0.585463058754671
"Canada","cpi",0.3,2017,4,2017,NA,0.5,1.62290285249241,2.16146924506695,1.6100759592282,1.97179134396859,FALSE,0.57521465904372
"Canada","cpi",0.3,2017,4,2016,NA,1,2.16934537660946,3.41225771548323,1.6100759592282,2.06723461080021,FALSE,2.84082495996308
"Canada","cpi",0.3,2017,4,2016,NA,1.5,3.00694688662362,4.26718247192524,1.6100759592282,1.88056227767026,FALSE,5.25129537785996
"Canada","cpi",0.3,2018,4,2018,NA,0,1.74094780134553,1.97600830301072,2.24252491694275,2.56836987799731,FALSE,0.996536541470986
"Canada","cpi",0.3,2018,4,2018,NA,0.5,1.69846560999515,2.30126778178505,2.24252491694275,2.15070147257197,TRUE,0.602802171789902
"Canada","cpi",0.3,2018,4,2017,NA,1,1.54049539913393,2.93005415741459,2.24252491694275,1.78758120401781,TRUE,1.38955875828066
"Canada","cpi",0.3,2018,4,2017,NA,1.5,3.28197146000039,4.67153021828106,2.24252491694275,2.09839963444063,FALSE,4.35940602415964
"Canada","cpi",0.3,2019,4,2019,NA,0,1.60911005991602,1.87956943038338,1.94926902411596,2.01327426888733,FALSE,0.469601066846152
"Canada","cpi",0.3,2019,4,2019,NA,0.5,1.4603371542761,2.01274505096893,1.94926902411596,1.69254280527951,TRUE,0.552407896692833
"Canada","cpi",0.3,2019,4,2018,NA,1,1.9326169187768,3.50591259050271,1.94926902411596,2.22638738015912,TRUE,1.57329567172591
"Canada","cpi",0.3,2019,4,2018,NA,1.5,2.98528233417798,4.55857800590388,1.94926902411596,2.16219381067517,FALSE,4.53333370047452
"Canada","cpi",0.3,2020,4,2020,NA,0,0.956377238735041,1.15405175144892,0.716999632307869,0.616002459846787,FALSE,0.881610531077224
"Canada","cpi",0.3,2020,4,2020,NA,0.5,0.79111001580713,1.19317112850696,0.716999632307869,0.610467294263994,FALSE,0.613805065554864
"Canada","cpi",0.3,2020,4,2019,NA,1,1.76853866130934,3.28290553502835,0.716999632307869,2.02696644348777,FALSE,4.5187640994375
"Canada","cpi",0.3,2020,4,2019,NA,1.5,2.69864520276771,4.21301207648671,0.716999632307869,1.92866243701917,FALSE,7.17621136074711
"Canada","cpi",0.3,2021,4,2021,NA,0,1.81007585751632,1.99543789407871,3.39519318527535,3.15216265299885,FALSE,4.18466286855279
"Canada","cpi",0.3,2021,4,2021,NA,0.5,1.40297835485738,1.75683766605746,3.39519318527535,1.6932278955534,FALSE,5.03487508039404
"Canada","cpi",0.3,2021,4,2020,NA,1,1.5980883668272,2.51647234572569,3.39519318527535,1.26767182443679,FALSE,3.42901494904038
"Canada","cpi",0.3,2021,4,2020,NA,1.5,2.11570435260044,3.04487529792612,3.39519318527535,1.26085388904433,FALSE,1.93007919489491
"Canada","cpi",0.3,2022,4,2022,NA,0,3.99768664187251,4.44048428477089,6.79651641755912,6.89724461197294,FALSE,7.17431802229332
"Canada","cpi",0.3,2022,4,2022,NA,0.5,4.0452710678494,5.31739548274263,6.79651641755912,5.63726787323957,FALSE,5.49818422865463
"Canada","cpi",0.3,2022,4,2021,NA,1,1.95033677252071,4.37750244868404,6.79651641755912,2.63737521674188,FALSE,9.33863415866356
"Canada","cpi",0.3,2022,4,2021,NA,1.5,2.24021913884922,4.66738481501256,6.79651641755912,1.99992665814555,FALSE,8.51039882629637
"Canada","cpi",0.3,2023,4,2023,NA,0,3.23483404799271,3.82553572964405,3.87900159788375,3.62206654600981,FALSE,0.74346130519334
"Canada","cpi",0.3,2023,4,2023,NA,0.5,3.04390109517163,4.23859902376545,3.87900159788375,3.8990209221998,TRUE,1.19469792859381
"Canada","cpi",0.3,2023,4,2022,NA,1,0.809110012957039,4.466261733738,3.87900159788375,4.1992923554854,TRUE,3.65715172078096
"Canada","cpi",0.3,2023,4,2022,NA,1.5,0.825790260041871,4.48294198082283,3.87900159788375,2.36848892603156,TRUE,3.65715172078096
"Canada","cpi",0.3,2024,4,2024,NA,0,2.10274468420638,2.43798702324451,NA,2.43931175105141,NA,NA
"Canada","cpi",0.3,2024,4,2024,NA,0.5,2.10315721591749,3.03156471404425,NA,2.6060205122928,NA,NA
"Canada","cpi",0.3,2024,4,2023,NA,1,0.214671461064537,2.58376266443923,NA,2.43231375635082,NA,NA
"Canada","cpi",0.3,2024,4,2023,NA,1.5,3.25699481383897,5.63602569041222,NA,2.38514817358868,NA,NA
"Canada","cpi",0.3,2025,4,2024,NA,1,NA,NA,NA,1.87361390656267,NA,NA
"Canada","cpi",0.3,2025,4,2024,NA,1.5,NA,NA,NA,1.85379387622673,NA,NA
"Canada","cpi",0.4,1994,4,1994,NA,0,-10.6123471632361,-6.30731813642577,0.198089708456428,0.186873981074975,FALSE,25.9897218430843
"Canada","cpi",0.4,1994,4,1994,NA,0.5,-8.64022970299297,-3.72181883310924,0.198089708456428,0.522791476131479,FALSE,17.9847726751026
"Canada","cpi",0.4,1995,4,1995,NA,0,1.68349708123036,2.54842002990928,1.91968793597725,2.14305230586886,TRUE,0.864922948678922
"Canada","cpi",0.4,1995,4,1995,NA,0.5,1.55528184110663,2.80764343580605,1.91968793597725,1.99619126700588,TRUE,1.25236159469942
"Canada","cpi",0.4,1995,4,1994,NA,1,7.84856435945137,9.10092595415079,1.91968793597725,1.5978236120703,FALSE,21.0152830062798
"Canada","cpi",0.4,1995,4,1994,NA,1.5,9.28308136149515,11.2255191805771,1.91968793597725,1.71534821064654,FALSE,26.4870825708083
"Canada","cpi",0.4,1996,4,1996,NA,0,1.09146050142176,1.60641733886485,1.6556711728335,1.50166806813312,FALSE,0.67913628400526
"Canada","cpi",0.4,1996,4,1996,NA,0.5,0.314552787774121,1.13248220435622,1.6556711728335,1.32822008967348,FALSE,2.5618926448397
"Canada","cpi",0.4,1996,4,1995,NA,1,-0.955874997524944,1.27657557099344,1.6556711728335,2.02244327395347,FALSE,3.49610257465191
"Canada","cpi",0.4,1996,4,1995,NA,1.5,-2.40220783825949,-0.169757269741099,1.6556711728335,1.92718935452521,FALSE,8.31721204376705
"Canada","cpi",0.4,1997,4,1997,NA,0,1.19005699989607,1.58314767884412,1.42496507679055,1.54744278954444,TRUE,0.393090678948051
"Canada","cpi",0.4,1997,4,1997,NA,0.5,0.875262190973502,1.80792852953169,1.42496507679055,1.72303237316327,TRUE,0.932666338558185
"Canada","cpi",0.4,1997,4,1996,NA,1,-0.625455707323347,1.33736584002602,1.42496507679055,2.0413885682107,FALSE,2.25481900323112
"Canada","cpi",0.4,1997,4,1996,NA,1.5,0.997329840247698,2.96015138759707,1.42496507679055,1.91986951679499,TRUE,1.96282154734937
"Canada","cpi",0.4,1998,4,1998,NA,0,1.09659807396011,1.35798950826855,1.0323682372128,1.32960503394646,FALSE,0.475490890132816
"Canada","cpi",0.4,1998,4,1998,NA,0.5,0.81638700968873,1.44047268513557,1.0323682372128,1.50726100317662,TRUE,0.624085675446838
"Canada","cpi",0.4,1998,4,1997,NA,1,-0.5813646399146,0.754917451111436,1.0323682372128,1.58792609966374,FALSE,2.26111804469725
"Canada","cpi",0.4,1998,4,1997,NA,1.5,1.39255394821779,2.72883603924383,1.0323682372128,1.82722544395564,FALSE,2.53690112770935
"Canada","cpi",0.4,1999,4,1999,NA,0,1.04155309973447,1.3339900769847,1.74454349830908,1.50828275233879,FALSE,1.66094838166483
"Canada","cpi",0.4,1999,4,1999,NA,0.5,0.620004418296846,1.042196271048,1.74454349830908,1.16115671553538,FALSE,2.76334927695476
"Canada","cpi",0.4,1999,4,1998,NA,1,0.85137845553492,1.27357030828607,1.74454349830908,1.9024836587632,FALSE,1.99210248616118
"Canada","cpi",0.4,1999,4,1998,NA,1.5,3.12472081528553,3.54691266803668,1.74454349830908,1.8746928929805,FALSE,5.02278290933931
"Canada","cpi",0.4,2000,4,2000,NA,0,1.53683198905231,2.02047126557942,2.73434549437299,2.29889507469385,FALSE,2.86322003917234
"Canada","cpi",0.4,2000,4,2000,NA,0.5,1.11293516715637,2.05445001943482,2.73434549437299,2.08273990461669,FALSE,3.20783310207235
"Canada","cpi",0.4,2000,4,1999,NA,1,-0.620251629311627,0.366937616401802,2.73434549437299,1.72008921565576,FALSE,8.87854883895072
"Canada","cpi",0.4,2000,4,1999,NA,1.5,-0.513241052563456,0.473948193149973,2.73434549437299,1.58716870538138,FALSE,8.52184691645682
"Canada","cpi",0.4,2001,4,2001,NA,0,2.06386743644509,2.84933417541316,2.54467897330315,3.10277295629358,TRUE,0.785466738968061
"Canada","cpi",0.4,2001,4,2001,NA,0.5,1.57325340039593,3.09684975178766,2.54467897330315,2.99102328155023,TRUE,1.52359635139173
"Canada","cpi",0.4,2001,4,2000,NA,1,-1.65546476310178,1.26961529943281,2.54467897330315,2.05716779240688,FALSE,7.17529230876906
"Canada","cpi",0.4,2001,4,2000,NA,1.5,-0.0807969104780915,2.8442831520565,2.54467897330315,1.950224564531,TRUE,2.92508006253459
"Canada","cpi",0.4,2002,4,2002,NA,0,1.35448165200284,1.9181851854411,2.27695832736599,1.75121322657836,FALSE,1.75961400652122
"Canada","cpi",0.4,2002,4,2002,NA,0.5,0.415395038549787,1.10208788059176,2.27695832736599,0.885081053587844,FALSE,4.60292766462274
"Canada","cpi",0.4,2002,4,2001,NA,1,-0.0658422769365843,3.21694659989631,2.27695832736599,2.30325950597698,TRUE,3.2827888768329
"Canada","cpi",0.4,2002,4,2001,NA,1.5,2.00933106702193,5.29211994385483,2.27695832736599,2.15511557897725,TRUE,3.2827888768329
"Canada","cpi",0.4,2003,4,2003,NA,0,1.92884356865739,2.77623670795723,2.73694526109434,2.83169100406533,TRUE,0.84739313929984
"Canada","cpi",0.4,2003,4,2003,NA,0.5,1.83105065185906,3.62621143676266,2.73694526109434,3.07009215555252,TRUE,1.7951607849036
"Canada","cpi",0.4,2003,4,2002,NA,1,-0.354553634761127,2.66740772914792,2.73694526109434,2.1323009571345,FALSE,3.25375313706378
"Canada","cpi",0.4,2003,4,2002,NA,1.5,1.69627470028397,4.71823606419302,2.73694526109434,1.8128899881162,TRUE,3.02196136390905
"Canada","cpi",0.4,2004,4,2004,NA,0,1.5186492164254,2.16509882668401,1.84630058591067,1.94326335025052,TRUE,0.64644961025861
"Canada","cpi",0.4,2004,4,2004,NA,0.5,0.745857727272336,1.71303350972238,1.84630058591067,1.41202996286323,FALSE,1.41139936974433
"Canada","cpi",0.4,2004,4,2003,NA,1,-2.19812171038174,0.139472595738282,1.84630058591067,1.72195310807912,FALSE,8.02702094002798
"Canada","cpi",0.4,2004,4,2003,NA,1.5,3.12948888162407,5.46708318774409,1.84630058591067,2.05203708097148,FALSE,6.61488862516469
"Canada","cpi",0.4,2005,4,2005,NA,0,1.58517576148046,2.11677746383263,2.23456211948951,2.2118960782598,FALSE,0.924217221208443
"Canada","cpi",0.4,2005,4,2005,NA,0.5,1.35145958853453,2.607537987695,2.23456211948951,2.13787262164946,TRUE,1.25607839916046
"Canada","cpi",0.4,2005,4,2004,NA,1,1.44629074421587,3.22540510834188,2.23456211948951,2.16431636867425,TRUE,1.77911436412601
"Canada","cpi",0.4,2005,4,2004,NA,1.5,3.98561220495132,5.76472656907733,2.23456211948951,1.90121867779545,FALSE,7.61594798233203
"Canada","cpi",0.4,2006,4,2006,NA,0,1.64817886991399,2.18118024685231,2.00218136491059,2.21916154315092,TRUE,0.533001376938318
"Canada","cpi",0.4,2006,4,2006,NA,0.5,1.14435844219643,2.26325150606323,2.00218136491059,1.81971630867743,TRUE,1.1188930638668
"Canada","cpi",0.4,2006,4,2005,NA,1,1.09167089040861,3.42609437445801,2.00218136491059,2.47429489273694,TRUE,2.3344234840494
"Canada","cpi",0.4,2006,4,2005,NA,1.5,3.3823708193292,5.7167943033786,2.00218136491059,1.87720365668618,FALSE,6.9350549987781
"Canada","cpi",0.4,2007,4,2007,NA,0,1.5760779936525,2.09539301038415,2.14602107835604,2.18183020638083,FALSE,0.688075243304614
"Canada","cpi",0.4,2007,4,2007,NA,0.5,1.15631007050753,2.13128053637716,2.14602107835604,1.70657479409257,FALSE,1.02410560579922
"Canada","cpi",0.4,2007,4,2006,NA,1,1.01384772917728,2.50915663901125,2.14602107835604,1.88218856041089,TRUE,1.49530890983396
"Canada","cpi",0.4,2007,4,2006,NA,1.5,4.39865707545004,5.893965985284,2.14602107835604,2.02111311333697,FALSE,9.00409556681396
"Canada","cpi",0.4,2008,4,2008,NA,0,1.80456519767417,2.29505843789642,2.38540342481082,2.5304444255341,FALSE,0.791643196603589
"Canada","cpi",0.4,2008,4,2008,NA,0.5,1.14202170915633,2.09969332853575,2.38540342481082,1.59687536789142,FALSE,1.910038606963
"Canada","cpi",0.4,2008,4,2007,NA,1,1.04388523445678,2.56188546563775,2.38540342481082,1.90970285875554,TRUE,1.51800023118098
"Canada","cpi",0.4,2008,4,2007,NA,1.5,4.20331350420189,5.72131373538287,2.38540342481082,1.9732512990275,FALSE,7.57770049581788
"Canada","cpi",0.4,2009,4,2009,NA,0,0.740483041534558,0.923335246044474,0.292141396435586,0.146533060789067,FALSE,1.67732435483982
"Canada","cpi",0.4,2009,4,2009,NA,0.5,0.0786761147758562,0.688722617271603,0.292141396435586,0.034043559717678,TRUE,0.610046502495747
"Canada","cpi",0.4,2009,4,2008,NA,1,1.17130524424765,3.09566443717577,0.292141396435586,2.12782728451457,FALSE,4.85490535230166
"Canada","cpi",0.4,2009,4,2008,NA,1.5,4.0532507321696,5.97760992509772,0.292141396435586,2.00999852974699,FALSE,14.4613903120415
"Canada","cpi",0.4,2010,4,2010,NA,0,1.16675697302703,1.42167369545911,1.77674215393546,1.77238598089253,FALSE,1.43847825068659
"Canada","cpi",0.4,2010,4,2010,NA,0.5,1.48764338877642,2.06370907882685,1.77674215393546,1.77913637602991,TRUE,0.576065690050433
"Canada","cpi",0.4,2010,4,2009,NA,1,2.370037872086,2.94610356213643,1.77674215393546,1.25701172011297,FALSE,2.55371808388557
"Canada","cpi",0.4,2010,4,2009,NA,1.5,1.96239535655903,2.53846104660946,1.77674215393546,0.529947261879338,FALSE,1.19490969879567
"Canada","cpi",0.4,2011,4,2011,NA,0,1.91830832152604,2.33758354148148,2.8902561167552,2.90478393121871,FALSE,2.2615171375345
"Canada","cpi",0.4,2011,4,2011,NA,0.5,1.64391087428564,2.5806530903101,2.8902561167552,2.23130448324878,FALSE,1.9687523041748
"Canada","cpi",0.4,2011,4,2010,NA,1,1.59714783249328,3.58463309520133,2.8902561167552,2.01837757685623,TRUE,1.98748526270805
"Canada","cpi",0.4,2011,4,2010,NA,1.5,2.84614132377424,4.83362658648229,2.8902561167552,1.95623721047276,TRUE,1.98748526270805
"Canada","cpi",0.4,2012,4,2012,NA,0,1.65312879248058,2.01316035721758,1.5156782312455,1.79054609126241,FALSE,0.818200102187274
"Canada","cpi",0.4,2012,4,2012,NA,0.5,1.63433079985531,2.73432785061827,1.5156782312455,2.15830835181476,FALSE,1.49550561279565
"Canada","cpi",0.4,2012,4,2011,NA,1,0.234685895956424,2.89311267859548,1.5156782312455,2.06841506112034,TRUE,2.65842678263905
"Canada","cpi",0.4,2012,4,2011,NA,1.5,1.95591165749048,4.61433844012954,1.5156782312455,1.90016524544498,FALSE,4.125871536789
"Canada","cpi",0.4,2013,4,2013,NA,0,1.09155178062988,1.34655486568115,0.958904109588499,1.14597712094762,FALSE,0.697161988522546
"Canada","cpi",0.4,2013,4,2013,NA,0.5,1.20142406190425,1.96821209937765,0.958904109588499,1.48934937362812,FALSE,1.5751878785259
"Canada","cpi",0.4,2013,4,2012,NA,1,1.82594072211817,3.65605121460299,0.958904109588499,1.95908925659181,FALSE,4.72023253425038
"Canada","cpi",0.4,2013,4,2012,NA,1.5,2.89397413165827,4.7240846241431,0.958904109588499,1.95931269932679,FALSE,8.28034389938408
"Canada","cpi",0.4,2014,4,2014,NA,0,1.29799267724382,1.58865360177403,1.89959294436879,1.93595035364857,FALSE,1.32712539984609
"Canada","cpi",0.4,2014,4,2014,NA,0.5,1.08654169839646,1.84885111461796,1.89959294436879,1.46400358003393,FALSE,0.931448848724262
"Canada","cpi",0.4,2014,4,2013,NA,1,1.84313272917335,3.37970428970785,1.89959294436879,1.64292796635188,TRUE,1.53657156053451
"Canada","cpi",0.4,2014,4,2013,NA,1.5,2.9696307801598,4.50620234069431,1.89959294436879,1.80659536932475,FALSE,5.10336434650455
"Canada","cpi",0.4,2015,4,2015,NA,0,1.07068206053051,1.33854128260632,1.10526666222837,0.996929389764856,TRUE,0.267859222075816
"Canada","cpi",0.4,2015,4,2015,NA,0.5,0.732877401147027,1.50056135370908,1.10526666222837,0.861748608895607,TRUE,0.767683952562051
"Canada","cpi",0.4,2015,4,2014,NA,1,1.40463627259848,3.24478770021649,1.10526666222837,1.95513831061374,FALSE,2.8380501288517
"Canada","cpi",0.4,2015,4,2014,NA,1.5,2.61456269377811,4.45471412139612,1.10526666222837,1.89794664118146,FALSE,6.87113819945048
"Canada","cpi",0.4,2016,4,2016,NA,0,1.21612139829409,1.45828811305044,1.40891434590795,1.6213393128403,TRUE,0.242166714756352
"Canada","cpi",0.4,2016,4,2016,NA,0.5,1.11260935854552,1.75546378625555,1.40891434590795,1.34742733904194,TRUE,0.642854427710035
"Canada","cpi",0.4,2016,4,2015,NA,1,1.59048672394173,3.11060805721041,1.40891434590795,1.60624886613732,FALSE,2.12536259338129
"Canada","cpi",0.4,2016,4,2015,NA,1.5,3.08587258550847,4.60599391877715,1.40891434590795,1.9555852361093,FALSE,7.10998213193709
"Canada","cpi",0.4,2017,4,2017,NA,0,1.23415482493222,1.5059592930471,1.6100759592282,1.60345984100552,FALSE,0.618860022051881
"Canada","cpi",0.4,2017,4,2017,NA,0.5,1.50776086397918,2.28027598105736,1.6100759592282,1.97179134396859,TRUE,0.77251511707818
"Canada","cpi",0.4,2017,4,2016,NA,1,1.8810420471316,3.64963621765914,1.6100759592282,2.06723461080021,FALSE,2.67181446353888
"Canada","cpi",0.4,2017,4,2016,NA,1.5,2.67223746682426,4.4408316373518,1.6100759592282,1.88056227767026,FALSE,5.30913252918108
"Canada","cpi",0.4,2018,4,2018,NA,0,1.6881360093636,2.01381180025281,2.24252491694275,2.56836987799731,FALSE,1.08805284652235
"Canada","cpi",0.4,2018,4,2018,NA,0.5,1.5524425619501,2.39405218199907,2.24252491694275,2.15070147257197,TRUE,0.841609620048967
"Canada","cpi",0.4,2018,4,2017,NA,1,1.26145194733019,3.01213640652774,2.24252491694275,1.78758120401781,TRUE,1.75068445919756
"Canada","cpi",0.4,2018,4,2017,NA,1.5,3.05437657572005,4.8050610349176,2.24252491694275,2.09839963444063,FALSE,4.45685665512188
"Canada","cpi",0.4,2019,4,2019,NA,0,1.54472992878361,1.91785411004341,1.94926902411596,2.01327426888733,FALSE,0.477840561501626
"Canada","cpi",0.4,2019,4,2019,NA,0.5,1.3109149406855,2.09704686379272,1.94926902411596,1.69254280527951,TRUE,0.786131923107223
"Canada","cpi",0.4,2019,4,2018,NA,1,1.50782279681038,3.67709895747061,1.94926902411596,2.22638738015912,TRUE,2.16927616066023
"Canada","cpi",0.4,2019,4,2018,NA,1.5,2.61223164400485,4.78150780466508,1.94926902411596,2.16219381067517,FALSE,4.37915156028985
"Canada","cpi",0.4,2020,4,2020,NA,0,0.925551491412089,1.17450470736576,0.716999632307869,0.616002459846787,FALSE,0.944126079634407
"Canada","cpi",0.4,2020,4,2020,NA,0.5,0.674449940425333,1.2399901743617,0.716999632307869,0.610467294263994,TRUE,0.565540233936367
"Canada","cpi",0.4,2020,4,2019,NA,1,1.47414454445142,3.38169452684569,0.716999632307869,2.02696644348777,FALSE,4.43136635620611
"Canada","cpi",0.4,2020,4,2019,NA,1.5,2.47720747658065,4.38475745897493,0.716999632307869,1.92866243701917,FALSE,7.77490946330355
"Canada","cpi",0.4,2021,4,2021,NA,0,1.77767666294373,2.01207899243869,3.39519318527535,3.15216265299885,FALSE,4.84478297228384
"Canada","cpi",0.4,2021,4,2021,NA,0.5,1.31888909348073,1.82706456701676,3.39519318527535,1.6932278955534,FALSE,5.73527086773133
"Canada","cpi",0.4,2021,4,2020,NA,1,1.47391469000476,2.64962388332011,3.39519318527535,1.26767182443679,FALSE,3.6609401998328
"Canada","cpi",0.4,2021,4,2020,NA,1.5,2.00989795049531,3.18560714381067,3.39519318527535,1.26085388904433,FALSE,1.87432933153097
"Canada","cpi",0.4,2022,4,2022,NA,0,3.92151339151849,4.5385263673184,6.79651641755912,6.89724461197294,FALSE,8.14364647660231
"Canada","cpi",0.4,2022,4,2022,NA,0.5,3.81882789091013,5.53841095531122,6.79651641755912,5.63726787323957,FALSE,5.91326793856077
"Canada","cpi",0.4,2022,4,2021,NA,1,1.50472746766662,4.60903768919822,6.79651641755912,2.63737521674188,FALSE,10.3959059827346
"Canada","cpi",0.4,2022,4,2021,NA,1.5,1.89801691964559,5.00232714117719,6.79651641755912,1.99992665814555,FALSE,9.08494114280471
"Canada","cpi",0.4,2023,4,2023,NA,0,3.07628383265736,3.9009855024554,3.87900159788375,3.62206654600981,TRUE,0.824701669798037
"Canada","cpi",0.4,2023,4,2023,NA,0.5,2.70797940363127,4.50759072519748,3.87900159788375,3.8990209221998,TRUE,1.79961132156621
"Canada","cpi",0.4,2023,4,2022,NA,1,0.0944761887968895,4.86351619520581,3.87900159788375,4.1992923554854,TRUE,4.76904000640893
"Canada","cpi",0.4,2023,4,2022,NA,1.5,0.39174235404966,5.16078236045858,3.87900159788375,2.36848892603156,TRUE,4.76904000640893
"Canada","cpi",0.4,2024,4,2024,NA,0,2.0252181097743,2.46544157564609,NA,2.43931175105141,NA,NA
"Canada","cpi",0.4,2024,4,2024,NA,0.5,1.87155081179169,3.2263755053593,NA,2.6060205122928,NA,NA
"Canada","cpi",0.4,2024,4,2023,NA,1,-0.257701710256457,2.77196569467197,NA,2.43231375635082,NA,NA
"Canada","cpi",0.4,2024,4,2023,NA,1.5,2.81010289927582,5.83977030420424,NA,2.38514817358868,NA,NA
"Canada","cpi",0.4,2025,4,2024,NA,1,NA,NA,NA,1.87361390656267,NA,NA
"Canada","cpi",0.4,2025,4,2024,NA,1.5,NA,NA,NA,1.85379387622673,NA,NA
"Canada","cpi",0.5,1994,4,1994,NA,0,-11.0653332844871,-5.75341747139321,0.198089708456428,0.186873981074975,FALSE,29.1179445324925
"Canada","cpi",0.5,1994,4,1994,NA,0.5,-9.84845394712191,-2.9060975600282,0.198089708456428,0.522791476131479,FALSE,19.3591054610322
"Canada","cpi",0.5,1995,4,1995,NA,0,2.05073535479318,2.69305941672718,1.91968793597725,2.14305230586886,FALSE,1.16651373719772
"Canada","cpi",0.5,1995,4,1995,NA,0.5,1.48700638686523,2.32993430425967,1.91968793597725,1.99619126700588,TRUE,0.842927917394445
"Canada","cpi",0.5,1995,4,1994,NA,1,7.89583754762239,9.0641224407592,1.91968793597725,1.5978236120703,FALSE,25.0728833397174
"Canada","cpi",0.5,1995,4,1994,NA,1.5,8.43546790885665,9.60375280199346,1.91968793597725,1.71534821064654,FALSE,27.2314047846544
"Canada","cpi",0.5,1996,4,1996,NA,0,0.967266422701452,1.65198896158823,1.6556711728335,1.50166806813312,FALSE,0.699451383867845
"Canada","cpi",0.5,1996,4,1996,NA,0.5,0.311229463363605,1.18400394883795,1.6556711728335,1.32822008967348,FALSE,2.75944338145655
"Canada","cpi",0.5,1996,4,1995,NA,1,-1.21434947525642,1.82436697702124,1.6556711728335,2.02244327395347,TRUE,3.03871645227766
"Canada","cpi",0.5,1996,4,1995,NA,1.5,-3.07392617983356,-0.0352097275559049,1.6556711728335,1.92718935452521,FALSE,9.80224005383528
"Canada","cpi",0.5,1997,4,1997,NA,0,1.18070634492391,1.62404678905822,1.42496507679055,1.54744278954444,TRUE,0.443340444134309
"Canada","cpi",0.5,1997,4,1997,NA,0.5,0.730986678232518,1.94845937136985,1.42496507679055,1.72303237316327,TRUE,1.21747269313733
"Canada","cpi",0.5,1997,4,1996,NA,1,-0.743632869049461,1.69144640053856,1.42496507679055,2.0413885682107,TRUE,2.43507926958802
"Canada","cpi",0.5,1997,4,1996,NA,1.5,0.942512043750808,3.37759131333883,1.42496507679055,1.91986951679499,TRUE,2.43507926958802
"Canada","cpi",0.5,1998,4,1998,NA,0,1.07949018122846,1.39084133787373,1.0323682372128,1.32960503394646,FALSE,0.499838932707898
"Canada","cpi",0.5,1998,4,1998,NA,0.5,0.749746508533175,1.51451791820175,1.0323682372128,1.50726100317662,TRUE,0.764771409668572
"Canada","cpi",0.5,1998,4,1997,NA,1,-0.506493672943769,0.761871140386291,1.0323682372128,1.58792609966374,FALSE,2.3503532006361
"Canada","cpi",0.5,1998,4,1997,NA,1.5,1.90611305959203,3.17447787292209,1.0323682372128,1.82722544395564,FALSE,4.76334410284698
"Canada","cpi",0.5,1999,4,1999,NA,0,1.06263975058563,1.31855848619123,1.74454349830908,1.50828275233879,FALSE,1.959858784077
"Canada","cpi",0.5,1999,4,1999,NA,0.5,0.750933069734552,1.00685180534015,1.74454349830908,1.16115671553538,FALSE,3.20668550748131
"Canada","cpi",0.5,1999,4,1998,NA,1,0.893561626490245,1.14948036209584,1.74454349830908,1.9024836587632,FALSE,2.63617128045854
"Canada","cpi",0.5,1999,4,1998,NA,1.5,3.35404145529803,3.60996019090363,1.74454349830908,1.8746928929805,FALSE,6.69391056356142
"Canada","cpi",0.5,2000,4,2000,NA,0,1.45738917322175,2.06998066460734,2.73434549437299,2.29889507469385,FALSE,3.2700508104482
"Canada","cpi",0.5,2000,4,2000,NA,0.5,1.02649809175645,2.20944011130273,2.73434549437299,2.08273990461669,FALSE,3.28256355182732
"Canada","cpi",0.5,2000,4,1999,NA,1,-0.847091966003384,0.500765798055609,2.73434549437299,1.72008921565576,FALSE,10.2821765493285
"Canada","cpi",0.5,2000,4,1999,NA,1.5,-0.81501359516636,0.532844168892632,2.73434549437299,1.58716870538138,FALSE,10.1538630659804
"Canada","cpi",0.5,2001,4,2001,NA,0,1.98059848630545,2.9566229327465,2.54467897330315,3.10277295629358,TRUE,0.976024446441056
"Canada","cpi",0.5,2001,4,2001,NA,0.5,1.41480448020791,3.38013939219517,2.54467897330315,2.99102328155023,TRUE,1.96533491198726
"Canada","cpi",0.5,2001,4,2000,NA,1,-1.81012624817529,1.87367542941744,2.54467897330315,2.05716779240688,FALSE,6.36781585313556
"Canada","cpi",0.5,2001,4,2000,NA,1.5,-0.609895630070307,3.19058969841202,2.54467897330315,1.950224564531,TRUE,3.80048532848232
"Canada","cpi",0.5,2002,4,2002,NA,0,1.26257274894923,1.97969434344957,2.27695832736599,1.75121322657836,FALSE,1.90617753016602
"Canada","cpi",0.5,2002,4,2002,NA,0.5,0.390689718463115,1.28014628129007,2.27695832736599,0.885081053587844,FALSE,4.87670474713063
"Canada","cpi",0.5,2002,4,2001,NA,1,-0.426420758900784,3.57136170452042,2.27695832736599,2.30325950597698,TRUE,3.9977824634212
"Canada","cpi",0.5,2002,4,2001,NA,1.5,1.68256188335639,5.68034434677759,2.27695832736599,2.15511557897725,TRUE,3.9977824634212
"Canada","cpi",0.5,2003,4,2003,NA,0,1.82699914303623,2.85518281569238,2.73694526109434,2.83169100406533,TRUE,1.02818367265615
"Canada","cpi",0.5,2003,4,2003,NA,0.5,1.63446342316509,3.90589727238283,2.73694526109434,3.07009215555252,TRUE,2.27143384921774
"Canada","cpi",0.5,2003,4,2002,NA,1,-0.532237438967732,3.17739403912921,2.73694526109434,2.1323009571345,TRUE,3.70963147809695
"Canada","cpi",0.5,2003,4,2002,NA,1.5,1.45939895084945,5.1690304289464,2.73694526109434,1.8128899881162,TRUE,3.70963147809695
"Canada","cpi",0.5,2004,4,2004,NA,0,1.4455822187938,2.22717662903635,1.84630058591067,1.94326335025052,TRUE,0.781594410242551
"Canada","cpi",0.5,2004,4,2004,NA,0.5,0.67671404283813,1.96516160584318,1.84630058591067,1.41202996286323,TRUE,1.28844756300505
"Canada","cpi",0.5,2004,4,2003,NA,1,-2.29132271799362,0.68709806209211,1.84630058591067,1.72195310807912,FALSE,7.61523087535997
"Canada","cpi",0.5,2004,4,2003,NA,1.5,2.8612864948424,5.83970727492812,1.84630058591067,2.05203708097148,FALSE,7.03836441581264
"Canada","cpi",0.5,2005,4,2005,NA,0,1.51985520948135,2.27402785898244,2.23456211948951,2.2118960782598,TRUE,0.754172649501096
"Canada","cpi",0.5,2005,4,2005,NA,0.5,1.17825981849464,2.73902282137184,2.23456211948951,2.13787262164946,TRUE,1.5607630028772
"Canada","cpi",0.5,2005,4,2004,NA,1,1.15964266979681,3.33536693658995,2.23456211948951,2.16431636867425,TRUE,2.17572426679314
"Canada","cpi",0.5,2005,4,2004,NA,1.5,3.77299919072238,5.94872345751552,2.23456211948951,1.90121867779545,FALSE,8.32947255172461
"Canada","cpi",0.5,2006,4,2006,NA,0,1.58964347378031,2.27443363994659,2.00218136491059,2.21916154315092,TRUE,0.684790166166273
"Canada","cpi",0.5,2006,4,2006,NA,0.5,1.01231720139313,2.4360130386336,2.00218136491059,1.81971630867743,TRUE,1.42369583724047
"Canada","cpi",0.5,2006,4,2005,NA,1,0.85746034689087,3.65298604890582,2.00218136491059,2.47429489273694,TRUE,2.79552570201495
"Canada","cpi",0.5,2006,4,2005,NA,1.5,3.22167020446867,6.01719590648362,2.00218136491059,1.87720365668618,FALSE,7.67348106024728
"Canada","cpi",0.5,2007,4,2007,NA,0,1.53104066065648,2.17172243766043,2.14602107835604,2.18183020638083,TRUE,0.640681777003951
"Canada","cpi",0.5,2007,4,2007,NA,0.5,1.02408992232665,2.26296146127823,2.14602107835604,1.70657479409257,TRUE,1.23887153895159
"Canada","cpi",0.5,2007,4,2006,NA,1,0.889431538635174,2.72421476335817,2.14602107835604,1.88218856041089,TRUE,1.834783224723
"Canada","cpi",0.5,2007,4,2006,NA,1.5,4.26033066139199,6.09511388611499,2.14602107835604,2.02111311333697,FALSE,10.2920215568668
"Canada","cpi",0.5,2008,4,2008,NA,0,1.72808845738222,2.3665725988469,2.38540342481082,2.5304444255341,FALSE,0.713807445320357
"Canada","cpi",0.5,2008,4,2008,NA,0.5,0.994269209139822,2.16462472239896,2.38540342481082,1.59687536789142,FALSE,2.05347032290658
"Canada","cpi",0.5,2008,4,2007,NA,1,0.838136771718663,2.68797743045047,2.38540342481082,1.90970285875554,TRUE,1.8498406587318
"Canada","cpi",0.5,2008,4,2007,NA,1.5,4.11283631162817,5.96267697035997,2.38540342481082,1.9732512990275,FALSE,8.75957220600121
"Canada","cpi",0.5,2009,4,2009,NA,0,0.705339515937593,0.945145762530811,0.292141396435586,0.146533060789067,FALSE,1.89259872460125
"Canada","cpi",0.5,2009,4,2009,NA,0.5,0.0501302623286746,0.813325268339658,0.292141396435586,0.034043559717678,TRUE,0.763195006010983
"Canada","cpi",0.5,2009,4,2008,NA,1,0.963053930662167,3.13375733909349,0.292141396435586,2.12782728451457,FALSE,4.85435354533765
"Canada","cpi",0.5,2009,4,2008,NA,1.5,3.9783215113099,6.14902491974123,0.292141396435586,2.00999852974699,FALSE,16.9154238679286
"Canada","cpi",0.5,2010,4,2010,NA,0,1.12813664143879,1.48118200716505,1.77674215393546,1.77238598089253,FALSE,1.5352859528079
"Canada","cpi",0.5,2010,4,2010,NA,0.5,1.3174999697939,2.15651709467398,1.77674215393546,1.77913637602991,TRUE,0.839017124880073
"Canada","cpi",0.5,2010,4,2009,NA,1,2.15621202021915,2.99522914509922,1.77674215393546,1.25701172011297,FALSE,2.35689659001481
"Canada","cpi",0.5,2010,4,2009,NA,1.5,1.85501459750274,2.69403172238282,1.77674215393546,0.529947261879338,FALSE,1.1521068991492
"Canada","cpi",0.5,2011,4,2011,NA,0,1.88717560501579,2.42608613928039,2.8902561167552,2.90478393121871,FALSE,2.39559044416384
"Canada","cpi",0.5,2011,4,2011,NA,0.5,1.49040074139294,2.67564483714029,2.8902561167552,2.23130448324878,FALSE,2.04368921420698
"Canada","cpi",0.5,2011,4,2010,NA,1,1.26504534478147,3.74930022482225,2.8902561167552,2.01837757685623,TRUE,2.48425488004078
"Canada","cpi",0.5,2011,4,2010,NA,1.5,2.42259029698491,4.90684517702568,2.8902561167552,1.95623721047276,TRUE,2.48425488004078
"Canada","cpi",0.5,2012,4,2012,NA,0,1.60570060484818,2.06715823477743,1.5156782312455,1.79054609126241,FALSE,0.821547124339966
"Canada","cpi",0.5,2012,4,2012,NA,0.5,1.49709584116069,2.84824291589276,1.5156782312455,2.15830835181476,TRUE,1.35114707473207
"Canada","cpi",0.5,2012,4,2011,NA,1,-0.0615975812100524,3.0884237761345,1.5156782312455,2.06841506112034,TRUE,3.15002135734455
"Canada","cpi",0.5,2012,4,2011,NA,1.5,1.52027069494761,4.67029205229217,1.5156782312455,1.90016524544498,FALSE,3.168391212153
"Canada","cpi",0.5,2013,4,2013,NA,0,1.04584194320243,1.38105237697397,0.958904109588499,1.14597712094762,FALSE,0.682961768227278
"Canada","cpi",0.5,2013,4,2013,NA,0.5,1.05676075745999,2.07795696599325,0.958904109588499,1.48934937362812,FALSE,1.41262280001924
"Canada","cpi",0.5,2013,4,2012,NA,1,1.51688609396684,3.82645443932315,0.958904109588499,1.95908925659181,FALSE,4.54149628286966
"Canada","cpi",0.5,2013,4,2012,NA,1.5,2.51888658964634,4.82845493500265,0.958904109588499,1.95931269932679,FALSE,8.54949826558769
"Canada","cpi",0.5,2014,4,2014,NA,0,1.26374739888076,1.63207776063613,1.89959294436879,1.93595035364857,FALSE,1.43839109668602
"Canada","cpi",0.5,2014,4,2014,NA,0.5,0.991093154308837,1.9346571748983,1.89959294436879,1.46400358003393,TRUE,0.943564020589466
"Canada","cpi",0.5,2014,4,2013,NA,1,1.66366615613794,3.48402440125698,1.89959294436879,1.64292796635188,TRUE,1.82035824511904
"Canada","cpi",0.5,2014,4,2013,NA,1.5,2.76224449520778,4.58260274032682,1.89959294436879,1.80659536932475,FALSE,5.27096444847501
"Canada","cpi",0.5,2015,4,2015,NA,0,1.03246646626692,1.36654615275813,1.10526666222837,0.996929389764856,TRUE,0.334079686491202
"Canada","cpi",0.5,2015,4,2015,NA,0.5,0.627983511562688,1.55738891231773,1.10526666222837,0.861748608895607,TRUE,0.929405400755039
"Canada","cpi",0.5,2015,4,2014,NA,1,1.13012061445137,3.45659761910658,1.10526666222837,1.95513831061374,FALSE,2.42589281354721
"Canada","cpi",0.5,2015,4,2014,NA,1.5,2.28750573974285,4.61398274439806,1.10526666222837,1.89794664118146,FALSE,7.05543331471315
"Canada","cpi",0.5,2016,4,2016,NA,0,1.18145758804855,1.48060951135145,1.40891434590795,1.6213393128403,TRUE,0.299151923302903
"Canada","cpi",0.5,2016,4,2016,NA,0.5,0.985808793851962,1.84170235865077,1.40891434590795,1.34742733904194,TRUE,0.85589356479881
"Canada","cpi",0.5,2016,4,2015,NA,1,1.27848624793761,3.25597751559656,1.40891434590795,1.60624886613732,TRUE,1.97749126765896
"Canada","cpi",0.5,2016,4,2015,NA,1.5,2.83363338532093,4.81112465297989,1.40891434590795,1.9555852361093,FALSE,7.67636742531087
"Canada","cpi",0.5,2017,4,2017,NA,0,1.19712166514449,1.54183976087859,1.6100759592282,1.60345984100552,FALSE,0.617662889132551
"Canada","cpi",0.5,2017,4,2017,NA,0.5,1.38311720916598,2.335344015748,1.6100759592282,1.97179134396859,TRUE,0.952226806582018
"Canada","cpi",0.5,2017,4,2016,NA,1,1.63338683006683,3.80837270220877,1.6100759592282,2.06723461080021,FALSE,2.26822935549647
"Canada","cpi",0.5,2017,4,2016,NA,1.5,2.43490591147489,4.60989178361683,1.6100759592282,1.88056227767026,FALSE,5.47430568112869
"Canada","cpi",0.5,2018,4,2018,NA,0,1.63103274776845,2.06284416764165,2.24252491694275,2.56836987799731,FALSE,1.1505344170776
"Canada","cpi",0.5,2018,4,2018,NA,0.5,1.41881310277383,2.50885123169288,2.24252491694275,2.15070147257197,TRUE,1.09003812891905
"Canada","cpi",0.5,2018,4,2017,NA,1,1.02994316313099,3.313876751634,2.24252491694275,1.78758120401781,TRUE,2.28393358850301
"Canada","cpi",0.5,2018,4,2017,NA,1.5,2.66695195323321,4.95088554173622,2.24252491694275,2.09839963444063,FALSE,3.98164173366483
"Canada","cpi",0.5,2019,4,2019,NA,0,1.51687485624039,1.93150078173346,1.94926902411596,2.01327426888733,FALSE,0.485698895023069
"Canada","cpi",0.5,2019,4,2019,NA,0.5,1.17324115664921,2.22647592342092,1.94926902411596,1.69254280527951,TRUE,1.05323476677171
"Canada","cpi",0.5,2019,4,2018,NA,1,1.07695303746841,3.71236705764873,1.94926902411596,2.22638738015912,TRUE,2.63541402018032
"Canada","cpi",0.5,2019,4,2018,NA,1.5,2.32861827459067,4.964032294771,1.94926902411596,2.16219381067517,FALSE,4.15281102207918
"Canada","cpi",0.5,2020,4,2020,NA,0,0.888090924712115,1.18785618356428,0.716999632307869,0.616002459846787,FALSE,0.984130428469148
"Canada","cpi",0.5,2020,4,2020,NA,0.5,0.576427527220257,1.27267283102712,0.716999632307869,0.610467294263994,TRUE,0.696245303806859
"Canada","cpi",0.5,2020,4,2019,NA,1,1.14185698099857,3.66817508937213,0.716999632307869,2.02696644348777,FALSE,4.22574750313635
"Canada","cpi",0.5,2020,4,2019,NA,1.5,2.08222578116366,4.60854388953722,0.716999632307869,1.92866243701917,FALSE,7.98722270379672
"Canada","cpi",0.5,2021,4,2021,NA,0,1.74047096631728,2.03961320110772,3.39519318527535,3.15216265299885,FALSE,5.72146217146096
"Canada","cpi",0.5,2021,4,2021,NA,0.5,1.23625101167402,1.92141223580305,3.39519318527535,1.6932278955534,FALSE,6.58028502201824
"Canada","cpi",0.5,2021,4,2020,NA,1,1.25998652965694,2.74367658406904,3.39519318527535,1.26767182443679,FALSE,4.08975645923734
"Canada","cpi",0.5,2021,4,2020,NA,1.5,1.85730703929413,3.34099709370623,3.39519318527535,1.26085388904433,FALSE,1.70047442068858
"Canada","cpi",0.5,2022,4,2022,NA,0,3.7726628497087,4.6857900348088,6.79651641755912,6.89724461197294,FALSE,9.35603271610138
"Canada","cpi",0.5,2022,4,2022,NA,0.5,3.52905671691825,5.82341198758942,6.79651641755912,5.63726787323957,FALSE,6.18677299054998
"Canada","cpi",0.5,2022,4,2021,NA,1,0.809492499305028,5.13219349235057,6.79651641755912,2.63737521674188,FALSE,10.9799926938798
"Canada","cpi",0.5,2022,4,2021,NA,1.5,1.19330928302784,5.51601027607338,6.79651641755912,1.99992665814555,FALSE,9.44472555898848
"Canada","cpi",0.5,2023,4,2023,NA,0,2.96003914310208,4.01332910548851,3.87900159788375,3.62206654600981,TRUE,1.05328996238643
"Canada","cpi",0.5,2023,4,2023,NA,0.5,2.39093187204587,4.75327736452024,3.87900159788375,3.8990209221998,TRUE,2.36234549247437
"Canada","cpi",0.5,2023,4,2022,NA,1,-0.979482672470218,4.74923889815962,3.87900159788375,4.1992923554854,TRUE,5.72872157062984
"Canada","cpi",0.5,2023,4,2022,NA,1.5,-0.0574471780804133,5.67127439254943,3.87900159788375,2.36848892603156,TRUE,5.72872157062984
"Canada","cpi",0.5,2024,4,2024,NA,0,1.9680091657603,2.54086931682464,NA,2.43931175105141,NA,NA
"Canada","cpi",0.5,2024,4,2024,NA,0.5,1.6403574446367,3.37358142815742,NA,2.6060205122928,NA,NA
"Canada","cpi",0.5,2024,4,2023,NA,1,-0.804112357309102,2.95101290952715,NA,2.43231375635082,NA,NA
"Canada","cpi",0.5,2024,4,2023,NA,1.5,2.41196180881507,6.16708707565132,NA,2.38514817358868,NA,NA
"Canada","cpi",0.5,2025,4,2024,NA,1,NA,NA,NA,1.87361390656267,NA,NA
"Canada","cpi",0.5,2025,4,2024,NA,1.5,NA,NA,NA,1.85379387622673,NA,NA
"Canada","cpi",0.6,1994,4,1994,NA,0,-10.6779780291927,-4.88592888737948,0.198089708456428,0.186873981074975,FALSE,31.2121421209927
"Canada","cpi",0.6,1994,4,1994,NA,0.5,-8.09553705040461,-2.30348790859141,0.198089708456428,0.522791476131479,FALSE,18.2999372270524
"Canada","cpi",0.6,1995,4,1995,NA,0,1.67320754779876,3.02305010470455,1.91968793597725,2.14305230586886,TRUE,1.34984255690578
"Canada","cpi",0.6,1995,4,1995,NA,0.5,1.52804719400979,3.1704068863408,1.91968793597725,1.99619126700588,TRUE,1.64235969233101
"Canada","cpi",0.6,1995,4,1994,NA,1,6.85713938657831,9.95294086816029,1.91968793597725,1.5978236120703,FALSE,27.7830587345873
"Canada","cpi",0.6,1995,4,1994,NA,1.5,8.13694468051494,11.2327461620969,1.91968793597725,1.71534821064654,FALSE,34.1820852042704
"Canada","cpi",0.6,1996,4,1996,NA,0,1.00587554598102,1.73486494716241,1.6556711728335,1.50166806813312,TRUE,0.728989401181393
"Canada","cpi",0.6,1996,4,1996,NA,0.5,0.179575578943483,1.38654707715903,1.6556711728335,1.32822008967348,FALSE,2.5525919765879
"Canada","cpi",0.6,1996,4,1995,NA,1,-1.51611747693314,1.89109995930369,1.6556711728335,2.02244327395347,TRUE,3.40721743623682
"Canada","cpi",0.6,1996,4,1995,NA,1.5,-3.25843333664364,0.148784099593183,1.6556711728335,1.92718935452521,FALSE,10.9416528024384
"Canada","cpi",0.6,1997,4,1997,NA,0,1.11886934066505,1.66680299121904,1.42496507679055,1.54744278954444,TRUE,0.547933650553982
"Canada","cpi",0.6,1997,4,1997,NA,0.5,0.677738322648709,2.08059776896706,1.42496507679055,1.72303237316327,TRUE,1.40285944631836
"Canada","cpi",0.6,1997,4,1996,NA,1,-1.11059944281037,1.73313893308559,1.42496507679055,2.0413885682107,TRUE,2.84373837589596
"Canada","cpi",0.6,1997,4,1996,NA,1.5,0.461118778217958,3.88572731703625,1.42496507679055,1.91986951679499,TRUE,3.42460853881829
"Canada","cpi",0.6,1998,4,1998,NA,0,1.0450160562529,1.42741892589383,1.0323682372128,1.32960503394646,FALSE,0.445641964841415
"Canada","cpi",0.6,1998,4,1998,NA,0.5,0.718239451097615,1.60877497700683,1.0323682372128,1.50726100317662,TRUE,0.890535525909213
"Canada","cpi",0.6,1998,4,1997,NA,1,-0.692572530038998,0.908416492670927,1.0323682372128,1.58792609966374,FALSE,2.22074774541929
"Canada","cpi",0.6,1998,4,1997,NA,1.5,1.47034534334695,3.07133436605688,1.0323682372128,1.82722544395564,FALSE,3.7908745533807
"Canada","cpi",0.6,1999,4,1999,NA,0,0.996552501882818,1.39456665862406,1.74454349830908,1.50828275233879,FALSE,2.14789835516636
"Canada","cpi",0.6,1999,4,1999,NA,0.5,0.710003266929802,1.10801742367104,1.74454349830908,1.16115671553538,FALSE,3.58064452993143
"Canada","cpi",0.6,1999,4,1998,NA,1,0.924372833156026,1.32238698989726,1.74454349830908,1.9024836587632,FALSE,2.50879669880031
"Canada","cpi",0.6,1999,4,1998,NA,1.5,3.47796389847723,3.87597805521847,1.74454349830908,1.8746928929805,FALSE,9.06511615758199
"Canada","cpi",0.6,2000,4,2000,NA,0,1.41221388422724,2.13969599286767,2.73434549437299,2.29889507469385,FALSE,3.70072961616705
"Canada","cpi",0.6,2000,4,2000,NA,0.5,0.966807790741894,2.39309891415055,2.73434549437299,2.08273990461669,FALSE,3.13252402452086
"Canada","cpi",0.6,2000,4,1999,NA,1,-0.990567339365643,0.649741265925237,2.73434549437299,1.72008921565576,FALSE,12.0633297475296
"Canada","cpi",0.6,2000,4,1999,NA,1.5,-0.886247500109191,0.754061105181689,2.73434549437299,1.58716870538138,FALSE,11.5417305512474
"Canada","cpi",0.6,2001,4,2001,NA,0,1.89430118793531,3.04897416212435,2.54467897330315,3.10277295629358,TRUE,1.15467297418904
"Canada","cpi",0.6,2001,4,2001,NA,0.5,1.27093930020934,3.56078617887852,2.54467897330315,2.99102328155023,TRUE,2.28984687866918
"Canada","cpi",0.6,2001,4,2000,NA,1,-1.98008396783826,2.68542921807967,2.54467897330315,2.05716779240688,TRUE,4.66551318591793
"Canada","cpi",0.6,2001,4,2000,NA,1.5,-1.11427597777366,3.7916309210085,2.54467897330315,1.950224564531,TRUE,4.90590689878216
"Canada","cpi",0.6,2002,4,2002,NA,0,1.18418335561133,2.06042864812546,2.27695832736599,1.75121322657836,FALSE,1.9588936887168
"Canada","cpi",0.6,2002,4,2002,NA,0.5,0.34898488909679,1.48585259418381,2.27695832736599,0.885081053587844,FALSE,5.09239637099791
"Canada","cpi",0.6,2002,4,2001,NA,1,-0.684364195650247,4.08131653785417,2.27695832736599,2.30325950597698,TRUE,4.76568073350441
"Canada","cpi",0.6,2002,4,2001,NA,1.5,1.45004949254235,6.21573022604676,2.27695832736599,2.15511557897725,TRUE,4.76568073350441
"Canada","cpi",0.6,2003,4,2003,NA,0,1.71241281471682,2.98469932568842,2.73694526109434,2.83169100406533,TRUE,1.2722865109716
"Canada","cpi",0.6,2003,4,2003,NA,0.5,1.43618491074975,4.06972985195874,2.73694526109434,3.07009215555252,TRUE,2.63354494120899
"Canada","cpi",0.6,2003,4,2002,NA,1,-0.647762632133039,3.69336231087739,2.73694526109434,2.1323009571345,TRUE,4.34112494301043
"Canada","cpi",0.6,2003,4,2002,NA,1.5,1.17401091243462,5.51513585544506,2.73694526109434,1.8128899881162,TRUE,4.34112494301043
"Canada","cpi",0.6,2004,4,2004,NA,0,1.35525439004657,2.30508785236025,1.84630058591067,1.94326335025052,TRUE,0.949833462313676
"Canada","cpi",0.6,2004,4,2004,NA,0.5,0.57783818878341,2.22030272657176,1.84630058591067,1.41202996286323,TRUE,1.64246453778835
"Canada","cpi",0.6,2004,4,2003,NA,1,-2.39877714221886,1.05179331973746,1.84630058591067,1.72195310807912,FALSE,7.42310679282236
"Canada","cpi",0.6,2004,4,2003,NA,1.5,2.44307274933568,5.893643211292,1.84630058591067,2.05203708097148,FALSE,6.43443127908139
"Canada","cpi",0.6,2005,4,2005,NA,0,1.44773023273547,2.401412847449,2.23456211948951,2.2118960782598,TRUE,0.953682614713523
"Canada","cpi",0.6,2005,4,2005,NA,0.5,1.06592906583761,2.93796153409758,2.23456211948951,2.13787262164946,TRUE,1.87203246825997
"Canada","cpi",0.6,2005,4,2004,NA,1,0.952649022660305,3.53964626815314,2.23456211948951,2.16431636867425,TRUE,2.58699724549283
"Canada","cpi",0.6,2005,4,2004,NA,1.5,3.76256022105724,6.34955746655007,2.23456211948951,1.90121867779545,FALSE,10.2269877533315
"Canada","cpi",0.6,2006,4,2006,NA,0,1.51298826879468,2.43797944130623,2.00218136491059,2.21916154315092,TRUE,0.924991172511547
"Canada","cpi",0.6,2006,4,2006,NA,0.5,0.890316773792086,2.6097082936781,2.00218136491059,1.81971630867743,TRUE,1.71939151988602
"Canada","cpi",0.6,2006,4,2005,NA,1,0.594589434609351,3.77530147131218,2.00218136491059,2.47429489273694,TRUE,3.18071203670283
"Canada","cpi",0.6,2006,4,2005,NA,1.5,3.06750390881033,6.24821594551316,2.00218136491059,1.87720365668618,FALSE,8.50732475620154
"Canada","cpi",0.6,2007,4,2007,NA,0,1.48665298164256,2.30693312551137,2.14602107835604,2.18183020638083,TRUE,0.820280143868816
"Canada","cpi",0.6,2007,4,2007,NA,0.5,0.904129264409822,2.42476874654476,2.14602107835604,1.70657479409257,TRUE,1.52063948213494
"Canada","cpi",0.6,2007,4,2006,NA,1,0.820468352109951,2.92310782176349,2.14602107835604,1.88218856041089,TRUE,2.10263946965354
"Canada","cpi",0.6,2007,4,2006,NA,1.5,4.29976414466716,6.4024036143207,2.14602107835604,2.02111311333697,FALSE,12.8713548012092
"Canada","cpi",0.6,2008,4,2008,NA,0,1.67522853223421,2.51732090394964,2.38540342481082,2.5304444255341,TRUE,0.842092371715432
"Canada","cpi",0.6,2008,4,2008,NA,0.5,0.898427252491409,2.29871146560795,2.38540342481082,1.59687536789142,FALSE,1.83374400913089
"Canada","cpi",0.6,2008,4,2007,NA,1,0.529764316357982,2.88841396463227,2.38540342481082,1.90970285875554,TRUE,2.35864964827429
"Canada","cpi",0.6,2008,4,2007,NA,1.5,3.80101601699101,6.1596656652653,2.38540342481082,1.9732512990275,FALSE,9.43671260917523
"Canada","cpi",0.6,2009,4,2009,NA,0,0.652549291928164,0.978052525064714,0.292141396435586,0.146533060789067,FALSE,2.12754271059944
"Canada","cpi",0.6,2009,4,2009,NA,0.5,0.111887642071615,0.965767423640844,0.292141396435586,0.034043559717678,TRUE,0.85387978156923
"Canada","cpi",0.6,2009,4,2008,NA,1,0.707215149174362,3.21703038251618,0.292141396435586,2.12782728451457,FALSE,4.58518399703569
"Canada","cpi",0.6,2009,4,2008,NA,1.5,3.91724339300637,6.42705862634818,0.292141396435586,2.00999852974699,FALSE,20.6353252161957
"Canada","cpi",0.6,2010,4,2010,NA,0,1.09440663128527,1.5514926595376,1.77674215393546,1.77238598089253,FALSE,1.58333350024164
"Canada","cpi",0.6,2010,4,2010,NA,0.5,1.20164181529666,2.23585996013239,1.77674215393546,1.77913637602991,TRUE,1.03421814483573
"Canada","cpi",0.6,2010,4,2009,NA,1,1.91421373105058,2.9484318758863,1.77674215393546,1.25701172011297,FALSE,1.72157603041131
"Canada","cpi",0.6,2010,4,2009,NA,1.5,1.79045226928306,2.82467041411879,1.77674215393546,0.529947261879338,FALSE,1.10276872157374
"Canada","cpi",0.6,2011,4,2011,NA,0,1.80905449552259,2.49870015879505,2.8902561167552,2.90478393121871,FALSE,2.64742545307319
"Canada","cpi",0.6,2011,4,2011,NA,0.5,1.35910155929396,2.85342461671092,2.8902561167552,2.23130448324878,FALSE,1.67848055763837
"Canada","cpi",0.6,2011,4,2010,NA,1,0.885997415595121,3.97984691976027,2.8902561167552,2.01837757685623,TRUE,3.09384950416515
"Canada","cpi",0.6,2011,4,2010,NA,1.5,1.97496691786442,5.06881642202956,2.8902561167552,1.95623721047276,TRUE,3.09384950416515
"Canada","cpi",0.6,2012,4,2012,NA,0,1.53867319428024,2.12174616438149,1.5156782312455,1.79054609126241,FALSE,0.698047785274965
"Canada","cpi",0.6,2012,4,2012,NA,0.5,1.3127808190532,3.07495519221853,1.5156782312455,2.15830835181476,TRUE,1.76217437316533
"Canada","cpi",0.6,2012,4,2011,NA,1,-0.704338703480866,3.37398323209721,1.5156782312455,2.06841506112034,TRUE,4.07832193557808
"Canada","cpi",0.6,2012,4,2011,NA,1.5,0.734948603036814,4.81327053861489,1.5156782312455,1.90016524544498,TRUE,4.07832193557808
"Canada","cpi",0.6,2013,4,2013,NA,0,1.00476532416673,1.4188464231385,0.958904109588499,1.14597712094762,FALSE,0.643387171862927
"Canada","cpi",0.6,2013,4,2013,NA,0.5,0.959903936110852,2.20181115097915,0.958904109588499,1.48934937362812,FALSE,1.24690634748006
"Canada","cpi",0.6,2013,4,2012,NA,1,1.14176720482248,3.9117913580245,0.958904109588499,1.95908925659181,FALSE,3.68433962937191
"Canada","cpi",0.6,2013,4,2012,NA,1.5,2.29454678379758,5.0645709369996,0.958904109588499,1.95931269932679,FALSE,9.44823752424742
"Canada","cpi",0.6,2014,4,2014,NA,0,1.22970146981135,1.70164476501659,1.89959294436879,1.93595035364857,FALSE,1.46168419196625
"Canada","cpi",0.6,2014,4,2014,NA,0.5,0.909847152500469,2.0351652009382,1.89959294436879,1.46400358003393,TRUE,1.12531804843773
"Canada","cpi",0.6,2014,4,2013,NA,1,1.4279446009263,3.61614975761688,1.89959294436879,1.64292796635188,TRUE,2.18820515669058
"Canada","cpi",0.6,2014,4,2013,NA,1.5,2.50246882071341,4.69067397740399,1.89959294436879,1.80659536932475,FALSE,5.2025845384137
"Canada","cpi",0.6,2015,4,2015,NA,0,0.990659630566131,1.39715456444264,1.10526666222837,0.996929389764856,TRUE,0.406494933876508
"Canada","cpi",0.6,2015,4,2015,NA,0.5,0.531561361966457,1.65506421302009,1.10526666222837,0.861748608895607,TRUE,1.12350285105363
"Canada","cpi",0.6,2015,4,2014,NA,1,0.681830025288934,3.54127235046408,1.10526666222837,1.95513831061374,TRUE,2.85944232517514
"Canada","cpi",0.6,2015,4,2014,NA,1.5,1.92707911305817,4.78652143823331,1.10526666222837,1.89794664118146,FALSE,6.96850457932414
"Canada","cpi",0.6,2016,4,2016,NA,0,1.14200243906775,1.52873722414495,1.40891434590795,1.6213393128403,TRUE,0.386734785077208
"Canada","cpi",0.6,2016,4,2016,NA,0.5,0.876816454292938,1.92938806220717,1.40891434590795,1.34742733904194,TRUE,1.05257160791423
"Canada","cpi",0.6,2016,4,2015,NA,1,1.08637112704635,3.38846413671672,1.40891434590795,1.60624886613732,TRUE,2.30209300967037
"Canada","cpi",0.6,2016,4,2015,NA,1.5,2.58485084909041,4.88694385876077,1.40891434590795,1.9555852361093,FALSE,8.18177552558265
"Canada","cpi",0.6,2017,4,2017,NA,0,1.15899407475497,1.57561293492638,1.6100759592282,1.60345984100552,FALSE,0.588933981680522
"Canada","cpi",0.6,2017,4,2017,NA,0.5,1.21761613187434,2.49860939358738,1.6100759592282,1.97179134396859,TRUE,1.28099326171304
"Canada","cpi",0.6,2017,4,2016,NA,1,1.35380541509874,4.00631657122401,1.6100759592282,2.06723461080021,TRUE,2.65251115612527
"Canada","cpi",0.6,2017,4,2016,NA,1.5,2.11841488701375,4.77092604313902,1.6100759592282,1.88056227767026,FALSE,5.19420579505302
"Canada","cpi",0.6,2018,4,2018,NA,0,1.58651741391242,2.11581858957565,2.24252491694275,2.56836987799731,FALSE,1.16283281249873
"Canada","cpi",0.6,2018,4,2018,NA,0.5,1.28822445922217,2.6720723568805,2.24252491694275,2.15070147257197,TRUE,1.38384789765833
"Canada","cpi",0.6,2018,4,2017,NA,1,0.629464580648258,3.34466891114,2.24252491694275,1.78758120401781,TRUE,2.71520433049174
"Canada","cpi",0.6,2018,4,2017,NA,1.5,2.39063358767836,5.10583791817009,2.24252491694275,2.09839963444063,FALSE,3.45574768416977
"Canada","cpi",0.6,2019,4,2019,NA,0,1.46494981033093,1.98185059264416,1.94926902411596,2.01327426888733,TRUE,0.516900782313226
"Canada","cpi",0.6,2019,4,2019,NA,0.5,1.01598300995477,2.35643988405977,1.94926902411596,1.69254280527951,TRUE,1.34045687410499
"Canada","cpi",0.6,2019,4,2018,NA,1,0.656403147913307,3.87669771161666,1.94926902411596,2.22638738015912,TRUE,3.22029456370336
"Canada","cpi",0.6,2019,4,2018,NA,1.5,1.91676593563962,5.13706049934298,1.94926902411596,2.16219381067517,TRUE,3.22029456370336
"Canada","cpi",0.6,2020,4,2020,NA,0,0.855240321325105,1.21044766811238,0.716999632307869,0.616002459846787,FALSE,1.04641079187345
"Canada","cpi",0.6,2020,4,2020,NA,0.5,0.478785081558442,1.36929405057143,0.716999632307869,0.610467294263994,TRUE,0.890508969012991
"Canada","cpi",0.6,2020,4,2019,NA,1,0.618629708880167,3.76320171578027,0.716999632307869,2.02696644348777,TRUE,3.1445720069001
"Canada","cpi",0.6,2020,4,2019,NA,1.5,1.68313503494246,4.82770704184257,0.716999632307869,1.92866243701917,FALSE,7.97524902007308
"Canada","cpi",0.6,2021,4,2021,NA,0,1.68421050010082,2.135326501608,3.39519318527535,3.15216265299885,FALSE,6.75044941984392
"Canada","cpi",0.6,2021,4,2021,NA,0.5,1.1207318184291,2.02719647505966,3.39519318527535,1.6932278955534,FALSE,7.746448207709
"Canada","cpi",0.6,2021,4,2020,NA,1,1.10941426981972,2.85639271073139,3.39519318527535,1.26767182443679,FALSE,4.44098081363148
"Canada","cpi",0.6,2021,4,2020,NA,1.5,1.65839325098769,3.40537169189936,3.39519318527535,1.26085388904433,TRUE,1.74697844091167
"Canada","cpi",0.6,2022,4,2022,NA,0,3.70759882470053,4.83761394120883,6.79651641755912,6.89724461197294,FALSE,10.9245274982597
"Canada","cpi",0.6,2022,4,2022,NA,0.5,3.27885544357516,6.24382168459456,6.79651641755912,5.63726787323957,FALSE,5.72843990584218
"Canada","cpi",0.6,2022,4,2021,NA,1,0.168617762077293,5.64842914573199,6.79651641755912,2.63737521674188,FALSE,11.2202477427903
"Canada","cpi",0.6,2022,4,2021,NA,1.5,0.57395544065524,6.05376682430994,6.79651641755912,1.99992665814555,FALSE,9.1935593499006
"Canada","cpi",0.6,2023,4,2023,NA,0,2.83045898733534,4.15081560903561,3.87900159788375,3.62206654600981,TRUE,1.32035662170028
"Canada","cpi",0.6,2023,4,2023,NA,0.5,2.06538643574107,5.13486868942214,3.87900159788375,3.8990209221998,TRUE,3.06948225368107
"Canada","cpi",0.6,2023,4,2022,NA,1,-2.32331983349356,5.11082066012555,3.87900159788375,4.1992923554854,TRUE,7.4341404936191
"Canada","cpi",0.6,2023,4,2022,NA,1.5,-1.19219881190842,6.24194168171069,3.87900159788375,2.36848892603156,TRUE,7.4341404936191
"Canada","cpi",0.6,2024,4,2024,NA,0,1.88806732826078,2.6169399080296,NA,2.43931175105141,NA,NA
"Canada","cpi",0.6,2024,4,2024,NA,0.5,1.44063300488878,3.57018817037362,NA,2.6060205122928,NA,NA
"Canada","cpi",0.6,2024,4,2023,NA,1,-1.31361705544212,2.94061564847939,NA,2.43231375635082,NA,NA
"Canada","cpi",0.6,2024,4,2023,NA,1.5,2.10528161265366,6.57435008532114,NA,2.38514817358868,NA,NA
"Canada","cpi",0.6,2025,4,2024,NA,1,NA,NA,NA,1.87361390656267,NA,NA
"Canada","cpi",0.6,2025,4,2024,NA,1.5,NA,NA,NA,1.85379387622673,NA,NA
"Canada","cpi",0.7,1994,4,1994,NA,0,-9.49573982179,-3.11443720398576,0.198089708456428,0.186873981074975,FALSE,28.4648153674188
"Canada","cpi",0.7,1994,4,1994,NA,0.5,-10.9481389770305,-2.41398899823084,0.198089708456428,0.522791476131479,FALSE,25.9480080233815
"Canada","cpi",0.7,1995,4,1995,NA,0,1.89122482333058,2.95389042103785,1.91968793597725,2.14305230586886,TRUE,1.06266559770727
"Canada","cpi",0.7,1995,4,1995,NA,0.5,1.50933311862648,3.46437642900719,1.91968793597725,1.99619126700588,TRUE,1.95504331038071
"Canada","cpi",0.7,1995,4,1994,NA,1,7.17618036190395,10.1369777595688,1.91968793597725,1.5978236120703,FALSE,38.0040802371762
"Canada","cpi",0.7,1995,4,1994,NA,1.5,9.03262536735173,11.9934227650166,1.91968793597725,1.71534821064654,FALSE,50.3803802734947
"Canada","cpi",0.7,1996,4,1996,NA,0,0.85139697297293,1.80335399814566,1.6556711728335,1.50166806813312,TRUE,0.951957025172729
"Canada","cpi",0.7,1996,4,1996,NA,0.5,0.158957536597109,1.38615287216684,1.6556711728335,1.32822008967348,FALSE,3.02398400668081
"Canada","cpi",0.7,1996,4,1995,NA,1,-1.88121464136089,2.22202829711811,1.6556711728335,2.02244327395347,TRUE,4.103242938479
"Canada","cpi",0.7,1996,4,1995,NA,1.5,-3.54316544205174,0.560077496427259,1.6556711728335,1.92718935452521,FALSE,11.4072007811873
"Canada","cpi",0.7,1997,4,1997,NA,0,1.0322032928413,1.71606787748368,1.42496507679055,1.54744278954444,TRUE,0.683864584642379
"Canada","cpi",0.7,1997,4,1997,NA,0.5,0.538444405529403,2.20711922751797,1.42496507679055,1.72303237316327,TRUE,1.66867482198856
"Canada","cpi",0.7,1997,4,1996,NA,1,-1.15259586173006,1.99474136206024,1.42496507679055,2.0413885682107,TRUE,3.1473372237903
"Canada","cpi",0.7,1997,4,1996,NA,1.5,0.291500933651442,3.43883815744175,1.42496507679055,1.91986951679499,TRUE,3.1473372237903
"Canada","cpi",0.7,1998,4,1998,NA,0,1.02345199674626,1.45281477821511,1.0323682372128,1.32960503394646,TRUE,0.42936278146885
"Canada","cpi",0.7,1998,4,1998,NA,0.5,0.704366708671469,1.7445759412359,1.0323682372128,1.50726100317662,TRUE,1.04020923256443
"Canada","cpi",0.7,1998,4,1997,NA,1,-0.759288316032967,0.936781964583838,1.0323682372128,1.58792609966374,FALSE,2.33331209814322
"Canada","cpi",0.7,1998,4,1997,NA,1.5,1.72696700106754,3.42303728168434,1.0323682372128,1.82722544395564,FALSE,6.32672870631506
"Canada","cpi",0.7,1999,4,1999,NA,0,0.932307598211551,1.44214230460714,1.74454349830908,1.50828275233879,FALSE,2.52584266440851
"Canada","cpi",0.7,1999,4,1999,NA,0.5,0.701495259427988,1.21132996582358,1.74454349830908,1.16115671553538,FALSE,4.06459158963226
"Canada","cpi",0.7,1999,4,1998,NA,1,1.07608249586976,1.58591720226535,1.74454349830908,1.9024836587632,FALSE,1.56734334668714
"Canada","cpi",0.7,1999,4,1998,NA,1.5,3.59311707272117,4.10295177911676,1.74454349830908,1.8746928929805,FALSE,12.8336585358095
"Canada","cpi",0.7,2000,4,2000,NA,0,1.33198371937431,2.20306906734472,2.73434549437299,2.29889507469385,FALSE,4.41292819482557
"Canada","cpi",0.7,2000,4,2000,NA,0.5,0.903857287810626,2.59552188957444,2.73434549437299,2.08273990461669,FALSE,2.61715530042083
"Canada","cpi",0.7,2000,4,1999,NA,1,-1.15157451924486,0.722204387815539,2.73434549437299,1.72008921565576,FALSE,15.2880529507767
"Canada","cpi",0.7,2000,4,1999,NA,1.5,-0.922684008906508,1.10642156076927,2.73434549437299,1.58716870538138,FALSE,12.8819317937006
"Canada","cpi",0.7,2001,4,2001,NA,0,1.79274827153108,3.17772095397355,2.54467897330315,3.10277295629358,TRUE,1.38497268244247
"Canada","cpi",0.7,2001,4,2001,NA,0.5,1.22437488600982,3.81320623598369,2.54467897330315,2.99102328155023,TRUE,2.58883134997387
"Canada","cpi",0.7,2001,4,2000,NA,1,-2.25784345822745,3.63454815828834,2.54467897330315,2.05716779240688,TRUE,5.89239161651578
"Canada","cpi",0.7,2001,4,2000,NA,1.5,-1.85490231472482,4.8591573977707,2.54467897330315,1.950224564531,TRUE,6.71405971249552
"Canada","cpi",0.7,2002,4,2002,NA,0,1.118145894346,2.1589087049708,2.27695832736599,1.75121322657836,FALSE,1.82776029325941
"Canada","cpi",0.7,2002,4,2002,NA,0.5,0.269690727449921,1.70777115800673,2.27695832736599,0.885081053587844,FALSE,5.23266155961853
"Canada","cpi",0.7,2002,4,2001,NA,1,-0.638357938643346,5.03681163790048,2.27695832736599,2.30325950597698,TRUE,5.67516957654382
"Canada","cpi",0.7,2002,4,2001,NA,1.5,1.01428326454024,6.68945284108406,2.27695832736599,2.15511557897725,TRUE,5.67516957654382
"Canada","cpi",0.7,2003,4,2003,NA,0,1.63916385586865,3.0736080463486,2.73694526109434,2.83169100406533,TRUE,1.43444419047995
"Canada","cpi",0.7,2003,4,2003,NA,0.5,1.30661698414902,4.29552671236084,2.73694526109434,3.07009215555252,TRUE,2.98890972821182
"Canada","cpi",0.7,2003,4,2002,NA,1,-0.736661450569414,4.16576028802362,2.73694526109434,2.1323009571345,TRUE,4.90242173859304
"Canada","cpi",0.7,2003,4,2002,NA,1.5,1.03024604999662,5.93266778858966,2.73694526109434,1.8128899881162,TRUE,4.90242173859304
"Canada","cpi",0.7,2004,4,2004,NA,0,1.25363781697474,2.37523109166076,1.84630058591067,1.94326335025052,TRUE,1.12159327468602
"Canada","cpi",0.7,2004,4,2004,NA,0.5,0.531553783722755,2.4216543323206,1.84630058591067,1.41202996286323,TRUE,1.89010054859785
"Canada","cpi",0.7,2004,4,2003,NA,1,-2.31380521385493,1.7376642352517,1.84630058591067,1.72195310807912,FALSE,4.7757117868331
"Canada","cpi",0.7,2004,4,2003,NA,1.5,2.34785846170282,6.39932791080944,1.84630058591067,2.05203708097148,FALSE,7.39518862105426
"Canada","cpi",0.7,2005,4,2005,NA,0,1.39403075424595,2.52984578212348,2.23456211948951,2.2118960782598,TRUE,1.13581502787753
"Canada","cpi",0.7,2005,4,2005,NA,0.5,0.962945833897214,3.12552603882998,2.23456211948951,2.13787262164946,TRUE,2.16258020493277
"Canada","cpi",0.7,2005,4,2004,NA,1,0.759061114413992,3.43031997850624,2.23456211948951,2.16431636867425,TRUE,2.67125886409225
"Canada","cpi",0.7,2005,4,2004,NA,1.5,3.88670077114802,6.55795963524027,2.23456211948951,1.90121867779545,FALSE,13.6855165418157
"Canada","cpi",0.7,2006,4,2006,NA,0,1.43283682891391,2.51804754753113,2.00218136491059,2.21916154315092,TRUE,1.08521071861722
