isdrw/probabilistic-benchmark-forecasts/results/bayesian_quantile_regression/5000Samples/bqr_prediction_arima1_1_0_2026-02-27_15-10-24.csv
"country","target","tau","target_year","target_quarter","forecast_year","forecast_quarter","horizon","lower_bound","upper_bound","truth_value","prediction","covered","IS"
"CAN","cpi",0.1,1952,3,1952,NA,0,-25.3266558517101,-23.7852548921931,2.55562336095485,2.46502621244774,FALSE,60.0766859665125
"CAN","cpi",0.1,1952,3,1952,NA,0.5,-12.0259777966582,-5.58153726626017,2.55562336095485,4.32129924776399,FALSE,24.527019701987
"CAN","cpi",0.1,1952,3,1951,NA,1,11.5917830348479,18.0362235652459,2.55562336095485,9.65785623271456,FALSE,26.5247953612715
"CAN","cpi",0.1,1952,3,1951,NA,1.5,-31.590329166232,-25.145888635834,2.55562336095485,10.2729097180516,FALSE,68.0033560788176
"CAN","cpi",0.1,1953,3,1953,NA,0,-0.589133410417875,-1.32554171380035,-1.01492775838436,-1.00749856253296,FALSE,0.900054593023025
"CAN","cpi",0.1,1953,3,1953,NA,0.5,-16.2380370858081,-16.8805661955672,-1.01492775838436,-2.06778904141071,FALSE,34.6144451950916
"CAN","cpi",0.1,1953,3,1952,NA,1,-18.5644707752161,-19.2069998849752,-1.01492775838436,-1.55171650633025,FALSE,39.7842978382205
"CAN","cpi",0.1,1953,3,1952,NA,1.5,-8.22913100938883,-7.84119533892209,-1.01492775838436,1.96017794195978,FALSE,15.5574191827728
"CAN","cpi",0.1,1954,3,1954,NA,0,0.99962344591715,0.693484377395886,0.644425455961438,0.844896913757956,FALSE,0.483189798046984
"CAN","cpi",0.1,1954,3,1954,NA,0.5,1.88637861332788,1.58023954480662,0.644425455961438,-0.153040348587994,FALSE,2.4537568367375
"CAN","cpi",0.1,1954,3,1953,NA,1,12.4381447547001,12.1320056861789,0.644425455961438,2.75483618067449,FALSE,25.902126039787
"CAN","cpi",0.1,1954,3,1953,NA,1.5,-7.41930363048986,-7.29512519194247,0.644425455961438,-2.52548049332379,FALSE,17.7676243227783
"CAN","cpi",0.1,1955,3,1955,NA,0,0.46920030182164,0.508483069032471,0.173649026558865,0.10765252516202,FALSE,0.696063378905887
"CAN","cpi",0.1,1955,3,1955,NA,0.5,-0.84886809785759,-0.746883736242341,0.173649026558865,-0.685764272176465,FALSE,2.14761272339571
"CAN","cpi",0.1,1955,3,1954,NA,1,8.7663828728714,9.55653847298973,0.173649026558865,3.05598167297881,FALSE,19.8851197030351
"CAN","cpi",0.1,1955,3,1954,NA,1.5,-8.66169257715861,-7.87153697704029,0.173649026558865,-1.37299158518014,FALSE,18.6683467192276
"CAN","cpi",0.1,1956,3,1956,NA,0,1.02759742878128,1.05081133631358,1.32752769429961,1.5132196707054,FALSE,0.638139147501253
"CAN","cpi",0.1,1956,3,1956,NA,0.5,-0.135772727134866,-0.11255881960257,1.32752769429961,-0.533297708724126,FALSE,3.22340616064825
"CAN","cpi",0.1,1956,3,1955,NA,1,1.77594270333861,2.00880519259071,1.32752769429961,0.79482048855347,FALSE,1.22934028711655
"CAN","cpi",0.1,1956,3,1955,NA,1.5,-6.04662849593415,-5.81376600668205,1.32752769429961,-1.67555014996128,FALSE,16.1024040469891
"CAN","cpi",0.1,1957,3,1957,NA,0,1.94150656369282,2.0953212855026,3.24684755852518,3.4081189986054,FALSE,2.71276199519328
"CAN","cpi",0.1,1957,3,1957,NA,0.5,3.48623053779032,4.13453564242279,3.24684755852518,2.36364513914165,FALSE,1.18026728077724
"CAN","cpi",0.1,1957,3,1956,NA,1,10.161737275658,11.856307447575,3.24684755852518,6.42400073504334,FALSE,17.0609917655456
"CAN","cpi",0.1,1957,3,1956,NA,1.5,-9.86442348218155,-8.16985331026456,3.24684755852518,-1.44175113719435,FALSE,27.0650165470053
"CAN","cpi",0.1,1958,3,1958,NA,0,1.88662654827196,1.96337353546569,2.33186388641149,2.22393716079583,FALSE,0.895614433739953
"CAN","cpi",0.1,1958,3,1958,NA,0.5,3.77287841400596,4.28366715464017,2.33186388641149,2.22874439106395,FALSE,3.7130432463997
"CAN","cpi",0.1,1958,3,1957,NA,1,3.13507053737905,4.47277150076979,2.33186388641149,4.33819969505612,FALSE,3.12260463220754
"CAN","cpi",0.1,1958,3,1957,NA,1.5,-10.1925466198707,-8.85484565647991,2.33186388641149,1.22685206136826,FALSE,26.1970555031494
"CAN","cpi",0.1,1959,3,1959,NA,0,1.32008950703723,1.38480918579783,1.19382698397654,1.19679708996586,FALSE,0.34530306333991
"CAN","cpi",0.1,1959,3,1959,NA,0.5,1.75812210950589,2.00987024469143,1.19382698397654,0.655175994826909,FALSE,1.50573730302853
"CAN","cpi",0.1,1959,3,1958,NA,1,0.575052044175443,1.19926431234123,1.19382698397654,1.75938857815981,TRUE,0.624212268165787
"CAN","cpi",0.1,1959,3,1958,NA,1.5,-5.27671179274305,-4.65249952457727,1.19382698397654,1.7749666101295,FALSE,13.6160489538409
"CAN","cpi",0.1,1960,3,1960,NA,0,0.991234454590287,1.04049986113647,1.34209404870695,1.03130246511349,FALSE,0.719474712258362
"CAN","cpi",0.1,1960,3,1960,NA,0.5,1.58198532825926,1.77426637630707,1.34209404870695,0.745602653132245,FALSE,0.725372780386275
"CAN","cpi",0.1,1960,3,1959,NA,1,3.36218855011922,3.97944829042471,1.34209404870695,3.33587387303437,FALSE,5.10635863233275
"CAN","cpi",0.1,1960,3,1959,NA,1.5,-4.27024219584443,-3.65298245553893,1.34209404870695,-0.32541909428789,FALSE,11.7174297497408
"CAN","cpi",0.1,1961,3,1961,NA,0,1.04087970457401,1.10368459722745,1.00921348094007,1.00921348094007,FALSE,0.133174278506635
"CAN","cpi",0.1,1961,3,1961,NA,0.5,2.09816214462669,2.30106493629759,1.00921348094007,1.31141131508129,FALSE,2.6227887109745
"CAN","cpi",0.1,1961,3,1960,NA,1,-0.385846758498821,-0.182943966827925,1.00921348094007,0.143625905669962,FALSE,2.85214156448867
"CAN","cpi",0.1,1961,3,1960,NA,1.5,-4.15980164092174,-3.95689884925085,1.00921348094007,-0.34011142415222,FALSE,11.2387079698729
"CAN","cpi",0.1,1962,3,1962,NA,0,1.00258984560862,1.05670849643734,1.04957947883042,1.11132998230876,TRUE,0.0541186508287246
"CAN","cpi",0.1,1962,3,1962,NA,0.5,0.781654180173117,0.889792728372924,1.04957947883042,1.64134322488006e-44,FALSE,0.463220215883121
"CAN","cpi",0.1,1962,3,1961,NA,1,-0.108821989635042,0.0508202214729019,1.04957947883042,-9.44308782563385e-19,FALSE,2.37910722745797
"CAN","cpi",0.1,1962,3,1961,NA,1.5,-1.64850585411672,-1.48761237097604,1.04957947883042,0.754384248690751,FALSE,5.79909759382169
"CAN","cpi",0.1,1963,3,1963,NA,0,1.28102159713812,1.34507127129687,1.60677118395228,1.85599510888664,FALSE,0.645605035615229
"CAN","cpi",0.1,1963,3,1963,NA,0.5,1.6341787645676,1.78697892794007,1.60677118395228,0.932300293637426,FALSE,0.213705898073169
"CAN","cpi",0.1,1963,3,1962,NA,1,2.29821747039338,2.69052470647711,1.60677118395228,2.66748522343727,FALSE,1.92885453928616
"CAN","cpi",0.1,1963,3,1962,NA,1.5,-1.91242902969786,-1.52012179361413,1.60677118395228,4.10321927477868e-44,FALSE,7.34095829734243
"CAN","cpi",0.1,1964,3,1964,NA,0,1.45210435253361,1.51748636140048,1.88764670034376,1.98894154569002,FALSE,0.887960539851935
"CAN","cpi",0.1,1964,3,1964,NA,0.5,2.16300112056873,2.32143059852287,1.88764670034376,1.38377582747094,FALSE,0.770328189565193
"CAN","cpi",0.1,1964,3,1963,NA,1,3.92266448318598,4.22316957855343,1.88764670034376,4.71286552905431,FALSE,4.82276683501682
"CAN","cpi",0.1,1964,3,1963,NA,1.5,-1.92892886446166,-1.62842376909421,1.88764670034376,0.238779673172327,FALSE,8.11399502745183
"CAN","cpi",0.1,1965,3,1965,NA,0,1.64358471240769,1.70846845931017,2.29538304394236,2.35494510510554,FALSE,1.36913837941845
"CAN","cpi",0.1,1965,3,1965,NA,0.5,2.38329768676807,2.53735976967235,2.29538304394236,1.56044896459738,FALSE,0.349427955850315
"CAN","cpi",0.1,1965,3,1964,NA,1,1.96107049003238,2.19707225691108,2.29538304394236,2.42710731898607,FALSE,0.454470182503759
"CAN","cpi",0.1,1965,3,1964,NA,1.5,-1.36629201503567,-1.13029024815697,2.29538304394236,0.818315757903116,FALSE,7.84860908265499
"CAN","cpi",0.1,1966,3,1966,NA,0,2.28520796325026,2.37543313016424,3.72486065470629,3.84664136390011,FALSE,3.08895299922964
"CAN","cpi",0.1,1966,3,1966,NA,0.5,4.31324760856498,4.55599723283691,3.72486065470629,3.84691400230302,FALSE,1.55027618840235
"CAN","cpi",0.1,1966,3,1965,NA,1,2.74417657889862,2.99631060914098,3.72486065470629,3.31367997089714,FALSE,1.87113413149861
"CAN","cpi",0.1,1966,3,1965,NA,1.5,-0.826231188796773,-0.574097158554413,3.72486065470629,1.48150382413513,FALSE,9.80537361526614
"CAN","cpi",0.1,1967,3,1967,NA,0,2.63288829449737,2.70909897797331,3.49360316391996,3.76862969063141,FALSE,1.81955331891295
"CAN","cpi",0.1,1967,3,1967,NA,0.5,3.63221277848766,3.81140964146011,3.49360316391996,2.36174420726938,FALSE,0.487218228678451
"CAN","cpi",0.1,1967,3,1966,NA,1,2.74555355353557,3.37872625099413,3.49360316391996,3.4823384545504,FALSE,0.88845472618262
"CAN","cpi",0.1,1967,3,1966,NA,1.5,1.15213169195332,1.78530438941189,3.49360316391996,4.29257700443622,FALSE,4.42939219636539
"CAN","cpi",0.1,1968,3,1968,NA,0,2.6860625558836,2.76951843644191,3.95128347779386,4.1134030125927,FALSE,2.70960041689597
"CAN","cpi",0.1,1968,3,1968,NA,0.5,4.70102213179642,5.0129667524452,3.95128347779386,3.89224433743933,FALSE,1.97803051843225
"CAN","cpi",0.1,1968,3,1967,NA,1,5.12758221257098,5.69115579628158,3.95128347779386,5.85596711509228,FALSE,3.17757077210421
"CAN","cpi",0.1,1968,3,1967,NA,1.5,-0.409907829280887,0.153665754429709,3.95128347779386,2.14187095150408,FALSE,9.00272408007537
"CAN","cpi",0.1,1969,3,1969,NA,0,2.97444553136387,3.0722344624962,4.42679496126681,4.64263065146317,FALSE,3.1079233728448
"CAN","cpi",0.1,1969,3,1969,NA,0.5,4.2724233123888,4.54463993450351,4.42679496126681,3.06199492877772,TRUE,0.272216622114717
"CAN","cpi",0.1,1969,3,1968,NA,1,5.22663503306651,5.99662939964804,4.42679496126681,6.05582378748629,FALSE,2.54741674835864
"CAN","cpi",0.1,1969,3,1968,NA,1.5,1.31375530226454,2.08374966884607,4.42679496126681,3.87227485119322,FALSE,5.97676168307208
"CAN","cpi",0.1,1970,3,1970,NA,0,2.73041460212544,2.80421124990982,3.28128405769805,3.58996474924422,FALSE,1.13395844286933
"CAN","cpi",0.1,1970,3,1970,NA,0.5,5.3234232307725,5.67990349843996,3.28128405769805,4.17180269652751,FALSE,4.89456731894403
"CAN","cpi",0.1,1970,3,1969,NA,1,4.64359888649822,5.31747362872334,3.28128405769805,5.43865496465038,FALSE,3.70124102844773
"CAN","cpi",0.1,1970,3,1969,NA,1.5,-0.702615615013587,-0.0287408727884599,3.28128405769805,2.31672730979866,FALSE,8.02948569886181
"CAN","cpi",0.1,1971,3,1971,NA,0,2.18479646473457,2.24636834219849,2.64123406634756,2.89424739818036,FALSE,0.939051264461862
"CAN","cpi",0.1,1971,3,1971,NA,0.5,2.5025215852236,2.66388576080116,2.64123406634756,1.07533993963556,TRUE,0.161364175577562
"CAN","cpi",0.1,1971,3,1970,NA,1,2.56859513575504,3.12423224160478,2.64123406634756,2.98160965133743,TRUE,0.555637105849742
"CAN","cpi",0.1,1971,3,1970,NA,1.5,2.73546052275591,3.63726408486591,2.64123406634756,4.15708260691123,FALSE,1.11119568746188
"CAN","cpi",0.1,1972,3,1972,NA,0,2.80552789247208,2.88047381681914,4.83230569625923,5.10321489701878,FALSE,4.41235010088059
"CAN","cpi",0.1,1972,3,1972,NA,0.5,5.02769273724918,5.41461479009011,4.83230569625923,4.57526784474473,FALSE,0.82111547726305
"CAN","cpi",0.1,1972,3,1971,NA,1,6.10931812796721,6.94545254351125,4.83230569625923,6.5673313651466,FALSE,3.67393981933955
"CAN","cpi",0.1,1972,3,1971,NA,1.5,-0.0011857398137371,0.834948675730303,4.83230569625923,1.20127092516847,FALSE,9.71915001671943
"CAN","cpi",0.1,1973,3,1973,NA,0,4.17347374987514,4.29563881039908,7.12388603531779,7.36268749116872,FALSE,6.40715889367664
"CAN","cpi",0.1,1973,3,1973,NA,0.5,6.82408231824924,7.25330373460183,7.12388603531779,5.89432993074317,TRUE,0.429221416352583
"CAN","cpi",0.1,1973,3,1972,NA,1,6.53765728330758,7.75513614632852,7.12388603531779,7.371399360381,TRUE,1.21747886302094
"CAN","cpi",0.1,1973,3,1972,NA,1.5,2.82407265119089,4.04155151421183,7.12388603531779,4.50324671282129,FALSE,8.06711113214529
"CAN","cpi",0.1,1974,3,1974,NA,0,5.79502886173273,5.95172220657186,10.2717243737774,10.3222881332229,FALSE,9.75669816085148
"CAN","cpi",0.1,1974,3,1974,NA,0.5,9.97400608191097,10.6846484403067,10.2717243737774,8.8471290293637,TRUE,0.710642358395745
"CAN","cpi",0.1,1974,3,1973,NA,1,9.56652943389994,11.2848683136689,10.2717243737774,10.9884402825372,TRUE,1.71833887976892
"CAN","cpi",0.1,1974,3,1973,NA,1.5,4.16910318028555,5.96161507690817,10.2717243737774,6.19554852079723,FALSE,11.3705325563321
"CAN","cpi",0.1,1975,3,1975,NA,0,6.49247219353205,6.67312431432092,10.0232981493341,10.2646941702359,FALSE,7.62548286526265
"CAN","cpi",0.1,1975,3,1975,NA,0.5,11.3806047269199,12.3899708523068,10.0232981493341,9.21855388205318,FALSE,4.0256029644664
"CAN","cpi",0.1,1975,3,1974,NA,1,8.99796863720909,10.541975557614,10.0232981493341,11.9905143933903,TRUE,1.5440069204049
"CAN","cpi",0.1,1975,3,1974,NA,1.5,4.55791013233291,6.10191705273781,10.0232981493341,8.68009129130424,FALSE,10.2581871350634
"CAN","cpi",0.1,1976,3,1976,NA,0,5.41490328657906,5.58343797322093,7.22784311401172,7.25383067322222,FALSE,3.82276833284361
"CAN","cpi",0.1,1976,3,1976,NA,0.5,9.89531703989533,10.7532727180473,7.22784311401172,7.41547675604771,FALSE,6.78567551344889
"CAN","cpi",0.1,1976,3,1975,NA,1,7.69092493560234,8.95296508933691,7.22784311401172,11.9151510581142,FALSE,2.2911108683804
"CAN","cpi",0.1,1976,3,1975,NA,1.5,1.14013263530886,2.40217278904343,7.22784311401172,8.01331538119686,FALSE,11.9857519869974
"CAN","cpi",0.1,1977,3,1977,NA,0,4.79062551172285,4.92919532865684,7.58101410153764,7.61867129691007,FALSE,6.03150042333578
"CAN","cpi",0.1,1977,3,1977,NA,0.5,8.58463026604142,9.37912362068292,7.58101410153764,7.02287871989832,FALSE,3.02475149798323
"CAN","cpi",0.1,1977,3,1976,NA,1,3.47679638271705,4.33141682381089,7.58101410153764,5.87261903876238,FALSE,8.07594772493106
"CAN","cpi",0.1,1977,3,1976,NA,1.5,1.72073422945432,3.59253507390546,7.58101410153764,6.15322645024094,FALSE,10.7350875725227
"CAN","cpi",0.1,1978,3,1978,NA,0,5.23622271405513,5.40636030580173,8.50208927062595,8.68125407245005,FALSE,7.04953529135597
"CAN","cpi",0.1,1978,3,1978,NA,0.5,9.59802333481738,10.3638311146432,8.50208927062595,8.12508742330222,FALSE,3.2012168113623
"CAN","cpi",0.1,1978,3,1977,NA,1,5.62448872784746,6.86889303002716,8.50208927062595,8.64318766852961,FALSE,4.87372928128812
"CAN","cpi",0.1,1978,3,1977,NA,1.5,3.48471955110813,5.50007518763324,8.50208927062595,7.66028936796504,FALSE,8.68649804317557
"CAN","cpi",0.1,1979,3,1979,NA,0,5.45314265622692,5.63451982217205,8.65147652410481,8.61075946409788,FALSE,6.88572539246238
"CAN","cpi",0.1,1979,3,1979,NA,0.5,9.92973915371114,10.6961397559496,8.65147652410481,8.10062835274572,FALSE,3.6069842235859
"CAN","cpi",0.1,1979,3,1978,NA,1,6.04172899835228,7.02324517176302,8.65147652410481,9.5826348846829,FALSE,4.5998080675036
"CAN","cpi",0.1,1979,3,1978,NA,1.5,4.00461017879734,6.1099855984718,8.65147652410481,7.94183844676527,FALSE,7.75313303219226
"CAN","cpi",0.1,1980,3,1980,NA,0,5.77872810502825,5.967768304259,9.5171912664748,9.53109046750286,FALSE,8.07664678193252
"CAN","cpi",0.1,1980,3,1980,NA,0.5,10.3616227114189,11.2579413440626,9.5171912664748,8.68563614915422,FALSE,2.77283295474167
"CAN","cpi",0.1,1980,3,1979,NA,1,4.50614851388456,5.79325039693091,9.5171912664748,8.32548734166583,FALSE,9.56252603758832
"CAN","cpi",0.1,1980,3,1979,NA,1.5,4.33187790999081,5.85034510372798,9.5171912664748,7.98047102096121,FALSE,9.66701422206343
"CAN","cpi",0.1,1981,3,1981,NA,0,6.69990838009687,6.92196356500165,11.5813425032741,11.708955977523,FALSE,10.5762306032881
"CAN","cpi",0.1,1981,3,1981,NA,0.5,13.2779184738557,14.3809649790403,11.5813425032741,12.1263962907449,FALSE,4.87321532869919
"CAN","cpi",0.1,1981,3,1980,NA,1,6.24499676400813,7.60954443207905,11.5813425032741,10.9849401653028,FALSE,10.19076560406
"CAN","cpi",0.1,1981,3,1980,NA,1.5,4.03021359046264,6.34275255205263,11.5813425032741,8.62735225265647,FALSE,13.9538499643045
"CAN","cpi",0.1,1982,3,1982,NA,0,6.71532747628769,7.011334808506,10.1124203763629,10.3109749747662,FALSE,7.18730859412263
"CAN","cpi",0.1,1982,3,1982,NA,0.5,12.6596506840367,13.6953612141666,10.1124203763629,10.0996836619997,FALSE,6.69622232496041
"CAN","cpi",0.1,1982,3,1981,NA,1,5.49286156672268,7.01694008959368,10.1124203763629,11.6194795199153,FALSE,8.40292360458049
"CAN","cpi",0.1,1982,3,1981,NA,1.5,7.45778887086236,9.8389762807226,10.1124203763629,12.7194356761443,FALSE,2.98884095572768
"CAN","cpi",0.1,1983,3,1983,NA,0,4.90893683545129,5.07024469779751,5.67091787896303,5.82764740362034,FALSE,1.49613715382517
"CAN","cpi",0.1,1983,3,1983,NA,0.5,8.43439182176271,9.04569116508043,5.67091787896303,4.97543944794331,FALSE,6.75235254953923
"CAN","cpi",0.1,1983,3,1982,NA,1,4.35835025308655,5.52522391018981,5.67091787896303,9.23778396682256,FALSE,1.49063803215488
"CAN","cpi",0.1,1983,3,1982,NA,1.5,5.15224446874887,6.95815659213792,5.67091787896303,9.78870144173853,TRUE,1.80591212338906
"CAN","cpi",0.1,1984,3,1984,NA,0,3.20157280935814,3.31602817235654,4.19799576814029,4.21357537293321,FALSE,2.07438335362896
"CAN","cpi",0.1,1984,3,1984,NA,0.5,6.32330046985574,6.78379583717335,4.19799576814029,4.64258933063566,FALSE,5.18339470446305
"CAN","cpi",0.1,1984,3,1983,NA,1,3.29233505687392,4.16168323784521,4.19799576814029,6.13137654871218,FALSE,0.950042692738125
"CAN","cpi",0.1,1984,3,1983,NA,1.5,0.658017468961863,1.65528934585978,4.19799576814029,3.46832438596907,FALSE,6.64773059307682
"CAN","cpi",0.1,1985,3,1985,NA,0,2.71922276923013,2.82282452539921,3.86444262005169,3.91909325760218,FALSE,2.41830863317461
"CAN","cpi",0.1,1985,3,1985,NA,0.5,5.07823659194528,5.4771253481556,3.86444262005169,3.89150188195039,FALSE,3.09620869375162
"CAN","cpi",0.1,1985,3,1984,NA,1,1.5472207037614,2.12214246662346,3.86444262005169,3.29397074977035,FALSE,4.44669988159146
"CAN","cpi",0.1,1985,3,1984,NA,1.5,3.27673226200552,4.07601417986766,3.86444262005169,4.4666103475984,TRUE,0.799281917862142
"CAN","cpi",0.1,1986,3,1986,NA,0,2.70811891066142,2.79595171643596,4.08685396749431,4.1058885406559,FALSE,2.9565044747931
"CAN","cpi",0.1,1986,3,1986,NA,0.5,5.24581773433479,5.67107325960228,4.08685396749431,4.41001406158749,FALSE,3.00073056269078
"CAN","cpi",0.1,1986,3,1985,NA,1,2.44555093456976,2.92180408355082,4.08685396749431,3.99303879319441,FALSE,3.06525289107771
"CAN","cpi",0.1,1986,3,1985,NA,1.5,3.40225996668393,3.87851311566499,4.08685396749431,4.22326323880904,FALSE,0.939232819712878
"CAN","cpi",0.1,1987,3,1987,NA,0,2.8751526918111,2.95743783636644,4.23980729277887,4.35976718480882,FALSE,2.93199504769408
"CAN","cpi",0.1,1987,3,1987,NA,0.5,4.94797562303273,5.32812078291785,4.23980729277887,3.90936321394769,FALSE,1.95385256044925
"CAN","cpi",0.1,1987,3,1986,NA,1,2.74912920802177,3.31854683396555,4.23980729277887,4.33099659151455,FALSE,2.61666308997339
"CAN","cpi",0.1,1987,3,1986,NA,1.5,4.20450029397713,4.77391791992091,4.23980729277887,4.75247122036215,TRUE,0.569417625943782
"CAN","cpi",0.1,1988,3,1988,NA,0,2.8009871699515,2.88154274300196,3.92899537638065,4.01269560152408,FALSE,2.40822809166977
"CAN","cpi",0.1,1988,3,1988,NA,0.5,4.64815321248033,4.99945813919269,3.92899537638065,3.47075595914335,FALSE,1.94943345137831
"CAN","cpi",0.1,1988,3,1987,NA,1,3.06328053868219,3.47949290491441,3.92899537638065,4.58162438495066,FALSE,1.41510674726831
"CAN","cpi",0.1,1988,3,1987,NA,1.5,3.38244963824609,3.79866200447831,3.92899537638065,3.81364776332008,FALSE,0.705842081570763
"CAN","cpi",0.1,1989,3,1989,NA,0,3.05169825003066,3.13041301265117,4.82821664544208,5.02395320873108,FALSE,3.85161172437808
"CAN","cpi",0.1,1989,3,1989,NA,0.5,5.14682213913198,5.47995166572989,4.82821664544208,4.36789847845152,FALSE,1.04114173479769
"CAN","cpi",0.1,1989,3,1988,NA,1,3.06214841982931,3.39839462565755,4.82821664544208,4.46162561835953,FALSE,3.51362847201608
"CAN","cpi",0.1,1989,3,1988,NA,1.5,2.83696476946333,3.17321097529157,4.82821664544208,3.27838152614011,FALSE,4.01403658394048
"CAN","cpi",0.1,1990,3,1990,NA,0,3.11170748435853,3.19658962938087,4.64347549432717,4.51963128519567,FALSE,3.30018406712523
"CAN","cpi",0.1,1990,3,1990,NA,0.5,5.94807472557823,6.31962810876852,4.64347549432717,4.98434426998405,FALSE,3.27066278597042
"CAN","cpi",0.1,1990,3,1989,NA,1,4.13701254034221,4.66085866152674,4.64347549432717,5.9177493923911,TRUE,0.523846121184532
"CAN","cpi",0.1,1990,3,1989,NA,1.5,3.98332470946423,4.50717083064877,4.64347549432717,4.56185858388509,FALSE,0.826745373803209
"CAN","cpi",0.1,1991,3,1991,NA,0,3.45211570233252,3.53851199050308,5.4258100696218,5.62406762795447,FALSE,4.28039201954548
"CAN","cpi",0.1,1991,3,1991,NA,0.5,8.23587567014028,8.62568574183158,5.4258100696218,8.39172083833767,FALSE,6.63440029506571
"CAN","cpi",0.1,1991,3,1990,NA,1,2.59465088814577,2.98446095983707,5.4258100696218,3.86917616551897,FALSE,5.81503031565737
"CAN","cpi",0.1,1991,3,1990,NA,1.5,4.90293086474373,5.29274093643503,5.4258100696218,5.12288497855213,FALSE,0.685519256550785
"CAN","cpi",0.1,1992,3,1992,NA,0,2.26017612051071,2.33225694610016,1.47496888572843,1.48060592990191,FALSE,1.81698579177228
"CAN","cpi",0.1,1992,3,1992,NA,0.5,3.43447093951106,3.68235358315528,1.47496888572843,1.17198715241532,FALSE,4.60233165205005
"CAN","cpi",0.1,1992,3,1991,NA,1,1.64248323073687,1.89036587438108,1.47496888572843,2.52024528073196,FALSE,0.62013674366296
"CAN","cpi",0.1,1992,3,1991,NA,1.5,10.8494993569592,11.0973820006035,1.47496888572843,10.1533377092026,FALSE,21.0801725797127
"CAN","cpi",0.1,1993,3,1993,NA,0,1.30335942763503,1.33653695379268,1.84351085411351,1.80262144325658,FALSE,1.15978619353727
"CAN","cpi",0.1,1993,3,1993,NA,0.5,2.71903901665459,2.88969268642567,1.84351085411351,2.34241315558581,FALSE,2.11627180875126
"CAN","cpi",0.1,1993,3,1992,NA,1,1.45934786325714,1.67815824522598,1.84351085411351,1.81805946412584,FALSE,0.586260623941137
"CAN","cpi",0.1,1993,3,1992,NA,1.5,1.12626618677533,1.34507656874417,1.84351085411351,1.14026360102641,FALSE,1.32644212723405
"CAN","cpi",0.1,1994,3,1994,NA,0,0.86519210698672,0.889498485569901,0.161630694655448,0.163616628358327,FALSE,1.58777618376379
"CAN","cpi",0.1,1994,3,1994,NA,0.5,0.939210012842436,1.03476826185051,0.161630694655448,-0.385140098029379,FALSE,1.82351228942361
"CAN","cpi",0.1,1994,3,1993,NA,1,1.13307099834107,1.29599364906279,0.161630694655448,1.37474728133383,FALSE,2.32167888113421
"CAN","cpi",0.1,1994,3,1993,NA,1.5,2.55778754580207,2.72071019652379,0.161630694655448,2.59685615311524,FALSE,5.48771565326978
"CAN","cpi",0.1,1995,3,1995,NA,0,1.08863939260748,1.11357940081139,2.11688403676572,2.19356448193293,FALSE,2.25450586588018
"CAN","cpi",0.1,1995,3,1995,NA,0.5,2.39050012917234,2.49938869882744,2.11688403676572,2.67750903542847,FALSE,0.716924330558703
"CAN","cpi",0.1,1995,3,1994,NA,1,1.27953479346836,1.38842336312346,2.11688403676572,1.34092618105198,FALSE,1.7276900666379
"CAN","cpi",0.1,1995,3,1994,NA,1.5,-1.01122983677493,-0.902341267119834,2.11688403676572,-1.3139842175605,FALSE,6.81827813384521
"CAN","cpi",0.1,1996,3,1996,NA,0,1.39626549021909,1.43038217814171,1.55309584667184,1.48206512402721,FALSE,0.306813729100696
"CAN","cpi",0.1,1996,3,1996,NA,0.5,2.08077549485267,2.24133240355363,1.55309584667184,1.23598680875262,FALSE,1.33317834910279
"CAN","cpi",0.1,1996,3,1995,NA,1,1.01958594245725,1.26763628210116,1.55309584667184,1.32983461361347,FALSE,0.88240492757877
"CAN","cpi",0.1,1996,3,1995,NA,1.5,3.19349804617684,3.44154838582075,1.55309584667184,3.42580605950136,FALSE,3.89338856076613
"CAN","cpi",0.1,1997,3,1997,NA,0,1.31644696803291,1.34990823134811,1.60528783555959,1.69050032419864,FALSE,0.600971494896266
"CAN","cpi",0.1,1997,3,1997,NA,0.5,2.44626255470202,2.62692662708073,1.60528783555959,2.11979188984917,FALSE,2.0494967815841
"CAN","cpi",0.1,1997,3,1996,NA,1,1.00893006915441,1.25909084291523,1.60528783555959,1.19524084873691,FALSE,1.01948742408163
"CAN","cpi",0.1,1997,3,1996,NA,1.5,1.27821548201845,1.52837625577927,1.60528783555959,1.35560903862103,FALSE,0.421075395494878
"CAN","cpi",0.1,1998,3,1998,NA,0,1.09411963879884,1.11569075662727,0.988908029337191,0.980088020931525,FALSE,0.255374694409878
"CAN","cpi",0.1,1998,3,1998,NA,0.5,1.88606341378862,2.06265531832068,0.988908029337191,1.31078347146242,FALSE,2.17027053664635
"CAN","cpi",0.1,1998,3,1997,NA,1,0.996746797715558,1.18210372430703,0.988908029337191,1.06570792570078,FALSE,0.202776411876727
"CAN","cpi",0.1,1998,3,1997,NA,1.5,2.08467311780051,2.27003004439198,0.988908029337191,2.25360669266494,FALSE,2.62039045650996
"CAN","cpi",0.1,1999,3,1999,NA,0,1.20662452081959,1.23097623501261,1.7107350135213,1.81711295343144,FALSE,1.09048233310121
"CAN","cpi",0.1,1999,3,1999,NA,0.5,1.31326929281119,1.44014411588364,1.7107350135213,0.788387565724544,FALSE,0.72818792893391
"CAN","cpi",0.1,1999,3,1998,NA,1,0.659099613517229,0.835308234863498,1.7107350135213,0.575366492854125,FALSE,2.12160146280804
"CAN","cpi",0.1,1999,3,1998,NA,1.5,1.59372586876541,1.76993449011168,1.7107350135213,1.68716976710558,TRUE,0.176208621346269
"CAN","cpi",0.1,2000,3,2000,NA,0,1.71147485698463,1.74863102071606,2.6718361971244,2.72999398726497,FALSE,2.08872322241663
"CAN","cpi",0.1,2000,3,2000,NA,0.5,2.41340216439988,2.62321500819464,2.6718361971244,2.06798867425529,FALSE,0.317859930305335
"CAN","cpi",0.1,2000,3,1999,NA,1,2.58868366176758,2.81094760130423,2.6718361971244,3.09152396062306,TRUE,0.222263939536659
"CAN","cpi",0.1,2000,3,1999,NA,1.5,0.860370619885386,1.08263455942204,2.6718361971244,0.842861855264031,FALSE,3.75382313443078
"CAN","cpi",0.1,2001,3,2001,NA,0,2.03426953287379,2.0709856560201,2.47906219852806,2.84208465688611,FALSE,0.943552884275115
"CAN","cpi",0.1,2001,3,2001,NA,0.5,2.65113095514928,2.87952012048128,2.47906219852806,1.88638468602912,FALSE,0.610764180045821
"CAN","cpi",0.1,2001,3,2000,NA,1,2.9350317146796,3.29830108505245,2.47906219852806,3.69789354026514,FALSE,1.37653496182071
"CAN","cpi",0.1,2001,3,2000,NA,1.5,1.64173240750214,2.00500177787499,2.47906219852806,1.8681620253813,FALSE,1.41673697182412
"CAN","cpi",0.1,2002,3,2002,NA,0,1.81264977196956,1.85148330846575,2.20880570551249,2.37599565696257,FALSE,0.832883307711158
"CAN","cpi",0.1,2002,3,2002,NA,0.5,1.97652963547991,2.17388576695486,2.20880570551249,0.913576617687781,FALSE,0.27495599493635
"CAN","cpi",0.1,2002,3,2001,NA,1,1.59950628560961,1.93812968690605,2.20880570551249,1.93734082085477,FALSE,0.9401256648663
"CAN","cpi",0.1,2003,3,2003,NA,0,1.84778101479181,1.88912502070178,2.71189071546809,2.73251886371656,FALSE,1.86971221650177
"CAN","cpi",0.1,2003,3,2003,NA,0.5,4.14208236728794,4.39127369356101,2.71189071546809,4.31675684669419,FALSE,3.42739499698385
"CAN","cpi",0.1,2003,3,2002,NA,1,3.65561809199178,3.91485812254688,2.71189071546809,4.61862409576541,FALSE,2.35641197838552
"CAN","cpi",0.1,2003,3,2002,NA,1.5,1.24206364832128,1.50130367887638,2.71189071546809,1.3655866266696,FALSE,2.94943344520334
"CAN","cpi",0.1,2004,3,2004,NA,0,1.69466504445265,1.73325126009216,1.83151661303942,1.82990600335775,FALSE,0.256953666633422
"CAN","cpi",0.1,2004,3,2004,NA,0.5,2.38913246285947,2.61810266605523,1.83151661303942,1.43982618755963,FALSE,1.46811653612919
"CAN","cpi",0.1,2004,3,2003,NA,1,0.986684116566315,1.22305134443057,1.83151661303942,1.02946817322814,FALSE,1.58851226921726
"CAN","cpi",0.1,2004,3,2003,NA,1.5,4.06353838894718,4.29990561681143,1.83151661303942,4.64649519124043,FALSE,5.19641561877037
"CAN","cpi",0.1,2005,3,2005,NA,0,1.63536313527197,1.6720645956896,2.18071628336509,2.38454318695835,FALSE,1.16703854414095
"CAN","cpi",0.1,2005,3,2005,NA,0.5,2.18360444498113,2.36324741893649,2.18071628336509,1.60616687455658,FALSE,0.186061110879889
"CAN","cpi",0.1,2005,3,2004,NA,1,1.5147840201609,1.69442699411626,2.18071628336509,1.65181790765431,FALSE,1.26028583895276
"CAN","cpi",0.1,2005,3,2004,NA,1.5,1.6502519804532,1.82989495440856,2.18071628336509,1.76259299547523,FALSE,0.959245927192091
"CAN","cpi",0.1,2006,3,2006,NA,0,1.64562789048229,1.68531557547387,1.97519342012289,2.13635134601064,FALSE,0.683860673100497
"CAN","cpi",0.1,2006,3,2006,NA,0.5,2.4206096241963,2.63057383538594,1.97519342012289,1.78685076876899,FALSE,1.19977799801945
"CAN","cpi",0.1,2006,3,2005,NA,1,2.79331864431149,3.10707419178336,1.97519342012289,3.50484952590076,FALSE,2.13181160122433
"CAN","cpi",0.1,2006,3,2005,NA,1.5,1.37971434516165,1.69346989263352,1.97519342012289,1.46813842301012,FALSE,0.939807830781565
"CAN","cpi",0.1,2007,3,2007,NA,0,1.60607446776463,1.64316653511917,2.10062087284572,2.20475175639581,FALSE,1.05365726230243
"CAN","cpi",0.1,2007,3,2007,NA,0.5,2.47920105405583,2.6586970306202,2.10062087284572,1.98527746740088,FALSE,1.02078526814238
"CAN","cpi",0.1,2007,3,2006,NA,1,1.20313049351328,1.42863235558743,2.10062087284572,1.24740231882683,FALSE,1.71880967820369
"CAN","cpi",0.1,2007,3,2006,NA,1.5,1.49596305142875,1.7214649135029,2.10062087284572,1.60497207990466,FALSE,1.06807066061376
"CAN","cpi",0.1,2008,3,2008,NA,0,1.90692185605884,1.94939002387514,2.31447335265955,3.01767576079065,FALSE,0.853764454003879
"CAN","cpi",0.1,2008,3,2008,NA,0.5,1.88111116277262,2.04528842216963,2.31447335265955,1.03762364210032,FALSE,0.762365993819064
"CAN","cpi",0.1,2008,3,2007,NA,1,1.40002306504005,1.61634426098118,2.31447335265955,1.40291213269118,FALSE,1.76771917744862
"CAN","cpi",0.1,2008,3,2007,NA,1.5,2.3708276858788,2.58714888181994,2.31447335265955,2.69934766650446,FALSE,0.34155304753947
"CAN","cpi",0.1,2009,3,2009,NA,0,1.06165481466878,1.08825320802975,0.284533874408197,0.321726231334406,FALSE,1.75353381616226
"CAN","cpi",0.1,2009,3,2009,NA,0.5,0.423813410980092,0.562982071701431,0.284533874408197,-1.32493870283985,FALSE,0.448678741992216
"CAN","cpi",0.1,2009,3,2008,NA,1,4.02678329464618,4.2923400618396,0.284533874408197,5.07610742917547,FALSE,8.58166658994449
"CAN","cpi",0.1,2009,3,2008,NA,1.5,1.05503024863711,1.32058701583054,0.284533874408197,1.01106559029091,FALSE,1.97777093214657
"CAN","cpi",0.1,2010,3,2010,NA,0,0.966050902411193,0.990052845911407,1.75525687020327,1.75432596686424,FALSE,1.72445533081547
"CAN","cpi",0.1,2010,3,2010,NA,0.5,1.58502317956069,1.66908489470636,1.75525687020327,1.49344630005585,FALSE,0.275554994027691
"CAN","cpi",0.1,2010,3,2009,NA,1,1.16281155682938,1.24687327197505,1.75525687020327,1.13010370525173,FALSE,1.21380304454172
"CAN","cpi",0.1,2010,3,2009,NA,1.5,-1.50306452561334,-1.36571893422542,1.75525687020327,-2.25919184326718,FALSE,7.07284737900724
"CAN","cpi",0.1,2011,3,2011,NA,0,1.77065554216845,1.81385652092696,2.85717434028225,2.90832322356675,FALSE,2.36168502177025
"CAN","cpi",0.1,2011,3,2011,NA,0.5,2.93534591827924,3.12347705286719,2.85717434028225,2.81495035644064,FALSE,0.36184575235905
"CAN","cpi",0.1,2011,3,2010,NA,1,2.07143659992939,2.25956773451734,2.85717434028225,2.24995624930718,FALSE,1.51614581406551
"CAN","cpi",0.1,2011,3,2010,NA,1.5,1.63219412547055,1.8203252600585,2.85717434028225,1.69121218305118,FALSE,2.49224020175183
"CAN","cpi",0.1,2012,3,2012,NA,0,1.62257587462935,1.66110863215912,1.50118536134935,1.50859370689259,FALSE,0.308289453707555
"CAN","cpi",0.1,2012,3,2012,NA,0.5,2.58796899398567,2.80172964633572,1.50118536134935,1.75125264874692,FALSE,2.62883539154188
"CAN","cpi",0.1,2012,3,2011,NA,1,1.88220223173701,2.09943064207061,1.50118536134935,1.8474445607568,FALSE,1.06393256675063
"CAN","cpi",0.1,2012,3,2011,NA,1.5,2.76326419050485,2.98049260083845,1.50118536134935,3.06926058053075,FALSE,3.02184803067916
"CAN","cpi",0.1,2013,3,2013,NA,0,1.09034308446809,1.11709407938966,0.931270594714462,1.05615594966199,FALSE,0.380245416596305
"CAN","cpi",0.1,2013,3,2013,NA,0.5,1.63323309620889,1.78377483469187,0.931270594714462,1.02417936454929,FALSE,1.7104584084706
"CAN","cpi",0.1,2013,3,2012,NA,1,0.46748178024754,0.647286958481947,0.931270594714462,0.0685845185761151,FALSE,0.810879925417773
"CAN","cpi",0.1,2014,3,2014,NA,0,1.25980347711314,1.29035764393005,1.87639912240215,2.06386975595087,FALSE,1.33286856342157
"CAN","cpi",0.1,2014,3,2014,NA,0.5,2.00509238738149,2.1457715822947,1.87639912240215,1.92715211220712,FALSE,0.426664228200634
"CAN","cpi",0.1,2014,3,2013,NA,1,1.21020738951582,1.35088658442903,1.87639912240215,1.11372323439473,FALSE,1.30848483485348
"CAN","cpi",0.1,2014,3,2013,NA,1.5,1.39236611046945,1.53304530538266,1.87639912240215,1.40040388240124,FALSE,0.903687677178746
"CAN","cpi",0.1,2015,3,2015,NA,0,1.26835488989777,1.30202604021558,1.11090953952792,1.30732778141228,FALSE,0.383549706695269
"CAN","cpi",0.1,2015,3,2015,NA,0.5,1.10741340475921,1.26212893252919,1.11090953952792,0.0832530397055839,TRUE,0.154715527769982
"CAN","cpi",0.1,2015,3,2014,NA,1,1.55025593932925,1.74006927202534,1.11090953952792,1.43393836679687,FALSE,1.16613866558795
"CAN","cpi",0.1,2015,3,2014,NA,1.5,2.39737281585801,2.58718614855409,1.11090953952792,2.67552344749624,FALSE,3.04862061342962
"CAN","cpi",0.1,2016,3,2016,NA,0,1.11423469987653,1.14333555392363,1.41168586698797,1.50891536161516,FALSE,0.625434883078954
"CAN","cpi",0.1,2016,3,2016,NA,0.5,1.31327703071955,1.45884903591102,1.41168586698797,0.786851742019216,TRUE,0.145572005191473
"CAN","cpi",0.1,2016,3,2015,NA,1,1.95787775082562,2.13695784747914,1.41168586698797,2.15660249634191,FALSE,1.39283983851498
"CAN","cpi",0.1,2016,3,2015,NA,1.5,0.220890502931446,0.399970599584958,1.41168586698797,-0.117220285505753,FALSE,2.42733624643797
"CAN","cpi",0.1,2017,3,2017,NA,0,1.21175814388747,1.24307964932886,1.57888581671161,1.54881337220766,FALSE,0.777557432958618
"CAN","cpi",0.1,2017,3,2017,NA,0.5,2.13724002285666,2.31982304002089,1.57888581671161,1.91336997918348,FALSE,1.423370141931
"CAN","cpi",0.1,2017,3,2016,NA,1,1.25411728245831,1.43742600282295,1.57888581671161,1.18768855671255,FALSE,0.497663862339445
"CAN","cpi",0.1,2017,3,2016,NA,1.5,0.785312849149111,0.968621569513751,1.57888581671161,0.6644917028394,FALSE,1.53945149191544
"CAN","cpi",0.1,2018,3,2018,NA,0,1.55790847524908,1.59754555625087,2.23316270166586,2.44523056077762,FALSE,1.45211962636843
"CAN","cpi",0.1,2018,3,2018,NA,0.5,2.74513333623152,2.92417278658177,2.23316270166586,2.80156516368753,FALSE,1.31675197160728
"CAN","cpi",0.1,2018,3,2017,NA,1,1.05022622587008,1.22926567622033,2.23316270166586,0.82019125662587,FALSE,2.40992172911809
"CAN","cpi",0.1,2018,3,2017,NA,1.5,2.10173110196421,2.28077055231446,2.23316270166586,2.43256495233066,TRUE,0.179039450350246
"CAN","cpi",0.1,2019,3,2019,NA,0,1.61958879270612,1.66328701361264,1.91921619871868,2.08489368525497,FALSE,0.612429743364392
"CAN","cpi",0.1,2019,3,2019,NA,0.5,2.07889843475633,2.29221746742517,1.91921619871868,1.47181960590434,FALSE,0.568168446085844
"CAN","cpi",0.1,2019,3,2018,NA,1,2.11051490346565,2.32383393613449,1.91921619871868,2.1812391651413,FALSE,0.638427265439878
"CAN","cpi",0.1,2019,3,2018,NA,1.5,3.00769682720832,3.22101585987717,1.91921619871868,3.59347997035086,FALSE,2.63216487375694
"CAN","cpi",0.1,2020,3,2020,NA,0,1.07218345015375,1.09865834557752,0.71139989671781,0.692133240684643,FALSE,0.828216125281416
"CAN","cpi",0.1,2020,3,2020,NA,0.5,1.70652762200176,1.89517500604362,0.71139989671781,1.05558053361148,FALSE,2.4000423291173
"CAN","cpi",0.1,2020,3,2019,NA,1,1.91041584656103,2.12235588375,0.71139989671781,2.01486975979332,FALSE,2.87641992572946
"CAN","cpi",0.1,2020,3,2019,NA,1.5,1.66733489531575,1.87927493250473,0.71139989671781,1.77269016603738,FALSE,2.33624003407329
"CAN","cpi",0.1,2021,3,2021,NA,0,1.61229234823698,1.66206473173217,3.31148121717802,3.37410895790077,FALSE,3.71514235115264
"CAN","cpi",0.1,2021,3,2021,NA,0.5,2.35174754816345,2.48193358426094,3.31148121717802,2.68190793980083,FALSE,1.97362522035768
"CAN","cpi",0.1,2021,3,2020,NA,1,1.22350232495516,1.35368836105266,3.31148121717802,1.19247466620579,FALSE,4.4808368274872
"CAN","cpi",0.1,2021,3,2020,NA,1.5,1.06344915004723,1.19363518614473,3.31148121717802,0.994097524483704,FALSE,4.83651054950482
"CAN","cpi",0.1,2022,3,2022,NA,0,3.44859596430262,3.5529012228492,6.50977236228281,6.71215382839029,FALSE,6.6751300128435
"CAN","cpi",0.1,2022,3,2022,NA,0.5,5.51595689581336,5.91459420779359,6.50977236228281,6.42154306210558,FALSE,1.72125543306739
"CAN","cpi",0.1,2022,3,2021,NA,1,4.07693369833622,4.47557101031644,6.50977236228281,4.97199453293936,FALSE,4.91908476079438
"CAN","cpi",0.1,2022,3,2021,NA,1.5,2.92267845874616,3.32131577072639,6.50977236228281,3.45701838810354,FALSE,7.48409640432783
"CAN","cpi",0.1,2023,3,2023,NA,0,3.47562810160661,3.57777491784739,3.78831288758619,4.042121841464,FALSE,0.570008971215888
"CAN","cpi",0.1,2023,3,2023,NA,0.5,4.44275684122966,4.96735235160749,3.78831288758619,3.05997192794191,FALSE,1.97891540736331
"CAN","cpi",0.1,2023,3,2022,NA,1,4.58852454647387,5.23985194119652,3.78831288758619,5.28351765661874,FALSE,2.42957552558415
"CAN","cpi",0.1,2023,3,2022,NA,1.5,5.88766498237335,6.538992377096,3.78831288758619,7.28752716372712,FALSE,5.31655427202744
"CAN","cpi",0.1,2024,3,2023,NA,1,3.76592512251291,4.20327983763833,NA,4.37793695924716,NA,NA
"CAN","cpi",0.1,2024,3,2023,NA,1.5,2.09205543971806,2.52941015484349,NA,2.36897983740768,NA,NA
"CAN","cpi",0.2,1952,3,1952,NA,0,-20.6730799116998,-14.7623036066734,2.55562336095485,2.46502621244774,FALSE,49.2055937240971
"CAN","cpi",0.2,1952,3,1952,NA,0.5,-19.6624824246483,-6.80232892141278,2.55562336095485,4.32129924776399,FALSE,36.2550342091546
"CAN","cpi",0.2,1952,3,1951,NA,1,9.75898102779065,22.6191345310261,2.55562336095485,9.65785623271456,FALSE,30.868547670325
"CAN","cpi",0.2,1952,3,1951,NA,1.5,-29.6505540688429,-16.7904005656074,2.55562336095485,10.2729097180516,FALSE,61.2252133196412
"CAN","cpi",0.2,1953,3,1953,NA,0,-1.07755073586734,-1.37549463552398,-1.01492775838436,-1.00749856253296,FALSE,0.603473293192403
"CAN","cpi",0.2,1953,3,1953,NA,0.5,-16.1175514093285,-15.229730809104,-1.01492775838436,-2.06778904141071,FALSE,36.4248282270235
"CAN","cpi",0.2,1953,3,1952,NA,1,-18.871460795303,-17.6893124057361,-1.01492775838436,-1.55171650633025,FALSE,42.8681100079463
"CAN","cpi",0.2,1953,3,1952,NA,1.5,-8.47494570208676,-5.66475022752739,-1.01492775838436,1.96017794195978,FALSE,14.4347516474169
"CAN","cpi",0.2,1954,3,1954,NA,0,1.29787509950448,0.43331719234993,0.644425455961438,0.844896913757956,FALSE,1.29683686073183
"CAN","cpi",0.2,1954,3,1954,NA,0.5,2.03774132120673,1.17318341405218,0.644425455961438,-0.153040348587994,FALSE,2.61873175595869
"CAN","cpi",0.2,1954,3,1953,NA,1,12.8626904830363,11.9981325758818,0.644425455961438,2.75483618067449,FALSE,29.6811046605327
"CAN","cpi",0.2,1954,3,1953,NA,1.5,-6.58979074091097,-7.45434864806552,0.644425455961438,-2.52548049332379,FALSE,19.3823773529129
"CAN","cpi",0.2,1955,3,1955,NA,0,0.453031360101058,0.522451137632386,0.173649026558865,0.10765252516202,FALSE,0.76787561138681
"CAN","cpi",0.2,1955,3,1955,NA,0.5,-0.951038792487382,-0.743773563407872,0.173649026558865,-0.685764272176465,FALSE,2.50082170399635
"CAN","cpi",0.2,1955,3,1954,NA,1,8.78194399713582,10.3612030259144,0.173649026558865,3.05598167297881,FALSE,23.099996455221
"CAN","cpi",0.2,1955,3,1954,NA,1.5,-9.07250394849795,-7.49324491971935,0.173649026558865,-1.37299158518014,FALSE,20.7464938944741
"CAN","cpi",0.2,1956,3,1956,NA,0,1.01965362567376,1.08324350147974,1.32752769429961,1.5132196707054,FALSE,0.674300357855642
"CAN","cpi",0.2,1956,3,1956,NA,0.5,-0.148707907250021,-0.0851180314440427,1.32752769429961,-0.533297708724126,FALSE,3.59520419016511
"CAN","cpi",0.2,1956,3,1955,NA,1,1.92712466671927,2.01318528302619,1.32752769429961,0.79482048855347,FALSE,1.58505304735607
"CAN","cpi",0.2,1956,3,1955,NA,1.5,-6.24789754631644,-6.16183693000952,1.32752769429961,-1.67555014996128,FALSE,18.8094721770797
"CAN","cpi",0.2,1957,3,1957,NA,0,1.88156555936761,2.184943607849,3.24684755852518,3.4081189986054,FALSE,2.95813792517184
"CAN","cpi",0.2,1957,3,1957,NA,0.5,3.19252835613312,4.48060186747691,3.24684755852518,2.36364513914165,TRUE,1.28807351134379
"CAN","cpi",0.2,1957,3,1956,NA,1,9.95023347363722,13.3198692458889,3.24684755852518,6.42400073504334,FALSE,20.1281005600318
"CAN","cpi",0.2,1957,3,1956,NA,1.5,-10.4385817395221,-7.06894596727037,3.24684755852518,-1.44175113719435,FALSE,29.1591195867406
"CAN","cpi",0.2,1958,3,1958,NA,0,1.85000584593276,2.03165989947123,2.33186388641149,2.22393716079583,FALSE,0.932164020889122
"CAN","cpi",0.2,1958,3,1958,NA,0.5,3.41012898901357,4.55187114120261,2.33186388641149,2.22874439106395,FALSE,3.83740490869424
"CAN","cpi",0.2,1958,3,1957,NA,1,2.38676932937111,5.14787582723931,2.33186388641149,4.33819969505612,FALSE,2.89837010526725
"CAN","cpi",0.2,1958,3,1957,NA,1.5,-10.8816106087538,-8.12050411088562,2.33186388641149,1.22685206136826,FALSE,28.892026491111
"CAN","cpi",0.2,1959,3,1959,NA,0,1.29192030199605,1.41956324320548,1.19382698397654,1.19679708996586,FALSE,0.372876236258207
"CAN","cpi",0.2,1959,3,1959,NA,0.5,1.66764437166273,2.20060656625831,1.19382698397654,0.655175994826909,FALSE,1.71750566381105
"CAN","cpi",0.2,1959,3,1958,NA,1,0.0257848279702119,1.52927254574846,1.19382698397654,1.75938857815981,TRUE,1.50348771777825
"CAN","cpi",0.2,1959,3,1958,NA,1.5,-5.6535984851886,-4.15011076741035,1.19382698397654,1.7749666101295,FALSE,14.8633320962455
"CAN","cpi",0.2,1960,3,1960,NA,0,0.971120536892709,1.06250978782366,1.34209404870695,1.03130246511349,FALSE,0.790349903139172
"CAN","cpi",0.2,1960,3,1960,NA,0.5,1.54267652866599,1.86760699392467,1.34209404870695,0.745602653132245,FALSE,0.826386665156268
"CAN","cpi",0.2,1960,3,1959,NA,1,3.18173270100229,4.16017358896644,1.34209404870695,3.33587387303437,FALSE,5.57753751870249
"CAN","cpi",0.2,1960,3,1959,NA,1.5,-4.62524064639078,-3.64679975842663,1.34209404870695,-0.32541909428789,FALSE,13.4506754057981
"CAN","cpi",0.2,1961,3,1961,NA,0,1.01794947717883,1.14654443525418,1.00921348094007,1.00921348094007,FALSE,0.150434948672247
"CAN","cpi",0.2,1961,3,1961,NA,0.5,2.06177098369217,2.37813242150168,1.00921348094007,1.31141131508129,FALSE,2.94775519468976
"CAN","cpi",0.2,1961,3,1960,NA,1,-0.453891841889766,-0.137530404080256,1.00921348094007,0.143625905669962,FALSE,3.18322115036033
"CAN","cpi",0.2,1961,3,1960,NA,1.5,-4.19620661113874,-3.87984517332923,1.00921348094007,-0.34011142415222,FALSE,12.5390080734828
"CAN","cpi",0.2,1962,3,1962,NA,0,0.981271598964602,1.08470836028718,1.04957947883042,1.11132998230876,TRUE,0.103436761322583
"CAN","cpi",0.2,1962,3,1962,NA,0.5,0.737896782760824,0.951549383341824,1.04957947883042,1.64134322488006e-44,FALSE,0.458727839302478
"CAN","cpi",0.2,1962,3,1961,NA,1,-0.206791248705374,0.0812092056317502,1.04957947883042,-9.44308782563385e-19,FALSE,2.70892613733379
"CAN","cpi",0.2,1962,3,1961,NA,1.5,-1.74677296380295,-1.45877250946582,1.04957947883042,0.754384248690751,FALSE,6.55888042507772
"CAN","cpi",0.2,1963,3,1963,NA,0,1.25792344552299,1.3874437817647,1.60677118395228,1.85599510888664,FALSE,0.677838841710664
"CAN","cpi",0.2,1963,3,1963,NA,0.5,1.5618080321598,1.86118328003437,1.60677118395228,0.932300293637426,TRUE,0.299375247874575
"CAN","cpi",0.2,1963,3,1962,NA,1,2.21629662228202,2.93572280071468,1.60677118395228,2.66748522343727,FALSE,2.243239774257
"CAN","cpi",0.2,1963,3,1962,NA,1.5,-2.2304038559144,-1.51097767748174,1.60677118395228,4.10321927477868e-44,FALSE,8.51379833201772
"CAN","cpi",0.2,1964,3,1964,NA,0,1.42664196248304,1.55733924396083,1.88764670034376,1.98894154569002,FALSE,0.95646592243512
"CAN","cpi",0.2,1964,3,1964,NA,0.5,2.07832750349501,2.41428058826657,1.88764670034376,1.38377582747094,FALSE,0.812655092649689
"CAN","cpi",0.2,1964,3,1963,NA,1,3.72888378729042,4.48580831885216,1.88764670034376,4.71286552905431,FALSE,5.36001724892839
"CAN","cpi",0.2,1964,3,1963,NA,1.5,-2.23206114098918,-1.47513660942744,1.88764670034376,0.238779673172327,FALSE,9.16388280598973
"CAN","cpi",0.2,1965,3,1965,NA,0,1.61760829415001,1.75921729025702,2.29538304394236,2.35494510510554,FALSE,1.48202338032035
"CAN","cpi",0.2,1965,3,1965,NA,0.5,2.30877791291128,2.63536320332128,2.29538304394236,1.56044896459738,FALSE,0.360072462832302
"CAN","cpi",0.2,1965,3,1964,NA,1,1.71510812542262,2.39599077729706,2.29538304394236,2.42710731898607,TRUE,0.680882651874443
"CAN","cpi",0.2,1965,3,1964,NA,1.5,-1.72760891996023,-1.04672626808579,2.29538304394236,0.818315757903116,FALSE,9.03615593194481
"CAN","cpi",0.2,1966,3,1966,NA,0,2.25835079539509,2.41891300725635,3.72486065470629,3.84664136390011,FALSE,3.42543133048612
"CAN","cpi",0.2,1966,3,1966,NA,0.5,4.20811836826645,4.67974668717945,3.72486065470629,3.84691400230302,FALSE,1.6797726028134
"CAN","cpi",0.2,1966,3,1965,NA,1,2.50589065728953,3.2435633295279,3.72486065470629,3.31367997089714,FALSE,1.94091598518433
"CAN","cpi",0.2,1966,3,1965,NA,1.5,-1.24318372739075,-0.505511055152379,3.72486065470629,1.48150382413513,FALSE,11.313601946885
"CAN","cpi",0.2,1967,3,1967,NA,0,2.58739941013583,2.7600000306329,3.49360316391996,3.76862969063141,FALSE,2.00660845371472
"CAN","cpi",0.2,1967,3,1967,NA,0.5,3.51049551143356,3.96587439705975,3.49360316391996,2.36174420726938,FALSE,0.497609754410188
"CAN","cpi",0.2,1967,3,1966,NA,1,2.44227048802015,3.6333311709523,3.49360316391996,3.4823384545504,TRUE,1.19106068293215
"CAN","cpi",0.2,1967,3,1966,NA,1.5,0.778886029449609,1.96994671238175,3.49360316391996,4.29257700443622,FALSE,5.00020181177766
"CAN","cpi",0.2,1968,3,1968,NA,0,2.64482979672309,2.81975553841934,3.95128347779386,4.1134030125927,FALSE,3.00374559013253
"CAN","cpi",0.2,1968,3,1968,NA,0.5,4.60942552016556,5.1979665680446,3.95128347779386,3.89224433743933,FALSE,2.2338961538083
"CAN","cpi",0.2,1968,3,1967,NA,1,4.83578342396256,6.19318584243732,3.95128347779386,5.85596711509228,FALSE,3.56865228389652
"CAN","cpi",0.2,1968,3,1967,NA,1.5,-0.837401455279048,0.520000963195712,3.95128347779386,2.14187095150408,FALSE,9.93560870497012
"CAN","cpi",0.2,1969,3,1969,NA,0,2.93632627290399,3.12764064917988,4.42679496126681,4.64263065146317,FALSE,3.43920015649322
"CAN","cpi",0.2,1969,3,1969,NA,0.5,4.17579008753418,4.68586799915682,4.42679496126681,3.06199492877772,TRUE,0.510077911622641
"CAN","cpi",0.2,1969,3,1968,NA,1,4.85570174837361,6.59926998258499,4.42679496126681,6.05582378748629,FALSE,2.81583520197836
"CAN","cpi",0.2,1969,3,1968,NA,1.5,0.652858561478913,2.39642679569029,4.42679496126681,3.87227485119322,FALSE,6.81948864815269
"CAN","cpi",0.2,1970,3,1970,NA,0,2.69592738166355,2.84836092031964,3.28128405769805,3.58996474924422,FALSE,1.2347413821021
"CAN","cpi",0.2,1970,3,1970,NA,0.5,5.19663849665805,5.89423325277786,3.28128405769805,4.17180269652751,FALSE,5.48598085351981
"CAN","cpi",0.2,1970,3,1969,NA,1,4.40404463193784,5.8384464995274,3.28128405769805,5.43865496465038,FALSE,4.24130330318904
"CAN","cpi",0.2,1970,3,1969,NA,1.5,-1.25208526133102,0.18231660625855,3.28128405769805,2.31672730979866,FALSE,9.18182049618831
"CAN","cpi",0.2,1971,3,1971,NA,0,2.15599645350348,2.27354811824173,2.64123406634756,2.89424739818036,FALSE,1.03676653500284
"CAN","cpi",0.2,1971,3,1971,NA,0.5,2.44976888640696,2.80655408378794,2.64123406634756,1.07533993963556,TRUE,0.356785197380978
"CAN","cpi",0.2,1971,3,1970,NA,1,2.34617343305182,3.51749894636338,2.64123406634756,2.98160965133743,TRUE,1.17132551331157
"CAN","cpi",0.2,1971,3,1970,NA,1.5,2.25942664381932,4.07976611526074,2.64123406634756,4.15708260691123,TRUE,1.82033947144141
"CAN","cpi",0.2,1972,3,1972,NA,0,2.76685438323264,2.92197646927109,4.83230569625923,5.10321489701878,FALSE,4.9309451535088
"CAN","cpi",0.2,1972,3,1972,NA,0.5,4.90796290484188,5.62972439127581,4.83230569625923,4.57526784474473,FALSE,0.910904507890557
"CAN","cpi",0.2,1972,3,1971,NA,1,5.73746933954382,7.2656792774631,4.83230569625923,6.5673313651466,FALSE,3.79111904613075
"CAN","cpi",0.2,1972,3,1971,NA,1.5,-0.379346026515957,1.14886391140332,4.83230569625923,1.20127092516847,FALSE,10.736814400059
"CAN","cpi",0.2,1973,3,1973,NA,0,4.11506429909406,4.36023028723051,7.12388603531779,7.36268749116872,FALSE,7.15430535835465
"CAN","cpi",0.2,1973,3,1973,NA,0.5,6.69439698087107,7.60018517268994,7.12388603531779,5.89432993074317,TRUE,0.905788191818871
"CAN","cpi",0.2,1973,3,1972,NA,1,5.97928209775448,8.1914187197425,7.12388603531779,7.371399360381,TRUE,2.21213662198802
"CAN","cpi",0.2,1973,3,1972,NA,1.5,2.64848393679812,4.86062055878614,7.12388603531779,4.50324671282129,FALSE,7.87030031331715
"CAN","cpi",0.2,1974,3,1974,NA,0,5.68178756641265,6.03551031957712,10.2717243737774,10.3222881332229,FALSE,10.9442578886652
"CAN","cpi",0.2,1974,3,1974,NA,0.5,9.7219582322121,11.2475462225283,10.2717243737774,8.8471290293637,TRUE,1.52558799031617
"CAN","cpi",0.2,1974,3,1973,NA,1,8.58007726991775,12.1234457779658,10.2717243737774,10.9884402825372,TRUE,3.54336850804802
"CAN","cpi",0.2,1974,3,1973,NA,1.5,3.05290472662386,6.59627323467188,10.2717243737774,6.19554852079723,FALSE,12.7319963558119
"CAN","cpi",0.2,1975,3,1975,NA,0,6.36880976025593,6.78444289835207,10.0232981493341,10.2646941702359,FALSE,8.51277126555127
"CAN","cpi",0.2,1975,3,1975,NA,0.5,11.1274358842744,12.968332307514,10.0232981493341,9.21855388205318,FALSE,4.60124076059038
"CAN","cpi",0.2,1975,3,1974,NA,1,8.29978868015942,10.9561796101765,10.0232981493341,11.9905143933903,TRUE,2.65639093001706
"CAN","cpi",0.2,1975,3,1974,NA,1.5,3.32992481143875,5.98631574145581,10.0232981493341,8.68009129130424,FALSE,12.7488469497128
"CAN","cpi",0.2,1976,3,1976,NA,0,5.30327049793012,5.67194107219663,7.22784311401172,7.25383067322222,FALSE,4.25842567880422
"CAN","cpi",0.2,1976,3,1976,NA,0.5,9.41523152984267,11.2679242704025,7.22784311401172,7.41547675604771,FALSE,7.32116378013727
"CAN","cpi",0.2,1976,3,1975,NA,1,7.09159882137046,9.94286733209963,7.22784311401172,11.9151510581142,TRUE,2.85126851072917
"CAN","cpi",0.2,1976,3,1975,NA,1.5,0.315373075276295,4.09778820809936,7.22784311401172,8.01331538119686,FALSE,11.607552397604
"CAN","cpi",0.2,1977,3,1977,NA,0,4.72591161554452,5.00545301846324,7.58101410153764,7.61867129691007,FALSE,6.71844411060473
"CAN","cpi",0.2,1977,3,1977,NA,0.5,8.2166057591857,9.73261546733371,7.58101410153764,7.02287871989832,FALSE,3.10498885226815
"CAN","cpi",0.2,1977,3,1976,NA,1,3.03851245102426,5.10719754340263,7.58101410153764,5.87261903876238,FALSE,8.2532264877159
"CAN","cpi",0.2,1977,3,1976,NA,1.5,1.17705675753369,4.57822766650863,7.58101410153764,6.15322645024094,FALSE,10.9081369965475
"CAN","cpi",0.2,1978,3,1978,NA,0,5.14036717039312,5.47919791820998,8.50208927062595,8.68125407245005,FALSE,7.89605912885677
"CAN","cpi",0.2,1978,3,1978,NA,0.5,9.21078794792157,10.8264788677458,8.50208927062595,8.12508742330222,FALSE,3.38743761306326
"CAN","cpi",0.2,1978,3,1977,NA,1,5.01403985230822,7.47665506071526,8.50208927062595,8.64318766852961,FALSE,5.02620073318375
"CAN","cpi",0.2,1978,3,1977,NA,1.5,2.690386881339,6.17788622046481,8.50208927062595,7.66028936796504,FALSE,9.29800696452865
"CAN","cpi",0.2,1979,3,1979,NA,0,5.34910957527525,5.70838249645153,8.65147652410481,8.61075946409788,FALSE,7.71700799030948
"CAN","cpi",0.2,1979,3,1979,NA,0.5,9.57674697089829,11.1751135652456,8.65147652410481,8.10062835274572,FALSE,3.91154271133106
"CAN","cpi",0.2,1979,3,1978,NA,1,5.08578689486368,8.08405397934764,8.65147652410481,9.5826348846829,FALSE,4.41682344637689
"CAN","cpi",0.2,1979,3,1978,NA,1.5,2.94109705533704,6.97962503493756,8.65147652410481,7.94183844676527,FALSE,8.21815670251864
"CAN","cpi",0.2,1980,3,1980,NA,0,5.68485133651621,6.06393079875656,9.5171912664748,9.53109046750286,FALSE,9.01223063153594
"CAN","cpi",0.2,1980,3,1980,NA,0.5,10.0034949835757,11.7002977948501,9.5171912664748,8.68563614915422,FALSE,2.91256210402674
"CAN","cpi",0.2,1980,3,1979,NA,1,4.14527380272922,6.41103356616228,9.5171912664748,8.32548734166583,FALSE,10.0311540142144
"CAN","cpi",0.2,1980,3,1979,NA,1.5,2.91113380857559,6.64842424872405,9.5171912664748,7.98047102096121,FALSE,10.9092079845253
"CAN","cpi",0.2,1981,3,1981,NA,0,6.59884912393808,7.02905475661167,11.5813425032741,11.708955977523,FALSE,11.8109249993298
"CAN","cpi",0.2,1981,3,1981,NA,0.5,12.7691553415049,14.9007265079323,11.5813425032741,12.1263962907449,FALSE,5.10110326200427
"CAN","cpi",0.2,1981,3,1980,NA,1,5.32788458967013,8.27387134886214,11.5813425032741,10.9849401653028,FALSE,11.214664645222
"CAN","cpi",0.2,1981,3,1980,NA,1.5,3.06054448662222,7.23290093401455,11.5813425032741,8.62735225265647,FALSE,15.0434603705413
"CAN","cpi",0.2,1982,3,1982,NA,0,6.66006456741931,7.12923406050118,10.1124203763629,10.3109749747662,FALSE,7.92713528273628
"CAN","cpi",0.2,1982,3,1982,NA,0.5,12.1430194109482,14.0976811698138,10.1124203763629,10.0996836619997,FALSE,7.03115934532866
"CAN","cpi",0.2,1982,3,1981,NA,1,4.73811315093578,7.5821592416446,10.1124203763629,11.6194795199153,FALSE,9.16969892750469
"CAN","cpi",0.2,1982,3,1981,NA,1.5,5.78843269907539,10.5973729386394,10.1124203763629,12.7194356761443,TRUE,4.80894023956402
"CAN","cpi",0.2,1983,3,1983,NA,0,4.82556462030671,5.18394851645562,5.67091787896303,5.82764740362034,FALSE,1.57580730241744
"CAN","cpi",0.2,1983,3,1983,NA,0.5,8.04726372311603,9.43088153298897,5.67091787896303,4.97543944794331,FALSE,7.32448242025542
"CAN","cpi",0.2,1983,3,1982,NA,1,3.29740128680261,6.5008356467121,5.67091787896303,9.23778396682256,TRUE,3.2034343599095
"CAN","cpi",0.2,1983,3,1982,NA,1.5,4.3851834288934,7.88175154451694,5.67091787896303,9.78870144173853,TRUE,3.49656811562354
"CAN","cpi",0.2,1984,3,1984,NA,0,3.14737998984014,3.36517071818403,4.19799576814029,4.21357537293321,FALSE,2.29985335323453
"CAN","cpi",0.2,1984,3,1984,NA,0.5,6.02055895630929,7.01990556028223,4.19799576814029,4.64258933063566,FALSE,5.55575457439545
"CAN","cpi",0.2,1984,3,1983,NA,1,2.99136679106027,4.76945062640703,4.19799576814029,6.13137654871218,TRUE,1.77808383534676
"CAN","cpi",0.2,1984,3,1983,NA,1.5,-0.0456006595762988,2.0267496567918,4.19799576814029,3.46832438596907,FALSE,7.50046559473932
"CAN","cpi",0.2,1985,3,1985,NA,0,2.68431726487249,2.86833858181275,3.86444262005169,3.91909325760218,FALSE,2.67428141253761
"CAN","cpi",0.2,1985,3,1985,NA,0.5,4.85090250854072,5.69521433775558,3.86444262005169,3.89150188195039,FALSE,3.31046155043743
"CAN","cpi",0.2,1985,3,1984,NA,1,1.23332923119602,2.47396530024523,3.86444262005169,3.29397074977035,FALSE,4.71682936856537
"CAN","cpi",0.2,1985,3,1984,NA,1.5,2.93845156871719,4.49348023240047,3.86444262005169,4.4666103475984,TRUE,1.55502866368328
"CAN","cpi",0.2,1986,3,1986,NA,0,2.66990353150231,2.83310552780828,4.08685396749431,4.1058885406559,FALSE,3.29757309552105
"CAN","cpi",0.2,1986,3,1986,NA,0.5,5.01523467078372,5.89538672507478,4.08685396749431,4.41001406158749,FALSE,3.20110381251458
"CAN","cpi",0.2,1986,3,1985,NA,1,2.10311142139866,3.22055391697409,4.08685396749431,3.99303879319441,FALSE,3.28319262187598
"CAN","cpi",0.2,1986,3,1985,NA,1.5,3.16039675262407,4.2778392481995,4.08685396749431,4.22326323880904,TRUE,1.11744249557543
"CAN","cpi",0.2,1987,3,1987,NA,0,2.82521049516294,3.00829500702289,4.23980729277887,4.35976718480882,FALSE,3.26186522624989
"CAN","cpi",0.2,1987,3,1987,NA,0.5,4.69350975412113,5.54502453977395,4.23980729277887,3.90936321394769,FALSE,1.98577093900847
"CAN","cpi",0.2,1987,3,1986,NA,1,2.55644357889161,3.55064364803441,4.23980729277887,4.33099659151455,FALSE,2.71710918100395
"CAN","cpi",0.2,1987,3,1986,NA,1.5,4.02692447199034,5.02112454113314,4.23980729277887,4.75247122036215,TRUE,0.994200069142803
"CAN","cpi",0.2,1988,3,1988,NA,0,2.75381615055043,2.92685079175946,3.92899537638065,4.01269560152408,FALSE,2.67839610276201
"CAN","cpi",0.2,1988,3,1988,NA,0.5,4.42508625272345,5.21243230554025,3.92899537638065,3.47075595914335,FALSE,2.02757324367379
"CAN","cpi",0.2,1988,3,1987,NA,1,2.78901507010222,3.71986527173758,3.92899537638065,4.58162438495066,FALSE,1.45367546324304
"CAN","cpi",0.2,1988,3,1987,NA,1.5,3.11358644504815,4.04443664668351,3.92899537638065,3.81364776332008,TRUE,0.930850201635363
"CAN","cpi",0.2,1989,3,1989,NA,0,3.02001263315106,3.1759844201784,4.82821664544208,5.02395320873108,FALSE,4.28655235018654
"CAN","cpi",0.2,1989,3,1989,NA,0.5,4.95593587508284,5.69381509474896,4.82821664544208,4.36789847845152,FALSE,1.05717729376803
"CAN","cpi",0.2,1989,3,1988,NA,1,2.86375313050022,3.60163235016634,4.82821664544208,4.46162561835953,FALSE,3.80433995785546
"CAN","cpi",0.2,1989,3,1988,NA,1.5,2.69815922314264,3.43603844280875,4.82821664544208,3.27838152614011,FALSE,4.21832472624942
"CAN","cpi",0.2,1990,3,1990,NA,0,3.06634997341156,3.24721954130806,4.64347549432717,4.51963128519567,FALSE,3.67150945044428
"CAN","cpi",0.2,1990,3,1990,NA,0.5,5.73115038018517,6.49632045078641,4.64347549432717,4.98434426998405,FALSE,3.48435728524624
"CAN","cpi",0.2,1990,3,1989,NA,1,3.99075669629132,4.75671310915345,4.64347549432717,5.9177493923911,TRUE,0.765956412862124
"CAN","cpi",0.2,1990,3,1989,NA,1.5,4.09495485996295,4.86091127282508,4.64347549432717,4.56185858388509,TRUE,0.765956412862124
"CAN","cpi",0.2,1991,3,1991,NA,0,3.40172312035108,3.59677541769838,5.4258100696218,5.62406762795447,FALSE,4.76763892715583
"CAN","cpi",0.2,1991,3,1991,NA,0.5,7.99449679302867,8.8425436650357,5.4258100696218,8.39172083833767,FALSE,7.26976368052421
"CAN","cpi",0.2,1991,3,1990,NA,1,2.40749192246089,3.25553879446791,5.4258100696218,3.86917616551897,FALSE,6.27372505989173
"CAN","cpi",0.2,1991,3,1990,NA,1.5,4.69296151592131,5.54100838792834,5.4258100696218,5.12288497855213,TRUE,0.848046872007027
"CAN","cpi",0.2,1992,3,1992,NA,0,2.22849310824659,2.3738273754504,1.47496888572843,1.48060592990191,FALSE,2.0291448234992
"CAN","cpi",0.2,1992,3,1992,NA,0.5,3.25203183495782,3.84013200434006,1.47496888572843,1.17198715241532,FALSE,5.03075754245571
"CAN","cpi",0.2,1992,3,1991,NA,1,1.35036726349981,2.03047653537075,1.47496888572843,2.52024528073196,TRUE,0.680109271870945
"CAN","cpi",0.2,1992,3,1991,NA,1.5,10.8549242935199,11.5350335653908,1.47496888572843,10.1533377092026,FALSE,24.1299977913495
"CAN","cpi",0.2,1993,3,1993,NA,0,1.28617083333245,1.35641187321759,1.84351085411351,1.80262144325658,FALSE,1.28798849212495
"CAN","cpi",0.2,1993,3,1993,NA,0.5,2.60938915502609,2.983853245468,1.84351085411351,2.34241315558581,FALSE,2.28915984272336
"CAN","cpi",0.2,1993,3,1992,NA,1,1.34860723167844,1.81285461256144,1.84351085411351,1.81805946412584,FALSE,0.540887984763178
"CAN","cpi",0.2,1993,3,1992,NA,1.5,1.01473335729144,1.47898073817445,1.84351085411351,1.14026360102641,FALSE,1.37557267073066
"CAN","cpi",0.2,1994,3,1994,NA,0,0.849056510728436,0.901285591867218,0.161630694655448,0.163616628358327,FALSE,1.77079362132125
"CAN","cpi",0.2,1994,3,1994,NA,0.5,0.891434440845932,1.07520508844094,0.161630694655448,-0.385140098029379,FALSE,2.00828001307122
"CAN","cpi",0.2,1994,3,1993,NA,1,1.01384605673143,1.40717134340321,0.161630694655448,1.37474728133383,FALSE,2.52386369186174
"CAN","cpi",0.2,1994,3,1993,NA,1.5,2.48442157522437,2.87774686189615,0.161630694655448,2.59685615311524,FALSE,6.20030248809408
"CAN","cpi",0.2,1995,3,1995,NA,0,1.07505487607272,1.12708465066591,2.11688403676572,2.19356448193293,FALSE,2.5265282398427
"CAN","cpi",0.2,1995,3,1995,NA,0.5,2.33608313109984,2.58647266830798,2.11688403676572,2.67750903542847,FALSE,0.798387273043457
"CAN","cpi",0.2,1995,3,1994,NA,1,1.22084839436454,1.47123793157269,2.11688403676572,1.34092618105198,FALSE,1.86450480019071
"CAN","cpi",0.2,1995,3,1994,NA,1.5,-1.08869499258871,-0.83830545538057,2.11688403676572,-1.3139842175605,FALSE,7.63836326757386
"CAN","cpi",0.2,1996,3,1996,NA,0,1.38170896379093,1.44975164909784,1.55309584667184,1.48206512402721,FALSE,0.326403179241918
"CAN","cpi",0.2,1996,3,1996,NA,0.5,1.97258920001247,2.34269867447483,1.55309584667184,1.23598680875262,FALSE,1.41884285781392
"CAN","cpi",0.2,1996,3,1995,NA,1,0.903057338524188,1.46563475319656,1.55309584667184,1.32983461361347,FALSE,0.781230148360572
"CAN","cpi",0.2,1996,3,1995,NA,1.5,3.10570745022624,3.66828486489862,1.55309584667184,3.42580605950136,FALSE,4.44410642355838
"CAN","cpi",0.2,1997,3,1997,NA,0,1.30087970220333,1.36848225075499,1.60528783555959,1.69050032419864,FALSE,0.659616510563169
"CAN","cpi",0.2,1997,3,1997,NA,0.5,2.33385727680892,2.72879197343162,1.60528783555959,2.11979188984917,FALSE,2.21635829974602
"CAN","cpi",0.2,1997,3,1996,NA,1,0.883234333445508,1.33331540414397,1.60528783555959,1.19524084873691,FALSE,1.13001214923752
"CAN","cpi",0.2,1997,3,1996,NA,1.5,1.19184326493416,1.64192433563262,1.60528783555959,1.35560903862103,TRUE,0.45008107069846
"CAN","cpi",0.2,1998,3,1998,NA,0,1.077011600066,1.13232528359069,0.988908029337191,0.980088020931525,FALSE,0.275572610346713
"CAN","cpi",0.2,1998,3,1998,NA,0.5,1.78641416276608,2.14166431952417,0.988908029337191,1.31078347146242,FALSE,2.34901549033031
"CAN","cpi",0.2,1998,3,1997,NA,1,0.873001414864508,1.28221078420811,0.988908029337191,1.06570792570078,TRUE,0.409209369343597
"CAN","cpi",0.2,1998,3,1997,NA,1.5,2.01553090984796,2.42474027919156,0.988908029337191,2.25360669266494,FALSE,2.97576657062052
"CAN","cpi",0.2,1999,3,1999,NA,0,1.19243550488802,1.24624380098549,1.7107350135213,1.81711295343144,FALSE,1.21503632743699
"CAN","cpi",0.2,1999,3,1999,NA,0.5,1.22989968034889,1.4888994711097,1.7107350135213,0.788387565724544,FALSE,0.813588646789803
"CAN","cpi",0.2,1999,3,1998,NA,1,0.584715023610129,0.859173919637162,1.7107350135213,0.575366492854125,FALSE,2.40336163073737
"CAN","cpi",0.2,1999,3,1998,NA,1.5,1.5963472278246,1.87080612385164,1.7107350135213,1.68716976710558,TRUE,0.274458896027033
"CAN","cpi",0.2,2000,3,2000,NA,0,1.69184724685712,1.76602729075802,2.6718361971244,2.72999398726497,FALSE,2.33870230981684
"CAN","cpi",0.2,2000,3,2000,NA,0.5,2.30277684024724,2.72188977472231,2.6718361971244,2.06798867425529,TRUE,0.419112934475068
"CAN","cpi",0.2,2000,3,1999,NA,1,2.48496543520102,3.02159194416244,2.6718361971244,3.09152396062306,TRUE,0.536626508961419
"CAN","cpi",0.2,2000,3,1999,NA,1.5,0.700109038396739,1.23673554735816,2.6718361971244,0.842861855264031,FALSE,4.12437813337702
"CAN","cpi",0.2,2001,3,2001,NA,0,2.00932716741049,2.09560496399701,2.47906219852806,2.84208465688611,FALSE,1.04492088291416
"CAN","cpi",0.2,2001,3,2001,NA,0.5,2.49052827231152,3.00689874380983,2.47906219852806,1.88638468602912,FALSE,0.545035655956949
"CAN","cpi",0.2,2001,3,2000,NA,1,2.86029013321578,3.50174528393266,2.47906219852806,3.69789354026514,FALSE,1.59452498743617
"CAN","cpi",0.2,2001,3,2000,NA,1.5,1.53731329227309,2.17876844298997,2.47906219852806,1.8681620253813,FALSE,1.39218953956212
"CAN","cpi",0.2,2002,3,2002,NA,0,1.79254056490998,1.87038149567287,2.20880570551249,2.37599565696257,FALSE,0.923901455361928
"CAN","cpi",0.2,2002,3,2002,NA,0.5,1.86978102779657,2.24475090937311,2.20880570551249,0.913576617687781,TRUE,0.374969881576544
"CAN","cpi",0.2,2002,3,2001,NA,1,1.50221224673049,2.05146293005852,2.20880570551249,1.93734082085477,FALSE,0.942607621962949
"CAN","cpi",0.2,2002,3,2001,NA,1.5,1.00021480635831,1.54946548968635,2.20880570551249,1.22267801456389,FALSE,2.19760122289339
"CAN","cpi",0.2,2003,3,2003,NA,0,1.8286975453866,1.9075919794509,2.71189071546809,2.73251886371656,FALSE,2.08964127410728
"CAN","cpi",0.2,2003,3,2003,NA,0.5,3.976979938352,4.53141421253598,2.71189071546809,4.31675684669419,FALSE,3.71715733139376
"CAN","cpi",0.2,2003,3,2002,NA,1,3.55153787629259,4.15830425509458,2.71189071546809,4.61862409576541,FALSE,2.70588428086324
"CAN","cpi",0.2,2003,3,2002,NA,1.5,1.09251745338372,1.69928383218571,2.71189071546809,1.3655866266696,FALSE,3.13828358700794
"CAN","cpi",0.2,2004,3,2004,NA,0,1.67349860945956,1.75431097082738,1.83151661303942,1.82990600335775,FALSE,0.273826466897933
"CAN","cpi",0.2,2004,3,2004,NA,0.5,2.21864891427667,2.69835180515848,1.83151661303942,1.43982618755963,FALSE,1.44753364397493
"CAN","cpi",0.2,2004,3,2003,NA,1,0.802284728974689,1.29408750091422,1.83151661303942,1.02946817322814,FALSE,1.83537555225254
"CAN","cpi",0.2,2004,3,2003,NA,1.5,3.98454425197098,4.4763470239105,1.83151661303942,4.64649519124043,FALSE,5.87437186926841
"CAN","cpi",0.2,2005,3,2005,NA,0,1.61656818485313,1.69161168836263,2.18071628336509,2.38454318695835,FALSE,1.29780499101565
"CAN","cpi",0.2,2005,3,2005,NA,0.5,2.07323285023957,2.45002613286847,2.18071628336509,1.60616687455658,TRUE,0.376793282628897
"CAN","cpi",0.2,2005,3,2004,NA,1,1.38023845055486,1.77868932520767,2.18071628336509,1.65181790765431,FALSE,1.40351827004636
"CAN","cpi",0.2,2005,3,2004,NA,1.5,1.58158374634133,1.98003462099414,2.18071628336509,1.76259299547523,FALSE,0.900155030580194
"CAN","cpi",0.2,2006,3,2006,NA,0,1.62509731461342,1.70432002404912,1.97519342012289,2.13635134601064,FALSE,0.75640619962012
"CAN","cpi",0.2,2006,3,2006,NA,0.5,2.3175667980533,2.71386888505884,1.97519342012289,1.78685076876899,FALSE,1.25223553183158
"CAN","cpi",0.2,2006,3,2005,NA,1,2.79121246561064,3.21388622474378,1.97519342012289,3.50484952590076,FALSE,2.46272137285253
"CAN","cpi",0.2,2006,3,2005,NA,1.5,1.35743919626898,1.78011295540212,1.97519342012289,1.46813842301012,FALSE,0.910374920935052
"CAN","cpi",0.2,2007,3,2007,NA,0,1.57759247984614,1.66027422495807,2.10062087284572,2.20475175639581,FALSE,1.18354836483106
"CAN","cpi",0.2,2007,3,2007,NA,0.5,2.33682952554407,2.73971823087402,2.10062087284572,1.98527746740088,FALSE,0.993410337075815
"CAN","cpi",0.2,2007,3,2006,NA,1,1.08768738614208,1.49057609147204,2.10062087284572,1.24740231882683,FALSE,1.92800065876417
"CAN","cpi",0.2,2007,3,2006,NA,1.5,1.45691449975993,1.85980320508989,2.10062087284572,1.60497207990466,FALSE,1.00493287471954
"CAN","cpi",0.2,2008,3,2008,NA,0,1.87599526419589,1.96937902290792,2.31447335265955,3.01767576079065,FALSE,0.956119583091113
"CAN","cpi",0.2,2008,3,2008,NA,0.5,1.76148770768707,2.131533679958,2.31447335265955,1.03762364210032,FALSE,0.827395154024814
"CAN","cpi",0.2,2008,3,2007,NA,1,1.30063136672062,1.67067733899155,2.31447335265955,1.40291213269118,FALSE,1.97953600644093
"CAN","cpi",0.2,2008,3,2007,NA,1.5,2.33871013129454,2.70875610356547,2.31447335265955,2.69934766650446,FALSE,0.4306379188584
"CAN","cpi",0.2,2009,3,2009,NA,0,1.04704072199914,1.10471917634224,0.284533874408197,0.321726231334406,FALSE,1.96394557332047
"CAN","cpi",0.2,2009,3,2009,NA,0.5,0.350481893989094,0.607505622914193,0.284533874408197,-1.32493870283985,FALSE,0.421893777877341
"CAN","cpi",0.2,2009,3,2008,NA,1,4.00613451591356,4.49784502881025,0.284533874408197,5.07610742917547,FALSE,9.79571211666009
"CAN","cpi",0.2,2009,3,2008,NA,1.5,0.944136180308091,1.43584669320478,0.284533874408197,1.01106559029091,FALSE,2.14071627764643
"CAN","cpi",0.2,2010,3,2010,NA,0,0.956546401141897,0.997449942049973,1.75525687020327,1.75432596686424,FALSE,1.93542086129132
"CAN","cpi",0.2,2010,3,2010,NA,0.5,1.53774819789365,1.71375594060284,1.75525687020327,1.49344630005585,FALSE,0.279760066710264
"CAN","cpi",0.2,2010,3,2009,NA,1,1.13710370208765,1.31311144479684,1.75525687020327,1.13010370525173,FALSE,1.28137130622527
"CAN","cpi",0.2,2010,3,2009,NA,1.5,-1.54609439360841,-1.37008665089922,1.75525687020327,-2.25919184326718,FALSE,7.98936654546543
"CAN","cpi",0.2,2011,3,2011,NA,0,1.74770842691772,1.83513886014821,2.85717434028225,2.90832322356675,FALSE,2.64251913356558
"CAN","cpi",0.2,2011,3,2011,NA,0.5,2.82175351021351,3.1979034195293,2.85717434028225,2.81495035644064,TRUE,0.376149909315789
"CAN","cpi",0.2,2011,3,2010,NA,1,1.97444463856418,2.35059454787997,2.85717434028225,2.24995624930718,FALSE,1.64259939032147
"CAN","cpi",0.2,2011,3,2010,NA,1.5,1.53838334219558,1.91453325151137,2.85717434028225,1.69121218305118,FALSE,2.73275263124298
"CAN","cpi",0.2,2012,3,2012,NA,0,1.59916695209554,1.68260011271605,1.50118536134935,1.50859370689259,FALSE,0.328387137485993
"CAN","cpi",0.2,2012,3,2012,NA,0.5,2.43276751094172,2.9111759791245,1.50118536134935,1.75125264874692,FALSE,2.80736384216372
"CAN","cpi",0.2,2012,3,2011,NA,1,1.75981064290077,2.23821911108355,1.50118536134935,1.8474445607568,FALSE,1.12497167206135
"CAN","cpi",0.2,2012,3,2011,NA,1.5,2.67876650632621,3.15717497450898,1.50118536134935,3.06926058053075,FALSE,3.42236133062493
"CAN","cpi",0.2,2013,3,2013,NA,0,1.0756225255411,1.12812904112059,0.931270594714462,1.05615594966199,FALSE,0.413386342646084
"CAN","cpi",0.2,2013,3,2013,NA,0.5,1.55872008849709,1.8473934059858,0.931270594714462,1.02417936454929,FALSE,1.85729705194528
"CAN","cpi",0.2,2013,3,2012,NA,1,0.418375700770088,0.707049018258798,0.931270594714462,0.0685845185761151,FALSE,0.849227258627869
"CAN","cpi",0.2,2013,3,2012,NA,1.5,1.6363550191022,1.92502833659091,0.931270594714462,1.71916958716775,FALSE,2.05138437845806
"CAN","cpi",0.2,2014,3,2014,NA,0,1.2402478538305,1.30129079114798,1.87639912240215,2.06386975595087,FALSE,1.4988137654529
"CAN","cpi",0.2,2014,3,2014,NA,0.5,1.9385004325888,2.19066216688978,1.87639912240215,1.92715211220712,FALSE,0.407415009767594
"CAN","cpi",0.2,2014,3,2013,NA,1,1.17660147656635,1.42876321086733,1.87639912240215,1.11372323439473,FALSE,1.37125151313804
"CAN","cpi",0.2,2014,3,2013,NA,1.5,1.36102155960525,1.61318329390623,1.87639912240215,1.40040388240124,FALSE,0.910201305540782
"CAN","cpi",0.2,2015,3,2015,NA,0,1.24950563098768,1.31966107087451,1.11090953952792,1.30732778141228,FALSE,0.416645668536235
"CAN","cpi",0.2,2015,3,2015,NA,0.5,1.03425570390622,1.32847037938669,1.11090953952792,0.0832530397055839,TRUE,0.294214675480465
"CAN","cpi",0.2,2015,3,2014,NA,1,1.44288138382405,1.84945603326434,1.11090953952792,1.43393836679687,FALSE,1.23650426018062
"CAN","cpi",0.2,2015,3,2014,NA,1.5,2.36046491903544,2.76703956847573,1.11090953952792,2.67552344749624,FALSE,3.5304630982091
"CAN","cpi",0.2,2016,3,2016,NA,0,1.09976256860406,1.15983906465124,1.41168586698797,1.50891536161516,FALSE,0.68969350188899
"CAN","cpi",0.2,2016,3,2016,NA,0.5,1.24798423362937,1.52512278764865,1.41168586698797,0.786851742019216,TRUE,0.277138554019283
"CAN","cpi",0.2,2016,3,2015,NA,1,1.94765088817207,2.24752693546246,1.41168586698797,2.15660249634191,FALSE,1.63978860025065
"CAN","cpi",0.2,2016,3,2015,NA,1.5,0.14918220000377,0.449058247294163,1.41168586698797,-0.117220285505753,FALSE,2.7064450965249
"CAN","cpi",0.2,2017,3,2017,NA,0,1.19664309111953,1.2574100374823,1.57888581671161,1.54881337220766,FALSE,0.864456394436046
"CAN","cpi",0.2,2017,3,2017,NA,0.5,2.05373906462817,2.41086690922097,1.57888581671161,1.91336997918348,FALSE,1.54426096438419
"CAN","cpi",0.2,2017,3,2016,NA,1,1.19475020133996,1.55187804593276,1.57888581671161,1.18768855671255,FALSE,0.424647271539923
"CAN","cpi",0.2,2017,3,2016,NA,1.5,0.734700849343024,1.09182869393583,1.57888581671161,0.6644917028394,FALSE,1.57477065153226
"CAN","cpi",0.2,2018,3,2018,NA,0,1.53769094966135,1.6177342215926,2.23316270166586,2.44523056077762,FALSE,1.61861447211439
"CAN","cpi",0.2,2018,3,2018,NA,0.5,2.64222116095106,3.00116009602852,2.23316270166586,2.80156516368753,FALSE,1.38158508329046
"CAN","cpi",0.2,2018,3,2017,NA,1,0.952644933692095,1.31158386876955,2.23316270166586,0.82019125662587,FALSE,2.66288601731823
"CAN","cpi",0.2,2018,3,2017,NA,1.5,2.07721338574519,2.43615232082264,2.23316270166586,2.43256495233066,TRUE,0.358938935077457
"CAN","cpi",0.2,2019,3,2019,NA,0,1.59323730272197,1.68569268275132,1.91921619871868,2.08489368525497,FALSE,0.676264169947755
"CAN","cpi",0.2,2019,3,2019,NA,0.5,1.92608668728444,2.41111410773472,1.91921619871868,1.47181960590434,FALSE,0.502203641864679
"CAN","cpi",0.2,2019,3,2018,NA,1,1.97979424215205,2.48490937630543,1.91921619871868,2.1812391651413,FALSE,0.656560242736798
"CAN","cpi",0.2,2019,3,2018,NA,1.5,3.00285215980401,3.5079672939574,1.91921619871868,3.59347997035086,FALSE,3.21420503686672
"CAN","cpi",0.2,2020,3,2020,NA,0,1.04990645523512,1.1148350776503,0.71139989671781,0.692133240684643,FALSE,0.911195018708464
"CAN","cpi",0.2,2020,3,2020,NA,0.5,1.62078189544821,1.99246211537124,0.71139989671781,1.05558053361148,FALSE,2.64513521674903
"CAN","cpi",0.2,2020,3,2019,NA,1,1.82328121960336,2.23771477540617,0.71139989671781,2.01486975979332,FALSE,3.19413686301669
"CAN","cpi",0.2,2020,3,2019,NA,1.5,1.61645596629835,2.03088952210116,0.71139989671781,1.77269016603738,FALSE,2.67707372975417
"CAN","cpi",0.2,2021,3,2021,NA,0,1.58868533970935,1.67634186183599,3.31148121717802,3.37410895790077,FALSE,4.17550491048172
"CAN","cpi",0.2,2021,3,2021,NA,0.5,2.25762116934014,2.52961929236272,3.31148121717802,2.68190793980083,FALSE,2.22665293506084
"CAN","cpi",0.2,2021,3,2020,NA,1,1.17637775496944,1.44837587799201,3.31148121717802,1.19247466620579,FALSE,4.9297614709876
"CAN","cpi",0.2,2021,3,2020,NA,1.5,1.02633466295014,1.29833278597271,3.31148121717802,0.994097524483704,FALSE,5.30486920103586
"CAN","cpi",0.2,2022,3,2022,NA,0,3.39796277717851,3.58994041719967,6.50977236228281,6.71215382839029,FALSE,7.49155750272901
"CAN","cpi",0.2,2022,3,2022,NA,0.5,5.26199338528341,6.05179724173619,6.50977236228281,6.42154306210558,FALSE,1.93474165781933
"CAN","cpi",0.2,2022,3,2021,NA,1,3.98912975074243,4.77893360719522,6.50977236228281,4.97199453293936,FALSE,5.11690074417177
"CAN","cpi",0.2,2022,3,2021,NA,1.5,2.83531460663341,3.6251184630862,6.50977236228281,3.45701838810354,FALSE,8.00143860444432
"CAN","cpi",0.2,2023,3,2023,NA,0,3.42448253178772,3.6362556650458,3.78831288758619,4.042121841464,FALSE,0.591916189609055
"CAN","cpi",0.2,2023,3,2023,NA,0.5,4.1524254662099,5.17789962437956,3.78831288758619,3.05997192794191,FALSE,1.93575560472893
"CAN","cpi",0.2,2023,3,2022,NA,1,4.23020184079323,5.57327926215422,3.78831288758619,5.28351765661874,FALSE,2.44779980437858
"CAN","cpi",0.2,2023,3,2022,NA,1.5,5.81986389180615,7.16294131316715,3.78831288758619,7.28752716372712,FALSE,6.42195493191091
"CAN","cpi",0.2,2024,3,2023,NA,1,3.66744302791085,4.40673466354509,NA,4.37793695924716,NA,NA
"CAN","cpi",0.2,2024,3,2023,NA,1.5,2.0807780020382,2.82006963767243,NA,2.36897983740768,NA,NA
"CAN","cpi",0.3,1952,3,1952,NA,0,-30.3397233276042,-24.4362209244769,2.55562336095485,2.46502621244774,FALSE,83.0230575043609
"CAN","cpi",0.3,1952,3,1952,NA,0.5,-25.5777334247721,-4.58944536321024,2.55562336095485,4.32129924776399,FALSE,41.402770130605
"CAN","cpi",0.3,1952,3,1951,NA,1,6.50962154686778,27.4979096084297,2.55562336095485,9.65785623271456,FALSE,32.2854257355988
"CAN","cpi",0.3,1952,3,1951,NA,1.5,-39.4277058318725,-18.4394177703105,2.55562336095485,10.2729097180516,FALSE,80.9741198651773
"CAN","cpi",0.3,1953,3,1953,NA,0,-2.22940055571981,-2.3928854043234,-1.01492775838436,-1.00749856253296,FALSE,3.77353699693651
"CAN","cpi",0.3,1953,3,1953,NA,0.5,-15.2382484520475,-14.0782217282371,-1.01492775838436,-2.06778904141071,FALSE,38.4837237805324
"CAN","cpi",0.3,1953,3,1952,NA,1,-19.494195656205,-16.6253958589463,-1.01492775838436,-1.55171650633025,FALSE,47.4701372274356
"CAN","cpi",0.3,1953,3,1952,NA,1.5,-9.46967412449193,-6.60087432723326,-1.01492775838436,1.96017794195978,FALSE,18.8286471368269
"CAN","cpi",0.3,1954,3,1954,NA,0,1.45208861857834,0.211148398841875,0.644425455961438,0.844896913757956,FALSE,2.30460326522486
"CAN","cpi",0.3,1954,3,1954,NA,0.5,2.35531999672071,1.11437977698424,0.644425455961438,-0.153040348587994,FALSE,3.64732989671859
"CAN","cpi",0.3,1954,3,1953,NA,1,13.1063769173647,11.8654366976283,0.644425455961438,2.75483618067449,FALSE,34.3646353842729
"CAN","cpi",0.3,1954,3,1953,NA,1.5,-6.74291180102272,-7.98385202075919,0.644425455961438,-2.52548049332379,FALSE,23.4112811423225
"CAN","cpi",0.3,1955,3,1955,NA,0,0.43201017033411,0.547925062287631,0.173649026558865,0.10765252516202,FALSE,0.854089588454221
"CAN","cpi",0.3,1955,3,1955,NA,0.5,-1.10144381820754,-0.584618505558379,0.173649026558865,-0.685764272176465,FALSE,2.68330397584129
"CAN","cpi",0.3,1955,3,1954,NA,1,7.84651409632517,10.2540954110167,0.173649026558865,3.05598167297881,FALSE,24.3300529425953
"CAN","cpi",0.3,1955,3,1954,NA,1.5,-9.35346578998772,-6.94588447529619,0.173649026558865,-1.37299158518014,FALSE,22.749105605706
"CAN","cpi",0.3,1956,3,1956,NA,0,1.00455913167715,1.1221863485843,1.32752769429961,1.5132196707054,FALSE,0.704316776093741
"CAN","cpi",0.3,1956,3,1956,NA,0.5,-0.200528627964455,-0.0829014110573092,1.32752769429961,-0.533297708724126,FALSE,4.14742466078405
"CAN","cpi",0.3,1956,3,1955,NA,1,1.73705253431872,2.55641890947459,1.32752769429961,0.79482048855347,FALSE,1.98943734663904
"CAN","cpi",0.3,1956,3,1955,NA,1.5,-6.27087988003853,-5.45151350488266,1.32752769429961,-1.67555014996128,FALSE,20.1880555156766
"CAN","cpi",0.3,1957,3,1957,NA,0,1.8247438268988,2.28194199475681,3.24684755852518,3.4081189986054,FALSE,3.21407120719619
"CAN","cpi",0.3,1957,3,1957,NA,0.5,2.89901734466612,4.94211950007288,3.24684755852518,2.36364513914165,TRUE,2.04310215540675
"CAN","cpi",0.3,1957,3,1956,NA,1,8.90375271351638,14.2468378779592,3.24684755852518,6.42400073504334,FALSE,21.5056713215606
"CAN","cpi",0.3,1957,3,1956,NA,1.5,-11.4433574548768,-6.10027229043395,3.24684755852518,-1.44175113719435,FALSE,32.0491418757546
"CAN","cpi",0.3,1958,3,1958,NA,0,1.80315495577648,2.09005382784086,2.33186388641149,2.22393716079583,FALSE,0.977784753694753
"CAN","cpi",0.3,1958,3,1958,NA,0.5,3.03961290581088,4.9319981458112,2.33186388641149,2.22874439106395,FALSE,3.91452529542715
"CAN","cpi",0.3,1958,3,1957,NA,1,2.17448677714493,6.16565868973068,2.33186388641149,4.33819969505612,TRUE,3.99117191258575
"CAN","cpi",0.3,1958,3,1957,NA,1.5,-11.3269558492963,-7.33578393671051,2.33186388641149,1.22685206136826,FALSE,31.6130228357915
"CAN","cpi",0.3,1959,3,1959,NA,0,1.26335195449294,1.4719724916767,1.19382698397654,1.19679708996586,FALSE,0.407263310087758
"CAN","cpi",0.3,1959,3,1959,NA,0.5,1.47704057463405,2.38125589128225,1.19382698397654,0.655175994826909,FALSE,1.7133970042411
"CAN","cpi",0.3,1959,3,1958,NA,1,-0.0492398617315526,1.83671296869795,1.19382698397654,1.75938857815981,TRUE,1.8859528304295
"CAN","cpi",0.3,1959,3,1958,NA,1.5,-5.91701111009758,-4.03105827966808,1.19382698397654,1.7749666101295,FALSE,16.8141964408427
"CAN","cpi",0.3,1960,3,1960,NA,0,0.952436428326112,1.09075621565159,1.34209404870695,1.03130246511349,FALSE,0.85642788176937
"CAN","cpi",0.3,1960,3,1960,NA,0.5,1.44892505959689,1.94845772728465,1.34209404870695,0.745602653132245,FALSE,0.804764127373303
"CAN","cpi",0.3,1960,3,1959,NA,1,3.00783663171307,4.65665446184598,1.34209404870695,3.33587387303437,FALSE,6.40808235300754
"CAN","cpi",0.3,1960,3,1959,NA,1.5,-4.97362705783202,-3.32480922769912,1.34209404870695,-0.32541909428789,FALSE,14.9828271912931
"CAN","cpi",0.3,1961,3,1961,NA,0,0.99612340246778,1.17632628770918,1.00921348094007,1.00921348094007,TRUE,0.180202885241401
"CAN","cpi",0.3,1961,3,1961,NA,0.5,2.0178137218832,2.51355427250573,1.00921348094007,1.31141131508129,FALSE,3.37745552474576
"CAN","cpi",0.3,1961,3,1960,NA,1,-0.560108024530347,-0.0643674739078211,1.00921348094007,0.143625905669962,FALSE,3.56311470733079
"CAN","cpi",0.3,1961,3,1960,NA,1.5,-4.32650684070831,-3.83076629008578,1.00921348094007,-0.34011142415222,FALSE,14.324254182125
"CAN","cpi",0.3,1962,3,1962,NA,0,0.961991840001113,1.12362553186109,1.04957947883042,1.11132998230876,TRUE,0.161633691859977
"CAN","cpi",0.3,1962,3,1962,NA,0.5,0.702396592845352,1.01562601412001,1.04957947883042,1.64134322488006e-44,FALSE,0.410239320447242
"CAN","cpi",0.3,1962,3,1961,NA,1,-0.296683433178936,0.127542096678493,1.04957947883042,-9.44308782563385e-19,FALSE,3.05861805029149
"CAN","cpi",0.3,1962,3,1961,NA,1.5,-1.89880659419688,-1.47458106433945,1.04957947883042,0.754384248690751,FALSE,7.63611279605706
"CAN","cpi",0.3,1963,3,1963,NA,0,1.23533198995403,1.41109915037364,1.60677118395228,1.85599510888664,FALSE,0.734830113501448
"CAN","cpi",0.3,1963,3,1963,NA,0.5,1.50298931883075,1.960574450959,1.60677118395228,0.932300293637426,TRUE,0.457585132128256
"CAN","cpi",0.3,1963,3,1962,NA,1,2.09658103044543,3.10490603394082,1.60677118395228,2.66748522343727,FALSE,2.40778170776152
"CAN","cpi",0.3,1963,3,1962,NA,1.5,-2.45114158743745,-1.44281658394207,1.60677118395228,4.10321927477868e-44,FALSE,9.72143291176496
"CAN","cpi",0.3,1964,3,1964,NA,0,1.39317523758437,1.6024693181374,1.88764670034376,1.98894154569002,FALSE,1.02408660114262
"CAN","cpi",0.3,1964,3,1964,NA,0.5,2.00198895202115,2.54396017467771,1.88764670034376,1.38377582747094,FALSE,0.868663370306245
"CAN","cpi",0.3,1964,3,1963,NA,1,3.56358683778721,4.98799333178631,1.88764670034376,4.71286552905431,FALSE,6.21280688669468
"CAN","cpi",0.3,1964,3,1963,NA,1.5,-2.80214768455202,-1.37774119055291,1.88764670034376,0.238779673172327,FALSE,10.7540861822753
"CAN","cpi",0.3,1965,3,1965,NA,0,1.58984205714494,1.80311930911816,2.29538304394236,2.35494510510554,FALSE,1.61974506575664
"CAN","cpi",0.3,1965,3,1965,NA,0.5,2.2256675798812,2.75816964565794,2.29538304394236,1.56044896459738,TRUE,0.53250206577674
"CAN","cpi",0.3,1965,3,1964,NA,1,1.58491220579814,2.42165616850797,2.29538304394236,2.42710731898607,TRUE,0.836743962709829
"CAN","cpi",0.3,1965,3,1964,NA,1.5,-1.91057219514665,-1.07382823243682,2.29538304394236,0.818315757903116,FALSE,10.4630618952218
"CAN","cpi",0.3,1966,3,1966,NA,0,2.21352142930189,2.48960427562311,3.72486065470629,3.84664136390011,FALSE,3.80538678655888
"CAN","cpi",0.3,1966,3,1966,NA,0.5,4.11541119282657,4.86337422252054,3.72486065470629,3.84691400230302,FALSE,1.86382171003763
"CAN","cpi",0.3,1966,3,1965,NA,1,2.31141444407231,3.40521605705584,3.72486065470629,3.31367997089714,FALSE,2.00707189198482
"CAN","cpi",0.3,1966,3,1965,NA,1.5,-1.40771146537058,-0.313909852387044,3.72486065470629,1.48150382413513,FALSE,12.6331459189645
"CAN","cpi",0.3,1967,3,1967,NA,0,2.54097560505745,2.81328606571573,3.49360316391996,3.76862969063141,FALSE,2.21607359838466
"CAN","cpi",0.3,1967,3,1967,NA,0.5,3.4417921852832,4.10990164240214,3.49360316391996,2.36174420726938,TRUE,0.668109457118939
"CAN","cpi",0.3,1967,3,1966,NA,1,2.20600741581569,3.98372082506475,3.49360316391996,3.4823384545504,TRUE,1.77771340924905
"CAN","cpi",0.3,1967,3,1966,NA,1.5,0.229347139978462,2.00706054922751,3.49360316391996,4.29257700443622,FALSE,6.02497802265604
"CAN","cpi",0.3,1968,3,1968,NA,0,2.59163680525765,2.87753708874158,3.95128347779386,4.1134030125927,FALSE,3.35374710934757
"CAN","cpi",0.3,1968,3,1968,NA,0.5,4.51149259178568,5.49875206236543,3.95128347779386,3.89224433743933,FALSE,2.58785693912781
"CAN","cpi",0.3,1968,3,1967,NA,1,4.49210894607953,6.61668043960593,3.95128347779386,5.85596711509228,FALSE,3.66978711719974
"CAN","cpi",0.3,1968,3,1967,NA,1.5,-1.40582506995448,0.718746423571918,3.95128347779386,2.14187095150408,FALSE,11.3603916484462
"CAN","cpi",0.3,1969,3,1969,NA,0,2.89354493669513,3.18887226297318,4.42679496126681,4.64263065146317,FALSE,3.83224932140273
"CAN","cpi",0.3,1969,3,1969,NA,0.5,4.06347523624827,4.88916828539601,4.42679496126681,3.06199492877772,TRUE,0.825693049147745
"CAN","cpi",0.3,1969,3,1968,NA,1,4.44110665861684,6.97873461953488,4.42679496126681,6.05582378748629,FALSE,2.57851852477526
"CAN","cpi",0.3,1969,3,1968,NA,1.5,-0.0293285133196937,2.50829944759834,4.42679496126681,3.87227485119322,FALSE,8.01904371425654
"CAN","cpi",0.3,1970,3,1970,NA,0,2.65787179104068,2.89657373742176,3.28128405769805,3.58996474924422,FALSE,1.33787429002762
"CAN","cpi",0.3,1970,3,1970,NA,0.5,5.04043188572423,6.17024407401669,3.28128405769805,4.17180269652751,FALSE,6.15594883979584
"CAN","cpi",0.3,1970,3,1969,NA,1,4.19952575366538,6.20025584980157,3.28128405769805,5.43865496465038,FALSE,4.62427779889999
"CAN","cpi",0.3,1970,3,1969,NA,1.5,-1.66849716725806,0.332232928878135,3.28128405769805,2.31672730979866,FALSE,10.4265904641931
"CAN","cpi",0.3,1971,3,1971,NA,0,2.11923902384688,2.3163817488746,2.64123406634756,2.89424739818036,FALSE,1.1252922035219
"CAN","cpi",0.3,1971,3,1971,NA,0.5,2.35344195663476,2.93074883483763,2.64123406634756,1.07533993963556,TRUE,0.577306878202878
"CAN","cpi",0.3,1971,3,1970,NA,1,1.96109915589878,3.82209626863908,2.64123406634756,2.98160965133743,TRUE,1.8609971127403
"CAN","cpi",0.3,1971,3,1970,NA,1.5,1.79521108758132,4.71440276275115,2.64123406634756,4.15708260691123,TRUE,2.91919167516983
"CAN","cpi",0.3,1972,3,1972,NA,0,2.71701842250725,2.97539220656071,4.83230569625923,5.10321489701878,FALSE,5.56384089747779
"CAN","cpi",0.3,1972,3,1972,NA,0.5,4.77391416394641,5.99821027809363,4.83230569625923,4.57526784474473,TRUE,1.22429611414722
"CAN","cpi",0.3,1972,3,1971,NA,1,5.42536922826592,7.69978598698132,4.83230569625923,6.5673313651466,FALSE,3.96888399302024
"CAN","cpi",0.3,1972,3,1971,NA,1.5,-0.753098023819745,1.52131873489566,4.83230569625923,1.20127092516847,FALSE,11.7343795054685
"CAN","cpi",0.3,1973,3,1973,NA,0,4.02639950252727,4.41905822473034,7.12388603531779,7.36268749116872,FALSE,8.12073818102436
"CAN","cpi",0.3,1973,3,1973,NA,0.5,6.49246658861823,8.03123490044867,7.12388603531779,5.89432993074317,TRUE,1.53876831183044
"CAN","cpi",0.3,1973,3,1972,NA,1,5.20718748300828,8.94903453289633,7.12388603531779,7.371399360381,TRUE,3.74184704988805
"CAN","cpi",0.3,1973,3,1972,NA,1.5,1.78836399510648,5.53021104499453,7.12388603531779,4.50324671282129,FALSE,8.29520416509737
"CAN","cpi",0.3,1974,3,1974,NA,0,5.57313833603902,6.15392449342362,10.2717243737774,10.3222881332229,FALSE,12.3459286726812
"CAN","cpi",0.3,1974,3,1974,NA,0.5,9.48241649234652,11.8304842441367,10.2717243737774,8.8471290293637,TRUE,2.34806775179018
"CAN","cpi",0.3,1974,3,1973,NA,1,7.56959616908099,12.6506954207892,10.2717243737774,10.9884402825372,TRUE,5.08109925170819
"CAN","cpi",0.3,1974,3,1973,NA,1.5,2.20605941945804,7.28715867116623,10.2717243737774,6.19554852079723,FALSE,13.6084298305973
"CAN","cpi",0.3,1975,3,1975,NA,0,6.24300508584559,6.87911957556742,10.0232981493341,10.2646941702359,FALSE,9.61948184334098
"CAN","cpi",0.3,1975,3,1975,NA,0.5,10.6408595190262,13.5645007542209,10.0232981493341,9.21855388205318,FALSE,4.68810229145775
"CAN","cpi",0.3,1975,3,1974,NA,1,7.43531067140363,11.7073141847304,10.0232981493341,11.9905143933903,TRUE,4.27200351332675
"CAN","cpi",0.3,1975,3,1974,NA,1.5,1.98334646512629,6.25534997845304,10.0232981493341,8.68009129130424,FALSE,15.0375697158441
"CAN","cpi",0.3,1976,3,1976,NA,0,5.21518583291575,5.75030150819205,7.22784311401172,7.25383067322222,FALSE,4.75666312047534
"CAN","cpi",0.3,1976,3,1976,NA,0.5,8.93792696046424,11.6787282945871,7.22784311401172,7.41547675604771,FALSE,7.62675518113003
"CAN","cpi",0.3,1976,3,1975,NA,1,6.28575069713858,10.9171452845323,7.22784311401172,11.9151510581142,TRUE,4.63139458739373
"CAN","cpi",0.3,1976,3,1975,NA,1.5,0.0252706279681583,5.09705948147119,7.22784311401172,8.01331538119686,FALSE,11.1597420893331
"CAN","cpi",0.3,1977,3,1977,NA,0,4.63907546195066,5.11133603945618,7.58101410153764,7.61867129691007,FALSE,7.52848361202398
"CAN","cpi",0.3,1977,3,1977,NA,0.5,7.77618221933161,10.1353642809327,7.58101410153764,7.02287871989832,FALSE,2.91680525529818
"CAN","cpi",0.3,1977,3,1976,NA,1,2.4863631967162,5.61269102857748,7.58101410153764,5.87261903876238,FALSE,8.75010804031889
"CAN","cpi",0.3,1977,3,1976,NA,1.5,0.629189227885107,5.52561873079278,7.58101410153764,6.15322645024094,FALSE,10.7689877050359
"CAN","cpi",0.3,1978,3,1978,NA,0,5.06364530286217,5.57907279278933,8.50208927062595,8.68125407245005,FALSE,8.86690314088892
"CAN","cpi",0.3,1978,3,1978,NA,0.5,8.71917884238681,11.3990645604101,8.50208927062595,8.12508742330222,FALSE,3.30014163734003
"CAN","cpi",0.3,1978,3,1977,NA,1,4.28263151033785,8.10017665573924,8.50208927062595,8.64318766852961,FALSE,4.96586690222055
"CAN","cpi",0.3,1978,3,1977,NA,1.5,1.53841884413009,6.89519988265192,8.50208927062595,7.66028936796504,FALSE,9.94789357559047
"CAN","cpi",0.3,1979,3,1979,NA,0,5.26609063454165,5.81647086319819,8.65147652410481,8.61075946409788,FALSE,8.65039640267547
"CAN","cpi",0.3,1979,3,1979,NA,0.5,9.0554932148138,11.8042279508903,8.65147652410481,8.10062835274572,FALSE,3.90306813810216
"CAN","cpi",0.3,1979,3,1978,NA,1,4.41662464177764,8.54752130866921,8.65147652410481,9.5826348846829,FALSE,4.42791156813614
"CAN","cpi",0.3,1979,3,1978,NA,1.5,1.50547880938882,7.58141289854585,8.65147652410481,7.94183844676527,FALSE,9.1332587336112
"CAN","cpi",0.3,1980,3,1980,NA,0,5.57344782649963,6.19382492622507,9.5171912664748,9.53109046750286,FALSE,10.1157095004389
"CAN","cpi",0.3,1980,3,1980,NA,0.5,9.49594212813107,12.2990313199022,9.5171912664748,8.68563614915422,TRUE,2.80308919177116
"CAN","cpi",0.3,1980,3,1979,NA,1,3.4289084212558,7.1455893809067,9.5171912664748,8.32548734166583,FALSE,10.4926863469883
"CAN","cpi",0.3,1980,3,1979,NA,1.5,1.88909212450706,7.78421958341175,9.5171912664748,7.98047102096121,FALSE,10.8464751247991
"CAN","cpi",0.3,1981,3,1981,NA,0,6.45807843321748,7.21750043833312,11.5813425032741,11.708955977523,FALSE,13.2275421906614
"CAN","cpi",0.3,1981,3,1981,NA,0.5,12.1339497847168,15.7288080225009,11.5813425032741,12.1263962907449,FALSE,5.17373618476315
"CAN","cpi",0.3,1981,3,1980,NA,1,4.92304761116574,8.83469557618163,11.5813425032741,10.9849401653028,FALSE,11.7592106138516
"CAN","cpi",0.3,1981,3,1980,NA,1.5,1.2121960991714,7.93426532035679,11.5813425032741,8.62735225265647,FALSE,17.1422897438064
"CAN","cpi",0.3,1982,3,1982,NA,0,6.50614410212136,7.27966539755986,10.1124203763629,10.3109749747662,FALSE,8.8671069491616
"CAN","cpi",0.3,1982,3,1982,NA,0.5,11.5960107804137,14.7938632029486,10.1124203763629,10.0996836619997,FALSE,7.43668214839427
"CAN","cpi",0.3,1982,3,1981,NA,1,3.86884071861476,8.75468664493329,10.1124203763629,11.6194795199153,FALSE,8.76508515897469
"CAN","cpi",0.3,1982,3,1981,NA,1.5,4.38569090266569,11.5091309230084,10.1124203763629,12.7194356761443,TRUE,7.12344002034271
"CAN","cpi",0.3,1983,3,1983,NA,0,4.73111864202528,5.27946081021469,5.67091787896303,5.82764740362034,FALSE,1.66679093604183
"CAN","cpi",0.3,1983,3,1983,NA,0.5,7.66897948721767,9.76957797910302,5.67091787896303,4.97543944794331,FALSE,7.80934594404145
"CAN","cpi",0.3,1983,3,1982,NA,1,2.67099011108189,7.45380268595884,5.67091787896303,9.23778396682256,TRUE,4.78281257487695
"CAN","cpi",0.3,1983,3,1982,NA,1.5,3.41176473745664,8.28087532325294,5.67091787896303,9.78870144173853,TRUE,4.8691105857963
"CAN","cpi",0.3,1984,3,1984,NA,0,3.08350287424392,3.43268867798447,4.19799576814029,4.21357537293321,FALSE,2.53577748990004
"CAN","cpi",0.3,1984,3,1984,NA,0.5,5.8227986502282,7.373914307117,4.19799576814029,4.64258933063566,FALSE,6.19340960571141
"CAN","cpi",0.3,1984,3,1983,NA,1,2.34407948821448,5.31074481616353,4.19799576814029,6.13137654871218,TRUE,2.96666532794905
"CAN","cpi",0.3,1984,3,1983,NA,1.5,-1.00926123301657,2.40476612033529,4.19799576814029,3.46832438596907,FALSE,8.53754063279471
"CAN","cpi",0.3,1985,3,1985,NA,0,2.62700351100724,2.92941050887528,3.86444262005169,3.91909325760218,FALSE,2.97392731551493
"CAN","cpi",0.3,1985,3,1985,NA,0.5,4.65047583760581,6.01858885662885,3.86444262005169,3.89150188195039,FALSE,3.6139222120348
"CAN","cpi",0.3,1985,3,1984,NA,1,0.784852341002313,2.91777248655842,3.86444262005169,3.29397074977035,FALSE,4.83769195553689
"CAN","cpi",0.3,1985,3,1984,NA,1.5,2.15325020528842,4.75701909876629,3.86444262005169,4.4666103475984,TRUE,2.60376889347787
"CAN","cpi",0.3,1986,3,1986,NA,0,2.6091606582891,2.88976885191753,4.08685396749431,4.1058885406559,FALSE,3.70085138099066
"CAN","cpi",0.3,1986,3,1986,NA,0.5,4.79462119139874,6.21932693263316,4.08685396749431,4.41001406158749,FALSE,3.44689780953279
"CAN","cpi",0.3,1986,3,1985,NA,1,1.70593859042863,3.50443033849383,4.08685396749431,3.99303879319441,FALSE,3.46255925949515
"CAN","cpi",0.3,1986,3,1985,NA,1.5,2.62779589043204,4.42628763849724,4.08685396749431,4.22326323880904,TRUE,1.7984917480652
"CAN","cpi",0.3,1987,3,1987,NA,0,2.7764402339881,3.04927437907792,4.23980729277887,4.35976718480882,FALSE,3.67435675566398
"CAN","cpi",0.3,1987,3,1987,NA,0.5,4.40687810486619,5.83911733914648,4.23980729277887,3.90936321394769,FALSE,1.90958441167262
"CAN","cpi",0.3,1987,3,1986,NA,1,2.12488200527728,3.88563128937082,4.23980729277887,4.33099659151455,FALSE,2.77268072240225
"CAN","cpi",0.3,1987,3,1986,NA,1.5,3.37301036379012,5.13375964788366,4.23980729277887,4.75247122036215,TRUE,1.76074928409354
"CAN","cpi",0.3,1988,3,1988,NA,0,2.70259553790792,2.96367376063982,3.92899537638065,4.01269560152408,FALSE,3.01913998199143
"CAN","cpi",0.3,1988,3,1988,NA,0.5,4.20394792574938,5.43895456695824,3.92899537638065,3.47075595914335,FALSE,2.02058535369094
"CAN","cpi",0.3,1988,3,1987,NA,1,2.4845552462942,4.01963060382485,3.92899537638065,4.58162438495066,TRUE,1.53507535753065
"CAN","cpi",0.3,1988,3,1987,NA,1.5,2.76038551923142,4.29546087676207,3.92899537638065,3.81364776332008,TRUE,1.53507535753065
"CAN","cpi",0.3,1989,3,1989,NA,0,2.97020300682784,3.22237956106954,4.82821664544208,5.02395320873108,FALSE,4.8402825095918
"CAN","cpi",0.3,1989,3,1989,NA,0.5,4.73039823247811,5.96190989163437,4.82821664544208,4.36789847845152,TRUE,1.23151165915626
"CAN","cpi",0.3,1989,3,1988,NA,1,2.58990804161676,3.82141970077302,4.82821664544208,4.46162561835953,FALSE,4.10807435821071
"CAN","cpi",0.3,1989,3,1988,NA,1.5,2.42120864254084,3.6527203016971,4.82821664544208,3.27838152614011,FALSE,4.59007264128477
"CAN","cpi",0.3,1990,3,1990,NA,0,3.02690017609414,3.28833281487883,4.64347549432717,4.51963128519567,FALSE,4.13326886577995
"CAN","cpi",0.3,1990,3,1990,NA,0.5,5.51255417046226,6.77150803970188,4.64347549432717,4.98434426998405,FALSE,3.74203580105415
"CAN","cpi",0.3,1990,3,1989,NA,1,3.58815333517084,5.06483325243288,4.64347549432717,5.9177493923911,TRUE,1.47667991726204
"CAN","cpi",0.3,1990,3,1989,NA,1.5,3.6473653557962,5.12404527305824,4.64347549432717,4.56185858388509,TRUE,1.47667991726204
"CAN","cpi",0.3,1991,3,1991,NA,0,3.35037312301334,3.65402158993498,5.4258100696218,5.62406762795447,FALSE,5.36590126602683
"CAN","cpi",0.3,1991,3,1991,NA,0.5,7.7620930416943,9.18206811126137,5.4258100696218,8.39172083833767,FALSE,8.09506927548851
"CAN","cpi",0.3,1991,3,1990,NA,1,2.00252421645864,3.42249928602571,5.4258100696218,3.86917616551897,FALSE,7.14372016555589
"CAN","cpi",0.3,1991,3,1990,NA,1.5,4.39221988891264,5.81219495847971,5.4258100696218,5.12288497855213,TRUE,1.41997506956707
"CAN","cpi",0.3,1992,3,1992,NA,0,2.19044738970741,2.39782678724889,1.47496888572843,1.48060592990191,FALSE,2.25160369462427
"CAN","cpi",0.3,1992,3,1992,NA,0.5,3.05474315344997,3.97552386918728,1.47496888572843,1.17198715241532,FALSE,5.43442148065599
"CAN","cpi",0.3,1992,3,1991,NA,1,0.940838196433228,2.32037532762363,1.47496888572843,2.52024528073196,TRUE,1.3795371311904
"CAN","cpi",0.3,1992,3,1991,NA,1.5,10.3569827333352,11.7365198645256,1.47496888572843,10.1533377092026,FALSE,26.756719552924
"CAN","cpi",0.3,1993,3,1993,NA,0,1.26728255889879,1.37885528141497,1.84351085411351,1.80262144325658,FALSE,1.43916007308345
"CAN","cpi",0.3,1993,3,1993,NA,0.5,2.53114401868278,3.11421474670824,1.84351085411351,2.34241315558581,FALSE,2.54773691250907
"CAN","cpi",0.3,1993,3,1992,NA,1,1.22435650403664,1.87609599466994,1.84351085411351,1.81805946412584,TRUE,0.651739490633306
"CAN","cpi",0.3,1993,3,1992,NA,1.5,0.917976278425577,1.56971576905888,1.84351085411351,1.14026360102641,FALSE,1.43401116221796
"CAN","cpi",0.3,1994,3,1994,NA,0,0.838873815400833,0.917521203802507,0.161630694655448,0.163616628358327,FALSE,2.01362773338849
"CAN","cpi",0.3,1994,3,1994,NA,0.5,0.769506391399786,1.11677916348559,0.161630694655448,-0.385140098029379,FALSE,2.08406047706962
"CAN","cpi",0.3,1994,3,1993,NA,1,0.821593685521788,1.51674588465634,0.161630694655448,1.37474728133383,FALSE,2.58076074446696
"CAN","cpi",0.3,1994,3,1993,NA,1.5,2.33657334036367,3.03172553949822,0.161630694655448,2.59685615311524,FALSE,6.90927404401519
"CAN","cpi",0.3,1995,3,1995,NA,0,1.05806052720464,1.14232238832346,2.11688403676572,2.19356448193293,FALSE,2.86872371381097
"CAN","cpi",0.3,1995,3,1995,NA,0.5,2.29722108902108,2.65477466348043,2.11688403676572,2.67750903542847,FALSE,0.872802295188966
"CAN","cpi",0.3,1995,3,1994,NA,1,1.18521248434277,1.54276605880212,2.11688403676572,1.34092618105198,FALSE,1.99789065435534
"CAN","cpi",0.3,1995,3,1994,NA,1.5,-1.1657943005924,-0.808240726133052,2.11688403676572,-1.3139842175605,FALSE,8.71505289702726
"CAN","cpi",0.3,1996,3,1996,NA,0,1.35899445912625,1.46898360583211,1.55309584667184,1.48206512402721,FALSE,0.350309834819385
"CAN","cpi",0.3,1996,3,1996,NA,0.5,1.82574986207719,2.42920348384632,1.55309584667184,1.23598680875262,FALSE,1.38246509435583
"CAN","cpi",0.3,1996,3,1995,NA,1,0.629317220872855,1.59308180570413,1.55309584667184,1.32983461361347,TRUE,0.963764584831272
"CAN","cpi",0.3,1996,3,1995,NA,1.5,2.90030069835392,3.86406528318519,1.55309584667184,3.42580605950136,FALSE,4.81292130392293
"CAN","cpi",0.3,1997,3,1997,NA,0,1.27970637127725,1.38928566373338,1.60528783555959,1.69050032419864,FALSE,0.726728354816734
"CAN","cpi",0.3,1997,3,1997,NA,0.5,2.22281170832099,2.82470060345007,1.60528783555959,2.11979188984917,FALSE,2.36624281730451
"CAN","cpi",0.3,1997,3,1996,NA,1,0.772336600592689,1.48043218105496,1.60528783555959,1.19524084873691,FALSE,1.06482602190409
"CAN","cpi",0.3,1997,3,1996,NA,1.5,1.07529843928733,1.7833940197496,1.60528783555959,1.35560903862103,TRUE,0.708095580462267
"CAN","cpi",0.3,1998,3,1998,NA,0,1.06299434331575,1.14884987414291,0.988908029337191,0.980088020931525,FALSE,0.297530713623049
"CAN","cpi",0.3,1998,3,1998,NA,0.5,1.66519839793146,2.22059406580811,0.988908029337191,1.31078347146242,FALSE,2.48765386386028
"CAN","cpi",0.3,1998,3,1997,NA,1,0.744069193305695,1.40114931454186,0.988908029337191,1.06570792570078,TRUE,0.657080121236162
"CAN","cpi",0.3,1998,3,1997,NA,1.5,1.9293959424251,2.58647606366127,0.988908029337191,2.25360669266494,FALSE,3.34418844434448
"CAN","cpi",0.3,1999,3,1999,NA,0,1.17519549401727,1.26187234116368,1.7107350135213,1.81711295343144,FALSE,1.36914162531103
"CAN","cpi",0.3,1999,3,1999,NA,0.5,1.13895793266109,1.55707808893847,1.7107350135213,0.788387565724544,FALSE,0.857139940799744
"CAN","cpi",0.3,1999,3,1998,NA,1,0.483917712733425,0.941284373232783,1.7107350135213,0.575366492854125,FALSE,2.65579706132368
"CAN","cpi",0.3,1999,3,1998,NA,1.5,1.52386059635564,1.981227256855,1.7107350135213,1.68716976710558,TRUE,0.457366660499358
"CAN","cpi",0.3,2000,3,2000,NA,0,1.67387070981189,1.79308655105782,2.6718361971244,2.72999398726497,FALSE,2.62992911572187
"CAN","cpi",0.3,2000,3,2000,NA,0.5,2.14000742359148,2.83206216349992,2.6718361971244,2.06798867425529,TRUE,0.692054739908446
"CAN","cpi",0.3,2000,3,1999,NA,1,2.36046681720344,3.15516679029717,2.6718361971244,3.09152396062306,TRUE,0.794699973093739
"CAN","cpi",0.3,2000,3,1999,NA,1.5,0.588377800435603,1.38307777352934,2.6718361971244,0.842861855264031,FALSE,4.47686689765105
"CAN","cpi",0.3,2001,3,2001,NA,0,1.98145288402146,2.1208320726441,2.47906219852806,2.84208465688611,FALSE,1.16289383400538
"CAN","cpi",0.3,2001,3,2001,NA,0.5,2.29811812338928,3.10202928921922,2.47906219852806,1.88638468602912,TRUE,0.803911165829945
"CAN","cpi",0.3,2001,3,2000,NA,1,2.78344039942512,3.67204983055615,2.47906219852806,3.69789354026514,FALSE,1.75826143369405
"CAN","cpi",0.3,2001,3,2000,NA,1.5,1.43242898439879,2.32103841552982,2.47906219852806,1.8681620253813,FALSE,1.34010595398315
"CAN","cpi",0.3,2002,3,2002,NA,0,1.76981455502154,1.89283331537116,2.20880570551249,2.37599565696257,FALSE,1.02579701789627
"CAN","cpi",0.3,2002,3,2002,NA,0.5,1.6938621147977,2.31869739502325,2.20880570551249,0.913576617687781,TRUE,0.624835280225552
"CAN","cpi",0.3,2002,3,2001,NA,1,1.3490350155399,2.12789915421117,2.20880570551249,1.93734082085477,FALSE,1.01002571381788
"CAN","cpi",0.3,2002,3,2001,NA,1.5,0.914298255038166,1.69316239370943,2.20880570551249,1.22267801456389,FALSE,2.25213074382285
"CAN","cpi",0.3,2003,3,2003,NA,0,1.79882633001406,1.93102389153577,2.71189071546809,2.73251886371656,FALSE,2.36324562989976
"CAN","cpi",0.3,2003,3,2003,NA,0.5,3.80872284047682,4.68621364144322,2.71189071546809,4.31675684669419,FALSE,4.01129687241992
"CAN","cpi",0.3,2003,3,2002,NA,1,3.42020357362169,4.29769437458808,2.71189071546809,4.61862409576541,FALSE,2.90124182426239
"CAN","cpi",0.3,2003,3,2002,NA,1.5,0.99787503783902,1.87536583880542,2.71189071546809,1.3655866266696,FALSE,3.26756187714546
"CAN","cpi",0.3,2004,3,2004,NA,0,1.64693412430891,1.77518262308999,1.83151661303942,1.82990600335775,FALSE,0.289202755779459
"CAN","cpi",0.3,2004,3,2004,NA,0.5,2.03437899953042,2.81857755397771,1.83151661303942,1.43982618755963,FALSE,1.363805372993
"CAN","cpi",0.3,2004,3,2003,NA,1,0.635060563540278,1.44133922002188,1.83151661303942,1.02946817322814,FALSE,1.92107120796029
"CAN","cpi",0.3,2004,3,2003,NA,1.5,3.86502521292551,4.67130386940711,1.83151661303942,4.64649519124043,FALSE,6.6163032275847
"CAN","cpi",0.3,2005,3,2005,NA,0,1.59140599418245,1.70789027553089,2.18071628336509,2.38454318695835,FALSE,1.4674157323033
"CAN","cpi",0.3,2005,3,2005,NA,0.5,1.93354325068088,2.52815125232439,2.18071628336509,1.60616687455658,TRUE,0.594608001643506
"CAN","cpi",0.3,2005,3,2004,NA,1,1.293389387013,1.8879973886565,2.18071628336509,1.65181790765431,FALSE,1.4309477008109
"CAN","cpi",0.3,2005,3,2004,NA,1.5,1.53532250822493,2.12993050986844,2.18071628336509,1.76259299547523,FALSE,0.739710211633936
"CAN","cpi",0.3,2006,3,2006,NA,0,1.59641142369846,1.72186797363776,1.97519342012289,2.13635134601064,FALSE,0.849243539896794
"CAN","cpi",0.3,2006,3,2006,NA,0.5,2.15187911532815,2.80348932103292,1.97519342012289,1.78685076876899,FALSE,1.15642647771982
"CAN","cpi",0.3,2006,3,2005,NA,1,2.67853444856749,3.36464724749894,1.97519342012289,3.50484952590076,FALSE,2.69565859448745
