isdrw/probabilistic-benchmark-forecasts/results/bayesian_quantile_regression/5000Samples/bqr_prediction_arima_auto_2026-02-27_15-10-24.csv
"country","target","tau","target_year","target_quarter","forecast_year","forecast_quarter","horizon","lower_bound","upper_bound","truth_value","prediction","covered","IS"
"CAN","cpi",0.1,1952,3,1952,NA,0,-24.917909905401,-23.212749719812,2.55562336095485,2.50792675283471,FALSE,58.9682114761819
"CAN","cpi",0.1,1952,3,1952,NA,0.5,-4.31082990039279,0.869931110139186,2.55562336095485,5.20333179389047,FALSE,8.92674379012233
"CAN","cpi",0.1,1952,3,1951,NA,1,-19.9827723810088,-14.8020113704768,2.55562336095485,8.18998200969936,FALSE,43.7532826359357
"CAN","cpi",0.1,1952,3,1951,NA,1.5,7.80051300271672,12.9812740132487,2.55562336095485,7.55460015368862,FALSE,16.8360713255584
"CAN","cpi",0.1,1953,3,1953,NA,0,0.958542468593747,0.0963463471831387,-1.01492775838436,-0.954275034924989,FALSE,3.52329327187408
"CAN","cpi",0.1,1953,3,1953,NA,0.5,-10.2248847633954,-11.087080884806,-1.01492775838436,-1.88711612688489,FALSE,21.5203663817486
"CAN","cpi",0.1,1953,3,1952,NA,1,-12.7741428592731,-13.6363389806837,-1.01492775838436,-0.873617238258229,FALSE,27.1853843725879
"CAN","cpi",0.1,1953,3,1952,NA,1.5,27.4369715089989,31.0024707808973,-1.01492775838436,5.93557635631702,FALSE,66.7919420883057
"CAN","cpi",0.1,1954,3,1954,NA,0,0.916605510109848,0.775795513895497,0.644425455961438,0.879731201855888,FALSE,0.464034568559893
"CAN","cpi",0.1,1954,3,1954,NA,0.5,0.965181456951812,0.824371460737461,0.644425455961438,-0.358875738913824,FALSE,0.571981117097591
"CAN","cpi",0.1,1954,3,1953,NA,1,13.6777569965634,13.6798697472423,0.644425455961438,3.38326531029323,FALSE,28.9650717297944
"CAN","cpi",0.1,1954,3,1953,NA,1.5,-1.91774946563105,-1.91563671495209,0.644425455961438,-1.28741438714058,FALSE,5.69113979715347
"CAN","cpi",0.1,1955,3,1955,NA,0,0.466056761410501,0.482902799460213,0.173649026558865,0.115254687233858,FALSE,0.666641004386681
"CAN","cpi",0.1,1955,3,1955,NA,0.5,-1.11358615741701,-1.0967401193673,0.173649026558865,-0.770970046821609,FALSE,2.83993302899675
"CAN","cpi",0.1,1955,3,1954,NA,1,7.13083524419337,7.87733650649905,0.173649026558865,3.47019599757395,FALSE,16.2069150792712
"CAN","cpi",0.1,1955,3,1954,NA,1.5,-8.14875181229727,-7.40225054999158,0.173649026558865,-1.89562740163941,FALSE,17.58183365464
"CAN","cpi",0.1,1956,3,1956,NA,0,1.16054972378672,0.997555318895854,1.32752769429961,1.56059797998755,FALSE,0.570277540450807
"CAN","cpi",0.1,1956,3,1956,NA,0.5,-0.389009056124182,-0.552003461015051,1.32752769429961,-0.709146002056511,FALSE,4.01374149580837
"CAN","cpi",0.1,1956,3,1955,NA,1,1.21525767857921,1.05226327368834,1.32752769429961,0.884549626974225,FALSE,0.448704307578613
"CAN","cpi",0.1,1956,3,1955,NA,1.5,-5.09982465427267,-5.26281905916353,1.32752769429961,-1.89150615642833,FALSE,14.482220602805
"CAN","cpi",0.1,1957,3,1957,NA,0,1.94261312357562,2.11832153480593,3.24684755852518,3.4151370317006,FALSE,2.6835440194953
"CAN","cpi",0.1,1957,3,1957,NA,0.5,3.69116435174716,4.38102752449775,3.24684755852518,2.23982631608766,FALSE,1.677233824355
"CAN","cpi",0.1,1957,3,1956,NA,1,9.03969728639393,9.79239247277165,3.24684755852518,6.98754636690555,FALSE,13.6256945816416
"CAN","cpi",0.1,1957,3,1956,NA,1.5,-5.00759300155771,-4.25489781517999,3.24684755852518,-1.88668623310337,FALSE,17.4232404612781
"CAN","cpi",0.1,1958,3,1958,NA,0,1.81009101330117,1.89985357011711,2.33186388641149,2.22387249143335,FALSE,1.04978548191456
"CAN","cpi",0.1,1958,3,1958,NA,0.5,4.01480291972598,4.68971142109433,2.33186388641149,2.22839060734872,FALSE,4.414773019845
"CAN","cpi",0.1,1958,3,1957,NA,1,0.91202081099648,2.34802964687289,2.33186388641149,4.42088197051908,TRUE,1.43600883587641
"CAN","cpi",0.1,1958,3,1957,NA,1.5,-1.23787023382509,0.198138602051314,2.33186388641149,0.91301479707402,FALSE,6.17762057889902
"CAN","cpi",0.1,1959,3,1959,NA,0,1.28795712102585,1.36106515304405,1.19382698397654,1.24991216431293,FALSE,0.282286114349996
"CAN","cpi",0.1,1959,3,1959,NA,0.5,1.80378871755404,2.01248222831527,1.19382698397654,0.437839731590327,FALSE,1.56416402982234
"CAN","cpi",0.1,1959,3,1958,NA,1,-0.512276722215075,0.0518117274822969,1.19382698397654,1.75862762885946,FALSE,3.10190013079569
"CAN","cpi",0.1,1959,3,1958,NA,1.5,1.24997026514496,2.48607402591648,1.19382698397654,1.77407172713766,FALSE,1.36086660781245
"CAN","cpi",0.1,1960,3,1960,NA,0,0.95296757407947,1.01323830266097,1.34209404870695,1.02361304259477,FALSE,0.791061275350346
"CAN","cpi",0.1,1960,3,1960,NA,0.5,1.64133503514001,1.81878317358774,1.34209404870695,0.53898348018166,FALSE,0.842428108298966
"CAN","cpi",0.1,1960,3,1959,NA,1,3.11490043823399,3.5480456489115,1.34209404870695,3.95759373689442,FALSE,4.37271496518205
"CAN","cpi",0.1,1960,3,1959,NA,1.5,-1.51016752129076,-1.07702231061326,1.34209404870695,-0.873476815404885,FALSE,5.80895934250019
"CAN","cpi",0.1,1961,3,1961,NA,0,1.00517218608085,1.08653172712553,1.00921348094007,1.00921348094007,TRUE,0.0813595410446801
"CAN","cpi",0.1,1961,3,1961,NA,0.5,2.17289925669842,2.3365338010482,1.00921348094007,1.00921348094007,FALSE,2.74960293492389
"CAN","cpi",0.1,1961,3,1960,NA,1,-0.774157812579785,-0.610523268230011,1.00921348094007,0.0537704626035329,FALSE,3.76304954250551
"CAN","cpi",0.1,1961,3,1960,NA,1.5,-1.27249747174979,-1.10886292740002,1.00921348094007,-0.862181798940035,FALSE,4.87047100732776
"CAN","cpi",0.1,1962,3,1962,NA,0,0.981763781356189,1.04300662536913,1.04957947883042,1.10232402731478,FALSE,0.0758491850380143
"CAN","cpi",0.1,1962,3,1962,NA,0.5,0.960196055199699,1.07482444044496,1.04957947883042,0,TRUE,0.114628385245258
"CAN","cpi",0.1,1962,3,1961,NA,1,-0.289575457885126,-0.111934029842196,1.04957947883042,0,FALSE,2.75878255842651
"CAN","cpi",0.1,1962,3,1961,NA,1.5,-0.0921061912604623,0.0855352367824675,1.04957947883042,0,FALSE,2.31996196592726
"CAN","cpi",0.1,1963,3,1963,NA,0,1.29340276035795,1.3735982223842,1.60677118395228,1.91491729531202,FALSE,0.598357598844216
"CAN","cpi",0.1,1963,3,1963,NA,0.5,1.81518935640488,1.96182516124074,1.60677118395228,0.836828714617504,FALSE,0.609787299174968
"CAN","cpi",0.1,1963,3,1962,NA,1,1.92699150304797,2.22137568009804,1.60677118395228,2.56411490415144,FALSE,1.00598488615159
"CAN","cpi",0.1,1963,3,1962,NA,1.5,-0.116710543336171,0.177673633713897,1.60677118395228,0,FALSE,3.47015651091315
"CAN","cpi",0.1,1964,3,1964,NA,0,1.42804853574501,1.50712182805474,1.88764670034376,1.98877256446048,FALSE,0.924684119618669
"CAN","cpi",0.1,1964,3,1964,NA,0.5,2.48901863214451,2.66416327595889,1.88764670034376,1.38369006227607,FALSE,1.51152671448271
"CAN","cpi",0.1,1964,3,1963,NA,1,4.03600020941921,4.34291143366695,1.88764670034376,5.39044290347256,FALSE,5.08103013330429
"CAN","cpi",0.1,1964,3,1963,NA,1.5,-0.164405647000547,0.142505577247195,1.88764670034376,0,FALSE,4.18500260890678
"CAN","cpi",0.1,1965,3,1965,NA,0,1.61603808319698,1.68751670930269,2.29538304394236,2.34557047418999,FALSE,1.42229270308275
"CAN","cpi",0.1,1965,3,1965,NA,0.5,2.76639314193516,2.94305300964643,2.29538304394236,1.61079447956654,FALSE,1.22334897436195
"CAN","cpi",0.1,1965,3,1964,NA,1,1.61388763686012,1.9741088846427,2.29538304394236,2.42518862179847,FALSE,1.07416382400405
"CAN","cpi",0.1,1965,3,1964,NA,1.5,0.558720332218081,0.918941580000657,2.29538304394236,0.818102552316399,FALSE,3.41898005654191
"CAN","cpi",0.1,1966,3,1966,NA,0,2.25767315783907,2.36448032724232,3.72486065470629,3.82010987863709,FALSE,3.12987456376763
"CAN","cpi",0.1,1966,3,1966,NA,0.5,4.98607426248576,5.3292228633577,3.72486065470629,3.99123398895563,FALSE,3.14584550704854
"CAN","cpi",0.1,1966,3,1965,NA,1,2.27874061865571,2.71502419229683,3.72486065470629,3.20722068745854,FALSE,2.6803646012177
"CAN","cpi",0.1,1966,3,1965,NA,1.5,1.31102162696267,1.74730520060379,3.72486065470629,1.60663824631958,FALSE,4.83085124942446
"CAN","cpi",0.1,1967,3,1967,NA,0,2.59807048331119,2.68954737834781,3.49360316391996,3.76768849328632,FALSE,1.8782675296414
"CAN","cpi",0.1,1967,3,1967,NA,0.5,4.13966208569194,4.37207776133531,3.49360316391996,2.4074547441976,FALSE,1.66810216847
"CAN","cpi",0.1,1967,3,1966,NA,1,2.25767975655983,2.83863291768133,3.49360316391996,3.18103323070284,FALSE,2.03644259720735
"CAN","cpi",0.1,1967,3,1966,NA,1.5,3.9424495260919,5.04853028538755,3.49360316391996,4.65128160487248,FALSE,2.10351711967774
"CAN","cpi",0.1,1968,3,1968,NA,0,2.68032489752787,2.77296903865211,3.95128347779386,4.17287945672396,FALSE,2.71112067255034
"CAN","cpi",0.1,1968,3,1968,NA,0.5,5.50498820973488,5.85839003203729,3.95128347779386,4.07097205779852,FALSE,3.80607900439357
"CAN","cpi",0.1,1968,3,1967,NA,1,4.71089558672409,5.49732956232452,3.95128347779386,5.84521682123848,FALSE,2.47446088433428
"CAN","cpi",0.1,1968,3,1967,NA,1.5,2.05213627811527,2.83857025371569,3.95128347779386,2.25565858240226,FALSE,3.25913002910747
"CAN","cpi",0.1,1969,3,1969,NA,0,2.87367035916673,2.98203495608226,4.42679496126681,4.46896837073893,FALSE,3.31894238621454
"CAN","cpi",0.1,1969,3,1969,NA,0.5,4.75411399443293,5.07949123455123,4.42679496126681,2.96612019395715,FALSE,1.05275286937634
"CAN","cpi",0.1,1969,3,1968,NA,1,5.23229553322459,6.33539313699658,4.42679496126681,6.72487630040807,FALSE,2.89309887478926
"CAN","cpi",0.1,1969,3,1968,NA,1.5,4.26683362247329,5.5386599920258,4.42679496126681,4.31664452944541,TRUE,1.27182636955252
"CAN","cpi",0.1,1970,3,1970,NA,0,2.66268222002857,2.74901183577663,3.28128405769805,3.52697515579364,FALSE,1.26915677557343
"CAN","cpi",0.1,1970,3,1970,NA,0.5,6.45784625217474,6.86526208578903,3.28128405769805,4.65371085276917,FALSE,7.46644293245139
"CAN","cpi",0.1,1970,3,1969,NA,1,3.31390900338412,4.12082612807219,3.28128405769805,4.52747875087707,FALSE,0.879417003990453
"CAN","cpi",0.1,1970,3,1969,NA,1.5,2.32101432268144,3.26315851797639,3.28128405769805,2.07973847283129,FALSE,0.982423172454186
"CAN","cpi",0.1,1971,3,1971,NA,0,2.11632483160268,2.20577126399707,2.64123406634756,2.8393232579169,FALSE,1.05714154872882
"CAN","cpi",0.1,1971,3,1971,NA,0.5,3.68881505284025,3.93988232682118,2.64123406634756,2.06692165705507,FALSE,2.57902502174246
"CAN","cpi",0.1,1971,3,1970,NA,1,2.10046870599775,2.53173112064647,2.64123406634756,2.64105994583495,FALSE,0.674602293984479
"CAN","cpi",0.1,1971,3,1970,NA,1.5,5.1809564962518,6.36668122402562,2.64123406634756,4.63977638900468,FALSE,6.82955234978324
"CAN","cpi",0.1,1972,3,1972,NA,0,2.74163173813812,2.83225958891629,4.83230569625923,5.03048103188219,FALSE,4.53517475598471
"CAN","cpi",0.1,1972,3,1972,NA,0.5,6.07226119356105,6.56626094720685,4.83230569625923,5.06705904355972,FALSE,3.2494564143165
"CAN","cpi",0.1,1972,3,1971,NA,1,5.22881383116658,6.13579103987848,4.83230569625923,5.9169160270675,FALSE,1.78810639739491
"CAN","cpi",0.1,1972,3,1971,NA,1.5,3.64661004536107,4.55358725407297,4.83230569625923,3.09276495441271,FALSE,1.52635152468136
"CAN","cpi",0.1,1973,3,1973,NA,0,3.96661358391916,4.11314998935476,7.12388603531779,6.99264756193144,FALSE,6.83706095202011
"CAN","cpi",0.1,1973,3,1973,NA,0.5,7.22560456161697,7.74068638005104,7.12388603531779,5.47469896411854,FALSE,0.741122987987795
"CAN","cpi",0.1,1973,3,1972,NA,1,5.68021088101859,6.87195397939656,7.12388603531779,6.69062283747837,FALSE,1.75159211153626
"CAN","cpi",0.1,1973,3,1972,NA,1.5,5.69842198535225,7.06921322566527,7.12388603531779,4.73174243586486,FALSE,1.49228637287417
"CAN","cpi",0.1,1974,3,1974,NA,0,5.51286896027657,5.72657968095679,10.2717243737774,9.94431520564033,FALSE,10.3140322602816
"CAN","cpi",0.1,1974,3,1974,NA,0.5,10.7511022231425,11.4579470500252,10.2717243737774,8.3378654175141,FALSE,1.77212893658287
"CAN","cpi",0.1,1974,3,1973,NA,1,5.79510591419921,6.99834499841106,10.2717243737774,7.16712422635118,FALSE,8.47741547391487
"CAN","cpi",0.1,1974,3,1973,NA,1.5,5.29393314600318,6.63259955930742,10.2717243737774,4.05174749178054,FALSE,9.4256104454598
"CAN","cpi",0.1,1975,3,1975,NA,0,6.22503661048525,6.48414968809904,10.0232981493341,10.0931823619779,FALSE,8.12388743591398
"CAN","cpi",0.1,1975,3,1975,NA,0.5,12.545082573772,13.3470867566896,10.0232981493341,8.98267476097328,FALSE,6.40596957055733
"CAN","cpi",0.1,1975,3,1974,NA,1,4.96957422884657,6.05787112951026,10.0232981493341,7.7837982223054,FALSE,9.90035694471672
"CAN","cpi",0.1,1975,3,1974,NA,1.5,6.47753903902553,7.56583593968922,10.0232981493341,5.75931605308519,FALSE,6.54932403320791
"CAN","cpi",0.1,1976,3,1976,NA,0,5.13696507441532,5.38849855040767,7.22784311401172,7.07277954951717,FALSE,4.3389658395569
"CAN","cpi",0.1,1976,3,1976,NA,0.5,11.8596521784935,12.3296250211641,7.22784311401172,8.59089060438327,FALSE,10.7628818748523
"CAN","cpi",0.1,1976,3,1975,NA,1,6.38903650304086,7.15188899871942,7.22784311401172,10.4141477685142,FALSE,0.931639418550326
"CAN","cpi",0.1,1976,3,1975,NA,1.5,5.6184360068987,7.26461496367856,7.22784311401172,6.43051086134862,TRUE,1.64617895677986
"CAN","cpi",0.1,1977,3,1977,NA,0,4.61366282881784,4.79832401852126,7.58101410153764,7.55301151664772,FALSE,6.36841692973983
"CAN","cpi",0.1,1977,3,1977,NA,0.5,10.2772760247944,10.9898873872417,7.58101410153764,7.98165850021887,FALSE,6.70430452524002
"CAN","cpi",0.1,1977,3,1976,NA,1,1.18454870119068,2.05499262192569,7.58101410153764,3.72134649143602,FALSE,13.150491653206
"CAN","cpi",0.1,1977,3,1976,NA,1.5,7.91753065800837,9.86772892690596,7.58101410153764,8.00272044475614,FALSE,2.69801283883254
"CAN","cpi",0.1,1978,3,1978,NA,0,5.08919155403484,5.30582689302559,8.50208927062595,8.67127840358843,FALSE,7.3194406225471
"CAN","cpi",0.1,1978,3,1978,NA,0.5,10.7471218606554,11.4421811262039,8.50208927062595,8.3788273181893,FALSE,5.68402057672506
"CAN","cpi",0.1,1978,3,1977,NA,1,4.84569530088589,6.01876426188153,8.50208927062595,7.54783828416051,FALSE,6.69156898042768
"CAN","cpi",0.1,1978,3,1977,NA,1.5,9.95747441303704,12.0051995950315,8.50208927062595,9.72562756342223,FALSE,5.28191438735244
"CAN","cpi",0.1,1979,3,1979,NA,0,5.28165495730625,5.50984644162586,8.65147652410481,8.56376390232469,FALSE,7.20959166760616
"CAN","cpi",0.1,1979,3,1979,NA,0.5,10.9989345722411,11.6620412742568,8.65147652410481,8.29599284966764,FALSE,5.87968014231861
"CAN","cpi",0.1,1979,3,1978,NA,1,5.70784324173821,6.76372415095402,8.65147652410481,9.20311500508918,FALSE,5.25088618288423
"CAN","cpi",0.1,1979,3,1978,NA,1.5,8.7379613677161,10.467050885366,8.65147652410481,8.55646910152924,FALSE,1.9212780590083
"CAN","cpi",0.1,1980,3,1980,NA,0,5.61512505288397,5.88052727194262,9.5171912664748,9.50406722106931,FALSE,8.34687776246348
"CAN","cpi",0.1,1980,3,1980,NA,0.5,11.2626791019609,11.8833158254071,9.5171912664748,8.57798914335092,FALSE,4.49949858008193
"CAN","cpi",0.1,1980,3,1979,NA,1,4.30896424059341,5.57487437937884,9.5171912664748,8.17875203710815,FALSE,10.026614332332
"CAN","cpi",0.1,1980,3,1979,NA,1.5,8.75091518829732,10.1016128856973,9.5171912664748,8.39204766062112,TRUE,1.35069769739997
"CAN","cpi",0.1,1981,3,1981,NA,0,6.57342778019721,6.86915077099036,11.5813425032741,11.7113878984199,FALSE,10.767260173646
"CAN","cpi",0.1,1981,3,1981,NA,0.5,14.745457402522,15.4957305690919,11.5813425032741,12.2156196752767,FALSE,7.78163960934291
"CAN","cpi",0.1,1981,3,1980,NA,1,6.33249913442891,7.7769966734011,11.5813425032741,11.0496853423024,FALSE,9.89859938313449
"CAN","cpi",0.1,1981,3,1980,NA,1.5,8.30854215397828,9.84182586046762,11.5813425032741,8.33809792174894,FALSE,5.39887624605938
"CAN","cpi",0.1,1982,3,1982,NA,0,6.61906453102982,6.94452007373714,10.1124203763629,10.2566668151097,FALSE,7.36523399298689
"CAN","cpi",0.1,1982,3,1982,NA,0.5,13.5262394821769,14.2639040037483,10.1124203763629,10.1085355973545,FALSE,8.3239292011579
"CAN","cpi",0.1,1982,3,1981,NA,1,5.01455892386644,6.89980019689382,10.1124203763629,11.770988683124,FALSE,9.02439722740321
"CAN","cpi",0.1,1982,3,1981,NA,1.5,12.3604592816694,14.6719320811393,10.1124203763629,12.8701250351281,FALSE,7.30711481126201
"CAN","cpi",0.1,1983,3,1983,NA,0,4.79694945759951,5.003946726136,5.67091787896303,5.7310121416489,FALSE,1.6891553859299
"CAN","cpi",0.1,1983,3,1983,NA,0.5,8.30792377557259,8.92106278958412,5.67091787896303,4.91343016009654,FALSE,6.47315211758833
"CAN","cpi",0.1,1983,3,1982,NA,1,4.17563040338621,5.65300496495294,5.67091787896303,9.18500149866057,FALSE,1.51718103714471
"CAN","cpi",0.1,1983,3,1982,NA,1.5,9.4850707685381,11.2074941126431,5.67091787896303,9.68672301569366,FALSE,10.1983186542718
"CAN","cpi",0.1,1984,3,1984,NA,0,NA,NA,4.19799576814029,NA,NA,NA
"CAN","cpi",0.1,1984,3,1984,NA,0.5,7.40315931528477,7.91113376197695,4.19799576814029,5.85770686024457,FALSE,7.63056010701324
"CAN","cpi",0.1,1984,3,1983,NA,1,3.21460459994648,4.07307438785802,4.19799576814029,5.76553357996429,FALSE,1.13607285520548
"CAN","cpi",0.1,1984,3,1983,NA,1.5,2.91207167946926,3.81442790319502,4.19799576814029,2.9197996794717,FALSE,1.75472925693747
"CAN","cpi",0.1,1985,3,1985,NA,0,2.67224182201896,2.79423693696728,3.86444262005169,3.85417990135378,FALSE,2.50022996624701
"CAN","cpi",0.1,1985,3,1985,NA,0.5,5.49229948564702,5.8736653936334,3.86444262005169,4.21990042382899,FALSE,3.99882560930933
"CAN","cpi",0.1,1985,3,1984,NA,1,NA,NA,3.86444262005169,NA,NA,NA
"CAN","cpi",0.1,1985,3,1984,NA,1.5,9.11204005189618,10.3395758557633,3.86444262005169,8.62999660305356,FALSE,12.8888634301882
"CAN","cpi",0.1,1986,3,1986,NA,0,2.66854673366359,2.78102379617928,4.08685396749431,4.03771389199993,FALSE,3.01432188766021
"CAN","cpi",0.1,1986,3,1986,NA,0.5,5.43614407624152,5.78431020322438,4.08685396749431,4.38219332503529,FALSE,3.34658859086555
"CAN","cpi",0.1,1986,3,1985,NA,1,1.67945610243768,2.38189703804565,4.08685396749431,3.37849976080849,FALSE,4.49123411216055
"CAN","cpi",0.1,1986,3,1985,NA,1.5,5.20377165513708,5.96164372944943,4.08685396749431,4.95309858900956,FALSE,3.23991138018517
"CAN","cpi",0.1,1987,3,1987,NA,0,NA,NA,4.23980729277887,NA,NA,NA
"CAN","cpi",0.1,1987,3,1987,NA,0.5,5.25862680670831,5.55648256034199,4.23980729277887,4.13342161080085,FALSE,2.56189911792133
"CAN","cpi",0.1,1987,3,1986,NA,1,2.1359214782145,2.81730568269432,4.23980729277887,3.66140988164798,FALSE,3.8424988935566
"CAN","cpi",0.1,1987,3,1986,NA,1.5,5.1046125301334,5.78599673461322,4.23980729277887,4.80242768143514,FALSE,2.60317362082322
"CAN","cpi",0.1,1988,3,1988,NA,0,2.76216495605834,2.86907546178436,3.92899537638065,3.9438316199536,FALSE,2.46228809371779
"CAN","cpi",0.1,1988,3,1988,NA,0.5,4.61462573174008,4.93943674976931,3.92899537638065,3.35419215340812,FALSE,1.84843402993907
"CAN","cpi",0.1,1988,3,1987,NA,1,NA,NA,3.92899537638065,NA,NA,NA
"CAN","cpi",0.1,1988,3,1987,NA,1.5,4.22126295027799,4.73433318643481,3.92899537638065,3.89461929526446,FALSE,1.16255373370645
"CAN","cpi",0.1,1989,3,1989,NA,0,3.0294685310745,3.14360514496505,4.82821664544208,4.95130318392835,FALSE,3.85771772606171
"CAN","cpi",0.1,1989,3,1989,NA,0.5,5.28414337093469,5.52043208808617,4.82821664544208,4.23024942747073,FALSE,1.24945921824618
"CAN","cpi",0.1,1989,3,1988,NA,1,2.73898678460779,3.2687075446192,4.82821664544208,4.05841794603162,FALSE,3.9952965396178
"CAN","cpi",0.1,1989,3,1988,NA,1.5,2.89985710527832,3.42957786528972,4.82821664544208,2.597843559383,FALSE,3.63780693812775
"CAN","cpi",0.1,1990,3,1990,NA,0,3.09935743522169,3.23013340076016,4.64347549432717,4.4746950192663,FALSE,3.27153617346516
"CAN","cpi",0.1,1990,3,1990,NA,0.5,6.18644746492636,6.57187016265708,4.64347549432717,4.96487168902479,FALSE,3.81424929906225
"CAN","cpi",0.1,1990,3,1989,NA,1,3.91216669938046,4.62755494552558,4.64347549432717,5.43871373969076,FALSE,0.750767243481991
"CAN","cpi",0.1,1990,3,1989,NA,1.5,3.73157750226033,4.44696574840545,4.64347549432717,3.3732540002381,FALSE,1.15207657041561
"CAN","cpi",0.1,1991,3,1991,NA,0,3.44590326869011,3.58692196677088,5.4258100696218,5.61053369942382,FALSE,4.22743670441614
"CAN","cpi",0.1,1991,3,1991,NA,0.5,8.45716774416255,8.75271818922717,5.4258100696218,7.82199295477594,FALSE,7.03190083293296
"CAN","cpi",0.1,1991,3,1990,NA,1,2.36418665534027,2.97828343078684,5.4258100696218,3.66716818384097,FALSE,6.05304486174648
"CAN","cpi",0.1,1991,3,1990,NA,1.5,5.22518773927323,5.8392845147198,5.4258100696218,4.82481948664164,TRUE,0.614096775446567
"CAN","cpi",0.1,1992,3,1992,NA,0,NA,NA,1.47496888572843,NA,NA,NA
"CAN","cpi",0.1,1992,3,1992,NA,0.5,NA,NA,1.47496888572843,NA,NA,NA
"CAN","cpi",0.1,1992,3,1991,NA,1,1.68216851512174,2.3069660653707,1.47496888572843,2.76780571233213,FALSE,1.08524117112297
"CAN","cpi",0.1,1992,3,1991,NA,1.5,7.49931482123976,8.34599918218913,1.47496888572843,7.14938182660169,FALSE,14.2341197731968
"CAN","cpi",0.1,1993,3,1993,NA,0,NA,NA,NA,NA,NA,NA
"CAN","cpi",0.1,1993,3,1993,NA,0.5,NA,NA,NA,NA,NA,NA
"CAN","cpi",0.1,1993,3,1992,NA,1,NA,NA,NA,NA,NA,NA
"CAN","cpi",0.1,1993,3,1992,NA,1.5,NA,NA,NA,NA,NA,NA
"CAN","cpi",0.1,1994,3,1994,NA,0,NA,NA,NA,NA,NA,NA
"CAN","cpi",0.1,1994,3,1994,NA,0.5,NA,NA,NA,NA,NA,NA
"CAN","cpi",0.1,1994,3,1993,NA,1,NA,NA,NA,NA,NA,NA
"CAN","cpi",0.1,1994,3,1993,NA,1.5,NA,NA,NA,NA,NA,NA
"CAN","cpi",0.1,1995,3,1995,NA,0,NA,NA,2.11688403676572,NA,NA,NA
"CAN","cpi",0.1,1995,3,1995,NA,0.5,NA,NA,2.11688403676572,2.51937811073084,NA,NA
"CAN","cpi",0.1,1995,3,1994,NA,1,NA,NA,2.11688403676572,0.719396410821945,NA,NA
"CAN","cpi",0.1,1995,3,1994,NA,1.5,NA,NA,2.11688403676572,-1.04654603924828,NA,NA
"CAN","cpi",0.1,1996,3,1996,NA,0,1.3452094472751,1.39700986754855,1.55309584667184,1.42780748357026,FALSE,0.398658151658551
"CAN","cpi",0.1,1996,3,1996,NA,0.5,NA,NA,1.55309584667184,NA,NA,NA
"CAN","cpi",0.1,1996,3,1995,NA,1,NA,NA,1.55309584667184,NA,NA,NA
"CAN","cpi",0.1,1996,3,1995,NA,1.5,3.34496021053557,3.65288838222184,1.55309584667184,2.92232271175447,FALSE,4.28984898027232
"CAN","cpi",0.1,1997,3,1997,NA,0,1.3164229640281,1.36846466515727,1.60528783555959,1.73535847807117,FALSE,0.578315413134321
"CAN","cpi",0.1,1997,3,1997,NA,0.5,2.72656684384743,2.87879902749898,1.60528783555959,2.11078363597796,FALSE,2.64396331318008
"CAN","cpi",0.1,1997,3,1996,NA,1,0.7600344373121,1.05359590326735,1.60528783555959,0.984961337307556,FALSE,1.51954353771578
"CAN","cpi",0.1,1997,3,1996,NA,1.5,NA,NA,1.60528783555959,NA,NA,NA
"CAN","cpi",0.1,1998,3,1998,NA,0,1.08606309588302,1.11685339538507,0.988908029337191,1.0350847138471,FALSE,0.246690447381674
"CAN","cpi",0.1,1998,3,1998,NA,0.5,2.33546335880653,2.50029953292376,0.988908029337191,1.68533655437107,FALSE,3.15718135071576
"CAN","cpi",0.1,1998,3,1997,NA,1,1.88619426779114,2.20764985262094,0.988908029337191,2.25159584334757,FALSE,2.31542500361635
"CAN","cpi",0.1,1998,3,1997,NA,1.5,2.67862336199016,3.00007894681997,0.988908029337191,2.38987816876076,FALSE,4.07637854628085
"CAN","cpi",0.1,1999,3,1999,NA,0,1.1770488316914,1.21687743691868,1.7107350135213,1.77618438459462,FALSE,1.13728988656643
"CAN","cpi",0.1,1999,3,1999,NA,0.5,1.57757190690305,1.74439081231513,1.7107350135213,1.0290924799153,TRUE,0.166818905412081
"CAN","cpi",0.1,1999,3,1998,NA,1,1.56420920652659,1.83910566908534,1.7107350135213,1.85177544064205,TRUE,0.274896462558749
"CAN","cpi",0.1,1999,3,1998,NA,1.5,3.05877799377507,3.3367942732518,1.7107350135213,2.94645730787123,FALSE,3.27366734670734
"CAN","cpi",0.1,2000,3,2000,NA,0,1.69073046539179,1.74283249187387,2.6718361971244,2.7102541785615,FALSE,2.11655470481659
"CAN","cpi",0.1,2000,3,2000,NA,0.5,2.81439529956447,3.01957663149839,2.6718361971244,2.34405201403356,FALSE,0.521979337356296
"CAN","cpi",0.1,2000,3,1999,NA,1,2.49460070529753,2.84102465463308,2.6718361971244,3.07542936781209,TRUE,0.346423949335557
"CAN","cpi",0.1,2000,3,1999,NA,1.5,2.49716471497232,2.84358866430788,2.6718361971244,2.27809035801724,TRUE,0.346423949335557
"CAN","cpi",0.1,2001,3,2001,NA,0,1.98739413363697,2.0441956447708,2.47906219852806,2.77546584984351,FALSE,1.02317163059442
"CAN","cpi",0.1,2001,3,2001,NA,0.5,3.11010140009411,3.38221815290312,2.47906219852806,2.43566755503104,FALSE,1.67442608962246
"CAN","cpi",0.1,2001,3,2000,NA,1,2.87610007615666,3.37540119181983,2.47906219852806,3.68958695319843,FALSE,1.38160751039339
"CAN","cpi",0.1,2001,3,2000,NA,1.5,3.29142742836408,3.79072854402725,2.47906219852806,3.01270789712173,FALSE,2.30455718196543
"CAN","cpi",0.1,2002,3,2002,NA,0,1.74792509669127,1.80403303098046,2.20880570551249,2.27196234986351,FALSE,0.95560276658258
"CAN","cpi",0.1,2002,3,2002,NA,0.5,2.39422862313135,2.63284779205478,2.20880570551249,1.58345411989126,FALSE,0.650670096965355
"CAN","cpi",0.1,2002,3,2001,NA,1,1.74843935262367,2.09314485245523,2.20880570551249,2.26510423845898,FALSE,0.601729617736574
"CAN","cpi",0.1,2002,3,2001,NA,1.5,3.24450712057296,3.64678244247991,2.20880570551249,3.02058043279009,FALSE,2.70383402204133
"CAN","cpi",0.1,2003,3,2003,NA,0,1.82519983792954,1.87295123222476,2.71189071546809,2.71326702620668,FALSE,1.91206135705818
"CAN","cpi",0.1,2003,3,2003,NA,0.5,4.56918652650705,4.81514461437395,2.71189071546809,4.51432649273496,FALSE,4.37328211239793
"CAN","cpi",0.1,2003,3,2002,NA,1,3.02312151473714,3.40025910578325,2.71189071546809,3.85618281746238,FALSE,1.06876158942177
"CAN","cpi",0.1,2003,3,2002,NA,1.5,2.59543618538126,2.97257377642737,2.71189071546809,2.39402389849184,TRUE,0.377137591046111
"CAN","cpi",0.1,2004,3,2004,NA,0,1.65717166030364,1.69845696061832,1.83151661303942,1.77466852383015,FALSE,0.336973416806026
"CAN","cpi",0.1,2004,3,2004,NA,0.5,2.37409192511703,2.63698693517881,1.83151661303942,1.55260435151936,FALSE,1.4686179257898
"CAN","cpi",0.1,2004,3,2003,NA,1,1.38900491322996,1.70814435527573,1.83151661303942,1.79415792598285,FALSE,0.593300014853972
"CAN","cpi",0.1,2004,3,2003,NA,1.5,4.27644186353131,4.69075107466979,1.83151661303942,4.26699272545716,FALSE,5.84747643445379
"CAN","cpi",0.1,2005,3,2005,NA,0,1.61472662853673,1.6588787264609,2.18071628336509,2.34345353472953,FALSE,1.20379111326682
"CAN","cpi",0.1,2005,3,2005,NA,0.5,2.09241370192749,2.27901408385207,2.18071628336509,1.50321338317329,TRUE,0.186600381924579
"CAN","cpi",0.1,2005,3,2004,NA,1,1.35565504054759,1.59659025316151,2.18071628336509,1.64043962712234,FALSE,1.53899305751076
"CAN","cpi",0.1,2005,3,2004,NA,1.5,2.27476348014431,2.54475315363148,2.18071628336509,2.03393284113233,FALSE,0.478983444107657
"CAN","cpi",0.1,2006,3,2006,NA,0,1.6202721991988,1.66460751916171,1.97519342012289,2.09514376892657,FALSE,0.734526210987739
"CAN","cpi",0.1,2006,3,2006,NA,0.5,2.64433608542759,2.87828891300675,1.97519342012289,2.09436263599022,FALSE,1.72093652825628
"CAN","cpi",0.1,2006,3,2005,NA,1,2.40894118383907,2.64316547399412,1.97519342012289,2.9582912060806,FALSE,1.19810820952434
"CAN","cpi",0.1,2006,3,2005,NA,1.5,1.99674208111541,2.30057927658339,1.97519342012289,1.64885961980806,FALSE,0.3517231087847
"CAN","cpi",0.1,2007,3,2007,NA,0,1.55752264796609,1.59874087572014,2.10062087284572,2.10683622102307,FALSE,1.15650711025535
"CAN","cpi",0.1,2007,3,2007,NA,0.5,2.61483354580556,2.80647342293626,2.10062087284572,2.17629902083353,FALSE,1.33433470593034
"CAN","cpi",0.1,2007,3,2006,NA,1,1.26979570142157,1.46143557855226,2.10062087284572,1.50861692709856,FALSE,1.61205164222728
"CAN","cpi",0.1,2007,3,2006,NA,1.5,2.33491965914019,2.62519811362479,2.10062087284572,2.15918616350405,FALSE,0.810942424027859
"CAN","cpi",0.1,2008,3,2008,NA,0,1.85646065305158,1.91366793580931,2.31447335265955,2.87079455148828,FALSE,0.947885986869385
"CAN","cpi",0.1,2008,3,2008,NA,0.5,1.96962022991413,2.18272457701728,2.31447335265955,1.31005314695267,FALSE,0.505879404085971
"CAN","cpi",0.1,2008,3,2007,NA,1,1.30328557805221,1.53336928049336,2.31447335265955,1.47031049982668,FALSE,1.96587052947714
"CAN","cpi",0.1,2008,3,2007,NA,1.5,2.60978350058472,2.89584178394072,2.31447335265955,2.46453195342394,FALSE,0.942303056523042
"CAN","cpi",0.1,2009,3,2009,NA,0,1.00114450937529,1.02942404836856,0.284533874408197,0.187122346349721,FALSE,1.62074761669791
"CAN","cpi",0.1,2009,3,2009,NA,0.5,1.00991267618577,1.24538690738331,0.284533874408197,-0.0727492620466167,FALSE,1.84742712403659
"CAN","cpi",0.1,2009,3,2008,NA,1,3.13282184489439,3.36829607609193,0.284533874408197,3.81780026356951,FALSE,6.5650030545002
"CAN","cpi",0.1,2009,3,2008,NA,1.5,1.98378126211234,2.21925549330989,0.284533874408197,1.68675152630419,FALSE,4.01157953720676
"CAN","cpi",0.1,2010,3,2010,NA,0,0.930393594966652,0.959821302538602,1.75525687020327,1.6089956646354,FALSE,1.79706230238233
"CAN","cpi",0.1,2010,3,2010,NA,0.5,1.98370849205268,2.05292509406002,1.75525687020327,1.91109502526183,FALSE,0.576886872783811
"CAN","cpi",0.1,2010,3,2009,NA,1,1.06387139228652,1.15023174704027,1.75525687020327,0.992295788494754,FALSE,1.43086062844931
"CAN","cpi",0.1,2010,3,2009,NA,1.5,1.15845058007308,1.24481093482683,1.75525687020327,0.885103052815867,FALSE,1.22068465559028
"CAN","cpi",0.1,2011,3,2011,NA,0,1.77146833628673,1.83034592418106,2.85717434028225,2.86665414062098,FALSE,2.34071851256363
"CAN","cpi",0.1,2011,3,2011,NA,0.5,2.9126233924857,3.12916370200978,2.85717434028225,2.76583381894771,FALSE,0.33976042553175
"CAN","cpi",0.1,2011,3,2010,NA,1,1.37132437297042,1.5878646824945,2.85717434028225,1.39294644169719,FALSE,3.03722843794129
"CAN","cpi",0.1,2011,3,2010,NA,1.5,1.94019125893513,2.17457890769302,2.85717434028225,1.64253060592363,FALSE,1.75126638784506
"CAN","cpi",0.1,2012,3,2012,NA,0,1.62576392449291,1.68365746858851,1.50118536134935,1.52822510849394,FALSE,0.334734795525741
"CAN","cpi",0.1,2012,3,2012,NA,0.5,2.51508545067502,2.82438575108099,1.50118536134935,1.92429021972789,FALSE,2.56241161001858
"CAN","cpi",0.1,2012,3,2011,NA,1,1.90737310430037,2.22524923730143,1.50118536134935,1.99945242447079,FALSE,1.22051556178111
"CAN","cpi",0.1,2012,3,2011,NA,1.5,2.76748340755721,3.12529171239793,1.50118536134935,2.48150957397962,FALSE,3.17180396308042
"CAN","cpi",0.1,2013,3,2013,NA,0,1.09404191328722,1.12508743953411,0.931270594714462,1.05630513423211,FALSE,0.392759567519688
"CAN","cpi",0.1,2013,3,2013,NA,0.5,1.63697436562726,1.83624791248782,0.931270594714462,1.16963454554932,FALSE,1.76750414888899
"CAN","cpi",0.1,2013,3,2012,NA,1,1.15225533716511,1.35152888402567,0.931270594714462,1.08868089128742,FALSE,0.690350752306449
"CAN","cpi",0.1,2013,3,2012,NA,1.5,2.35499807830523,2.58046749047611,0.931270594714462,2.14573179530527,FALSE,3.38930826459481
"CAN","cpi",0.1,2014,3,2014,NA,0,1.24749429937579,1.28379594171246,1.87639912240215,1.99862849145116,FALSE,1.35319759942487
"CAN","cpi",0.1,2014,3,2014,NA,0.5,1.92076886433937,2.07638364828,1.87639912240215,1.79231976082687,FALSE,0.254214210467788
"CAN","cpi",0.1,2014,3,2013,NA,1,1.34849299005917,1.5041077739998,1.87639912240215,1.40664989819898,FALSE,0.982928891501415
"CAN","cpi",0.1,2014,3,2013,NA,1.5,1.71808783141465,1.92643695715401,1.87639912240215,1.51436121777893,TRUE,0.20834912573936
"CAN","cpi",0.1,2015,3,2015,NA,0,1.23627132523226,1.27687954080462,1.11090953952792,1.2103065042478,FALSE,0.319189961582016
"CAN","cpi",0.1,2015,3,2015,NA,0.5,1.18332440281187,1.39155578411948,1.11090953952792,0.458547315718059,FALSE,0.369153299716396
"CAN","cpi",0.1,2015,3,2014,NA,1,1.49660237302222,1.73752087213256,1.11090953952792,1.57054781428135,FALSE,1.09801368465324
"CAN","cpi",0.1,2015,3,2014,NA,1.5,2.16202525345923,2.4428226044643,1.11090953952792,1.88229109541157,FALSE,2.61661004863021
"CAN","cpi",0.1,2016,3,2016,NA,0,1.09168030093099,1.12426283471499,1.41168586698797,1.41630667471992,FALSE,0.671300383279492
"CAN","cpi",0.1,2016,3,2016,NA,0.5,1.51866982031393,1.67888465635987,1.41168586698797,1.17972158292925,FALSE,0.397956954548087
"CAN","cpi",0.1,2016,3,2015,NA,1,1.67959053386963,1.85786902509696,1.41168586698797,1.8638656605167,FALSE,0.773622195408812
"CAN","cpi",0.1,2016,3,2015,NA,1.5,1.39111924078451,1.56939773201184,1.41168586698797,1.07023002715086,TRUE,0.178278491227327
"CAN","cpi",0.1,2017,3,2017,NA,0,1.20956070159808,1.24407921492027,1.57888581671161,1.50492692646759,FALSE,0.778533183969611
"CAN","cpi",0.1,2017,3,2017,NA,0.5,2.20526530221505,2.37678869372385,1.57888581671161,2.09086618282141,FALSE,1.56347780373867
"CAN","cpi",0.1,2017,3,2016,NA,1,1.1559380968482,1.327461488357,1.57888581671161,1.14652050352824,FALSE,0.730244121185719
"CAN","cpi",0.1,2017,3,2016,NA,1.5,1.55118899245683,1.77461754470989,1.57888581671161,1.26788084523026,TRUE,0.223428552253062
"CAN","cpi",0.1,2018,3,2018,NA,0,1.56973110207667,1.61920481983841,2.23316270166586,2.41317537496083,FALSE,1.41382456626718
"CAN","cpi",0.1,2018,3,2018,NA,0.5,2.48594731099079,2.68536473421416,2.23316270166586,2.52809119314695,FALSE,0.761160999501002
"CAN","cpi",0.1,2018,3,2017,NA,1,1.20153210997413,1.4009495331975,2.23316270166586,1.16800101916097,FALSE,2.04878001981973
"CAN","cpi",0.1,2018,3,2017,NA,1.5,2.21980999002642,2.42400657904551,2.23316270166586,2.07298402260093,TRUE,0.2041965890191
"CAN","cpi",0.1,2019,3,2019,NA,0,NA,NA,1.91921619871868,NA,NA,NA
"CAN","cpi",0.1,2019,3,2019,NA,0.5,1.91100012948095,2.1374367679874,1.91921619871868,1.47328806303322,TRUE,0.226436638506448
"CAN","cpi",0.1,2019,3,2018,NA,1,2.00580802869108,2.28870226934887,1.91921619871868,2.23470281046333,FALSE,0.475320529485338
"CAN","cpi",0.1,2019,3,2018,NA,1.5,2.50100164666814,2.81992429529575,1.91921619871868,2.32030562567512,FALSE,1.6117791996264
"CAN","cpi",0.1,2020,3,2020,NA,0,1.07064816606042,1.1039289682645,0.71139989671781,0.673588636713597,FALSE,0.8316102896321
"CAN","cpi",0.1,2020,3,2020,NA,0.5,NA,NA,0.71139989671781,NA,NA,NA
"CAN","cpi",0.1,2020,3,2019,NA,1,NA,NA,0.71139989671781,NA,NA,NA
"CAN","cpi",0.1,2020,3,2019,NA,1.5,2.0063638503546,2.25523217619313,0.71139989671781,1.77705491937904,FALSE,3.12656600058695
"CAN","cpi",0.1,2021,3,2021,NA,0,1.61139542158119,1.66650555949603,3.31148121717802,3.2525646654712,FALSE,3.71061159943038
"CAN","cpi",0.1,2021,3,2021,NA,0.5,2.00185800176563,2.15910570013326,3.31148121717802,2.16773480502693,FALSE,2.71808218068932
"CAN","cpi",0.1,2021,3,2020,NA,1,1.50685556212415,1.66410326049178,3.31148121717802,1.61070774476322,FALSE,3.81808760211484
"CAN","cpi",0.1,2021,3,2020,NA,1.5,NA,NA,3.31148121717802,NA,NA,NA
"CAN","cpi",0.1,2022,3,2022,NA,0,3.47332114198252,3.58760917370278,6.50977236228281,6.58682891800883,FALSE,6.60798400634256
"CAN","cpi",0.1,2022,3,2022,NA,0.5,4.89912569098713,5.30144771801777,6.50977236228281,5.58900513180898,FALSE,3.08748790317518
"CAN","cpi",0.1,2022,3,2021,NA,1,2.87746606049752,3.27978808752817,6.50977236228281,3.35597076522593,FALSE,7.58006485981874
"CAN","cpi",0.1,2022,3,2021,NA,1.5,2.17789593713237,2.58021796416301,6.50977236228281,1.89458222166426,FALSE,9.13466513396353
"CAN","cpi",0.1,2023,3,2023,NA,0,3.49333008495983,3.61259701315359,3.78831288758619,3.96221561415741,FALSE,0.509746649155093
"CAN","cpi",0.1,2023,3,2023,NA,0.5,4.39620554180192,4.98317600926073,3.78831288758619,3.6121970566696,FALSE,1.93784303238265
"CAN","cpi",0.1,2023,3,2022,NA,1,4.52094670031895,5.27342468602964,3.78831288758619,5.4861852561408,FALSE,2.38055312511683
"CAN","cpi",0.1,2023,3,2022,NA,1.5,3.98078369172429,4.73326167743497,3.78831288758619,3.85557075258935,FALSE,1.18019088379534
"CAN","cpi",0.1,2024,3,2023,NA,1,3.96377345724877,4.33664331641666,NA,4.72280809903739,NA,NA
"CAN","cpi",0.1,2024,3,2023,NA,1.5,4.26584972601838,4.63871958518627,NA,4.36705509613113,NA,NA
"CAN","cpi",0.2,1952,3,1952,NA,0,-21.0122456712431,-13.88169809142,2.55562336095485,2.50792675283471,FALSE,48.2238512107603
"CAN","cpi",0.2,1952,3,1952,NA,0.5,-13.916903099574,-0.183442298290053,2.55562336095485,5.20333179389047,FALSE,20.5811249493961
"CAN","cpi",0.2,1952,3,1951,NA,1,-27.1278196017454,-13.3943588004615,2.55562336095485,8.18998200969936,FALSE,53.6084162048249
"CAN","cpi",0.2,1952,3,1951,NA,1.5,-0.233072578753827,19.6853402806308,2.55562336095485,7.55460015368862,TRUE,19.9184128593846
"CAN","cpi",0.2,1953,3,1953,NA,0,0.38971924263725,0.391860545286487,-1.01492775838436,-0.954275034924989,FALSE,3.51375880520327
"CAN","cpi",0.2,1953,3,1953,NA,0.5,-10.378408098983,-9.61421626473637,-1.01492775838436,-1.88711612688489,FALSE,22.2624131001266
"CAN","cpi",0.2,1953,3,1952,NA,1,-12.9014021143983,-12.1372102801516,-1.01492775838436,-0.873617238258229,FALSE,28.5698981386648
"CAN","cpi",0.2,1953,3,1952,NA,1.5,24.27368910067,34.8578889577775,-1.01492775838436,5.93557635631702,FALSE,73.8057420047434
"CAN","cpi",0.2,1954,3,1954,NA,0,0.993793856904073,0.74271147330167,0.644425455961438,0.879731201855888,FALSE,0.622338618754185
"CAN","cpi",0.2,1954,3,1954,NA,0.5,1.01518168654225,0.764099302939848,0.644425455961438,-0.358875738913824,FALSE,0.675808192849628
"CAN","cpi",0.2,1954,3,1953,NA,1,13.5504832918888,13.9090032889785,0.644425455961438,3.38326531029323,FALSE,32.623664586908
"CAN","cpi",0.2,1954,3,1953,NA,1.5,-2.41091071437328,-2.05239071728357,0.644425455961438,-1.28741438714058,FALSE,7.10056043020223
"CAN","cpi",0.2,1955,3,1955,NA,0,0.426865383604292,0.515776749540276,0.173649026558865,0.115254687233858,FALSE,0.721952258549552
"CAN","cpi",0.2,1955,3,1955,NA,0.5,-1.18837428316416,-1.08406443575293,0.173649026558865,-0.770970046821609,FALSE,3.24859350319072
"CAN","cpi",0.2,1955,3,1954,NA,1,7.46650251970721,8.88029930889152,0.173649026558865,3.47019599757395,FALSE,19.6459305220552
"CAN","cpi",0.2,1955,3,1954,NA,1.5,-8.32663962419319,-6.91284283500887,0.173649026558865,-1.89562740163941,FALSE,19.1300264431037
"CAN","cpi",0.2,1956,3,1956,NA,0,1.25942960731733,0.911703425270715,1.32752769429961,1.56059797998755,FALSE,0.691834490525619
"CAN","cpi",0.2,1956,3,1956,NA,0.5,-0.306429473652424,-0.654155655699036,1.32752769429961,-0.709146002056511,FALSE,4.60648219295
"CAN","cpi",0.2,1956,3,1955,NA,1,1.32832023311508,0.980594051068469,1.32752769429961,0.884549626974225,FALSE,0.521589273069918
"CAN","cpi",0.2,1956,3,1955,NA,1.5,-4.90354211734899,-5.2512682993956,1.32752769429961,-1.89150615642833,FALSE,16.0992638021914
"CAN","cpi",0.2,1957,3,1957,NA,0,1.86051171204164,2.21254816224653,3.24684755852518,3.4151370317006,FALSE,2.93778494090151
"CAN","cpi",0.2,1957,3,1957,NA,0.5,3.37760347560067,4.79187979262229,3.24684755852518,2.23982631608766,FALSE,1.74116610971035
"CAN","cpi",0.2,1957,3,1956,NA,1,8.86170242549351,10.6139155567832,3.24684755852518,6.98754636690555,FALSE,15.7893502987105
"CAN","cpi",0.2,1957,3,1956,NA,1.5,-5.42447328208353,-3.67226015079389,3.24684755852518,-1.88668623310337,FALSE,19.0499824045873
"CAN","cpi",0.2,1958,3,1958,NA,0,1.75892050303942,1.97761293785531,2.33186388641149,2.22387249143335,FALSE,1.10431980620635
"CAN","cpi",0.2,1958,3,1958,NA,0.5,3.71673900758639,4.94087353194683,2.33186388641149,2.22839060734872,FALSE,4.6863223272977
"CAN","cpi",0.2,1958,3,1957,NA,1,0.0097452933916975,3.02984400657898,2.33186388641149,4.42088197051908,TRUE,3.02009871318728
"CAN","cpi",0.2,1958,3,1957,NA,1.5,-1.9084072859907,1.11169142719658,2.33186388641149,0.91301479707402,FALSE,6.07052986122456
"CAN","cpi",0.2,1959,3,1959,NA,0,1.24797760676004,1.40914043500488,1.19382698397654,1.24991216431293,FALSE,0.296539385203592
"CAN","cpi",0.2,1959,3,1959,NA,0.5,1.72085838303953,2.1326864846447,1.19382698397654,0.437839731590327,FALSE,1.72940659926264
"CAN","cpi",0.2,1959,3,1958,NA,1,-1.14064962059544,0.378191752961329,1.19382698397654,1.75862762885946,FALSE,3.5579294510948
"CAN","cpi",0.2,1959,3,1958,NA,1.5,0.797357281253024,2.99280419176436,1.19382698397654,1.77407172713766,TRUE,2.19544691051133
"CAN","cpi",0.2,1960,3,1960,NA,0,0.931114114111483,1.03944137895336,1.34209404870695,1.02361304259477,FALSE,0.864958939225856
"CAN","cpi",0.2,1960,3,1960,NA,0.5,1.61723527688194,1.89701243939553,1.34209404870695,0.53898348018166,FALSE,0.967630232951056
"CAN","cpi",0.2,1960,3,1959,NA,1,2.91978277693098,3.74712249472806,1.34209404870695,3.95759373689442,FALSE,4.77156153835714
"CAN","cpi",0.2,1960,3,1959,NA,1.5,-1.749569568685,-0.922229850887922,1.34209404870695,-0.873476815404885,FALSE,6.48814946678427
"CAN","cpi",0.2,1961,3,1961,NA,0,0.981609789621161,1.1351359391015,1.00921348094007,1.00921348094007,TRUE,0.153526149480339
"CAN","cpi",0.2,1961,3,1961,NA,0.5,2.11488990732465,2.41004742668154,1.00921348094007,1.00921348094007,FALSE,3.05934858531834
"CAN","cpi",0.2,1961,3,1960,NA,1,-0.895275748876802,-0.600118229519916,1.00921348094007,0.0537704626035329,FALSE,4.31848679550685
"CAN","cpi",0.2,1961,3,1960,NA,1.5,-1.42206586609408,-1.1269083467372,1.00921348094007,-0.862181798940035,FALSE,5.63546208855006
"CAN","cpi",0.2,1962,3,1962,NA,0,0.953403018917751,1.07927167491057,1.04957947883042,1.10232402731478,TRUE,0.125868655992816
"CAN","cpi",0.2,1962,3,1962,NA,0.5,0.887761687921999,1.12835825380191,1.04957947883042,0,TRUE,0.24059656587991
"CAN","cpi",0.2,1962,3,1961,NA,1,-0.40746984656023,-0.0526040165781407,1.04957947883042,0,FALSE,3.11032456850348
"CAN","cpi",0.2,1962,3,1961,NA,1.5,-0.184792297352514,0.170073532629575,1.04957947883042,0,FALSE,2.55363069548419
"CAN","cpi",0.2,1963,3,1963,NA,0,1.26280752812368,1.41971391737409,1.60677118395228,1.91491729531202,FALSE,0.624549555695889
"CAN","cpi",0.2,1963,3,1963,NA,0.5,1.7298518597246,2.01628104035931,1.60677118395228,0.836828714617504,FALSE,0.594130870065497
"CAN","cpi",0.2,1963,3,1962,NA,1,1.79976030664236,2.39546132442865,1.60677118395228,2.56411490415144,FALSE,1.07817382451149
"CAN","cpi",0.2,1963,3,1962,NA,1.5,-0.278019769132187,0.317681248654104,1.60677118395228,0,FALSE,3.81842585603174
"CAN","cpi",0.2,1964,3,1964,NA,0,1.3960271733866,1.55262651667375,1.88764670034376,1.98877256446048,FALSE,0.994149802462167
"CAN","cpi",0.2,1964,3,1964,NA,0.5,2.39616156276595,2.76496985279688,1.88764670034376,1.38369006227607,FALSE,1.6400954460864
"CAN","cpi",0.2,1964,3,1963,NA,1,3.79140336109519,4.49498844840527,1.88764670034376,5.39044290347256,FALSE,5.46297673918866
"CAN","cpi",0.2,1964,3,1963,NA,1.5,-0.381449621070549,0.322135466239529,1.88764670034376,0,FALSE,4.61736317257066
"CAN","cpi",0.2,1965,3,1965,NA,0,1.5817594319652,1.74800728973876,2.29538304394236,2.34557047418999,FALSE,1.53468724328255
"CAN","cpi",0.2,1965,3,1965,NA,0.5,2.63873697114241,3.04946650848925,2.29538304394236,1.61079447956654,FALSE,1.26911435534698
"CAN","cpi",0.2,1965,3,1964,NA,1,1.38857760556991,2.1101482908869,2.29538304394236,2.42518862179847,FALSE,1.18465756795563
"CAN","cpi",0.2,1965,3,1964,NA,1.5,0.405178019416122,1.12674870473311,2.29538304394236,0.818102552316399,FALSE,3.6431565333401
"CAN","cpi",0.2,1966,3,1966,NA,0,2.2336746608543,2.40237880696592,3.72486065470629,3.82010987863709,FALSE,3.47490876546254
"CAN","cpi",0.2,1966,3,1966,NA,0.5,4.86710117718868,5.46061119477127,3.72486065470629,3.99123398895563,FALSE,3.44911132378856
"CAN","cpi",0.2,1966,3,1965,NA,1,2.0286079152823,2.95209338454836,3.72486065470629,3.20722068745854,FALSE,2.85540364466089
"CAN","cpi",0.2,1966,3,1965,NA,1.5,1.07555745975757,1.99904292902363,3.72486065470629,1.60663824631958,FALSE,5.23802978347271
"CAN","cpi",0.2,1967,3,1967,NA,0,2.53927775909535,2.73559892705721,3.49360316391996,3.76768849328632,FALSE,2.09133176011874
"CAN","cpi",0.2,1967,3,1967,NA,0.5,3.95132292143033,4.51741430574649,3.49360316391996,2.4074547441976,FALSE,1.71039077809208
"CAN","cpi",0.2,1967,3,1966,NA,1,1.75743912403057,3.13511995760169,3.49360316391996,3.18103323070284,FALSE,2.27388884936679
"CAN","cpi",0.2,1967,3,1966,NA,1.5,3.50538332029714,5.58966071894499,3.49360316391996,4.65128160487248,FALSE,2.1137277895908
"CAN","cpi",0.2,1968,3,1968,NA,0,2.62584147015086,2.8296873483061,3.95128347779386,4.17287945672396,FALSE,3.00783620187463
"CAN","cpi",0.2,1968,3,1968,NA,0.5,5.30740436770232,6.07846169649328,3.95128347779386,4.07097205779852,FALSE,4.16135955356212
"CAN","cpi",0.2,1968,3,1967,NA,1,4.20648530319192,5.86925209653927,3.95128347779386,5.84521682123848,FALSE,2.30077135684251
"CAN","cpi",0.2,1968,3,1967,NA,1.5,1.69789102090494,3.36065781425228,3.95128347779386,2.25565858240226,FALSE,3.13933095220128
"CAN","cpi",0.2,1969,3,1969,NA,0,2.82636167776335,3.04562817502722,4.42679496126681,4.46896837073893,FALSE,3.67218346286285
"CAN","cpi",0.2,1969,3,1969,NA,0.5,4.62900671685344,5.19424813694759,4.42679496126681,2.96612019395715,FALSE,1.07077080906071
"CAN","cpi",0.2,1969,3,1968,NA,1,4.79595498988897,7.12064892464604,4.42679496126681,6.72487630040807,FALSE,3.24759400631245
"CAN","cpi",0.2,1969,3,1968,NA,1.5,3.74878538172869,6.22105608841439,4.42679496126681,4.31664452944541,TRUE,2.4722707066857
"CAN","cpi",0.2,1970,3,1970,NA,0,2.60841047340644,2.80156942904076,3.28128405769805,3.52697515579364,FALSE,1.39244552727753
"CAN","cpi",0.2,1970,3,1970,NA,0.5,6.27666205906117,7.07498679689293,3.28128405769805,4.65371085276917,FALSE,8.28676974123958
"CAN","cpi",0.2,1970,3,1969,NA,1,2.91771839801876,4.64747480562881,3.28128405769805,4.52747875087707,TRUE,1.72975640761006
"CAN","cpi",0.2,1970,3,1969,NA,1.5,1.78455976869457,3.61727285573451,3.28128405769805,2.07973847283129,TRUE,1.83271308703994
"CAN","cpi",0.2,1971,3,1971,NA,0,2.08015354632749,2.23386444075353,2.64123406634756,2.8393232579169,FALSE,1.17213495841112
"CAN","cpi",0.2,1971,3,1971,NA,0.5,3.56490725626708,4.0488345483277,2.64123406634756,2.06692165705507,FALSE,2.79311026685942
"CAN","cpi",0.2,1971,3,1970,NA,1,1.84726998881287,2.93884098527307,2.64123406634756,2.64105994583495,TRUE,1.0915709964602
"CAN","cpi",0.2,1971,3,1970,NA,1.5,4.48285531516951,7.24199153218674,2.64123406634756,4.63977638900468,FALSE,7.36318933907211
"CAN","cpi",0.2,1972,3,1972,NA,0,2.70562036898228,2.88329431773958,4.83230569625923,5.03048103188219,FALSE,5.05020239505642
"CAN","cpi",0.2,1972,3,1972,NA,0.5,5.89236174621785,6.80807286089403,4.83230569625923,5.06705904355972,FALSE,3.56585123957274
"CAN","cpi",0.2,1972,3,1971,NA,1,4.77596742603525,6.56249022167852,4.83230569625923,5.9169160270675,TRUE,1.78652279564327
"CAN","cpi",0.2,1972,3,1971,NA,1.5,3.24742963288725,5.03395242853052,4.83230569625923,3.09276495441271,TRUE,1.78652279564327
"CAN","cpi",0.2,1973,3,1973,NA,0,3.89328198365061,4.18141193186163,7.12388603531779,6.99264756193144,FALSE,7.64431520685142
"CAN","cpi",0.2,1973,3,1973,NA,0.5,7.06656193504667,8.04991544843794,7.12388603531779,5.47469896411854,TRUE,0.983353513391267
"CAN","cpi",0.2,1973,3,1972,NA,1,5.14627904367424,7.2930398453176,7.12388603531779,6.69062283747837,TRUE,2.14676080164336
"CAN","cpi",0.2,1973,3,1972,NA,1.5,5.1837636635938,7.88086544016666,7.12388603531779,4.73174243586486,TRUE,2.69710177657286
"CAN","cpi",0.2,1974,3,1974,NA,0,5.41490310271055,5.82569056644112,10.2717243737774,9.94431520564033,FALSE,11.5258719820713
"CAN","cpi",0.2,1974,3,1974,NA,0.5,10.3790571160039,11.8842887505441,10.2717243737774,8.3378654175141,FALSE,1.77356349010646
"CAN","cpi",0.2,1974,3,1973,NA,1,5.00946307016833,7.72002793334309,10.2717243737774,7.16712422635118,FALSE,9.08980596426058
"CAN","cpi",0.2,1974,3,1973,NA,1.5,4.38566437275336,7.09622923592813,10.2717243737774,4.05174749178054,FALSE,10.649302707798
"CAN","cpi",0.2,1975,3,1975,NA,0,6.08059550576678,6.62860261568652,10.0232981493341,10.0931823619779,FALSE,9.03474594403874
"CAN","cpi",0.2,1975,3,1975,NA,0.5,12.273967863324,13.6501155315502,10.0232981493341,8.98267476097328,FALSE,7.00282195320093
"CAN","cpi",0.2,1975,3,1974,NA,1,4.17252379272647,6.60762117521362,10.0232981493341,7.7837982223054,FALSE,10.9742898177884
"CAN","cpi",0.2,1975,3,1974,NA,1.5,5.75225005032031,8.35299783779816,10.0232981493341,5.75931605308519,FALSE,6.77649856631775
"CAN","cpi",0.2,1976,3,1976,NA,0,5.01946769184825,5.48970767243337,7.22784311401172,7.07277954951717,FALSE,4.81557858453098
"CAN","cpi",0.2,1976,3,1976,NA,0.5,11.6773825100375,12.6520815123519,7.22784311401172,8.59089060438327,FALSE,12.0985474923788
"CAN","cpi",0.2,1976,3,1975,NA,1,5.58838863434279,7.61101868322658,7.22784311401172,10.4141477685142,TRUE,2.02263004888379
"CAN","cpi",0.2,1976,3,1975,NA,1.5,5.10539467900721,8.12720119067565,7.22784311401172,6.43051086134862,TRUE,3.02180651166844
"CAN","cpi",0.2,1977,3,1977,NA,0,4.53231459992594,4.90064519799729,7.58101410153764,7.55301151664772,FALSE,7.06925285692224
"CAN","cpi",0.2,1977,3,1977,NA,0.5,9.95275563622866,11.3408121018431,7.58101410153764,7.98165850021887,FALSE,7.31741030234194
"CAN","cpi",0.2,1977,3,1976,NA,1,0.665334546571241,2.2953547519582,7.58101410153764,3.72134649143602,FALSE,14.8441685793356
"CAN","cpi",0.2,1977,3,1976,NA,1.5,7.41116711568237,10.8542995394386,7.58101410153764,8.00272044475614,TRUE,3.44313242375627
"CAN","cpi",0.2,1978,3,1978,NA,0,4.94859889972306,5.42679795390142,8.50208927062595,8.67127840358843,FALSE,8.16642734598968
"CAN","cpi",0.2,1978,3,1978,NA,0.5,10.5404922680395,11.9104499450883,8.50208927062595,8.3788273181893,FALSE,6.46596517058266
"CAN","cpi",0.2,1978,3,1977,NA,1,4.13103031171267,6.34358532418653,8.50208927062595,7.54783828416051,FALSE,7.6088148785724
"CAN","cpi",0.2,1978,3,1977,NA,1.5,9.1567345990789,12.5531775918243,8.50208927062595,9.72562756342223,FALSE,5.03305631387783
"CAN","cpi",0.2,1979,3,1979,NA,0,5.16365397414899,5.61911343128256,8.65147652410481,8.56376390232469,FALSE,8.0363671891892
"CAN","cpi",0.2,1979,3,1979,NA,0.5,10.686355386187,12.1994962243933,8.65147652410481,8.29599284966764,FALSE,6.60033799341176
"CAN","cpi",0.2,1979,3,1978,NA,1,4.88067224433436,7.75286866500191,8.65147652410481,9.20311500508918,FALSE,5.11871606842479
"CAN","cpi",0.2,1979,3,1978,NA,1.5,8.05007819836241,11.2980430078487,8.65147652410481,8.55646910152924,TRUE,3.24796480948628
"CAN","cpi",0.2,1980,3,1980,NA,0,5.51207520984957,5.99515573497331,9.5171912664748,9.50406722106931,FALSE,9.28816935387746
"CAN","cpi",0.2,1980,3,1980,NA,0.5,10.9965897586008,12.1941517348044,9.5171912664748,8.57798914335092,FALSE,4.89605820651862
"CAN","cpi",0.2,1980,3,1979,NA,1,3.73781938673286,6.34438322390081,9.5171912664748,8.17875203710815,FALSE,10.5385839436029
"CAN","cpi",0.2,1980,3,1979,NA,1.5,8.00169577977659,11.1749820962314,9.5171912664748,8.39204766062112,TRUE,3.17328631645478
"CAN","cpi",0.2,1981,3,1981,NA,0,6.42207916391873,7.00659441543963,11.5813425032741,11.7113878984199,FALSE,12.0213854711072
"CAN","cpi",0.2,1981,3,1981,NA,0.5,14.2866866160972,16.0234428255301,11.5813425032741,12.2156196752767,FALSE,8.5001164914905
"CAN","cpi",0.2,1981,3,1980,NA,1,5.41894542336086,8.71782145834062,11.5813425032741,11.0496853423024,FALSE,10.4576786473136
"CAN","cpi",0.2,1981,3,1980,NA,1.5,7.28437935693415,10.5832553919139,11.5813425032741,8.33809792174894,FALSE,5.79409381338033
"CAN","cpi",0.2,1982,3,1982,NA,0,6.53167967608156,7.08225091441373,10.1124203763629,10.2566668151097,FALSE,8.12599489320521
"CAN","cpi",0.2,1982,3,1982,NA,0.5,13.1513743795032,14.6425860522286,10.1124203763629,10.1085355973545,FALSE,9.08859668057595
"CAN","cpi",0.2,1982,3,1981,NA,1,4.20714977406493,8.06929624253694,10.1124203763629,11.770988683124,FALSE,8.96995680303702
"CAN","cpi",0.2,1982,3,1981,NA,1.5,11.186065431666,15.4294414118734,10.1124203763629,12.8701250351281,FALSE,6.92748861846507
"CAN","cpi",0.2,1983,3,1983,NA,0,4.66241565777243,5.12024310047335,5.67091787896303,5.7310121416489,FALSE,1.83451438892513
"CAN","cpi",0.2,1983,3,1983,NA,0.5,7.90500073364924,9.32012935898019,5.67091787896303,4.91343016009654,FALSE,7.00033576204646
"CAN","cpi",0.2,1983,3,1982,NA,1,3.06471912683146,6.70619317696276,5.67091787896303,9.18500149866057,TRUE,3.6414740501313
"CAN","cpi",0.2,1983,3,1982,NA,1.5,8.56690117878466,12.3457348030782,5.67091787896303,9.68672301569366,FALSE,11.0187918738476
"CAN","cpi",0.2,1984,3,1984,NA,0,NA,NA,4.19799576814029,NA,NA,NA
"CAN","cpi",0.2,1984,3,1984,NA,0.5,7.14950708870085,8.19821013277991,4.19799576814029,5.85770686024457,FALSE,8.42748134548047
"CAN","cpi",0.2,1984,3,1983,NA,1,2.68845386072344,4.49937107252184,4.19799576814029,5.76553357996429,TRUE,1.81091721179839
"CAN","cpi",0.2,1984,3,1983,NA,1.5,2.56595375301399,4.37687096481238,4.19799576814029,2.9197996794717,TRUE,1.81091721179839
"CAN","cpi",0.2,1985,3,1985,NA,0,2.6111790469828,2.85054212069876,3.86444262005169,3.85417990135378,FALSE,2.77411432209829
"CAN","cpi",0.2,1985,3,1985,NA,0.5,5.31999934705338,6.05886050678245,3.86444262005169,4.21990042382899,FALSE,4.37775297723329
"CAN","cpi",0.2,1985,3,1984,NA,1,NA,NA,3.86444262005169,NA,NA,NA
"CAN","cpi",0.2,1985,3,1984,NA,1.5,8.53412390583928,11.0663842415113,3.86444262005169,8.62999660305356,FALSE,14.206463550141
"CAN","cpi",0.2,1986,3,1986,NA,0,2.60839851784852,2.83280176876157,4.08685396749431,4.03771389199993,FALSE,3.35953374774491
"CAN","cpi",0.2,1986,3,1986,NA,0.5,5.25989852938478,5.98705564768652,4.08685396749431,4.38219332503529,FALSE,3.65976852302792
"CAN","cpi",0.2,1986,3,1985,NA,1,1.38263432395079,2.7783957319977,4.08685396749431,3.37849976080849,FALSE,4.66690699678843
"CAN","cpi",0.2,1986,3,1985,NA,1.5,4.7502441699977,6.43841479699877,4.08685396749431,4.95309858900956,FALSE,3.34664613325954
"CAN","cpi",0.2,1987,3,1987,NA,0,NA,NA,4.23980729277887,NA,NA,NA
"CAN","cpi",0.2,1987,3,1987,NA,0.5,5.06937109216828,5.78976114992161,4.23980729277887,4.13342161080085,FALSE,2.79429955622685
"CAN","cpi",0.2,1987,3,1986,NA,1,1.69843806666336,3.10240612779742,4.23980729277887,3.66140988164798,FALSE,4.24747097358769
"CAN","cpi",0.2,1987,3,1986,NA,1.5,4.76987498187146,6.17384304300553,4.23980729277887,4.80242768143514,FALSE,2.72913728386555
"CAN","cpi",0.2,1988,3,1988,NA,0,2.6922893777812,2.92686795284744,3.92899537638065,3.9438316199536,FALSE,2.73989713389927
"CAN","cpi",0.2,1988,3,1988,NA,0.5,4.44666120969494,5.13389098755324,3.92899537638065,3.35419215340812,FALSE,1.98139436114401
"CAN","cpi",0.2,1988,3,1987,NA,1,NA,NA,3.92899537638065,NA,NA,NA
"CAN","cpi",0.2,1988,3,1987,NA,1.5,4.06876549864037,5.17199207853498,3.92899537638065,3.89461929526446,FALSE,1.4526518855439
"CAN","cpi",0.2,1989,3,1989,NA,0,2.95670386393411,3.21363818997159,4.82821664544208,4.95130318392835,FALSE,4.29338046471371
"CAN","cpi",0.2,1989,3,1989,NA,0.5,5.06886586258137,5.75557277289984,4.82821664544208,4.23024942747073,FALSE,1.2883299531667
"CAN","cpi",0.2,1989,3,1988,NA,1,2.38686486457922,3.46352976393577,4.82821664544208,4.05841794603162,FALSE,4.48838210312231
"CAN","cpi",0.2,1989,3,1988,NA,1.5,2.72167036118492,3.79833526054147,4.82821664544208,2.597843559383,FALSE,3.65136836160807
"CAN","cpi",0.2,1990,3,1990,NA,0,3.01780696610468,3.27189451157702,4.64347549432717,4.4746950192663,FALSE,3.68304000234772
"CAN","cpi",0.2,1990,3,1990,NA,0.5,6.02884089243842,6.69553513809467,4.64347549432717,4.96487168902479,FALSE,4.13010774093438
"CAN","cpi",0.2,1990,3,1989,NA,1,3.40545299657302,4.80911494007907,4.64347549432717,5.43871373969076,TRUE,1.40366194350606
"CAN","cpi",0.2,1990,3,1989,NA,1.5,3.44837084849164,4.85203279199769,4.64347549432717,3.3732540002381,TRUE,1.40366194350606
"CAN","cpi",0.2,1991,3,1991,NA,0,3.38759813405404,3.63736581775168,5.4258100696218,5.61053369942382,FALSE,4.72087831337292
"CAN","cpi",0.2,1991,3,1991,NA,0.5,8.27731324526077,8.93659827674626,5.4258100696218,7.82199295477594,FALSE,7.78804297058293
"CAN","cpi",0.2,1991,3,1990,NA,1,2.00007616559783,3.3887439715689,5.4258100696218,3.66716818384097,FALSE,6.48133305110331
"CAN","cpi",0.2,1991,3,1990,NA,1.5,4.87537780934697,6.26404561531804,5.4258100696218,4.82481948664164,TRUE,1.38866780597107
"CAN","cpi",0.2,1992,3,1992,NA,0,NA,NA,1.47496888572843,NA,NA,NA
"CAN","cpi",0.2,1992,3,1992,NA,0.5,NA,NA,1.47496888572843,NA,NA,NA
"CAN","cpi",0.2,1992,3,1991,NA,1,1.01018194301675,2.69647360771181,1.47496888572843,2.76780571233213,TRUE,1.68629166469507
"CAN","cpi",0.2,1992,3,1991,NA,1.5,7.20823198324571,8.91507843735404,1.47496888572843,7.14938182660169,FALSE,16.0400041979015
"CAN","cpi",0.2,1993,3,1993,NA,0,NA,NA,NA,NA,NA,NA
"CAN","cpi",0.2,1993,3,1993,NA,0.5,NA,NA,NA,NA,NA,NA
"CAN","cpi",0.2,1993,3,1992,NA,1,NA,NA,NA,NA,NA,NA
"CAN","cpi",0.2,1993,3,1992,NA,1.5,NA,NA,NA,NA,NA,NA
"CAN","cpi",0.2,1994,3,1994,NA,0,NA,NA,NA,NA,NA,NA
"CAN","cpi",0.2,1994,3,1994,NA,0.5,NA,NA,NA,NA,NA,NA
"CAN","cpi",0.2,1994,3,1993,NA,1,NA,NA,NA,NA,NA,NA
"CAN","cpi",0.2,1994,3,1993,NA,1.5,NA,NA,NA,NA,NA,NA
"CAN","cpi",0.2,1995,3,1995,NA,0,NA,NA,2.11688403676572,NA,NA,NA
"CAN","cpi",0.2,1995,3,1995,NA,0.5,NA,NA,2.11688403676572,2.51937811073084,NA,NA
"CAN","cpi",0.2,1995,3,1994,NA,1,NA,NA,2.11688403676572,0.719396410821945,NA,NA
"CAN","cpi",0.2,1995,3,1994,NA,1.5,NA,NA,2.11688403676572,-1.04654603924828,NA,NA
"CAN","cpi",0.2,1996,3,1996,NA,0,1.30936083562506,1.42221589306522,1.55309584667184,1.42780748357026,FALSE,0.440054941456715
"CAN","cpi",0.2,1996,3,1996,NA,0.5,NA,NA,1.55309584667184,NA,NA,NA
"CAN","cpi",0.2,1996,3,1995,NA,1,NA,NA,1.55309584667184,NA,NA,NA
"CAN","cpi",0.2,1996,3,1995,NA,1.5,3.16315241922769,3.89513478432385,1.55309584667184,2.92232271175447,FALSE,4.75712379648577
"CAN","cpi",0.2,1997,3,1997,NA,0,1.28698796672732,1.39521850606084,1.60528783555959,1.73535847807117,FALSE,0.633403863080394
"CAN","cpi",0.2,1997,3,1997,NA,0.5,2.66897313388507,2.96904439212333,1.60528783555959,2.11078363597796,FALSE,2.95928450405196
"CAN","cpi",0.2,1997,3,1996,NA,1,0.545388037817771,1.16831353431021,1.60528783555959,0.984961337307556,FALSE,1.71536124961589
"CAN","cpi",0.2,1997,3,1996,NA,1.5,NA,NA,1.60528783555959,NA,NA,NA
"CAN","cpi",0.2,1998,3,1998,NA,0,1.06071847372103,1.14191112680989,0.988908029337191,1.0350847138471,FALSE,0.260718764048463
"CAN","cpi",0.2,1998,3,1998,NA,0.5,2.26503551955232,2.5973515528514,0.988908029337191,1.68533655437107,FALSE,3.5226347588369
"CAN","cpi",0.2,1998,3,1997,NA,1,1.67276574545515,2.32986357139673,0.988908029337191,2.25159584334757,FALSE,2.36674211623648
"CAN","cpi",0.2,1998,3,1997,NA,1.5,2.52561782024643,3.18271564618801,0.988908029337191,2.38987816876076,FALSE,4.49887230321469
"CAN","cpi",0.2,1999,3,1999,NA,0,1.14971221043429,1.24048081794905,1.7107350135213,1.77618438459462,FALSE,1.26640409644538
"CAN","cpi",0.2,1999,3,1999,NA,0.5,1.5224158236418,1.79653873270278,1.7107350135213,1.0290924799153,TRUE,0.274122909060983
"CAN","cpi",0.2,1999,3,1998,NA,1,1.4184013511101,1.92938013072163,1.7107350135213,1.85177544064205,TRUE,0.510978779611529
"CAN","cpi",0.2,1999,3,1998,NA,1.5,2.96302795041617,3.53641018515471,1.7107350135213,2.94645730787123,FALSE,3.70411457697573
"CAN","cpi",0.2,2000,3,2000,NA,0,1.66275502546773,1.77244704614097,2.6718361971244,2.7102541785615,FALSE,2.35816489813181
"CAN","cpi",0.2,2000,3,2000,NA,0.5,2.74618974717809,3.14843780448962,2.6718361971244,2.34405201403356,FALSE,0.588131932445758
"CAN","cpi",0.2,2000,3,1999,NA,1,2.27700228349282,2.95962046672271,2.6718361971244,3.07542936781209,TRUE,0.682618183229891
"CAN","cpi",0.2,2000,3,1999,NA,1.5,2.35721256430526,3.03983074753516,2.6718361971244,2.27809035801724,TRUE,0.682618183229891
"CAN","cpi",0.2,2001,3,2001,NA,0,1.94971162495125,2.06457689391262,2.47906219852806,2.77546584984351,FALSE,1.15107853049998
"CAN","cpi",0.2,2001,3,2001,NA,0.5,3.03724557460625,3.50791763705652,2.47906219852806,2.43566755503104,FALSE,1.86613050264574
"CAN","cpi",0.2,2001,3,2000,NA,1,2.61006154684742,3.50156294216149,2.47906219852806,3.68958695319843,FALSE,1.21899976611247
"CAN","cpi",0.2,2001,3,2000,NA,1.5,3.10250066729373,3.99400206260779,2.47906219852806,3.01270789712173,FALSE,2.45009756722822
"CAN","cpi",0.2,2002,3,2002,NA,0,1.71621589132941,1.82283449888218,2.20880570551249,2.27196234986351,FALSE,1.07154662412853
"CAN","cpi",0.2,2002,3,2002,NA,0.5,2.28907713705044,2.73567257241922,2.20880570551249,1.58345411989126,FALSE,0.647274014213652
"CAN","cpi",0.2,2002,3,2001,NA,1,1.47823589558231,2.31747078929079,2.20880570551249,2.26510423845898,TRUE,0.839234893708479
"CAN","cpi",0.2,2002,3,2001,NA,1.5,3.06014821374023,3.89938310744871,2.20880570551249,3.02058043279009,FALSE,2.96759116427784
"CAN","cpi",0.2,2003,3,2003,NA,0,1.79220595258298,1.89623097264836,2.71189071546809,2.71326702620668,FALSE,2.14317437711471
"CAN","cpi",0.2,2003,3,2003,NA,0.5,4.52131244227455,4.96620079782905,2.71189071546809,4.51432649273496,FALSE,4.96844267257065
"CAN","cpi",0.2,2003,3,2002,NA,1,2.82345780706128,3.53823408753672,2.71189071546809,3.85618281746238,FALSE,0.993694009458413
"CAN","cpi",0.2,2003,3,2002,NA,1.5,2.44347265315366,3.15824893362911,2.71189071546809,2.39402389849184,TRUE,0.714776280475447
"CAN","cpi",0.2,2004,3,2004,NA,0,1.62865558616507,1.72052190753259,1.83151661303942,1.77466852383015,FALSE,0.369353085134609
"CAN","cpi",0.2,2004,3,2004,NA,0.5,2.23727310494815,2.73871831712241,1.83151661303942,1.55260435151936,FALSE,1.51583644194608
"CAN","cpi",0.2,2004,3,2003,NA,1,1.26581022093985,1.83071058024316,1.83151661303942,1.79415792598285,FALSE,0.566915441293964
"CAN","cpi",0.2,2004,3,2003,NA,1.5,4.0876159496919,5.05429470211094,1.83151661303942,4.26699272545716,FALSE,6.60692709405023
"CAN","cpi",0.2,2005,3,2005,NA,0,1.58856576251046,1.67865853491159,2.18071628336509,2.34345353472953,FALSE,1.34523714353487
"CAN","cpi",0.2,2005,3,2005,NA,0.5,2.02461342266902,2.3936687528455,2.18071628336509,1.50321338317329,TRUE,0.369055330176472
"CAN","cpi",0.2,2005,3,2004,NA,1,1.2185957178102,1.6458001933901,2.18071628336509,1.64043962712234,FALSE,1.76449470051737
"CAN","cpi",0.2,2005,3,2004,NA,1.5,2.17321643627665,2.73668153972021,2.18071628336509,2.03393284113233,TRUE,0.563465103443567
"CAN","cpi",0.2,2006,3,2006,NA,0,1.58026025180357,1.68655772886655,1.97519342012289,2.09514376892657,FALSE,0.827886705203821
"CAN","cpi",0.2,2006,3,2006,NA,0.5,2.56962528193248,2.9730866451305,1.97519342012289,2.09436263599022,FALSE,1.88954101772201
"CAN","cpi",0.2,2006,3,2005,NA,1,2.21549764115658,2.73019588895473,1.97519342012289,2.9582912060806,FALSE,1.11545880038238
"CAN","cpi",0.2,2006,3,2005,NA,1.5,1.87383203980498,2.44341158399106,1.97519342012289,1.64885961980806,TRUE,0.569579544186072
"CAN","cpi",0.2,2007,3,2007,NA,0,1.53041765946915,1.61977754850444,2.10062087284572,2.10683622102307,FALSE,1.29146819988849
"CAN","cpi",0.2,2007,3,2007,NA,0.5,2.55701444940744,2.91585183699025,2.10062087284572,2.17629902083353,FALSE,1.49982132898711
"CAN","cpi",0.2,2007,3,2006,NA,1,1.14671253532988,1.59153040827824,2.10062087284572,1.50861692709856,FALSE,1.71754403436706
"CAN","cpi",0.2,2007,3,2006,NA,1.5,2.25220028249699,2.78635959406745,2.10062087284572,2.15918616350405,FALSE,0.913107835698624
"CAN","cpi",0.2,2008,3,2008,NA,0,1.82350141231133,1.93336342619468,2.31447335265955,2.87079455148828,FALSE,1.06263683004552
"CAN","cpi",0.2,2008,3,2008,NA,0.5,1.88342674320946,2.3085700156061,2.31447335265955,1.31005314695267,FALSE,0.43990161503026
"CAN","cpi",0.2,2008,3,2007,NA,1,1.18760898039577,1.62781824091602,2.31447335265955,1.47031049982668,FALSE,2.15684703987908
"CAN","cpi",0.2,2008,3,2007,NA,1.5,2.53927941192994,3.0525193899167,2.31447335265955,2.46453195342394,FALSE,1.07525512616273
"CAN","cpi",0.2,2009,3,2009,NA,0,0.981665484354296,1.04378388991436,0.284533874408197,0.187122346349721,FALSE,1.80494743042531
"CAN","cpi",0.2,2009,3,2009,NA,0.5,0.972267280128977,1.35746850753746,0.284533874408197,-0.0727492620466167,FALSE,2.10453474171043
"CAN","cpi",0.2,2009,3,2008,NA,1,2.93559681639597,3.4439010715747,0.284533874408197,3.81780026356951,FALSE,7.13596161014817
"CAN","cpi",0.2,2009,3,2008,NA,1.5,1.93048628993618,2.43879054511492,0.284533874408197,1.68675152630419,FALSE,4.6231852939987
"CAN","cpi",0.2,2010,3,2010,NA,0,0.918315665187439,0.97427217444726,1.75525687020327,1.6089956646354,FALSE,2.00841824864985
"CAN","cpi",0.2,2010,3,2010,NA,0.5,1.97879047246614,2.09924334004292,1.75525687020327,1.91109502526183,FALSE,0.679286873233952
"CAN","cpi",0.2,2010,3,2009,NA,1,1.02752384161727,1.17480798464832,1.75525687020327,0.992295788494754,FALSE,1.59840635691843
"CAN","cpi",0.2,2010,3,2009,NA,1.5,1.14332684116343,1.31452121108144,1.75525687020327,0.885103052815867,FALSE,1.2730335177226
"CAN","cpi",0.2,2011,3,2011,NA,0,1.73902014922776,1.86057785332695,2.85717434028225,2.86665414062098,FALSE,2.61304892148743
"CAN","cpi",0.2,2011,3,2011,NA,0.5,2.80516356858086,3.22245644737896,2.85717434028225,2.76583381894771,TRUE,0.417292878798104
"CAN","cpi",0.2,2011,3,2010,NA,1,1.24530351378465,1.66259639258276,2.85717434028225,1.39294644169719,FALSE,3.40373774804683
"CAN","cpi",0.2,2011,3,2010,NA,1.5,1.87063661870501,2.29922804351106,2.85717434028225,1.64253060592363,FALSE,1.82345716673401
"CAN","cpi",0.2,2012,3,2012,NA,0,1.59435154792861,1.69814190875347,1.50118536134935,1.52822510849394,FALSE,0.336705827273022
"CAN","cpi",0.2,2012,3,2012,NA,0.5,2.42078929040531,2.98300488987643,1.50118536134935,1.92429021972789,FALSE,2.86122542211103
"CAN","cpi",0.2,2012,3,2011,NA,1,1.72579478568219,2.32448989461524,1.50118536134935,1.99945242447079,FALSE,1.16021866976517
"CAN","cpi",0.2,2012,3,2011,NA,1.5,2.63252718352211,3.35932146891821,1.50118536134935,2.48150957397962,FALSE,3.55514884082801
"CAN","cpi",0.2,2013,3,2013,NA,0,1.07159912621291,1.13744009500067,0.931270594714462,1.05630513423211,FALSE,0.416662297533877
"CAN","cpi",0.2,2013,3,2013,NA,0.5,1.57178645072416,1.91190995671091,0.931270594714462,1.16963454554932,FALSE,1.941413146011
"CAN","cpi",0.2,2013,3,2012,NA,1,1.03371202351275,1.39520175083831,0.931270594714462,1.08868089128742,FALSE,0.617593299321279
"CAN","cpi",0.2,2013,3,2012,NA,1.5,2.28331474933324,2.71544443067691,0.931270594714462,2.14573179530527,FALSE,3.81224006789061
"CAN","cpi",0.2,2014,3,2014,NA,0,1.22724846935252,1.30174919174217,1.87639912240215,1.99862849145116,FALSE,1.51112554903961
"CAN","cpi",0.2,2014,3,2014,NA,0.5,1.85879759673826,2.16485150658525,1.87639912240215,1.79231976082687,TRUE,0.306053909846988
"CAN","cpi",0.2,2014,3,2013,NA,1,1.27968270911305,1.58573661896004,1.87639912240215,1.40664989819898,FALSE,1.03271016845226
"CAN","cpi",0.2,2014,3,2013,NA,1.5,1.66086330723672,2.03938032284514,1.87639912240215,1.51436121777893,TRUE,0.378517015608418
"CAN","cpi",0.2,2015,3,2015,NA,0,1.21920480009449,1.29071649002292,1.11090953952792,1.2103065042478,FALSE,0.342249841344864
"CAN","cpi",0.2,2015,3,2015,NA,0.5,1.12769906117188,1.4780031459884,1.11090953952792,0.458547315718059,FALSE,0.392277888926419
"CAN","cpi",0.2,2015,3,2014,NA,1,1.37492517622202,1.87672896881904,1.11090953952792,1.57054781428135,FALSE,1.16184288433227
"CAN","cpi",0.2,2015,3,2014,NA,1.5,2.09196896020763,2.59377275280466,1.11090953952792,1.88229109541157,FALSE,2.95445234429632
"CAN","cpi",0.2,2016,3,2016,NA,0,1.07360768139932,1.13689449894661,1.41168586698797,1.41630667471992,FALSE,0.750265237650677
"CAN","cpi",0.2,2016,3,2016,NA,0.5,1.46862266266722,1.76268052650182,1.41168586698797,1.17972158292925,FALSE,0.43639985303273
"CAN","cpi",0.2,2016,3,2015,NA,1,1.57573526493185,1.96301629531064,1.41168586698797,1.8638656605167,FALSE,0.7974045252385
"CAN","cpi",0.2,2016,3,2015,NA,1.5,1.31710864518446,1.70438967556325,1.41168586698797,1.07023002715086,TRUE,0.387281030378785
"CAN","cpi",0.2,2017,3,2017,NA,0,1.19089828700672,1.25977958926671,1.57888581671161,1.50492692646759,FALSE,0.866646870872238
"CAN","cpi",0.2,2017,3,2017,NA,0.5,2.12359725806209,2.49839692540513,1.57888581671161,2.09086618282141,FALSE,1.73657827071923
"CAN","cpi",0.2,2017,3,2016,NA,1,1.05479355444719,1.44379796022296,1.57888581671161,1.14652050352824,FALSE,0.726724046997399
"CAN","cpi",0.2,2017,3,2016,NA,1.5,1.52443044005959,1.91343484583535,1.57888581671161,1.26788084523026,TRUE,0.389004405775765
"CAN","cpi",0.2,2018,3,2018,NA,0,1.5445136243917,1.63681807754178,2.23316270166586,2.41317537496083,FALSE,1.58316601346028
"CAN","cpi",0.2,2018,3,2018,NA,0.5,2.41543556254375,2.81899194768197,2.23316270166586,2.52809119314695,FALSE,0.859238537332949
"CAN","cpi",0.2,2018,3,2017,NA,1,1.08676439836601,1.49032078350423,2.23316270166586,1.16800101916097,FALSE,2.26066118054229
"CAN","cpi",0.2,2018,3,2017,NA,1.5,2.12263038536722,2.58068940613595,2.23316270166586,2.07298402260093,TRUE,0.458059020768737
"CAN","cpi",0.2,2019,3,2019,NA,0,NA,NA,1.91921619871868,NA,NA,NA
"CAN","cpi",0.2,2019,3,2019,NA,0.5,1.80616988368863,2.25866803652673,1.91921619871868,1.47328806303322,TRUE,0.452498152838096
"CAN","cpi",0.2,2019,3,2018,NA,1,1.88611108352457,2.42826022499165,1.91921619871868,2.23470281046333,TRUE,0.542149141467081
"CAN","cpi",0.2,2019,3,2018,NA,1.5,2.4254580858817,2.96760722734878,1.91921619871868,2.32030562567512,FALSE,1.80775385937462
"CAN","cpi",0.2,2020,3,2020,NA,0,1.05111965954935,1.11916410281903,0.71139989671781,0.673588636713597,FALSE,0.917343850348528
"CAN","cpi",0.2,2020,3,2020,NA,0.5,NA,NA,0.71139989671781,NA,NA,NA
"CAN","cpi",0.2,2020,3,2019,NA,1,NA,NA,0.71139989671781,NA,NA,NA
"CAN","cpi",0.2,2020,3,2019,NA,1.5,1.96249199019294,2.40322016905773,0.71139989671781,1.77705491937904,FALSE,3.56845841255261
"CAN","cpi",0.2,2021,3,2021,NA,0,1.58087098666399,1.68274363375795,3.31148121717802,3.2525646654712,FALSE,4.17371660564415
"CAN","cpi",0.2,2021,3,2021,NA,0.5,1.94234212049608,2.24049204872516,3.31148121717802,2.16773480502693,FALSE,2.97562284936124
"CAN","cpi",0.2,2021,3,2020,NA,1,1.43614680699219,1.73429673522127,3.31148121717802,1.61070774476322,FALSE,4.24111113312097
"CAN","cpi",0.2,2021,3,2020,NA,1.5,NA,NA,3.31148121717802,NA,NA,NA
"CAN","cpi",0.2,2022,3,2022,NA,0,3.41861113415648,3.64458267956465,6.50977236228281,6.58682891800883,FALSE,7.38894575220358
"CAN","cpi",0.2,2022,3,2022,NA,0.5,4.83005685476275,5.55044134303586,6.50977236228281,5.58900513180898,FALSE,3.11871203639049
"CAN","cpi",0.2,2022,3,2021,NA,1,2.73264757304608,3.45303206131919,6.50977236228281,3.35597076522593,FALSE,8.36223524068217
"CAN","cpi",0.2,2022,3,2021,NA,1.5,2.07916049099465,2.79954497926776,6.50977236228281,1.89458222166426,FALSE,9.99595294581074
"CAN","cpi",0.2,2023,3,2023,NA,0,3.42586732021595,3.6601618650733,3.78831288758619,3.96221561415741,FALSE,0.554672101139576
"CAN","cpi",0.2,2023,3,2023,NA,0.5,4.15113172155903,5.30490990632639,3.78831288758619,3.6121970566696,FALSE,2.06082526969946
"CAN","cpi",0.2,2023,3,2022,NA,1,4.31947034832613,5.530704048457,3.78831288758619,5.4861852561408,FALSE,2.53912735198071
"CAN","cpi",0.2,2023,3,2022,NA,1.5,3.8772921873532,5.08852588748407,3.78831288758619,3.85557075258935,FALSE,1.4336819495484
"CAN","cpi",0.2,2024,3,2023,NA,1,3.73166228945019,4.61793892341465,NA,4.72280809903739,NA,NA
"CAN","cpi",0.2,2024,3,2023,NA,1.5,4.04009920984684,4.92637584381131,NA,4.36705509613113,NA,NA
"CAN","cpi",0.3,1952,3,1952,NA,0,-30.1291390280811,-23.9512323117353,2.55562336095485,2.50792675283471,FALSE,81.9117800668891
"CAN","cpi",0.3,1952,3,1952,NA,0.5,-18.4741432602518,2.73848100607626,2.55562336095485,5.20333179389047,TRUE,21.2126242663281
"CAN","cpi",0.3,1952,3,1951,NA,1,-29.9577054141737,-8.7450811478456,2.55562336095485,8.18998200969936,FALSE,53.5003514343294
"CAN","cpi",0.3,1952,3,1951,NA,1.5,-5.1304541102496,26.4942769332506,2.55562336095485,7.55460015368862,TRUE,31.6247310435002
"CAN","cpi",0.3,1953,3,1953,NA,0,-0.11120201837173,-0.710589485517033,-1.01492775838436,-0.954275034924989,FALSE,1.98268607574793
"CAN","cpi",0.3,1953,3,1953,NA,0.5,-9.40653786385412,-8.0516586617899,-1.01492775838436,-1.88711612688489,FALSE,21.4598246403658
"CAN","cpi",0.3,1953,3,1952,NA,1,-13.2460675295072,-11.891188327443,-1.01492775838436,-0.873617238258229,FALSE,32.4299093993746
"CAN","cpi",0.3,1953,3,1952,NA,1.5,23.0159178979293,35.181973967953,-1.01492775838436,5.93557635631702,FALSE,80.8256150880628
"CAN","cpi",0.3,1954,3,1954,NA,0,1.05691140834417,0.619964349394289,0.644425455961438,0.879731201855888,FALSE,0.811473109478346
"CAN","cpi",0.3,1954,3,1954,NA,0.5,1.1567053368247,0.719758277874826,0.644425455961438,-0.358875738913824,FALSE,1.0267097435166
"CAN","cpi",0.3,1954,3,1953,NA,1,13.8234393870353,14.2700271352579,0.644425455961438,3.38326531029323,FALSE,38.1009132655766
"CAN","cpi",0.3,1954,3,1953,NA,1.5,-2.26061160419577,-1.81402385597316,0.644425455961438,-1.28741438714058,FALSE,7.47072863946432
"CAN","cpi",0.3,1955,3,1955,NA,0,0.396572337248376,0.540646360028673,0.173649026558865,0.115254687233858,FALSE,0.780997767607471
"CAN","cpi",0.3,1955,3,1955,NA,0.5,-1.27098959267751,-0.975609747176292,0.173649026558865,-0.770970046821609,FALSE,3.57897634188738
"CAN","cpi",0.3,1955,3,1954,NA,1,6.525730170115,8.98302366022283,0.173649026558865,3.47019599757395,FALSE,20.6060967574111
"CAN","cpi",0.3,1955,3,1954,NA,1.5,-8.59142043828868,-6.13412694818085,0.173649026558865,-1.89562740163941,FALSE,20.4795105607927
"CAN","cpi",0.3,1956,3,1956,NA,0,1.24896378726502,0.942624794852603,1.32752769429961,1.56059797998755,FALSE,0.793383577436165
"CAN","cpi",0.3,1956,3,1956,NA,0.5,-0.344619696052458,-0.650958688464878,1.32752769429961,-0.709146002056511,FALSE,5.34647924405754
"CAN","cpi",0.3,1956,3,1955,NA,1,1.56338587349258,1.25704688108016,1.32752769429961,0.884549626974225,FALSE,0.568915271623067
"CAN","cpi",0.3,1956,3,1955,NA,1.5,-4.77485021034106,-5.08118920275348,1.32752769429961,-1.89150615642833,FALSE,18.0042807134536
"CAN","cpi",0.3,1957,3,1957,NA,0,1.80096033048385,2.29598473925986,3.24684755852518,3.4151370317006,FALSE,3.21177532096263
"CAN","cpi",0.3,1957,3,1957,NA,0.5,3.10841040989731,5.42190638576695,3.24684755852518,2.23982631608766,TRUE,2.31349597586964
"CAN","cpi",0.3,1957,3,1956,NA,1,8.29610448219548,11.5842074208449,3.24684755852518,6.98754636690555,FALSE,17.7145512919932
"CAN","cpi",0.3,1957,3,1956,NA,1.5,-6.55084660688487,-3.26274366823543,3.24684755852518,-1.88668623310337,FALSE,21.8869350151083
"CAN","cpi",0.3,1958,3,1958,NA,0,1.693374338884,2.05711944396196,2.33186388641149,2.22387249143335,FALSE,1.14872922636233
"CAN","cpi",0.3,1958,3,1958,NA,0.5,3.38226080323466,5.36355081220497,2.33186388641149,2.22839060734872,FALSE,4.9824240570365
"CAN","cpi",0.3,1958,3,1957,NA,1,-0.337484282619798,4.09854215902416,2.33186388641149,4.42088197051908,TRUE,4.43602644164396
"CAN","cpi",0.3,1958,3,1957,NA,1.5,-2.66191442640157,1.77411201524239,2.33186388641149,0.91301479707402,FALSE,6.02960321641283
"CAN","cpi",0.3,1959,3,1959,NA,0,1.20934824737408,1.47624223363018,1.19382698397654,1.24991216431293,FALSE,0.311240453106213
"CAN","cpi",0.3,1959,3,1959,NA,0.5,1.5591991656018,2.3357412569564,1.19382698397654,0.437839731590327,FALSE,1.82046261028391
"CAN","cpi",0.3,1959,3,1958,NA,1,-1.41568934762388,0.655267201795432,1.19382698397654,1.75862762885946,FALSE,3.60969878422248
"CAN","cpi",0.3,1959,3,1958,NA,1.5,0.272253484915222,3.73243772157078,1.19382698397654,1.77407172713766,TRUE,3.46018423665556
"CAN","cpi",0.3,1960,3,1960,NA,0,0.905366399779483,1.07405792207526,1.34209404870695,1.02361304259477,FALSE,0.93450902695776
"CAN","cpi",0.3,1960,3,1960,NA,0.5,1.50433827896176,1.98192009299026,1.34209404870695,0.53898348018166,FALSE,0.941136757613662
"CAN","cpi",0.3,1960,3,1959,NA,1,2.76208734784476,4.0080892404694,1.34209404870695,3.95759373689442,FALSE,5.30312560444696
"CAN","cpi",0.3,1960,3,1959,NA,1.5,-2.08977882071124,-0.843776928086598,1.34209404870695,-0.873476815404885,FALSE,7.49134754060621
"CAN","cpi",0.3,1961,3,1961,NA,0,0.955104393220533,1.17091459852162,1.00921348094007,1.00921348094007,TRUE,0.215810205301091
"CAN","cpi",0.3,1961,3,1961,NA,0.5,2.07420371028773,2.52149979935808,1.00921348094007,1.00921348094007,FALSE,3.49012531577794
"CAN","cpi",0.3,1961,3,1960,NA,1,-0.973380609707292,-0.52608452063694,1.00921348094007,0.0537704626035329,FALSE,4.83386180786181
"CAN","cpi",0.3,1961,3,1960,NA,1.5,-1.48303794589277,-1.03574185682242,1.00921348094007,-0.862181798940035,FALSE,6.2900256255346
"CAN","cpi",0.3,1962,3,1962,NA,0,0.936019952126587,1.11978591130347,1.04957947883042,1.10232402731478,TRUE,0.183765959176883
"CAN","cpi",0.3,1962,3,1962,NA,0.5,0.843445393039803,1.19236237538131,1.04957947883042,0,TRUE,0.348916982341504
"CAN","cpi",0.3,1962,3,1961,NA,1,-0.560045480362078,0.0139162437871664,1.04957947883042,0,FALSE,3.53299953855853
"CAN","cpi",0.3,1962,3,1961,NA,1.5,-0.289046334748651,0.284915389400594,1.04957947883042,0,FALSE,2.75871626537731
"CAN","cpi",0.3,1963,3,1963,NA,0,1.23695154108343,1.44968946113161,1.60677118395228,1.91491729531202,FALSE,0.661542842392969
"CAN","cpi",0.3,1963,3,1963,NA,0.5,1.64198473646626,2.12039760206726,1.60677118395228,0.836828714617504,FALSE,0.579023015640932
"CAN","cpi",0.3,1963,3,1962,NA,1,1.65244546819822,2.57519223268205,1.60677118395228,2.56411490415144,FALSE,1.05324471947222
"CAN","cpi",0.3,1963,3,1962,NA,1.5,-0.445537517552141,0.477209246931681,1.60677118395228,0,FALSE,4.15006658454269
"CAN","cpi",0.3,1964,3,1964,NA,0,1.35501462719072,1.60292544880912,1.88764670034376,1.98877256446048,FALSE,1.06140011171738
"CAN","cpi",0.3,1964,3,1964,NA,0.5,2.27143978189492,2.89208187255046,1.88764670034376,1.38369006227607,FALSE,1.71719375223028
"CAN","cpi",0.3,1964,3,1963,NA,1,3.62103982123013,4.94755142344368,1.88764670034376,5.39044290347256,FALSE,6.27906337617461
"CAN","cpi",0.3,1964,3,1963,NA,1.5,-0.684928189171458,0.641583413042095,1.88764670034376,0,FALSE,4.88669242307545
"CAN","cpi",0.3,1965,3,1965,NA,0,1.54636868529585,1.80229239862518,2.29538304394236,2.34557047418999,FALSE,1.66475412852125
"CAN","cpi",0.3,1965,3,1965,NA,0.5,2.55020351385935,3.17641236913982,2.29538304394236,1.61079447956654,FALSE,1.3542673407576
"CAN","cpi",0.3,1965,3,1964,NA,1,1.14344663546812,2.27169195809986,2.29538304394236,2.42518862179847,FALSE,1.19593413932459
"CAN","cpi",0.3,1965,3,1964,NA,1.5,0.227432189288818,1.35567751192056,2.29538304394236,0.818102552316399,FALSE,3.81311827126545
"CAN","cpi",0.3,1966,3,1966,NA,0,2.17086028063421,2.48223723242847,3.72486065470629,3.82010987863709,FALSE,3.86172958687374
"CAN","cpi",0.3,1966,3,1966,NA,0.5,4.68167217237487,5.60644673500154,3.72486065470629,3.99123398895563,FALSE,3.65852175596547
"CAN","cpi",0.3,1966,3,1965,NA,1,1.62842134206423,3.20827659297958,3.72486065470629,3.20722068745854,FALSE,3.05580971299167
"CAN","cpi",0.3,1966,3,1965,NA,1.5,0.793453336153207,2.37330858706856,3.72486065470629,1.60663824631958,FALSE,5.44143258702316
"CAN","cpi",0.3,1967,3,1967,NA,0,2.48357965394006,2.81119615761339,3.49360316391996,3.76768849328632,FALSE,2.27735080740639
"CAN","cpi",0.3,1967,3,1967,NA,0.5,3.81752300385864,4.67795159691636,3.49360316391996,2.4074547441976,FALSE,1.78591385002539
"CAN","cpi",0.3,1967,3,1966,NA,1,1.32244659693789,3.48007348784699,3.49360316391996,3.18103323070284,FALSE,2.19628310826045
"CAN","cpi",0.3,1967,3,1966,NA,1.5,3.03231102594333,6.24763731279367,3.49360316391996,4.65128160487248,TRUE,3.21532628685034
"CAN","cpi",0.3,1968,3,1968,NA,0,2.56023399839181,2.89238753708736,3.95128347779386,4.17287945672396,FALSE,3.35757051214268
"CAN","cpi",0.3,1968,3,1968,NA,0.5,5.08463824624492,6.30917682840131,3.95128347779386,4.07097205779852,FALSE,4.46269506344514
"CAN","cpi",0.3,1968,3,1967,NA,1,3.74245179011685,6.41853959417735,3.95128347779386,5.84521682123848,TRUE,2.67608780406049
"CAN","cpi",0.3,1968,3,1967,NA,1.5,1.31645242581205,3.99254022987254,3.95128347779386,2.25565858240226,TRUE,2.67608780406049
"CAN","cpi",0.3,1969,3,1969,NA,0,2.7726535396746,3.11281591319087,4.42679496126681,4.46896837073893,FALSE,4.09438822516183
"CAN","cpi",0.3,1969,3,1969,NA,0.5,4.44663186824496,5.37972389720935,4.42679496126681,2.96612019395715,FALSE,0.989768906044813
"CAN","cpi",0.3,1969,3,1968,NA,1,4.08207417713245,7.59968284037868,4.42679496126681,6.72487630040807,TRUE,3.51760866324624
"CAN","cpi",0.3,1969,3,1968,NA,1.5,3.16337758319512,6.81054748773899,4.42679496126681,4.31664452944541,TRUE,3.64716990454388
"CAN","cpi",0.3,1970,3,1970,NA,0,2.54642109718625,2.86815890450144,3.28128405769805,3.52697515579364,FALSE,1.50209538787692
"CAN","cpi",0.3,1970,3,1970,NA,0.5,6.02602011643849,7.38952121192732,3.28128405769805,4.65371085276917,FALSE,9.20560412046153
"CAN","cpi",0.3,1970,3,1969,NA,1,2.55984999727204,5.19686446059684,3.28128405769805,4.52747875087707,TRUE,2.6370144633248
"CAN","cpi",0.3,1970,3,1969,NA,1.5,1.41117188681609,4.04818635014089,3.28128405769805,2.07973847283129,TRUE,2.6370144633248
"CAN","cpi",0.3,1971,3,1971,NA,0,2.03995881238172,2.28125744857178,2.64123406634756,2.8393232579169,FALSE,1.26980325840659
"CAN","cpi",0.3,1971,3,1971,NA,0.5,3.37789932241683,4.2087175258712,2.64123406634756,2.06692165705507,FALSE,2.935576077938
"CAN","cpi",0.3,1971,3,1970,NA,1,1.4854143648924,3.23773500188628,2.64123406634756,2.64105994583495,TRUE,1.75232063699388
"CAN","cpi",0.3,1971,3,1970,NA,1.5,3.95953331404831,7.8811806509459,2.64123406634756,4.63977638900468,FALSE,7.68821661604258
"CAN","cpi",0.3,1972,3,1972,NA,0,2.65346938775644,2.93942267367399,4.83230569625923,5.03048103188219,FALSE,5.69419049330396
"CAN","cpi",0.3,1972,3,1972,NA,0.5,5.63675607632412,7.03138970427361,4.83230569625923,5.06705904355972,FALSE,3.69306328527774
"CAN","cpi",0.3,1972,3,1971,NA,1,4.33806899334128,7.15374339590194,4.83230569625923,5.9169160270675,TRUE,2.81567440256067
"CAN","cpi",0.3,1972,3,1971,NA,1.5,2.77907293544912,5.59474733800979,4.83230569625923,3.09276495441271,TRUE,2.81567440256067
"CAN","cpi",0.3,1973,3,1973,NA,0,3.80542861110449,4.25837796097939,7.12388603531779,6.99264756193144,FALSE,8.64011527655605
"CAN","cpi",0.3,1973,3,1973,NA,0.5,6.76108210650352,8.32269140670147,7.12388603531779,5.47469896411854,TRUE,1.56160930019795
"CAN","cpi",0.3,1973,3,1972,NA,1,4.39959151734826,8.08401342408966,7.12388603531779,6.69062283747837,TRUE,3.6844219067414
"CAN","cpi",0.3,1973,3,1972,NA,1.5,4.54046878975281,8.68645140760214,7.12388603531779,4.73174243586486,TRUE,4.14598261784933
"CAN","cpi",0.3,1974,3,1974,NA,0,5.28368851955892,5.96078907477627,10.2717243737774,9.94431520564033,FALSE,12.9940585523635
"CAN","cpi",0.3,1974,3,1974,NA,0.5,10.017716487711,12.292718461145,10.2717243737774,8.3378654175141,TRUE,2.27500197343401
"CAN","cpi",0.3,1974,3,1973,NA,1,4.25716588266111,8.41359628202507,10.2717243737774,7.16712422635118,FALSE,9.46536780437068
"CAN","cpi",0.3,1974,3,1973,NA,1.5,3.72724732164904,7.883677721013,10.2717243737774,4.05174749178054,FALSE,10.9794208358337
"CAN","cpi",0.3,1975,3,1975,NA,0,5.94339041907867,6.75529455557965,10.0232981493341,10.0931823619779,FALSE,10.1490572615137
"CAN","cpi",0.3,1975,3,1975,NA,0.5,11.558210682397,14.1982506193571,10.0232981493341,8.98267476097328,FALSE,7.0255043171398
"CAN","cpi",0.3,1975,3,1974,NA,1,3.46971139118996,7.24327896965917,10.0232981493341,7.7837982223054,FALSE,11.7164795203976
"CAN","cpi",0.3,1975,3,1974,NA,1.5,4.610989919774,8.3845574982432,10.0232981493341,5.75931605308519,FALSE,8.45568372444326
"CAN","cpi",0.3,1976,3,1976,NA,0,4.88874400138246,5.61896681128577,7.22784311401172,7.07277954951717,FALSE,5.32701224626314
"CAN","cpi",0.3,1976,3,1976,NA,0.5,11.0409254115482,13.1387633695757,7.22784311401172,8.59089060438327,FALSE,12.9923588081317
"CAN","cpi",0.3,1976,3,1975,NA,1,5.21796265714633,8.33486299691353,7.22784311401172,10.4141477685142,TRUE,3.11690033976719
"CAN","cpi",0.3,1976,3,1975,NA,1.5,4.86144907336192,9.01733775796168,7.22784311401172,6.43051086134862,TRUE,4.15588868459976
"CAN","cpi",0.3,1977,3,1977,NA,0,4.43065604474442,5.03970546783162,7.58101410153764,7.55301151664772,FALSE,7.86993123367583
"CAN","cpi",0.3,1977,3,1977,NA,0.5,9.6216347242987,11.5431258184166,7.58101410153764,7.98165850021887,FALSE,7.75183573057805
"CAN","cpi",0.3,1977,3,1976,NA,1,0.312667678795624,2.59806271508917,7.58101410153764,3.72134649143602,FALSE,16.5223989975749
"CAN","cpi",0.3,1977,3,1976,NA,1.5,6.73512050963852,11.8115558486585,7.58101410153764,8.00272044475614,TRUE,5.07643533901993
"CAN","cpi",0.3,1978,3,1978,NA,0,4.82851233931638,5.5321005363913,8.50208927062595,8.67127840358843,FALSE,9.18927029488819
"CAN","cpi",0.3,1978,3,1978,NA,0.5,10.0503181944051,12.2738830669055,8.50208927062595,8.3788273181893,FALSE,6.64707608329798
"CAN","cpi",0.3,1978,3,1977,NA,1,3.3179679901016,7.10519713413682,8.50208927062595,7.54783828416051,FALSE,7.77834953400415
"CAN","cpi",0.3,1978,3,1977,NA,1.5,8.25120866117063,13.492513370843,8.50208927062595,9.72562756342223,TRUE,5.24130470967235
"CAN","cpi",0.3,1979,3,1979,NA,0,5.0556026375855,5.75228957186264,8.65147652410481,8.56376390232469,FALSE,8.98007822639762
"CAN","cpi",0.3,1979,3,1979,NA,0.5,10.248861890779,12.6671021250942,8.65147652410481,8.29599284966764,FALSE,6.98219842481295
"CAN","cpi",0.3,1979,3,1978,NA,1,4.05506456047164,8.45213849250354,8.65147652410481,9.20311500508918,FALSE,4.96661116517839
"CAN","cpi",0.3,1979,3,1978,NA,1.5,7.08120897877406,12.2171644405073,8.65147652410481,8.55646910152924,TRUE,5.13595546173323
"CAN","cpi",0.3,1980,3,1980,NA,0,5.34852629694251,6.12087420273208,9.5171912664748,9.50406722106931,FALSE,10.4761109450545
"CAN","cpi",0.3,1980,3,1980,NA,0.5,10.5002640011738,12.700042394754,9.5171912664748,8.57798914335092,FALSE,5.00855763557736
"CAN","cpi",0.3,1980,3,1979,NA,1,3.0350499965098,7.47838894946966,9.5171912664748,8.17875203710815,FALSE,10.2684884301174
"CAN","cpi",0.3,1980,3,1979,NA,1.5,7.11509716894266,12.0311570623047,9.5171912664748,8.39204766062112,TRUE,4.91605989336208
"CAN","cpi",0.3,1981,3,1981,NA,0,6.25923431369477,7.21360300463418,11.5813425032741,11.7113878984199,FALSE,13.4336244013393
"CAN","cpi",0.3,1981,3,1981,NA,0.5,13.7810230074303,16.7744081241939,11.5813425032741,12.2156196752767,FALSE,9.27818655720986
"CAN","cpi",0.3,1981,3,1980,NA,1,4.78057879134044,9.80766181179747,11.5813425032741,11.0496853423024,FALSE,10.0947421389618
"CAN","cpi",0.3,1981,3,1980,NA,1.5,6.47748390546969,11.8938443769865,11.5813425032741,8.33809792174894,TRUE,5.41636047151676
"CAN","cpi",0.3,1982,3,1982,NA,0,6.34312918982729,7.23632668941313,10.1124203763629,10.2566668151097,FALSE,9.11060803372818
"CAN","cpi",0.3,1982,3,1982,NA,0.5,12.5144973506845,15.3091018818479,10.1124203763629,10.1085355973545,FALSE,9.65768160065347
"CAN","cpi",0.3,1982,3,1981,NA,1,3.11824262718255,9.63015140799504,10.1124203763629,11.770988683124,FALSE,7.88982011900652
"CAN","cpi",0.3,1982,3,1981,NA,1.5,10.1426810210717,16.6545898018842,10.1124203763629,12.8701250351281,FALSE,6.59836776569469
"CAN","cpi",0.3,1983,3,1983,NA,0,4.55897156375686,5.22017454436496,5.67091787896303,5.7310121416489,FALSE,1.94904107945974
"CAN","cpi",0.3,1983,3,1983,NA,0.5,7.56674914597436,9.63617345218018,5.67091787896303,4.91343016009654,FALSE,7.48608506909533
"CAN","cpi",0.3,1983,3,1982,NA,1,2.24253009417449,7.83335450374048,5.67091787896303,9.18500149866057,TRUE,5.59082440956598
"CAN","cpi",0.3,1983,3,1982,NA,1.5,7.52028782065783,13.1111122302238,5.67091787896303,9.68672301569366,FALSE,10.874738528694
"CAN","cpi",0.3,1984,3,1984,NA,0,NA,NA,4.19799576814029,NA,NA,NA
"CAN","cpi",0.3,1984,3,1984,NA,0.5,7.03317556377575,8.61281571028394,4.19799576814029,5.85770686024457,FALSE,9.6801538483238
"CAN","cpi",0.3,1984,3,1983,NA,1,2.15560697229696,5.0686854407366,4.19799576814029,5.76553357996429,TRUE,2.91307846843963
"CAN","cpi",0.3,1984,3,1983,NA,1.5,1.91368560875588,4.82676407719551,4.19799576814029,2.9197996794717,TRUE,2.91307846843963
"CAN","cpi",0.3,1985,3,1985,NA,0,2.5341367463892,2.90234446635324,3.86444262005169,3.85417990135378,FALSE,3.11705958767391
"CAN","cpi",0.3,1985,3,1985,NA,0.5,5.22315240128625,6.42042035506307,3.86444262005169,4.21990042382899,FALSE,5.07929590016126
"CAN","cpi",0.3,1985,3,1984,NA,1,NA,NA,3.86444262005169,NA,NA,NA
"CAN","cpi",0.3,1985,3,1984,NA,1.5,7.72404691534597,11.8134276159535,3.86444262005169,8.62999660305356,FALSE,15.1168215443054
"CAN","cpi",0.3,1986,3,1986,NA,0,2.54162477946496,2.8880631108236,4.08685396749431,4.03771389199993,FALSE,3.77155506470353
"CAN","cpi",0.3,1986,3,1986,NA,0.5,5.14392218458114,6.33470296245766,4.08685396749431,4.38219332503529,FALSE,4.21097568383889
"CAN","cpi",0.3,1986,3,1985,NA,1,1.10744770951418,3.18633338637118,4.08685396749431,3.37849976080849,FALSE,4.65180162292309
"CAN","cpi",0.3,1986,3,1985,NA,1.5,4.54172271623056,6.92512639785685,4.08685396749431,4.95309858900956,FALSE,3.68302867801557
"CAN","cpi",0.3,1987,3,1987,NA,0,NA,NA,4.23980729277887,NA,NA,NA
"CAN","cpi",0.3,1987,3,1987,NA,0.5,4.85351257404214,6.09656503305436,4.23980729277887,4.13342161080085,FALSE,2.99649611976442
"CAN","cpi",0.3,1987,3,1986,NA,1,1.3906715165593,3.4678313144262,4.23980729277887,3.66140988164798,FALSE,4.28280545030311
"CAN","cpi",0.3,1987,3,1986,NA,1.5,4.43415443623895,6.70284519432897,4.23980729277887,4.80242768143514,FALSE,2.82396831083309
"CAN","cpi",0.3,1988,3,1988,NA,0,2.61267815683699,2.98090999589641,3.92899537638065,3.9438316199536,FALSE,3.07704721187155
"CAN","cpi",0.3,1988,3,1988,NA,0.5,4.27113301085997,5.36564583673308,3.92899537638065,3.35419215340812,FALSE,2.07204892438544
"CAN","cpi",0.3,1988,3,1987,NA,1,NA,NA,3.92899537638065,NA,NA,NA
"CAN","cpi",0.3,1988,3,1987,NA,1.5,3.81909825383197,5.57507919018738,3.92899537638065,3.89461929526446,TRUE,1.75598093635541
"CAN","cpi",0.3,1989,3,1989,NA,0,2.88270750931978,3.26767359727776,4.82821664544208,4.95130318392835,FALSE,4.84366051128461
"CAN","cpi",0.3,1989,3,1989,NA,0.5,4.96381575703208,5.96716009653768,4.82821664544208,4.23024942747073,FALSE,1.3907703726199
"CAN","cpi",0.3,1989,3,1988,NA,1,2.07645596848394,3.73902420897798,4.82821664544208,4.05841794603162,FALSE,4.77454663039147
"CAN","cpi",0.3,1989,3,1988,NA,1.5,2.48043412540644,4.14300236590048,4.82821664544208,2.597843559383,FALSE,3.62032332489862
"CAN","cpi",0.3,1990,3,1990,NA,0,2.93940017165005,3.3116459371787,4.64347549432717,4.4746950192663,FALSE,4.17747307166715
"CAN","cpi",0.3,1990,3,1990,NA,0.5,5.87843872687707,6.95679381682267,4.64347549432717,4.96487168902479,FALSE,4.60682146865961
"CAN","cpi",0.3,1990,3,1989,NA,1,2.99911130203586,5.09863660327351,4.64347549432717,5.43871373969076,TRUE,2.09952530123765
"CAN","cpi",0.3,1990,3,1989,NA,1.5,3.18206454852041,5.28158984975806,4.64347549432717,3.3732540002381,TRUE,2.09952530123765
"CAN","cpi",0.3,1991,3,1991,NA,0,3.30189571494219,3.72464247164438,5.4258100696218,5.61053369942382,FALSE,5.28322560806624
"CAN","cpi",0.3,1991,3,1991,NA,0.5,8.06033542366817,9.33964072905141,5.4258100696218,7.82199295477594,FALSE,8.80652060265859
"CAN","cpi",0.3,1991,3,1990,NA,1,1.55557704281124,3.57304861905954,5.4258100696218,3.66716818384097,FALSE,7.31107572071189
"CAN","cpi",0.3,1991,3,1990,NA,1.5,4.64116501060535,6.65863658685364,5.4258100696218,4.82481948664164,TRUE,2.01747157624829
"CAN","cpi",0.3,1992,3,1992,NA,0,NA,NA,1.47496888572843,NA,NA,NA
"CAN","cpi",0.3,1992,3,1992,NA,0.5,NA,NA,1.47496888572843,NA,NA,NA
"CAN","cpi",0.3,1992,3,1991,NA,1,0.725236968638035,3.04727321221607,1.47496888572843,2.76780571233213,TRUE,2.32203624357804
"CAN","cpi",0.3,1992,3,1991,NA,1.5,6.89451088725047,9.26537910853347,1.47496888572843,7.14938182660169,FALSE,17.8552739399174
"CAN","cpi",0.3,1993,3,1993,NA,0,NA,NA,NA,NA,NA,NA
"CAN","cpi",0.3,1993,3,1993,NA,0.5,NA,NA,NA,NA,NA,NA
"CAN","cpi",0.3,1993,3,1992,NA,1,NA,NA,NA,NA,NA,NA
"CAN","cpi",0.3,1993,3,1992,NA,1.5,NA,NA,NA,NA,NA,NA
"CAN","cpi",0.3,1994,3,1994,NA,0,NA,NA,NA,NA,NA,NA
"CAN","cpi",0.3,1994,3,1994,NA,0.5,NA,NA,NA,NA,NA,NA
"CAN","cpi",0.3,1994,3,1993,NA,1,NA,NA,NA,NA,NA,NA
"CAN","cpi",0.3,1994,3,1993,NA,1.5,NA,NA,NA,NA,NA,NA
"CAN","cpi",0.3,1995,3,1995,NA,0,NA,NA,2.11688403676572,NA,NA,NA
"CAN","cpi",0.3,1995,3,1995,NA,0.5,NA,NA,2.11688403676572,2.51937811073084,NA,NA
"CAN","cpi",0.3,1995,3,1994,NA,1,NA,NA,2.11688403676572,0.719396410821945,NA,NA
"CAN","cpi",0.3,1995,3,1994,NA,1.5,NA,NA,2.11688403676572,-1.04654603924828,NA,NA
"CAN","cpi",0.3,1996,3,1996,NA,0,1.27750035319755,1.45016325841197,1.55309584667184,1.42780748357026,FALSE,0.466756014528335
"CAN","cpi",0.3,1996,3,1996,NA,0.5,NA,NA,1.55309584667184,NA,NA,NA
"CAN","cpi",0.3,1996,3,1995,NA,1,NA,NA,1.55309584667184,NA,NA,NA
"CAN","cpi",0.3,1996,3,1995,NA,1.5,2.98413647421694,4.17867706551898,1.55309584667184,2.92232271175447,FALSE,5.28322809857374
"CAN","cpi",0.3,1997,3,1997,NA,0,1.24986650539658,1.42011838739194,1.60528783555959,1.73535847807117,FALSE,0.699307448188642
"CAN","cpi",0.3,1997,3,1997,NA,0.5,2.59658994012528,3.07165699788026,1.60528783555959,2.11078363597796,FALSE,3.30735878508551
"CAN","cpi",0.3,1997,3,1996,NA,1,0.364126849968963,1.29190621475634,1.60528783555959,0.984961337307556,FALSE,1.82315542422524
"CAN","cpi",0.3,1997,3,1996,NA,1.5,NA,NA,1.60528783555959,NA,NA,NA
"CAN","cpi",0.3,1998,3,1998,NA,0,1.03028381899842,1.16536394869557,0.988908029337191,1.0350847138471,FALSE,0.253296671586381
"CAN","cpi",0.3,1998,3,1998,NA,0.5,2.19968519771343,2.6987944177739,0.988908029337191,1.68533655437107,FALSE,3.95847255827829
"CAN","cpi",0.3,1998,3,1997,NA,1,1.44575920927964,2.49059404068101,0.988908029337191,2.25159584334757,FALSE,2.35012391695123
"CAN","cpi",0.3,1998,3,1997,NA,1.5,2.41239052253566,3.45722535393703,0.988908029337191,2.38987816876076,FALSE,5.11192766911129
"CAN","cpi",0.3,1999,3,1999,NA,0,1.1262151951118,1.25909583241381,1.7107350135213,1.77618438459462,FALSE,1.42327829760912
"CAN","cpi",0.3,1999,3,1999,NA,0.5,1.48412626317263,1.85899306657824,1.7107350135213,1.0290924799153,TRUE,0.374866803405608
"CAN","cpi",0.3,1999,3,1998,NA,1,1.23434517397507,2.05718560688879,1.7107350135213,1.85177544064205,TRUE,0.822840432913722
"CAN","cpi",0.3,1999,3,1998,NA,1.5,2.78381072241021,3.74591654018449,1.7107350135213,2.94645730787123,FALSE,4.02803641459975
"CAN","cpi",0.3,2000,3,2000,NA,0,1.62127312207236,1.79486589190324,2.6718361971244,2.7102541785615,FALSE,2.6792222133199
"CAN","cpi",0.3,2000,3,2000,NA,0.5,2.66103781323343,3.26023855573815,2.6718361971244,2.34405201403356,TRUE,0.599200742504722
"CAN","cpi",0.3,2000,3,1999,NA,1,2.05602853846499,3.08267048400792,2.6718361971244,3.07542936781209,TRUE,1.02664194554293
"CAN","cpi",0.3,2000,3,1999,NA,1.5,2.23964203457511,3.26628398011804,2.6718361971244,2.27809035801724,TRUE,1.02664194554293
"CAN","cpi",0.3,2001,3,2001,NA,0,1.91022936363194,2.10116989666657,2.47906219852806,2.77546584984351,FALSE,1.27063282406746
"CAN","cpi",0.3,2001,3,2001,NA,0.5,2.92766920991643,3.68776147213219,2.47906219852806,2.43566755503104,FALSE,2.04182658046824
"CAN","cpi",0.3,2001,3,2000,NA,1,2.29331186025955,3.71884199735901,2.47906219852806,3.68958695319843,TRUE,1.42553013709947
"CAN","cpi",0.3,2001,3,2000,NA,1.5,2.88632747196334,4.31185760906281,2.47906219852806,3.01270789712173,FALSE,2.58914520405741
"CAN","cpi",0.3,2002,3,2002,NA,0,1.6731303664681,1.84859331531787,2.20880570551249,2.27196234986351,FALSE,1.20464120654868
"CAN","cpi",0.3,2002,3,2002,NA,0.5,2.21522572784155,2.8558337956621,2.20880570551249,1.58345411989126,FALSE,0.658950988760727
"CAN","cpi",0.3,2002,3,2001,NA,1,1.24347320893583,2.42100067913174,2.20880570551249,2.26510423845898,TRUE,1.17752747019591
"CAN","cpi",0.3,2002,3,2001,NA,1.5,2.86826168996266,4.13317490629302,2.20880570551249,3.02058043279009,FALSE,3.14907317190228
"CAN","cpi",0.3,2003,3,2003,NA,0,1.75783602746977,1.92200694500066,2.71189071546809,2.71326702620668,FALSE,2.42098169029498
"CAN","cpi",0.3,2003,3,2003,NA,0.5,4.45468787195025,5.08801950216301,2.71189071546809,4.51432649273496,FALSE,5.61275207730464
"CAN","cpi",0.3,2003,3,2002,NA,1,2.52542685546106,3.6436899271672,2.71189071546809,3.85618281746238,TRUE,1.11826307170614
"CAN","cpi",0.3,2003,3,2002,NA,1.5,2.34912575506155,3.46738882676769,2.71189071546809,2.39402389849184,TRUE,1.11826307170614
"CAN","cpi",0.3,2004,3,2004,NA,0,1.5912497763826,1.7379588410608,1.83151661303942,1.77466852383015,FALSE,0.414016984617119
"CAN","cpi",0.3,2004,3,2004,NA,0.5,2.19566428250456,2.8685590090975,1.83151661303942,1.55260435151936,FALSE,1.71331663935047
"CAN","cpi",0.3,2004,3,2003,NA,1,1.00492105281741,1.99763839870909,1.83151661303942,1.79415792598285,TRUE,0.992717345891682
"CAN","cpi",0.3,2004,3,2003,NA,1.5,3.90164389759061,5.32507000990116,1.83151661303942,4.26699272545716,FALSE,7.33807549674252
"CAN","cpi",0.3,2005,3,2005,NA,0,1.55989179999886,1.70212629377827,2.18071628336509,2.34345353472953,FALSE,1.50963446402748
"CAN","cpi",0.3,2005,3,2005,NA,0.5,1.99006158392485,2.49358922444741,2.18071628336509,1.50321338317329,TRUE,0.503527640522563
"CAN","cpi",0.3,2005,3,2004,NA,1,1.08340912508372,1.79379613503783,2.18071628336509,1.64043962712234,FALSE,1.815873148032
"CAN","cpi",0.3,2005,3,2004,NA,1.5,2.10012581060708,2.93406427419405,2.18071628336509,2.03393284113233,TRUE,0.833938463586971
"CAN","cpi",0.3,2006,3,2006,NA,0,1.55213828916276,1.70950715914323,1.97519342012289,2.09514376892657,FALSE,0.916472472779478
"CAN","cpi",0.3,2006,3,2006,NA,0.5,2.54708447850967,3.09657921836861,1.97519342012289,2.09436263599022,FALSE,2.18346919239261
"CAN","cpi",0.3,2006,3,2005,NA,1,2.06342617271074,2.91818361175573,1.97519342012289,2.9582912060806,FALSE,1.10685101786742
"CAN","cpi",0.3,2006,3,2005,NA,1.5,1.76362244311143,2.62091717276048,1.97519342012289,1.64885961980806,TRUE,0.857294729649052
"CAN","cpi",0.3,2007,3,2007,NA,0,1.5045601472897,1.6436579612027,2.10062087284572,2.10683622102307,FALSE,1.44470613289307
"CAN","cpi",0.3,2007,3,2007,NA,0.5,2.48498454743709,3.05334186688152,2.10062087284572,2.17629902083353,FALSE,1.66653924684834
"CAN","cpi",0.3,2007,3,2006,NA,1,1.02410812526517,1.68946257442747,2.10062087284572,1.50861692709856,FALSE,1.84009244464301
"CAN","cpi",0.3,2007,3,2006,NA,1.5,2.13772768068761,3.01789126841246,2.10062087284572,2.15918616350405,FALSE,0.986183038701663
"CAN","cpi",0.3,2008,3,2008,NA,0,1.78888552696118,1.95465776202981,2.31447335265955,2.87079455148828,FALSE,1.19381677972503
"CAN","cpi",0.3,2008,3,2008,NA,0.5,1.82433140674497,2.39536378139111,2.31447335265955,1.31005314695267,TRUE,0.571032374646141
"CAN","cpi",0.3,2008,3,2007,NA,1,1.05043425029019,1.69569331377493,2.31447335265955,1.47031049982668,FALSE,2.41320203172652
"CAN","cpi",0.3,2008,3,2007,NA,1.5,2.42902201775286,3.2616528334949,2.31447335265955,2.46453195342394,FALSE,1.15991271600864
"CAN","cpi",0.3,2009,3,2009,NA,0,0.952510253473648,1.05635446772729,0.284533874408197,0.187122346349721,FALSE,2.01234815444065
"CAN","cpi",0.3,2009,3,2009,NA,0.5,0.88849412041566,1.43010160299533,0.284533874408197,-0.0727492620466167,FALSE,2.26720818545813
"CAN","cpi",0.3,2009,3,2008,NA,1,2.8143435023946,3.55588406413791,0.284533874408197,3.81780026356951,FALSE,7.96956807027589
"CAN","cpi",0.3,2009,3,2008,NA,1.5,1.82892298141314,2.57046354315646,0.284533874408197,1.68675152630419,FALSE,5.15408086747173
"CAN","cpi",0.3,2010,3,2010,NA,0,0.898335415837413,0.985861388505013,1.75525687020327,1.6089956646354,FALSE,2.28579877751977
"CAN","cpi",0.3,2010,3,2010,NA,0.5,1.92295415942711,2.16189301781185,1.75525687020327,1.91109502526183,FALSE,0.718073970452854
"CAN","cpi",0.3,2010,3,2009,NA,1,0.97343500275306,1.2123738611378,1.75525687020327,0.992295788494754,FALSE,1.79003317000037
"CAN","cpi",0.3,2010,3,2009,NA,1.5,1.11152144289395,1.38918401592441,1.75525687020327,0.885103052815867,FALSE,1.32358501382721
"CAN","cpi",0.3,2011,3,2011,NA,0,1.70216550416194,1.8878122720486,2.85717434028225,2.86665414062098,FALSE,2.95525267712564
"CAN","cpi",0.3,2011,3,2011,NA,0.5,2.74894426035495,3.36485332584454,2.85717434028225,2.76583381894771,TRUE,0.615909065489591
"CAN","cpi",0.3,2011,3,2010,NA,1,1.13997808219865,1.75588714768824,2.85717434028225,1.39294644169719,FALSE,3.76244390147246
"CAN","cpi",0.3,2011,3,2010,NA,1.5,1.81423983116482,2.45498978504591,2.85717434028225,1.64253060592363,FALSE,1.78984868312777
"CAN","cpi",0.3,2012,3,2012,NA,0,1.55982253623181,1.7257301548855,1.50118536134935,1.52822510849394,FALSE,0.333442404032152
"CAN","cpi",0.3,2012,3,2012,NA,0.5,2.3595569209717,3.10875823557055,1.50118536134935,1.92429021972789,FALSE,3.20169148494844
"CAN","cpi",0.3,2012,3,2011,NA,1,1.53572366898137,2.45329108740104,1.50118536134935,1.99945242447079,FALSE,1.01624829736831
"CAN","cpi",0.3,2012,3,2011,NA,1.5,2.58746138666617,3.58985851531094,1.50118536134935,2.48150957397962,FALSE,4.10604291526427
"CAN","cpi",0.3,2013,3,2013,NA,0,1.0500210151788,1.15415442492002,0.931270594714462,1.05630513423211,FALSE,0.443420325353613
"CAN","cpi",0.3,2013,3,2013,NA,0.5,1.53163969130106,2.01986070045567,0.931270594714462,1.16963454554932,FALSE,2.20356128511632
"CAN","cpi",0.3,2013,3,2012,NA,1,0.913970306076557,1.49970784695544,0.931270594714462,1.08868089128742,TRUE,0.585737540878882
"CAN","cpi",0.3,2013,3,2012,NA,1.5,2.18719053759887,2.91196830976227,0.931270594714462,2.14573179530527,FALSE,4.31312046611884
"CAN","cpi",0.3,2014,3,2014,NA,0,1.20741735327269,1.31891350959761,1.87639912240215,1.99862849145116,FALSE,1.70431219290932
"CAN","cpi",0.3,2014,3,2014,NA,0.5,1.8214080302135,2.25079372042799,1.87639912240215,1.79231976082687,TRUE,0.429385690214493
"CAN","cpi",0.3,2014,3,2013,NA,1,1.17112880937646,1.65157698986279,1.87639912240215,1.40664989819898,FALSE,1.12279713059879
"CAN","cpi",0.3,2014,3,2013,NA,1.5,1.57761056136533,2.17396086136637,1.87639912240215,1.51436121777893,TRUE,0.596350300001035
"CAN","cpi",0.3,2015,3,2015,NA,0,1.19509659470245,1.30895882734598,1.11090953952792,1.2103065042478,FALSE,0.354396675999331
"CAN","cpi",0.3,2015,3,2015,NA,0.5,1.07366958558063,1.57685416453771,1.11090953952792,0.458547315718059,TRUE,0.503184578957073
"CAN","cpi",0.3,2015,3,2014,NA,1,1.2730589296521,1.94656517489683,1.11090953952792,1.57054781428135,FALSE,1.13679021702811
