isdrw/probabilistic-benchmark-forecasts/results/bayesian_quantile_regression/5000Samples/bqr_prediction_ar1_2026-02-27_15-10-24.csv
"country","target","tau","target_year","target_quarter","forecast_year","forecast_quarter","horizon","lower_bound","upper_bound","truth_value","prediction","covered","IS"
"CAN","cpi",0.1,1952,3,1952,NA,0,-25.1227819485741,-23.4287643551411,2.55562336095485,2.50792675283471,FALSE,59.4371014069796
"CAN","cpi",0.1,1952,3,1952,NA,0.5,-12.7242215574926,-9.43024814442849,2.55562336095485,3.80942800622696,FALSE,29.929243425027
"CAN","cpi",0.1,1952,3,1951,NA,1,-2.81425963481136,0.479713778252709,2.55562336095485,6.36946346746546,FALSE,7.90710581906882
"CAN","cpi",0.1,1952,3,1951,NA,1.5,-69.9781867707888,-66.6842133577247,2.55562336095485,4.80604275648344,FALSE,157.160277232352
"CAN","cpi",0.1,1953,3,1953,NA,0,-1.17177819548981,-1.98681865589565,-1.01492775838436,-1.00118391953201,FALSE,1.34471708961925
"CAN","cpi",0.1,1953,3,1953,NA,0.5,-15.8071813795869,-16.1158543397425,-1.01492775838436,-1.88711612688489,FALSE,33.2489416650847
"CAN","cpi",0.1,1953,3,1952,NA,1,-14.7317440759043,-14.8620196690363,-1.01492775838436,-0.873617238258229,FALSE,30.6410397638723
"CAN","cpi",0.1,1953,3,1952,NA,1.5,-19.4642427892205,-19.0712664372943,-1.01492775838436,0.432272395627528,FALSE,40.5181734161705
"CAN","cpi",0.1,1954,3,1954,NA,0,1.00862830717049,0.728621408568443,0.644425455961438,0.831821956393317,FALSE,0.529332770751401
"CAN","cpi",0.1,1954,3,1954,NA,0.5,1.95591792847557,1.67591102987353,0.644425455961438,-0.141712452464762,FALSE,2.63442081809603
"CAN","cpi",0.1,1954,3,1953,NA,1,10.2385751203523,9.95856822175029,0.644425455961438,2.12291681679911,FALSE,21.0403256889333
"CAN","cpi",0.1,1954,3,1953,NA,1.5,-0.86568887481312,-0.431398465456639,0.644425455961438,-1.28741438714058,FALSE,2.82501023472999
"CAN","cpi",0.1,1955,3,1955,NA,0,0.470370599311661,0.514182947038437,0.173649026558865,0.10295813188439,FALSE,0.703193620510768
"CAN","cpi",0.1,1955,3,1955,NA,0.5,-0.648731509534588,-0.496702993638119,0.173649026558865,-0.548848324097393,FALSE,1.64169967188977
"CAN","cpi",0.1,1955,3,1954,NA,1,6.38674098819504,7.18205273837789,0.173649026558865,2.19101630104756,FALSE,14.602182776041
"CAN","cpi",0.1,1955,3,1954,NA,1.5,-8.83570418281229,-8.04039243262944,0.173649026558865,-0.815294949881493,FALSE,19.0487372150458
"CAN","cpi",0.1,1956,3,1956,NA,0,1.0309549316229,1.05776546042863,1.32752769429961,1.46434436590257,FALSE,0.626282159630126
"CAN","cpi",0.1,1956,3,1956,NA,0.5,-0.0829278475612414,-0.0561173187555056,1.32752769429961,-0.485738076612692,FALSE,3.10157722448377
"CAN","cpi",0.1,1956,3,1955,NA,1,1.35004507619069,1.59662531656366,1.32752769429961,0.557995939500226,FALSE,0.296618866797601
"CAN","cpi",0.1,1956,3,1955,NA,1.5,-4.90707541683713,-4.66049517646416,1.32752769429961,-0.793756041684752,FALSE,13.5532977309591
"CAN","cpi",0.1,1957,3,1957,NA,0,1.95649437315446,2.1176204521264,3.24684755852518,3.35523637829212,FALSE,2.67051964874699
"CAN","cpi",0.1,1957,3,1957,NA,0.5,3.37786772527534,4.02699930226857,3.24684755852518,2.12793087018929,FALSE,0.940287503104715
"CAN","cpi",0.1,1957,3,1956,NA,1,7.47747390129328,8.745700323056,3.24684755852518,4.42886834530761,FALSE,10.6696182945807
"CAN","cpi",0.1,1957,3,1956,NA,1.5,-10.6127016838823,-9.34447526211958,3.24684755852518,-0.785064469253982,FALSE,29.2489438009733
"CAN","cpi",0.1,1958,3,1958,NA,0,1.91819999942529,1.99568511100582,2.33186388641149,2.20013349321115,FALSE,0.824549056926462
"CAN","cpi",0.1,1958,3,1958,NA,0.5,3.71806310864531,4.23497207920073,2.33186388641149,2.0126030377883,FALSE,3.59735168663057
"CAN","cpi",0.1,1958,3,1957,NA,1,0.954129092581533,2.34170398080093,2.33186388641149,2.83859761398538,TRUE,1.3875748882194
"CAN","cpi",0.1,1958,3,1957,NA,1.5,-17.1533279595418,-15.7657530713224,2.33186388641149,0.366312073207214,FALSE,41.6045014609613
"CAN","cpi",0.1,1959,3,1959,NA,0,1.34391554543653,1.41141251062808,1.19382698397654,1.18954599151176,FALSE,0.401027101769308
"CAN","cpi",0.1,1959,3,1959,NA,0.5,1.72742917116179,1.97229862132579,1.19382698397654,0.545308327160925,FALSE,1.43065208835344
"CAN","cpi",0.1,1959,3,1958,NA,1,-0.194827331928118,0.302683546357098,1.19382698397654,1.13295114249046,FALSE,2.47782962855064
"CAN","cpi",0.1,1959,3,1958,NA,1.5,-11.173127166173,-10.6756162878878,1.19382698397654,0.717422088079289,FALSE,26.8740514824282
"CAN","cpi",0.1,1960,3,1960,NA,0,1.00844725998467,1.05800129280128,1.34209404870695,1.02361304259477,FALSE,0.680871268162553
"CAN","cpi",0.1,1960,3,1960,NA,0.5,1.57828476234299,1.77596212730308,1.34209404870695,0.648611007713657,FALSE,0.722545617484622
"CAN","cpi",0.1,1960,3,1959,NA,1,2.54501522861489,3.08960791227693,1.34209404870695,2.37666873185636,FALSE,3.21775086123524
"CAN","cpi",0.1,1960,3,1959,NA,1.5,-5.72467000860874,-5.1800773249467,1.34209404870695,-0.349092179567277,FALSE,15.0383068473368
"CAN","cpi",0.1,1961,3,1961,NA,0,1.05762752050249,1.1242542883975,1.00921348094007,1.00921348094007,FALSE,0.174213522478168
"CAN","cpi",0.1,1961,3,1961,NA,0.5,1.95964965813585,2.09994264792216,1.00921348094007,1.00921348094007,FALSE,2.25237338355471
"CAN","cpi",0.1,1961,3,1960,NA,1,-0.477284401285165,-0.336991411498849,1.00921348094007,0.0537704626035329,FALSE,3.13185941742836
"CAN","cpi",0.1,1961,3,1960,NA,1.5,-5.52894338196681,-5.38865039218049,1.00921348094007,-0.332316386156399,FALSE,14.3577682633876
"CAN","cpi",0.1,1962,3,1962,NA,0,1.00039936198435,1.05136641409832,1.04957947883042,1.0653801125483,TRUE,0.0509670521139691
"CAN","cpi",0.1,1962,3,1962,NA,0.5,0.858067501045468,0.936496343171236,1.04957947883042,0,FALSE,0.329724699146166
"CAN","cpi",0.1,1962,3,1961,NA,1,-0.0615428292081202,0.0168860129176477,1.04957947883042,0,FALSE,2.37330321082081
"CAN","cpi",0.1,1962,3,1961,NA,1.5,-3.78327486124077,-3.704846019115,1.04957947883042,0,FALSE,10.64381883756
"CAN","cpi",0.1,1963,3,1963,NA,0,1.29709286229649,1.35577679120236,1.60677118395228,1.83024954277348,FALSE,0.616449246127917
"CAN","cpi",0.1,1963,3,1963,NA,0.5,1.64904315550182,1.80590503887086,1.60677118395228,0.836828714617504,FALSE,0.250799597923562
"CAN","cpi",0.1,1963,3,1962,NA,1,1.65350902180788,1.8481298667771,1.60677118395228,1.60935100695326,FALSE,0.298482706870547
"CAN","cpi",0.1,1963,3,1962,NA,1.5,-2.91128072944254,-2.71665988447331,1.60677118395228,0,FALSE,9.80224544147055
"CAN","cpi",0.1,1964,3,1964,NA,0,1.47115317716528,1.53281387137067,1.88764670034376,1.95194648443024,FALSE,0.850178091923366
"CAN","cpi",0.1,1964,3,1964,NA,0.5,2.24138549929003,2.3235840982137,1.88764670034376,1.27307816843398,FALSE,0.868284818804271
"CAN","cpi",0.1,1964,3,1963,NA,1,3.1531696213664,3.23536822029007,1.88764670034376,3.20172332637508,FALSE,2.89447175675176
"CAN","cpi",0.1,1964,3,1963,NA,1.5,-3.32158367547109,-3.23938507654741,1.88764670034376,0,FALSE,11.4756025475707
"CAN","cpi",0.1,1965,3,1965,NA,0,1.67252342641557,1.7126127545913,2.29538304394236,2.29800189469823,FALSE,1.33513441562253
"CAN","cpi",0.1,1965,3,1965,NA,0.5,2.44204458158826,2.48213390976399,2.29538304394236,1.39443218256826,FALSE,0.366003856277744
"CAN","cpi",0.1,1965,3,1964,NA,1,1.4908857770564,1.53097510523213,2.29538304394236,1.48078368039448,FALSE,1.73877363642067
"CAN","cpi",0.1,1965,3,1964,NA,1.5,-3.14413482745362,-3.10404549927789,2.29538304394236,0.293257399533461,FALSE,12.0388194242207
"CAN","cpi",0.1,1966,3,1966,NA,0,2.32277030135303,2.3940443436504,3.72486065470629,3.77511268244847,FALSE,3.02864362242157
"CAN","cpi",0.1,1966,3,1966,NA,0.5,4.27966560609626,4.35093964839362,3.72486065470629,3.37743719728421,FALSE,1.30417393427507
"CAN","cpi",0.1,1966,3,1965,NA,1,1.98608672556451,2.05736076786187,3.72486065470629,1.98486973144544,FALSE,3.77682934639608
"CAN","cpi",0.1,1966,3,1965,NA,1.5,-3.21127791243721,-3.14000387013985,3.72486065470629,0.578640834001038,FALSE,15.3265285419554
"CAN","cpi",0.1,1967,3,1967,NA,0,2.67204731419851,2.74641027183225,3.49360316391996,3.68375770714608,FALSE,1.73479160671754
"CAN","cpi",0.1,1967,3,1967,NA,0.5,3.715171497678,3.78953445531174,3.49360316391996,2.11054708048259,FALSE,0.566737032651614
"CAN","cpi",0.1,1967,3,1966,NA,1,2.06766403726009,2.14202699489383,3.49360316391996,2.02003307533501,FALSE,3.07786555546958
"CAN","cpi",0.1,1967,3,1966,NA,1.5,-3.89337745647423,-3.81901449884049,3.49360316391996,1.71558536379673,FALSE,16.3246244304348
"CAN","cpi",0.1,1968,3,1968,NA,0,2.74501172808131,2.8180590007426,3.95128347779386,4.07085717819357,FALSE,2.59132388833075
"CAN","cpi",0.1,1968,3,1968,NA,0.5,4.78273087854052,4.92145809040162,3.95128347779386,3.50732233276501,FALSE,1.98638810240924
"CAN","cpi",0.1,1968,3,1967,NA,1,3.84942219517741,3.9881494070385,3.95128347779386,3.66303679301692,TRUE,0.138727211861094
"CAN","cpi",0.1,1968,3,1967,NA,1.5,-3.58985007469057,-3.45112286282948,3.95128347779386,0.834881519045053,FALSE,16.588519079913
"CAN","cpi",0.1,1969,3,1969,NA,0,3.00179456995212,3.10014155719878,4.42679496126681,4.52532640008253,FALSE,3.0464656629534
"CAN","cpi",0.1,1969,3,1969,NA,0.5,4.30290333592972,4.43969598710344,4.42679496126681,2.69090620784681,TRUE,0.136792651173725
"CAN","cpi",0.1,1969,3,1968,NA,1,4.387723352491,4.52451600366473,4.42679496126681,4.0779393276339,TRUE,0.136792651173725
"CAN","cpi",0.1,1969,3,1968,NA,1.5,-3.38350022718668,-3.24670757601296,4.42679496126681,1.61221871335458,FALSE,17.1890205117954
"CAN","cpi",0.1,1970,3,1970,NA,0,2.78569285814563,2.86230123506473,3.28128405769805,3.55878605435979,FALSE,1.00768131610425
"CAN","cpi",0.1,1970,3,1970,NA,0.5,5.36522816109545,5.58309643023945,3.28128405769805,3.74969277403504,FALSE,4.84885516558267
"CAN","cpi",0.1,1970,3,1969,NA,1,3.28964584414415,3.50751411328815,3.28128405769805,3.11186608282608,FALSE,0.236450016802008
"CAN","cpi",0.1,1970,3,1969,NA,1.5,-4.68929189887357,-4.47142362972957,3.28128405769805,0.764941977259638,FALSE,17.4461075745387
"CAN","cpi",0.1,1971,3,1971,NA,0,2.2093224702424,2.27722519748526,2.64123406634756,2.81514553288871,FALSE,0.876811324714647
"CAN","cpi",0.1,1971,3,1971,NA,0.5,2.70837918241181,2.86463152046451,2.64123406634756,1.11673730766521,FALSE,0.305463707084371
"CAN","cpi",0.1,1971,3,1970,NA,1,2.17191574530075,2.42640114755478,2.64123406634756,1.92043450460395,FALSE,0.73189188846021
"CAN","cpi",0.1,1971,3,1970,NA,1.5,-1.39336544102627,-1.13888003877223,2.64123406634756,1.70194075200601,FALSE,8.65473896918691
"CAN","cpi",0.1,1972,3,1972,NA,0,2.83648229799347,2.9220506919027,4.83230569625923,5.04828762155974,FALSE,4.33057951470151
"CAN","cpi",0.1,1972,3,1972,NA,0.5,4.9225013703816,5.28568694767823,4.83230569625923,4.09602385359717,FALSE,0.563620408679671
"CAN","cpi",0.1,1972,3,1971,NA,1,4.75042836232265,5.28125402044012,4.83230569625923,4.16812111633716,TRUE,0.530825658117472
"CAN","cpi",0.1,1972,3,1971,NA,1.5,-1.44208563191338,-0.911259973795909,4.83230569625923,0.692030005351089,FALSE,13.2943049249067
"CAN","cpi",0.1,1973,3,1973,NA,0,4.21396094989751,4.33720521913541,7.12388603531779,7.25096132226983,FALSE,6.31586830519874
"CAN","cpi",0.1,1973,3,1973,NA,0.5,6.74606620409984,7.14977283998218,7.12388603531779,5.30446017290082,TRUE,0.40370663588234
"CAN","cpi",0.1,1973,3,1972,NA,1,5.52555941574049,6.1341004359737,7.12388603531779,4.92276035792265,FALSE,2.80806457433119
"CAN","cpi",0.1,1973,3,1972,NA,1.5,-1.65253427732283,-1.04399325708962,7.12388603531779,1.79187879074203,FALSE,18.7593838922497
"CAN","cpi",0.1,1974,3,1974,NA,0,5.85188964020262,6.01980079821989,10.2717243737774,10.148911210151,FALSE,9.61663021481178
"CAN","cpi",0.1,1974,3,1974,NA,0.5,9.76277732529778,10.4240391917145,10.2717243737774,7.90446289245049,TRUE,0.661261866416673
"CAN","cpi",0.1,1974,3,1973,NA,1,7.82502346044985,8.84198016058454,10.2717243737774,7.30476096756609,FALSE,4.19416606278552
"CAN","cpi",0.1,1974,3,1973,NA,1.5,-2.3188382023945,-1.30188150225981,10.2717243737774,2.5663290958369,FALSE,26.7360808691063
"CAN","cpi",0.1,1975,3,1975,NA,0,6.62500857116652,6.80307031355751,10.0232981493341,10.1746571103793,FALSE,7.33412359967234
"CAN","cpi",0.1,1975,3,1975,NA,0.5,11.302672427216,11.9508694116576,10.0232981493341,8.07152306914465,FALSE,3.49125093529016
"CAN","cpi",0.1,1975,3,1974,NA,1,7.08458650457311,7.73278348901471,10.0232981493341,7.8187778356914,FALSE,5.73822956292917
"CAN","cpi",0.1,1975,3,1974,NA,1.5,-5.46353471416113,-4.81533772971953,10.0232981493341,3.64914274700436,FALSE,33.6229433823386
"CAN","cpi",0.1,1976,3,1976,NA,0,5.54847665347753,5.72041907574152,7.22784311401172,7.18995143043805,FALSE,3.52177361841998
"CAN","cpi",0.1,1976,3,1976,NA,0.5,9.9669587606687,10.6800393632189,7.22784311401172,6.61333364285308,FALSE,6.80000426178797
"CAN","cpi",0.1,1976,3,1975,NA,1,6.96399683422349,7.67707743677371,7.22784311401172,8.584971075903,TRUE,0.713080602550219
"CAN","cpi",0.1,1976,3,1975,NA,1.5,-8.74296215029488,-8.02988154774466,7.22784311401172,3.14738569995591,FALSE,34.6191354064533
"CAN","cpi",0.1,1977,3,1977,NA,0,4.88447802372265,5.01556270927608,7.58101410153764,7.50176944503946,FALSE,5.83208777946802
"CAN","cpi",0.1,1977,3,1977,NA,0.5,8.65190782865139,9.39602540612944,7.58101410153764,6.40571638826874,FALSE,3.1238814155086
"CAN","cpi",0.1,1977,3,1976,NA,1,3.20514770767013,3.94926528514817,7.58101410153764,4.04909286077014,FALSE,8.81467050278798
"CAN","cpi",0.1,1977,3,1976,NA,1.5,-4.80018832622058,-3.4620139240669,7.58101410153764,2.59432747727492,FALSE,25.8782366812749
"CAN","cpi",0.1,1978,3,1978,NA,0,5.34813014452599,5.51341354758228,8.50208927062595,8.59104847384149,FALSE,6.80678500982
"CAN","cpi",0.1,1978,3,1978,NA,0.5,9.5593823403384,10.3317426724962,8.50208927062595,7.34113908733495,FALSE,3.12190048707432
"CAN","cpi",0.1,1978,3,1977,NA,1,4.77426848627798,5.76469926738661,8.50208927062595,5.87902868518151,FALSE,7.07351967719605
"CAN","cpi",0.1,1978,3,1977,NA,1.5,-2.83969783979532,-1.8492670586867,8.50208927062595,3.89293485842214,FALSE,23.9934448462478
"CAN","cpi",0.1,1979,3,1979,NA,0,5.55430466467867,5.74100177028528,8.65147652410481,8.48651410143776,FALSE,6.65441878076112
"CAN","cpi",0.1,1979,3,1979,NA,0.5,10.0796959139531,10.8219956699599,8.65147652410481,7.46186747064873,FALSE,3.9161206223364
"CAN","cpi",0.1,1979,3,1978,NA,1,5.39372315301061,6.2309000221142,8.65147652410481,6.93686058379669,FALSE,6.21623576241606
"CAN","cpi",0.1,1979,3,1978,NA,1.5,-0.818003656448091,0.0191732126554989,8.65147652410481,3.9179710204728,FALSE,20.0200731167687
"CAN","cpi",0.1,1980,3,1980,NA,0,5.91568806482725,6.0954857212737,9.5171912664748,9.43711128155219,FALSE,7.78358775689333
"CAN","cpi",0.1,1980,3,1980,NA,0.5,10.4166672311208,11.2067329601005,9.5171912664748,7.89144076485851,FALSE,2.78890120597084
"CAN","cpi",0.1,1980,3,1979,NA,1,3.91076474615336,4.98858401653982,9.5171912664748,5.69387794711803,FALSE,11.1413909369086
"CAN","cpi",0.1,1980,3,1979,NA,1.5,1.1094255536152,2.18724482400166,9.5171912664748,4.27199048256738,FALSE,17.366589142549
"CAN","cpi",0.1,1981,3,1981,NA,0,6.87352068099211,7.07449309532087,11.5813425032741,11.617538759154,FALSE,10.2161933208916
"CAN","cpi",0.1,1981,3,1981,NA,0.5,13.5061077929674,14.4273090247614,11.5813425032741,11.3038259100907,FALSE,5.19845743111237
"CAN","cpi",0.1,1981,3,1980,NA,1,6.08460257747003,7.00580380926397,11.5813425032741,8.22922472590444,FALSE,11.089064996261
"CAN","cpi",0.1,1981,3,1980,NA,1.5,2.08596082559567,3.0071620573896,11.5813425032741,4.54818367546621,FALSE,19.9749355559818
"CAN","cpi",0.1,1982,3,1982,NA,0,6.91432215993573,7.17438005986761,10.1124203763629,10.1863972123348,FALSE,6.78903638103263
"CAN","cpi",0.1,1982,3,1982,NA,0.5,12.9032822065707,13.8691943326571,10.1124203763629,9.38011590167964,FALSE,7.16782730432578
"CAN","cpi",0.1,1982,3,1981,NA,1,5.73304048199671,6.75626545496361,10.1124203763629,8.92774959502704,FALSE,8.48134702052097
"CAN","cpi",0.1,1982,3,1981,NA,1.5,7.51525138875905,8.53847636172595,10.1124203763629,7.65688060941457,FALSE,4.5208783388269
"CAN","cpi",0.1,1983,3,1983,NA,0,5.06071382416608,5.21323871357891,5.67091787896303,5.79231449937116,FALSE,1.16958970137755
"CAN","cpi",0.1,1983,3,1983,NA,0.5,8.64759645030688,9.22901649851961,5.67091787896303,4.48935486750539,FALSE,7.19626131786572
"CAN","cpi",0.1,1983,3,1982,NA,1,4.57446528550346,5.29540029577703,5.67091787896303,6.68360843662591,FALSE,1.5554185284647
"CAN","cpi",0.1,1983,3,1982,NA,1.5,4.42569300069244,5.14662801096601,5.67091787896303,5.80492936344428,FALSE,1.88602360582252
"CAN","cpi",0.1,1984,3,1984,NA,0,3.30170576930557,3.41112565756971,4.19799576814029,4.1863442377944,FALSE,1.85802013397653
"CAN","cpi",0.1,1984,3,1984,NA,0.5,6.52941464294001,7.00132313857179,4.19799576814029,4.37368919035215,FALSE,5.65283932852005
"CAN","cpi",0.1,1984,3,1983,NA,1,3.92797880681156,4.47264819782322,4.19799576814029,4.8252398586334,TRUE,0.544669391011654
"CAN","cpi",0.1,1984,3,1983,NA,1.5,-0.462693165397511,0.0819762256141434,4.19799576814029,1.63651850095104,FALSE,9.6913794855142
"CAN","cpi",0.1,1985,3,1985,NA,0,2.79113592874665,2.88320166156108,3.86444262005169,3.87488963413478,FALSE,2.27260119612691
"CAN","cpi",0.1,1985,3,1985,NA,0.5,5.2392731781099,5.6433028719503,3.86444262005169,3.66954460168274,FALSE,3.45920871174752
"CAN","cpi",0.1,1985,3,1984,NA,1,1.90496621723803,2.30899591107843,3.86444262005169,2.51760914226531,FALSE,3.86057793600321
"CAN","cpi",0.1,1985,3,1984,NA,1.5,2.43696988481343,2.84099957865383,3.86444262005169,2.74468923002786,FALSE,2.67834756361343
"CAN","cpi",0.1,1986,3,1986,NA,0,2.78893339756742,2.8750908362352,4.08685396749431,4.09009381020777,FALSE,2.77896439702136
"CAN","cpi",0.1,1986,3,1986,NA,0.5,5.52125017864294,5.73888350046222,4.08685396749431,4.18867743652029,FALSE,3.40518045770512
"CAN","cpi",0.1,1986,3,1985,NA,1.5,2.52459343724294,2.74222675906222,4.08685396749431,2.65645514502224,FALSE,3.20569378500171
"CAN","cpi",0.1,1987,3,1987,NA,0,2.93646241056437,3.02288393547616,4.23980729277887,4.30382748919395,FALSE,2.79069565225115
"CAN","cpi",0.1,1987,3,1987,NA,0.5,5.04867633140474,5.39073098349721,4.23980729277887,3.60745044359556,FALSE,2.1395414045944
"CAN","cpi",0.1,1987,3,1986,NA,1,3.16370379599369,3.50575844808616,4.23980729277887,3.48954394276064,FALSE,1.97327430696516
"CAN","cpi",0.1,1987,3,1986,NA,1.5,3.0361798088913,3.37823446098377,4.23980729277887,3.05061614822702,FALSE,2.25666094497048
"CAN","cpi",0.1,1988,3,1988,NA,0,2.86980076791133,2.94598408378335,3.92899537638065,3.96651200874969,FALSE,2.26065285497713
"CAN","cpi",0.1,1988,3,1988,NA,0.5,4.85272535282575,5.15860518625478,3.92899537638065,3.27588434563216,FALSE,2.35861311441812
"CAN","cpi",0.1,1988,3,1987,NA,1,3.05258276916164,3.35846260259067,3.92899537638065,3.36557853238272,FALSE,1.57373044185121
"CAN","cpi",0.1,1988,3,1987,NA,1.5,2.18536069413095,2.49124052755998,3.92899537638065,2.22890665988493,FALSE,3.50089060858609
"CAN","cpi",0.1,1989,3,1989,NA,0,3.1297032670206,3.19765719254746,4.82821664544208,4.96224122245117,FALSE,3.69141937640379
"CAN","cpi",0.1,1989,3,1989,NA,0.5,5.3719811437271,5.54135235691117,4.82821664544208,4.15246181762677,FALSE,1.37773676492857
"CAN","cpi",0.1,1989,3,1988,NA,1,3.08661697092739,3.25598818411146,4.82821664544208,3.35061776773985,FALSE,3.66321223836322
"CAN","cpi",0.1,1989,3,1988,NA,1.5,2.04775576736272,2.21712698054678,4.82821664544208,2.03293210635829,FALSE,5.97179269072916
"CAN","cpi",0.1,1990,3,1990,NA,0,3.19983617112267,3.28250171635908,4.64347549432717,4.49116732458404,FALSE,3.10705171849883
"CAN","cpi",0.1,1990,3,1990,NA,0.5,6.16492181754736,6.47447412680674,4.64347549432717,4.80635133900141,FALSE,3.69054413863759
"CAN","cpi",0.1,1990,3,1989,NA,1,4.15896993821543,4.46852224747481,4.64347549432717,4.45332930526201,FALSE,0.698337302264634
"CAN","cpi",0.1,1990,3,1989,NA,1.5,3.11783953617331,3.42739184543269,4.64347549432717,2.93994143296931,FALSE,3.01196041791379
"CAN","cpi",0.1,1991,3,1991,NA,0,3.54866380600594,3.63029761713045,5.4258100696218,5.5966415351231,FALSE,4.07166148332751
"CAN","cpi",0.1,1991,3,1991,NA,0.5,8.48303196059219,8.75563766908564,5.4258100696218,8.0424604401558,FALSE,7.06643213287211
"CAN","cpi",0.1,1991,3,1990,NA,1,2.73310016431404,3.00570587280749,5.4258100696218,3.00766385389873,FALSE,5.65061503474746
"CAN","cpi",0.1,1991,3,1990,NA,1.5,3.92663297579085,4.1992386842843,5.4258100696218,3.42461322750937,FALSE,2.99831989813232
"CAN","cpi",0.1,1992,3,1992,NA,0,2.33292166513464,2.40029766175131,1.47496888572843,1.46118300949616,FALSE,1.97393772863047
"CAN","cpi",0.1,1992,3,1992,NA,0.5,3.62980860227802,3.89911997074747,1.47496888572843,1.2379681755847,FALSE,5.05784407191297
"CAN","cpi",0.1,1992,3,1991,NA,1,1.62917439357317,1.89848576204263,1.47496888572843,1.8723365291461,FALSE,0.611990274791099
"CAN","cpi",0.1,1992,3,1991,NA,1.5,8.2116547304063,8.48096609887575,1.47496888572843,6.89933696838937,FALSE,15.2397243566425
"CAN","cpi",0.1,1993,3,1993,NA,0,1.34760333212191,1.37799908177479,1.84351085411351,1.80220567555903,FALSE,1.06486635485004
"CAN","cpi",0.1,1993,3,1993,NA,0.5,2.78317849648812,2.9243843914836,1.84351085411351,2.21818498229346,FALSE,2.2293562113835
"CAN","cpi",0.1,1993,3,1992,NA,1,1.55958442579781,1.70079032079328,1.84351085411351,1.3520429918812,FALSE,0.458362635707099
"CAN","cpi",0.1,1993,3,1992,NA,1.5,1.13382338771916,1.27502928271463,1.84351085411351,0.933485487336859,FALSE,1.40449827588187
"CAN","cpi",0.1,1994,3,1994,NA,0,0.907176599960944,0.936458340925891,0.161630694655448,0.202109657487191,FALSE,1.68605041942161
"CAN","cpi",0.1,1994,3,1994,NA,0.5,0.83595043745622,0.927464777062386,0.161630694655448,-0.572639707462777,FALSE,1.59000265694122
"CAN","cpi",0.1,1994,3,1993,NA,1,1.33834317302214,1.45080086607602,0.161630694655448,1.14110533076836,FALSE,2.72737431164654
"CAN","cpi",0.1,1994,3,1993,NA,1.5,1.87953875476687,1.99199644782075,0.161630694655448,1.65023462295923,FALSE,3.93003115996815
"CAN","cpi",0.1,1995,3,1995,NA,0,1.09602143905754,1.12017691558046,2.11688403676572,2.14851249512314,FALSE,2.23906019026794
"CAN","cpi",0.1,1995,3,1995,NA,0.5,2.49178114496745,2.57828431131335,2.11688403676572,2.60072443309243,FALSE,0.919607851238648
"CAN","cpi",0.1,1995,3,1994,NA,1,1.7304626697038,1.8169658360497,2.11688403676572,1.43373972642191,FALSE,0.752988056825932
"CAN","cpi",0.1,1995,3,1994,NA,1.5,-0.99790696782225,-0.911403801476351,2.11688403676572,-1.26611333424577,FALSE,6.81603169577271
"CAN","cpi",0.1,1996,3,1996,NA,0,1.41674431192039,1.45011766097869,1.55309584667184,1.43665270425039,FALSE,0.26221376170975
"CAN","cpi",0.1,1996,3,1996,NA,0.5,2.21076591213448,2.37596730200694,1.55309584667184,1.23276330365037,FALSE,1.62669042423387
"CAN","cpi",0.1,1996,3,1995,NA,1,0.897391409246198,1.06469696291435,1.55309584667184,0.729753259393914,FALSE,1.25263640646258
"CAN","cpi",0.1,1996,3,1995,NA,1.5,2.38658481968901,2.55389037335717,1.55309584667184,2.31904839186543,FALSE,2.01950327148409
"CAN","cpi",0.1,1997,3,1997,NA,0,1.34628906088831,1.37691121784502,1.60528783555959,1.67949478723595,FALSE,0.538125751877978
"CAN","cpi",0.1,1997,3,1997,NA,0.5,2.4567590043317,2.64147127708038,1.60528783555959,1.93291992098407,FALSE,2.07687042557558
"CAN","cpi",0.1,1997,3,1996,NA,1,0.885495558357394,1.07020783110607,1.60528783555959,0.614630451620954,FALSE,1.37377894931206
"CAN","cpi",0.1,1997,3,1996,NA,1.5,0.996644887125249,1.18135715987393,1.60528783555959,0.962161564198873,FALSE,1.12678044093905
"CAN","cpi",0.1,1998,3,1998,NA,0,1.115591248225,1.13738684257896,0.988908029337191,0.967063680387792,FALSE,0.303313858549095
"CAN","cpi",0.1,1998,3,1998,NA,0.5,2.03695040069523,2.20912699960185,0.988908029337191,1.34897459866337,FALSE,2.50115964636894
"CAN","cpi",0.1,1998,3,1997,NA,1,1.13701645293954,1.30919305184616,0.988908029337191,0.792689959246129,FALSE,0.501306429134058
"CAN","cpi",0.1,1998,3,1997,NA,1.5,1.27302297174368,1.4451995706503,0.988908029337191,1.28384000376946,FALSE,0.803543137587704
"CAN","cpi",0.1,1999,3,1999,NA,0,1.21592639558867,1.23954585921714,1.7107350135213,1.76864633894604,FALSE,1.07070647319326
"CAN","cpi",0.1,1999,3,1999,NA,0.5,1.36169135064521,1.48380506613676,1.7107350135213,0.732099710600531,FALSE,0.626402487457194
"CAN","cpi",0.1,1999,3,1998,NA,1,0.744774872246275,0.868426083359692,1.7107350135213,0.369052571959629,FALSE,1.99544883369476
"CAN","cpi",0.1,1999,3,1998,NA,1.5,1.31583695618471,1.43948816729813,1.7107350135213,1.26847007023129,FALSE,0.726421980498242
"CAN","cpi",0.1,2000,3,2000,NA,0,1.74329732900832,1.78033966745644,2.6718361971244,2.70257810674034,FALSE,2.01814573771024
"CAN","cpi",0.1,2000,3,2000,NA,0.5,2.49650276825896,2.69727337608459,2.6718361971244,1.95948305880876,TRUE,0.200770607825637
"CAN","cpi",0.1,2000,3,1999,NA,1,2.41760156264009,2.61837217046573,2.6718361971244,2.16154661985999,FALSE,0.319579555956022
"CAN","cpi",0.1,2000,3,1999,NA,1.5,0.539462602437122,0.740233210262759,2.6718361971244,0.50278387806376,FALSE,4.49322168974039
"CAN","cpi",0.1,2001,3,2001,NA,0,2.04032403919667,2.07876617874917,2.47906219852806,2.73154549386087,FALSE,0.927988850172263
"CAN","cpi",0.1,2001,3,2001,NA,0.5,2.64841640432986,2.86584350163031,2.47906219852806,1.65861828263926,FALSE,0.59376977686
"CAN","cpi",0.1,2001,3,2000,NA,1,3.08059873031915,3.31973537479565,2.47906219852806,2.84133895788986,FALSE,1.57588449290113
"CAN","cpi",0.1,2001,3,2000,NA,1.5,1.05823241178038,1.29736905625688,2.47906219852806,1.14191354447969,FALSE,2.86512140507913
"CAN","cpi",0.1,2002,3,2002,NA,0,1.835092124929,1.87021452466359,2.20880570551249,2.31282527465204,FALSE,0.787547246065478
"CAN","cpi",0.1,2002,3,2002,NA,0.5,2.32964786751503,2.53287860548784,2.20880570551249,1.24731948634093,FALSE,0.471768875756234
"CAN","cpi",0.1,2002,3,2001,NA,1,1.07646015299621,1.31682955919647,2.20880570551249,0.695491540886875,FALSE,2.22253862023586
"CAN","cpi",0.1,2002,3,2001,NA,1.5,0.408005024001324,0.648374430201586,2.20880570551249,0.47606161882134,FALSE,3.70799446244671
"CAN","cpi",0.1,2003,3,2003,NA,0,1.89854488689026,1.93872117918738,2.71189071546809,2.75460397277825,FALSE,1.75833081736536
"CAN","cpi",0.1,2003,3,2003,NA,0.5,4.31115202555488,4.52423553353051,2.71189071546809,4.16096970792426,FALSE,3.76699753039072
"CAN","cpi",0.1,2003,3,2002,NA,1,3.46427598138575,3.67735948936139,2.71189071546809,3.27791908188471,FALSE,1.88505076557045
"CAN","cpi",0.1,2003,3,2002,NA,1.5,1.41834261702455,1.63142612500019,2.71189071546809,1.51830012756901,FALSE,2.61411593123763
"CAN","cpi",0.1,2004,3,2004,NA,0,1.71208960754647,1.74498753503967,1.83151661303942,1.76153103901938,FALSE,0.225184767492659
"CAN","cpi",0.1,2004,3,2004,NA,0.5,2.50848145403833,2.72269887833644,1.83151661303942,1.38945604480572,FALSE,1.71858373762902
"CAN","cpi",0.1,2004,3,2003,NA,1,1.39245959192381,1.62765433608179,1.83151661303942,1.01874619159597,FALSE,0.688222026286051
"CAN","cpi",0.1,2004,3,2003,NA,1.5,2.79536592115711,3.03056066531508,1.83151661303942,2.99105359104411,FALSE,2.37708209553061
"CAN","cpi",0.1,2005,3,2005,NA,0,1.65745631883149,1.68942305759831,2.18071628336509,2.35062481142317,FALSE,1.12372946269301
"CAN","cpi",0.1,2005,3,2005,NA,0.5,2.21494491068056,2.37777672248063,2.18071628336509,1.4552837212303,FALSE,0.238895428056666
"CAN","cpi",0.1,2005,3,2004,NA,1,1.20575786611219,1.36858967791227,2.18071628336509,0.79648671202377,FALSE,1.96755760169523
"CAN","cpi",0.1,2005,3,2004,NA,1.5,1.14590162212173,1.30873343392181,2.18071628336509,1.13680951350797,FALSE,2.1005714772296
"CAN","cpi",0.1,2006,3,2006,NA,0,1.65819327570729,1.69217154626895,1.97519342012289,2.06448042324351,FALSE,0.662915768014856
"CAN","cpi",0.1,2006,3,2006,NA,0.5,2.55214081979863,2.76528163699741,1.97519342012289,1.77073314120205,FALSE,1.49524614981154
"CAN","cpi",0.1,2006,3,2005,NA,1,2.75880020600386,3.02157926613951,1.97519342012289,2.58808204718941,FALSE,2.00412747320448
"CAN","cpi",0.1,2006,3,2005,NA,1.5,0.770434248998304,1.03321330913396,1.97519342012289,0.762075268916728,FALSE,2.3560681956666
"CAN","cpi",0.1,2007,3,2007,NA,0,1.60767339698164,1.64064997121366,2.10062087284572,2.10807340507977,FALSE,1.05513413341438
"CAN","cpi",0.1,2007,3,2007,NA,0.5,2.69307765240423,2.87046419238961,2.10062087284572,2.09760271424675,FALSE,1.4939571612265
"CAN","cpi",0.1,2007,3,2006,NA,1,0.897460648804601,1.07484718878998,2.10062087284572,0.438862458623872,FALSE,2.45688361566481
"CAN","cpi",0.1,2007,3,2006,NA,1.5,1.07940945512804,1.25679599511342,2.10062087284572,1.08089197775225,FALSE,2.05255293494605
"CAN","cpi",0.1,2008,3,2008,NA,0,1.92153879909274,1.9611570313065,2.31447335265955,2.9146675338117,FALSE,0.824765612998322
"CAN","cpi",0.1,2008,3,2008,NA,0.5,1.98219238242984,2.16333015333989,2.31447335265955,1.04562745221765,FALSE,0.517011547175963
"CAN","cpi",0.1,2008,3,2007,NA,1,0.906451214996546,1.08758898590659,2.31447335265955,0.365030180386173,FALSE,2.90754747480551
"CAN","cpi",0.1,2008,3,2007,NA,1.5,1.89683103371279,2.07796880462284,2.31447335265955,2.04107389452134,FALSE,0.706703433213852
"CAN","cpi",0.1,2009,3,2009,NA,0,1.08140371323288,1.10624594278805,0.284533874408197,0.272618836216429,FALSE,1.79566409361002
"CAN","cpi",0.1,2009,3,2009,NA,0.5,0.799347007698373,0.956621566018034,0.284533874408197,-0.807426338518035,FALSE,1.30130374340894
"CAN","cpi",0.1,2009,3,2008,NA,1,3.41421126142942,3.63935111809388,0.284533874408197,3.28355694764985,FALSE,7.1799784944894
"CAN","cpi",0.1,2009,3,2008,NA,1.5,0.808466887222869,1.03360674388732,0.284533874408197,0.703376955238912,FALSE,1.38943544069706
"CAN","cpi",0.1,2010,3,2010,NA,0,0.987357940221806,1.00600462712132,1.75525687020327,1.72708036400674,FALSE,1.68365167152607
"CAN","cpi",0.1,2010,3,2010,NA,0.5,1.6237870292688,1.70232494582063,1.75525687020327,1.42243266198166,FALSE,0.196164415179926
"CAN","cpi",0.1,2010,3,2009,NA,1,0.896979733217263,0.975517649769087,1.75525687020327,0.515829437079458,FALSE,1.8112917397389
"CAN","cpi",0.1,2010,3,2009,NA,1.5,-0.214342700083759,-0.135804783531934,1.75525687020327,-0.666399632006793,FALSE,4.2808971470745
"CAN","cpi",0.1,2011,3,2011,NA,0,1.80031242402336,1.83499662045197,2.85717434028225,2.82871118728348,FALSE,2.3061902404959
"CAN","cpi",0.1,2011,3,2011,NA,0.5,2.94360542996636,3.12589329174897,2.85717434028225,2.59305645945043,FALSE,0.374356949969534
"CAN","cpi",0.1,2011,3,2010,NA,1,1.9435605361327,2.1258483979153,2.85717434028225,1.58194849312145,FALSE,1.80745662259804
"CAN","cpi",0.1,2011,3,2010,NA,1.5,1.12287743509301,1.30516529687562,2.85717434028225,1.00866231757724,FALSE,3.63119684713068
"CAN","cpi",0.1,2012,3,2012,NA,0,1.66184726742974,1.70005326953448,1.50118536134935,1.46681751445377,FALSE,0.395232460061181
"CAN","cpi",0.1,2012,3,2012,NA,0.5,2.65926820196056,2.87483927518728,1.50118536134935,1.63866597060755,FALSE,2.7890884968072
"CAN","cpi",0.1,2012,3,2011,NA,1,1.46334028840176,1.67891136162848,1.50118536134935,0.848240548987433,TRUE,0.21557107322672
"CAN","cpi",0.1,2012,3,2011,NA,1.5,1.73812364524947,1.95369471847619,1.50118536134935,1.68384299188515,FALSE,0.742100593004782
"CAN","cpi",0.1,2013,3,2013,NA,0,1.11751330899292,1.14185826273594,0.931270594714462,1.03083115414128,FALSE,0.438217652139591
"CAN","cpi",0.1,2013,3,2013,NA,0.5,1.71397406009176,1.8590823481269,0.931270594714462,1.00184063196526,FALSE,1.88444932220692
"CAN","cpi",0.1,2013,3,2012,NA,1,0.348768562733332,0.493876850768469,0.931270594714462,-0.272545990872386,FALSE,1.1170943856929
"CAN","cpi",0.1,2013,3,2012,NA,1.5,1.11549287183009,1.26060115986523,0.931270594714462,0.958608804136071,FALSE,0.554491126069863
"CAN","cpi",0.1,2014,3,2014,NA,0,1.2709350207695,1.29650327652548,1.87639912240215,1.98613278510701,FALSE,1.31422569103748
"CAN","cpi",0.1,2014,3,2014,NA,0.5,2.13828517161547,2.2761458129614,1.87639912240215,1.95223885123801,FALSE,0.719829639597754
"CAN","cpi",0.1,2014,3,2013,NA,1,1.14757152581218,1.2854321671581,1.87639912240215,0.688658687283847,FALSE,1.45112054188826
"CAN","cpi",0.1,2014,3,2013,NA,1.5,1.03908436417198,1.1769450055179,1.87639912240215,0.891594199884501,FALSE,1.69220312331093
"CAN","cpi",0.1,2015,3,2015,NA,0,1.29030847233863,1.32007671268597,1.11090953952792,1.24641866377254,FALSE,0.428432535482262
"CAN","cpi",0.1,2015,3,2015,NA,0.5,1.24994253629033,1.40940521318611,1.11090953952792,0.198117162089698,FALSE,0.468424891923365
"CAN","cpi",0.1,2015,3,2014,NA,1,1.18100694726269,1.34046962415847,1.11090953952792,0.532106072596766,FALSE,0.315234694084164
"CAN","cpi",0.1,2015,3,2014,NA,1.5,1.81388370513916,1.97334638203493,1.11090953952792,1.81035920235268,FALSE,1.72162748936519
"CAN","cpi",0.1,2016,3,2016,NA,0,1.12672717920052,1.15425501322869,1.41168586698797,1.44184957394589,FALSE,0.599596397937676
"CAN","cpi",0.1,2016,3,2016,NA,0.5,1.42879922290214,1.57291112005276,1.41168586698797,0.843100047406122,FALSE,0.182141576959896
"CAN","cpi",0.1,2016,3,2015,NA,1,1.64081150241026,1.79839112074639,1.41168586698797,1.23484853770273,FALSE,0.666747697052347
"CAN","cpi",0.1,2016,3,2015,NA,1.5,0.37277356009959,0.530353178435722,1.41168586698797,0.107462752177283,FALSE,2.11609670400778
"CAN","cpi",0.1,2017,3,2017,NA,0,1.24494715474884,1.27310279105915,1.57888581671161,1.51739925639673,FALSE,0.707673471093558
"CAN","cpi",0.1,2017,3,2017,NA,0.5,2.23716809922181,2.39750608390743,1.57888581671161,1.88170269277887,FALSE,1.62318750137495
"CAN","cpi",0.1,2017,3,2016,NA,1,0.973865117184093,1.13420310186971,1.57888581671161,0.418338346755244,FALSE,1.14852179544539
"CAN","cpi",0.1,2017,3,2016,NA,1.5,0.689839193583818,0.85017717826944,1.57888581671161,0.52557608733729,FALSE,1.77969051455711
"CAN","cpi",0.1,2018,3,2018,NA,0,1.60078566785876,1.63462934274792,2.23316270166586,2.40611378585155,FALSE,1.36391780581791
"CAN","cpi",0.1,2018,3,2018,NA,0.5,2.76753094247623,2.92653304799286,2.23316270166586,2.62207020824204,FALSE,1.34648708509524
"CAN","cpi",0.1,2018,3,2017,NA,1,1.01655616661967,1.1755582721363,2.23316270166586,0.40411310060617,FALSE,2.50923417113787
"CAN","cpi",0.1,2018,3,2017,NA,1.5,1.51837256307573,1.67737466859236,2.23316270166586,1.53787524714926,FALSE,1.39408662345774
"CAN","cpi",0.1,2019,3,2019,NA,0,1.65221804746796,1.69450295833371,1.91921619871868,2.01142839895124,FALSE,0.541647667276803
"CAN","cpi",0.1,2019,3,2019,NA,0.5,2.21827441806724,2.42370691201815,1.91921619871868,1.51883708040586,FALSE,0.870006314725493
"CAN","cpi",0.1,2019,3,2018,NA,1,1.99544812038455,2.20088061433546,1.91921619871868,1.41942984101848,FALSE,0.374836764319512
"CAN","cpi",0.1,2019,3,2018,NA,1.5,1.9677377188216,2.17317021277251,1.91921619871868,2.06105171090012,FALSE,0.313258094179613
"CAN","cpi",0.1,2020,3,2020,NA,0,1.12378122412355,1.15255254142123,0.71139989671781,0.726179852791075,FALSE,0.945174267088216
"CAN","cpi",0.1,2020,3,2020,NA,0.5,1.79857309501834,1.97606653940731,0.71139989671781,1.07225945048052,FALSE,2.59343388505681
"CAN","cpi",0.1,2020,3,2019,NA,1,1.57431301035169,1.75180645474066,0.71139989671781,1.01913964327806,FALSE,2.09507814135314
"CAN","cpi",0.1,2020,3,2019,NA,1.5,1.27801531664474,1.4555087610337,0.71139989671781,1.22761645350518,FALSE,1.43663882200436
"CAN","cpi",0.1,2021,3,2021,NA,0,1.64409587420704,1.67844528061339,3.31148121717802,3.30988753190892,FALSE,3.66331815432776
"CAN","cpi",0.1,2021,3,2021,NA,0.5,2.32523015619073,2.45258838919838,3.31148121717802,2.4899040786607,FALSE,2.03600896185131
"CAN","cpi",0.1,2021,3,2020,NA,1,1.54327932062512,1.67063755363276,3.31148121717802,1.1979067045331,FALSE,3.77367748533045
"CAN","cpi",0.1,2021,3,2020,NA,1.5,0.833736525861214,0.961094758868861,3.31148121717802,0.670626810990653,FALSE,5.35043925147245
"CAN","cpi",0.1,2022,3,2022,NA,0,3.51011506306277,3.58437082803616,6.50977236228281,6.54555789178856,FALSE,6.57514806329927
"CAN","cpi",0.1,2022,3,2022,NA,0.5,5.43911167641277,5.84027709848609,6.50977236228281,5.96468998606203,FALSE,1.88893267495492
"CAN","cpi",0.1,2022,3,2021,NA,1,3.77124049459002,4.17240591666334,6.50977236228281,3.42105264822981,FALSE,5.59531307900548
"CAN","cpi",0.1,2022,3,2021,NA,1.5,1.72385136678071,2.12501678885402,6.50977236228281,1.93276265883962,FALSE,10.1450666963595
"CAN","cpi",0.1,2023,3,2023,NA,0,3.57791382868636,3.66980801142451,3.78831288758619,3.97188685244318,FALSE,0.35523835198632
"CAN","cpi",0.1,2023,3,2023,NA,0.5,4.49333900516156,5.0488529683084,3.78831288758619,2.8392001035463,FALSE,2.12223866886988
"CAN","cpi",0.1,2023,3,2022,NA,1,3.85628543047713,4.41179939362397,3.78831288758619,2.86884991489758,FALSE,0.706564058460039
"CAN","cpi",0.1,2023,3,2022,NA,1.5,3.48094010648101,4.03645406962786,3.78831288758619,4.03317247515909,TRUE,0.555513963146847
"CAN","cpi",0.1,2024,3,2023,NA,1,3.5151561815506,3.90308863300351,NA,2.89946754179362,NA,NA
"CAN","cpi",0.1,2024,3,2023,NA,1.5,1.15421001192573,1.54214246337864,NA,1.17991651782151,NA,NA
"CAN","cpi",0.2,1952,3,1952,NA,0,-20.8389914428226,-14.3737787898246,2.55562336095485,2.50792675283471,FALSE,48.7887180299467
"CAN","cpi",0.2,1952,3,1952,NA,0.5,-21.2268080439844,-9.95429766010338,2.55562336095485,3.80942800622696,FALSE,42.5473129365266
"CAN","cpi",0.2,1952,3,1951,NA,1,-3.46167317256649,7.81083721131451,2.55562336095485,6.36946346746546,TRUE,11.272510383881
"CAN","cpi",0.2,1952,3,1951,NA,1.5,-76.1905137462959,-64.9180033624149,2.55562336095485,4.80604275648344,FALSE,179.956577192305
"CAN","cpi",0.2,1953,3,1953,NA,0,-1.67974118105558,-2.05797002277358,-1.01492775838436,-1.00118391953201,FALSE,2.22937681925504
"CAN","cpi",0.2,1953,3,1953,NA,0.5,-15.5319143704435,-14.1708356929487,-1.01492775838436,-1.88711612688489,FALSE,34.2508485139057
"CAN","cpi",0.2,1953,3,1952,NA,1,-15.0152455976099,-13.3967940699547,-1.01492775838436,-0.873617238258229,FALSE,32.573117306581
"CAN","cpi",0.2,1953,3,1952,NA,1.5,-19.4141436325519,-17.2741510164459,-1.01492775838436,0.432272395627528,FALSE,42.7880507612599
"CAN","cpi",0.2,1954,3,1954,NA,0,1.12534758750551,0.644079227463051,0.644425455961438,0.831821956393317,FALSE,0.72190254006369
"CAN","cpi",0.2,1954,3,1954,NA,0.5,1.95683194543519,1.47556358539273,0.644425455961438,-0.141712452464762,FALSE,2.79974786364192
"CAN","cpi",0.2,1954,3,1953,NA,1,10.3887572226358,9.90748886259332,0.644425455961438,2.12291681679911,FALSE,23.8795610566434
"CAN","cpi",0.2,1954,3,1953,NA,1.5,-0.48943827701637,-0.97070663705883,0.644425455961438,-1.28741438714058,FALSE,3.55656187250821
"CAN","cpi",0.2,1955,3,1955,NA,0,0.452665389595989,0.529285315487934,0.173649026558865,0.10295813188439,FALSE,0.774160833484755
"CAN","cpi",0.2,1955,3,1955,NA,0.5,-0.754155736190097,-0.471833185195072,0.173649026558865,-0.548848324097393,FALSE,1.89602808037987
"CAN","cpi",0.2,1955,3,1954,NA,1,6.30725010521768,7.899656354208,0.173649026558865,2.19101630104756,FALSE,16.9264089456374
"CAN","cpi",0.2,1955,3,1954,NA,1.5,-9.20263847760651,-7.61023222861619,0.173649026558865,-0.815294949881493,FALSE,21.0521093869279
"CAN","cpi",0.2,1956,3,1956,NA,0,1.0142189379028,1.09036411711317,1.32752769429961,1.46434436590257,FALSE,0.669054122176464
"CAN","cpi",0.2,1956,3,1956,NA,0.5,-0.0936553468297791,-0.0175101676194009,1.32752769429961,-0.485738076612692,FALSE,3.4387398340079
"CAN","cpi",0.2,1956,3,1955,NA,1,1.27490207129448,1.71723341555184,1.32752769429961,0.557995939500226,TRUE,0.442331344257362
"CAN","cpi",0.2,1956,3,1955,NA,1.5,-5.10857721990149,-4.66624587564413,1.32752769429961,-0.793756041684752,FALSE,15.4267652691167
"CAN","cpi",0.2,1957,3,1957,NA,0,1.89632490188937,2.22355646697487,3.24684755852518,3.35523637829212,FALSE,2.88545929396127
"CAN","cpi",0.2,1957,3,1957,NA,0.5,3.10041798080021,4.36553397206939,3.24684755852518,2.12793087018929,TRUE,1.26511599126918
"CAN","cpi",0.2,1957,3,1956,NA,1,7.0154898086548,9.72914928040195,3.24684755852518,4.42886834530761,FALSE,12.1352650970712
"CAN","cpi",0.2,1957,3,1956,NA,1.5,-10.9901907440527,-8.27653127230555,3.24684755852518,-0.785064469253982,FALSE,31.522106548824
"CAN","cpi",0.2,1958,3,1958,NA,0,1.88467791949768,2.06184835309993,2.33186388641149,2.20013349321115,FALSE,0.852209266881148
"CAN","cpi",0.2,1958,3,1958,NA,0.5,3.33873780853317,4.49260184477341,2.33186388641149,2.0126030377883,FALSE,3.67104884154445
"CAN","cpi",0.2,1958,3,1957,NA,1,0.252716751378162,2.93138127629796,2.33186388641149,2.83859761398538,TRUE,2.6786645249198
"CAN","cpi",0.2,1958,3,1957,NA,1.5,-17.6543054125011,-14.9756408875813,2.33186388641149,0.366312073207214,FALSE,45.9474264599017
"CAN","cpi",0.2,1959,3,1959,NA,0,1.31493687783414,1.44650738101127,1.19382698397654,1.18954599151176,FALSE,0.434345237821123
"CAN","cpi",0.2,1959,3,1959,NA,0.5,1.62866849833922,2.14523170263482,1.19382698397654,0.545308327160925,FALSE,1.6036669902023
"CAN","cpi",0.2,1959,3,1958,NA,1,-0.872051423625871,0.702512652782372,1.19382698397654,1.13295114249046,FALSE,2.80284990439366
"CAN","cpi",0.2,1959,3,1958,NA,1.5,-11.4387911440158,-9.76047380124423,1.19382698397654,0.717422088079289,FALSE,29.0640693058234
"CAN","cpi",0.2,1960,3,1960,NA,0,0.986348004030446,1.07741628957579,1.34209404870695,1.02361304259477,FALSE,0.752762683373244
"CAN","cpi",0.2,1960,3,1960,NA,0.5,1.53888264290015,1.86245000752465,1.34209404870695,0.648611007713657,FALSE,0.815538850107499
"CAN","cpi",0.2,1960,3,1959,NA,1,2.42825135519813,3.30788635937289,1.34209404870695,2.37666873185636,FALSE,3.59502827040271
"CAN","cpi",0.2,1960,3,1959,NA,1.5,-6.00622061779557,-5.12658561362081,1.34209404870695,-0.349092179567277,FALSE,17.0513341599942
"CAN","cpi",0.2,1961,3,1961,NA,0,1.0377535704409,1.16178193133141,1.00921348094007,1.00921348094007,FALSE,0.195378584642582
"CAN","cpi",0.2,1961,3,1961,NA,0.5,1.90015017888021,2.19357832560954,1.00921348094007,1.00921348094007,FALSE,2.52076989157967
"CAN","cpi",0.2,1961,3,1960,NA,1,-0.565103956697585,-0.271675809968252,1.00921348094007,0.0537704626035329,FALSE,3.49565137400014
"CAN","cpi",0.2,1961,3,1960,NA,1.5,-5.68089202464663,-5.3874638779173,1.00921348094007,-0.332316386156399,FALSE,16.2851215438728
"CAN","cpi",0.2,1962,3,1962,NA,0,0.979421620312973,1.08237063003405,1.04957947883042,1.0653801125483,TRUE,0.102949009721081
"CAN","cpi",0.2,1962,3,1962,NA,0.5,0.820499421964011,0.992818852633309,1.04957947883042,0,FALSE,0.314220996162062
"CAN","cpi",0.2,1962,3,1961,NA,1,-0.140310273135007,0.0320091575342913,1.04957947883042,0,FALSE,2.71624523390961
"CAN","cpi",0.2,1962,3,1961,NA,1.5,-3.91544223649173,-3.74312280582244,1.04957947883042,0,FALSE,12.1540751423014
"CAN","cpi",0.2,1963,3,1963,NA,0,1.27577052944408,1.39988981434226,1.60677118395228,1.83024954277348,FALSE,0.641322708923238
"CAN","cpi",0.2,1963,3,1963,NA,0.5,1.58339450462236,1.87332696787897,1.60677118395228,0.836828714617504,TRUE,0.289932463256609
"CAN","cpi",0.2,1963,3,1962,NA,1,1.62779355051437,1.96065520996781,1.60677118395228,1.60935100695326,FALSE,0.385417575858663
"CAN","cpi",0.2,1963,3,1962,NA,1.5,-3.1776668086248,-2.84480514917136,1.60677118395228,0,FALSE,11.4618024922626
"CAN","cpi",0.2,1964,3,1964,NA,0,1.44277594679871,1.56765202994604,1.88764670034376,1.95194648443024,FALSE,0.924862759141626
"CAN","cpi",0.2,1964,3,1964,NA,0.5,2.12144011199957,2.45723997941603,1.88764670034376,1.27307816843398,FALSE,0.920283396555992
"CAN","cpi",0.2,1964,3,1963,NA,1,3.07155317541664,3.42973079382685,1.88764670034376,3.20172332637508,FALSE,3.31794380609241
"CAN","cpi",0.2,1964,3,1963,NA,1.5,-3.65573310959697,-3.29755549118675,1.88764670034376,0,FALSE,13.3211830972365
"CAN","cpi",0.2,1965,3,1965,NA,0,1.63502270779156,1.76720966690789,2.29538304394236,2.29800189469823,FALSE,1.45262040170249
"CAN","cpi",0.2,1965,3,1965,NA,0.5,2.33776235334748,2.61901638968332,2.29538304394236,1.39443218256826,FALSE,0.387202309848657
"CAN","cpi",0.2,1965,3,1964,NA,1,1.32828526418421,1.60953930052005,2.29538304394236,1.48078368039448,FALSE,1.99586339489161
"CAN","cpi",0.2,1965,3,1964,NA,1.5,-3.50136535855352,-3.22011132221768,2.29538304394236,0.293257399533461,FALSE,14.0699899517359
"CAN","cpi",0.2,1966,3,1966,NA,0,2.28772447200934,2.43772454194656,3.72486065470629,3.77511268244847,FALSE,3.36784035183655
"CAN","cpi",0.2,1966,3,1966,NA,0.5,4.24150794922219,4.39150801915941,3.72486065470629,3.37743719728421,FALSE,1.44161830622698
"CAN","cpi",0.2,1966,3,1965,NA,1,1.96789447904498,2.1178945489822,3.72486065470629,1.98486973144544,FALSE,4.16741533424744
"CAN","cpi",0.2,1966,3,1965,NA,1.5,-3.61034486820124,-3.46034479826402,3.72486065470629,0.578640834001038,FALSE,18.113013702363
"CAN","cpi",0.2,1967,3,1967,NA,0,2.63062411615385,2.7962841276664,3.49360316391996,3.68375770714608,FALSE,1.90895760214645
"CAN","cpi",0.2,1967,3,1967,NA,0.5,3.63535154729258,3.87575649251712,3.49360316391996,2.11054708048259,FALSE,0.594775903656091
"CAN","cpi",0.2,1967,3,1966,NA,1,1.94044669315032,2.18085163837487,3.49360316391996,2.02003307533501,FALSE,3.52228375908728
"CAN","cpi",0.2,1967,3,1966,NA,1.5,-4.04749767006958,-3.80709272484503,3.49360316391996,1.71558536379673,FALSE,18.492144667137
"CAN","cpi",0.2,1968,3,1968,NA,0,2.69888586745458,2.86920643073789,3.95128347779386,4.07085717819357,FALSE,2.87551318092324
"CAN","cpi",0.2,1968,3,1968,NA,0.5,4.62555033679994,5.13601239833874,3.95128347779386,3.50732233276501,FALSE,2.19612920905401
"CAN","cpi",0.2,1968,3,1967,NA,1,3.69582589300099,4.20628795453979,3.95128347779386,3.66303679301692,TRUE,0.510462061538798
"CAN","cpi",0.2,1968,3,1967,NA,1.5,-3.8679256218893,-3.3574635603505,3.95128347779386,0.834881519045053,FALSE,18.7823296568997
"CAN","cpi",0.2,1969,3,1969,NA,0,2.9684049894194,3.1557673380237,4.42679496126681,4.52532640008253,FALSE,3.36493140671209
"CAN","cpi",0.2,1969,3,1969,NA,0.5,4.172748470807,4.6018513294702,4.42679496126681,2.69090620784681,TRUE,0.4291028586632
"CAN","cpi",0.2,1969,3,1968,NA,1,4.31720472900491,4.74630758766811,4.42679496126681,4.0779393276339,TRUE,0.4291028586632
"CAN","cpi",0.2,1969,3,1968,NA,1.5,-3.76373376878967,-3.33463091012647,4.42679496126681,1.61221871335458,FALSE,19.8326675371464
"CAN","cpi",0.2,1970,3,1970,NA,0,2.75338054116328,2.91168127640329,3.28128405769805,3.55878605435979,FALSE,1.08230768847689
"CAN","cpi",0.2,1970,3,1970,NA,0.5,5.36938188364833,5.65097667738875,3.28128405769805,3.74969277403504,FALSE,5.50183935861614
"CAN","cpi",0.2,1970,3,1969,NA,1,3.28907533979118,3.57067013353161,3.28128405769805,3.11186608282608,FALSE,0.301072998973262
"CAN","cpi",0.2,1970,3,1969,NA,1.5,-5.21760692466592,-4.9360121309255,3.28128405769805,0.764941977259638,FALSE,20.8248352652993
"CAN","cpi",0.2,1971,3,1971,NA,0,2.17679541183128,2.3032493260521,2.64123406634756,2.81514553288871,FALSE,0.97141576495947
"CAN","cpi",0.2,1971,3,1971,NA,0.5,2.6306922875394,3.00366221767402,2.64123406634756,1.11673730766521,TRUE,0.372969930134619
"CAN","cpi",0.2,1971,3,1970,NA,1,2.06053418265068,2.62433732047963,2.64123406634756,1.92043450460395,FALSE,0.606045002498774
"CAN","cpi",0.2,1971,3,1970,NA,1.5,-1.65813109844799,-1.09432796061905,2.64123406634756,1.70194075200601,FALSE,9.90270820524547
"CAN","cpi",0.2,1972,3,1972,NA,0,2.80536262958502,2.95978961178022,4.83230569625923,5.04828762155974,FALSE,4.83571719339272
"CAN","cpi",0.2,1972,3,1972,NA,0.5,4.79385702476529,5.49009415168717,4.83230569625923,4.09602385359717,TRUE,0.696237126921881
"CAN","cpi",0.2,1972,3,1971,NA,1,4.45366150384792,5.50505080120657,4.83230569625923,4.16812111633716,TRUE,1.05138929735865
"CAN","cpi",0.2,1972,3,1971,NA,1.5,-1.76949742896719,-0.718108131608541,4.83230569625923,0.692030005351089,FALSE,14.9274238670281
"CAN","cpi",0.2,1973,3,1973,NA,0,4.16148016426563,4.39871142078076,7.12388603531779,7.25096132226983,FALSE,7.05016779285771
"CAN","cpi",0.2,1973,3,1973,NA,0.5,6.58524748881641,7.48160827003611,7.12388603531779,5.30446017290082,TRUE,0.8963607812197
"CAN","cpi",0.2,1973,3,1972,NA,1,5.08291904199551,6.52042383266788,7.12388603531779,4.92276035792265,FALSE,2.94616029729713
"CAN","cpi",0.2,1973,3,1972,NA,1.5,-2.01833339473927,-0.580828604066898,7.12388603531779,1.79187879074203,FALSE,20.6992913891341
"CAN","cpi",0.2,1974,3,1974,NA,0,5.7592074177018,6.10359674494009,10.2717243737774,10.148911210151,FALSE,10.7647083993316
"CAN","cpi",0.2,1974,3,1974,NA,0.5,9.54063864025036,11.0221858899333,10.2717243737774,7.90446289245049,TRUE,1.48154724968298
"CAN","cpi",0.2,1974,3,1973,NA,1,7.23362424874753,9.49049104293417,10.2717243737774,7.30476096756609,FALSE,4.20995012129476
"CAN","cpi",0.2,1974,3,1973,NA,1.5,-3.37430932877685,-1.11744253459021,10.2717243737774,2.5663290958369,FALSE,30.7297840651057
"CAN","cpi",0.2,1975,3,1975,NA,0,6.47906645015823,6.92425072377991,10.0232981493341,10.1746571103793,FALSE,8.1928028375072
"CAN","cpi",0.2,1975,3,1975,NA,0.5,11.2248007301713,12.2292881081862,10.0232981493341,8.07152306914465,FALSE,4.00824383010787
"CAN","cpi",0.2,1975,3,1974,NA,1,6.9467304046124,7.95121778262723,10.0232981493341,7.8187778356914,FALSE,6.18468829478207
"CAN","cpi",0.2,1975,3,1974,NA,1.5,-6.50138454235596,-5.49689716434114,10.0232981493341,3.64914274700436,FALSE,39.804975662203
"CAN","cpi",0.2,1976,3,1976,NA,0,5.45322772047672,5.78676601738866,7.22784311401172,7.18995143043805,FALSE,3.93623103846958
"CAN","cpi",0.2,1976,3,1976,NA,0.5,9.44683703305592,11.2028903536673,7.22784311401172,6.61333364285308,FALSE,7.30353811822188
"CAN","cpi",0.2,1976,3,1975,NA,1,6.41787687453222,8.45306620576067,7.22784311401172,8.584971075903,TRUE,2.03518933122845
"CAN","cpi",0.2,1976,3,1975,NA,1.5,-9.34355541030269,-7.30836607907424,7.22784311401172,3.14738569995591,FALSE,38.3757123139433
"CAN","cpi",0.2,1977,3,1977,NA,0,4.81937150806692,5.10899012095006,7.58101410153764,7.50176944503946,FALSE,6.46967856435209
"CAN","cpi",0.2,1977,3,1977,NA,0.5,8.28377794087228,9.76712663732961,7.58101410153764,6.40571638826874,FALSE,3.24025829479391
"CAN","cpi",0.2,1977,3,1976,NA,1,2.76873790724252,4.49619594494411,7.58101410153764,4.04909286077014,FALSE,9.43950342918543
"CAN","cpi",0.2,1977,3,1976,NA,1.5,-4.89879887291008,-2.96944007226544,7.58101410153764,2.59432747727492,FALSE,28.3054942351523
"CAN","cpi",0.2,1978,3,1978,NA,0,5.26028800181838,5.5912163424198,8.50208927062595,8.59104847384149,FALSE,7.60811066111679
"CAN","cpi",0.2,1978,3,1978,NA,0.5,9.21568041561965,10.7490541070171,8.50208927062595,7.34113908733495,FALSE,3.31735155388168
"CAN","cpi",0.2,1978,3,1977,NA,1,4.20638343449273,6.18487996147537,8.50208927062595,5.87902868518151,FALSE,7.77151979985908
"CAN","cpi",0.2,1978,3,1977,NA,1.5,-3.9555818645176,-1.57026463897251,8.50208927062595,3.89293485842214,FALSE,27.5662019995412
"CAN","cpi",0.2,1979,3,1979,NA,0,5.48133012145338,5.82648165836083,8.65147652410481,8.48651410143776,FALSE,7.4076387012674
"CAN","cpi",0.2,1979,3,1979,NA,0.5,9.69108700884168,11.2964028587358,8.65147652410481,7.46186747064873,FALSE,4.20434206173634
"CAN","cpi",0.2,1979,3,1978,NA,1,4.60325999756015,7.20457728464555,8.65147652410481,6.93686058379669,FALSE,6.21856538573355
"CAN","cpi",0.2,1979,3,1978,NA,1.5,-2.02460075030396,0.576716536781436,8.65147652410481,3.9179710204728,FALSE,22.7882172553938
"CAN","cpi",0.2,1980,3,1980,NA,0,5.82874156958295,6.20119646264551,9.5171912664748,9.43711128155219,FALSE,8.66244190263578
"CAN","cpi",0.2,1980,3,1980,NA,0.5,10.0549073427091,11.6081998357665,9.5171912664748,7.89144076485851,FALSE,2.89758268364318
"CAN","cpi",0.2,1980,3,1979,NA,1,3.62906300072047,5.31381116582041,9.5171912664748,5.69387794711803,FALSE,12.1931984167359
"CAN","cpi",0.2,1980,3,1979,NA,1.5,0.183013494237214,1.86776165933716,9.5171912664748,4.27199048256738,FALSE,20.808322182944
"CAN","cpi",0.2,1981,3,1981,NA,0,6.76454683101841,7.20129588226176,11.5813425032741,11.617538759154,FALSE,11.3868656037743
"CAN","cpi",0.2,1981,3,1981,NA,0.5,13.0121374124369,14.8532455972529,11.5813425032741,11.3038259100907,FALSE,5.41809545772287
"CAN","cpi",0.2,1981,3,1980,NA,1,5.61964656581577,7.46075475063181,11.5813425032741,8.22922472590444,FALSE,12.1425775664219
"CAN","cpi",0.2,1981,3,1980,NA,1.5,1.40312479740303,3.24423298221906,11.5813425032741,4.54818367546621,FALSE,22.6838819874537
"CAN","cpi",0.2,1982,3,1982,NA,0,6.85826581468162,7.28797550497102,10.1124203763629,10.1863972123348,FALSE,7.49082186876921
"CAN","cpi",0.2,1982,3,1982,NA,0.5,12.3737228971963,14.3058974151988,10.1124203763629,9.38011590167964,FALSE,7.58543082008587
"CAN","cpi",0.2,1982,3,1981,NA,1,5.21868704514533,7.31434446106048,10.1124203763629,8.92774959502704,FALSE,9.09084720417131
"CAN","cpi",0.2,1982,3,1981,NA,1.5,6.8286613311568,8.92431874707194,10.1124203763629,7.65688060941457,FALSE,5.06591148914266
"CAN","cpi",0.2,1983,3,1983,NA,0,4.96915653425426,5.33628941357732,5.67091787896303,5.79231449937116,FALSE,1.20370404278735
"CAN","cpi",0.2,1983,3,1983,NA,0.5,8.25128949015521,9.57430066532452,5.67091787896303,4.48935486750539,FALSE,7.77394020314976
"CAN","cpi",0.2,1983,3,1982,NA,1,4.0955356450042,5.70231193631005,5.67091787896303,6.68360843662591,TRUE,1.60677629130585
"CAN","cpi",0.2,1983,3,1982,NA,1.5,3.86124970842342,5.46802599972926,5.67091787896303,5.80492936344428,FALSE,2.11400598939027
"CAN","cpi",0.2,1984,3,1984,NA,0,3.23983670772951,3.44804538081571,4.19799576814029,4.1863442377944,FALSE,2.08308464139764
"CAN","cpi",0.2,1984,3,1984,NA,0.5,6.26113347814161,7.19374809854848,4.19799576814029,4.37368919035215,FALSE,6.09045889541016
"CAN","cpi",0.2,1984,3,1983,NA,1,3.74081717223984,4.67343179264672,4.19799576814029,4.8252398586334,TRUE,0.93261462040687
"CAN","cpi",0.2,1984,3,1983,NA,1.5,-0.787311046214863,0.145303574192008,4.19799576814029,1.63651850095104,FALSE,11.0643451052776
"CAN","cpi",0.2,1985,3,1985,NA,0,2.75676836400331,2.93431996117527,3.86444262005169,3.87488963413478,FALSE,2.50285824436301
"CAN","cpi",0.2,1985,3,1985,NA,0.5,5.05214320972196,5.83500891936359,3.86444262005169,3.66954460168274,FALSE,3.7521171838173
"CAN","cpi",0.2,1985,3,1984,NA,1,1.73251812768393,2.65563264754514,3.86444262005169,2.51760914226531,FALSE,3.94513945112759
"CAN","cpi",0.2,1985,3,1984,NA,1.5,2.09012471141224,3.01323923127345,3.86444262005169,2.74468923002786,FALSE,3.05112299180682
"CAN","cpi",0.2,1986,3,1986,NA,0,2.75067152364557,2.90998238288853,4.08685396749431,4.09009381020777,FALSE,3.10148982075741
"CAN","cpi",0.2,1986,3,1986,NA,0.5,5.23491349208156,6.04348418927377,4.08685396749431,4.18867743652029,FALSE,3.67871950866033
"CAN","cpi",0.2,1986,3,1985,NA,1,2.35396831381538,3.17615982025463,4.08685396749431,2.96346536694636,FALSE,3.09892687453845
"CAN","cpi",0.2,1986,3,1985,NA,1.5,2.25932600732369,3.08151751376294,4.08685396749431,2.65645514502224,FALSE,3.33553264076767
"CAN","cpi",0.2,1987,3,1987,NA,0,2.89685570515281,3.05624049987861,4.23980729277887,4.30382748919395,FALSE,3.11830177697646
"CAN","cpi",0.2,1987,3,1987,NA,0.5,4.8646752082643,5.58172472563782,4.23980729277887,3.60745044359556,FALSE,2.27921930608709
"CAN","cpi",0.2,1987,3,1986,NA,1,2.98636039101101,3.70340990838454,4.23980729277887,3.48954394276064,FALSE,2.05804297835936
"CAN","cpi",0.2,1987,3,1986,NA,1.5,3.03934670374624,3.75639622111976,4.23980729277887,3.05061614822702,FALSE,1.9255771965213
"CAN","cpi",0.2,1988,3,1988,NA,0,2.82420255110537,2.98289604883325,3.92899537638065,3.96651200874969,FALSE,2.5239418165964
"CAN","cpi",0.2,1988,3,1988,NA,0.5,4.70989463037981,5.27273517988403,3.92899537638065,3.27588434563216,FALSE,2.51508868450211
"CAN","cpi",0.2,1988,3,1987,NA,1,2.88324337251246,3.44608392201668,3.92899537638065,3.36557853238272,FALSE,1.77011918541416
"CAN","cpi",0.2,1988,3,1987,NA,1.5,2.22588580867522,2.78872635817944,3.92899537638065,2.22890665988493,FALSE,3.41351309500725
"CAN","cpi",0.2,1989,3,1989,NA,0,3.08984467355026,3.22846970256383,4.82821664544208,4.96224122245117,FALSE,4.13799238620919
"CAN","cpi",0.2,1989,3,1989,NA,0.5,5.23500878691394,5.72155617948468,4.82821664544208,4.15246181762677,FALSE,1.5035277462504
"CAN","cpi",0.2,1989,3,1988,NA,1,2.99010641729285,3.47665380986359,4.82821664544208,3.35061776773985,FALSE,3.86545448151695
"CAN","cpi",0.2,1989,3,1988,NA,1.5,2.04895779780383,2.53550519037457,4.82821664544208,2.03293210635829,FALSE,6.2183260302395
"CAN","cpi",0.2,1990,3,1990,NA,0,3.14752633497315,3.32100547160483,4.64347549432717,4.49116732458404,FALSE,3.47965419343754
"CAN","cpi",0.2,1990,3,1990,NA,0.5,6.02494689184297,6.62225202015721,4.64347549432717,4.80635133900141,FALSE,4.05098362210374
"CAN","cpi",0.2,1990,3,1989,NA,1,3.98861656520522,4.58592169351946,4.64347549432717,4.45332930526201,FALSE,0.741189630333525
"CAN","cpi",0.2,1990,3,1989,NA,1.5,3.16465866389164,3.76196379220588,4.64347549432717,2.93994143296931,FALSE,2.80108438361746
"CAN","cpi",0.2,1991,3,1991,NA,0,3.49350631355231,3.66841724879639,5.4258100696218,5.5966415351231,FALSE,4.5683929873076
"CAN","cpi",0.2,1991,3,1991,NA,0.5,8.2992005427848,8.98960732870723,5.4258100696218,8.0424604401558,FALSE,7.87388296882994
"CAN","cpi",0.2,1991,3,1990,NA,1,2.57859425324657,3.26900103916901,5.4258100696218,3.00766385389873,FALSE,6.08242936205441
"CAN","cpi",0.2,1991,3,1990,NA,1.5,3.71056256733697,4.4009693532594,5.4258100696218,3.42461322750937,FALSE,3.25250857682842
"CAN","cpi",0.2,1992,3,1992,NA,0,2.29671624349649,2.43724186430583,1.47496888572843,1.46118300949616,FALSE,2.19489401522949
"CAN","cpi",0.2,1992,3,1992,NA,0.5,3.48306131607562,4.04679006612636,1.47496888572843,1.2379681755847,FALSE,5.58395982591871
"CAN","cpi",0.2,1992,3,1991,NA,1,1.46936985810413,2.03309860815487,1.47496888572843,1.8723365291461,TRUE,0.56372875005074
"CAN","cpi",0.2,1992,3,1991,NA,1.5,8.22143850083196,8.7851672508827,1.47496888572843,6.89933696838937,FALSE,17.4299027878096
"CAN","cpi",0.2,1993,3,1993,NA,0,1.32685138559514,1.39470093379768,1.84351085411351,1.80220567555903,FALSE,1.18987434899212
"CAN","cpi",0.2,1993,3,1993,NA,0.5,2.69365389363456,3.03197276820185,1.84351085411351,2.21818498229346,FALSE,2.46367647336991
"CAN","cpi",0.2,1993,3,1992,NA,1,1.44481568883341,1.7831345634007,1.84351085411351,1.3520429918812,FALSE,0.489259601349324
"CAN","cpi",0.2,1993,3,1992,NA,1.5,1.07163824124207,1.40995711580936,1.84351085411351,0.933485487336859,FALSE,1.42220322032767
"CAN","cpi",0.2,1994,3,1994,NA,0,0.894211274897987,0.945122132668719,0.161630694655448,0.202109657487191,FALSE,1.88236230837708
"CAN","cpi",0.2,1994,3,1994,NA,0.5,0.79499519530603,0.961667825044596,0.161630694655448,-0.572639707462777,FALSE,1.75008388136502
"CAN","cpi",0.2,1994,3,1993,NA,1,1.27447082879845,1.5604018984069,0.161630694655448,1.14110533076836,FALSE,3.06803140496596
"CAN","cpi",0.2,1994,3,1993,NA,1.5,1.81971514662408,2.10564621623252,0.161630694655448,1.65023462295923,FALSE,4.43114219953001
"CAN","cpi",0.2,1995,3,1995,NA,0,1.08432524091987,1.13136807302868,2.11688403676572,2.14851249512314,FALSE,2.51083274145139
"CAN","cpi",0.2,1995,3,1995,NA,0.5,2.46836008514289,2.67909563006064,2.11688403676572,2.60072443309243,FALSE,1.08942566586069
"CAN","cpi",0.2,1995,3,1994,NA,1,1.68369170617989,1.89442725109764,2.11688403676572,1.43373972642191,FALSE,0.766877509087942
"CAN","cpi",0.2,1995,3,1994,NA,1.5,-1.03249214746545,-0.821756602547699,2.11688403676572,-1.26611333424577,FALSE,7.55733714320128
"CAN","cpi",0.2,1996,3,1996,NA,0,1.40298330883062,1.46641932660865,1.55309584667184,1.43665270425039,FALSE,0.280127317936015
"CAN","cpi",0.2,1996,3,1996,NA,0.5,2.11585201163005,2.49274083058347,1.55309584667184,1.23276330365037,FALSE,1.78377923134894
"CAN","cpi",0.2,1996,3,1995,NA,1,0.829572254007734,1.21551020392617,1.55309584667184,0.729753259393914,FALSE,1.22990205678262
"CAN","cpi",0.2,1996,3,1995,NA,1.5,2.34913827689722,2.73507622681566,1.55309584667184,2.31904839186543,FALSE,2.37604402548188
"CAN","cpi",0.2,1997,3,1997,NA,0,1.33005516835038,1.39263454668611,1.60528783555959,1.67949478723595,FALSE,0.594212600519439
"CAN","cpi",0.2,1997,3,1997,NA,0.5,2.38245134041171,2.7263984202128,1.60528783555959,1.93291992098407,FALSE,2.28685584193139
"CAN","cpi",0.2,1997,3,1996,NA,1,0.799722806892447,1.14366988669354,1.60528783555959,0.614630451620954,FALSE,1.49799195196622
"CAN","cpi",0.2,1997,3,1996,NA,1.5,0.95748922656022,1.30143630636131,1.60528783555959,0.962161564198873,FALSE,1.10357590279679
"CAN","cpi",0.2,1998,3,1998,NA,0,1.09843915885808,1.15140445225185,0.988908029337191,0.967063680387792,FALSE,0.32679311719599
"CAN","cpi",0.2,1998,3,1998,NA,0.5,1.95544682605148,2.27386499978734,0.988908029337191,1.34897459866337,FALSE,2.73476516552157
"CAN","cpi",0.2,1998,3,1997,NA,1,1.04246344382873,1.36088161756459,0.988908029337191,0.792689959246129,FALSE,0.452306709964715
"CAN","cpi",0.2,1998,3,1997,NA,1.5,1.25315049588434,1.5715686696202,0.988908029337191,1.28384000376946,FALSE,0.979024340103732
"CAN","cpi",0.2,1999,3,1999,NA,0,1.20027045228803,1.25207082020531,1.7107350135213,1.76864633894604,FALSE,1.19846085120724
"CAN","cpi",0.2,1999,3,1999,NA,0.5,1.30218430292292,1.52052004450556,1.7107350135213,0.732099710600531,FALSE,0.693873164121975
"CAN","cpi",0.2,1999,3,1998,NA,1,0.687277148084191,0.90561288966683,1.7107350135213,0.369052571959629,FALSE,2.2311410512188
"CAN","cpi",0.2,1999,3,1998,NA,1.5,1.29359044230286,1.5119261838855,1.7107350135213,1.26847007023129,FALSE,0.715357815672123
"CAN","cpi",0.2,2000,3,2000,NA,0,1.72303273376027,1.79202994938957,2.6718361971244,2.70257810674034,FALSE,2.26851283496638
"CAN","cpi",0.2,2000,3,2000,NA,0.5,2.39119215330179,2.79292950821282,2.6718361971244,1.95948305880876,TRUE,0.401737354911036
"CAN","cpi",0.2,2000,3,1999,NA,1,2.39982014008093,2.80155749499197,2.6718361971244,2.16154661985999,TRUE,0.401737354911036
"CAN","cpi",0.2,2000,3,1999,NA,1.5,0.465528959159808,0.867266314070844,2.6718361971244,0.50278387806376,FALSE,4.91316206254493
"CAN","cpi",0.2,2001,3,2001,NA,0,2.01903345958191,2.09921829070021,2.47906219852806,2.73154549386087,FALSE,1.02979460068793
"CAN","cpi",0.2,2001,3,2001,NA,0.5,2.49534381723276,2.99055441988367,2.47906219852806,1.65861828263926,FALSE,0.535914649412655
"CAN","cpi",0.2,2001,3,2000,NA,1,2.99121377935138,3.48642438200229,2.47906219852806,2.84133895788986,FALSE,1.7755895547092
"CAN","cpi",0.2,2001,3,2000,NA,1.5,1.01062289110803,1.50583349375893,2.47906219852806,1.14191354447969,FALSE,2.92828236457373
"CAN","cpi",0.2,2002,3,2002,NA,0,1.81602992666179,1.88482795165841,2.20880570551249,2.31282527465204,FALSE,0.878742409631807
"CAN","cpi",0.2,2002,3,2002,NA,0.5,2.20894960876973,2.62197232571456,2.20880570551249,1.24731948634093,FALSE,0.413382475087932
"CAN","cpi",0.2,2002,3,2001,NA,1,0.945935712910356,1.36635545259702,2.20880570551249,0.695491540886875,FALSE,2.52654537197533
"CAN","cpi",0.2,2002,3,2001,NA,1.5,0.410271333857933,0.830691073544598,2.20880570551249,0.47606161882134,FALSE,3.86570631960639
"CAN","cpi",0.2,2003,3,2003,NA,0,1.8776242562231,1.95526359444942,2.71189071546809,2.75460397277825,FALSE,1.969207140773
"CAN","cpi",0.2,2003,3,2003,NA,0.5,4.14093316648358,4.65049100831216,2.71189071546809,4.16096970792426,FALSE,4.08216396936731
"CAN","cpi",0.2,2003,3,2002,NA,1,3.31539176226042,3.82494960408901,2.71189071546809,3.27791908188471,FALSE,2.01831045880942
"CAN","cpi",0.2,2003,3,2002,NA,1.5,1.35060949039379,1.86016733222237,2.71189071546809,1.51830012756901,FALSE,2.63886629994289
"CAN","cpi",0.2,2004,3,2004,NA,0,1.69129700156777,1.75749642885009,1.83151661303942,1.76153103901938,FALSE,0.251249887755649
"CAN","cpi",0.2,2004,3,2004,NA,0.5,2.35622421477938,2.81082477393549,1.83151661303942,1.38945604480572,FALSE,1.766369563506
"CAN","cpi",0.2,2004,3,2003,NA,1,1.24759186692891,1.73694492400177,1.83151661303942,1.01874619159597,FALSE,0.725782279666987
"CAN","cpi",0.2,2004,3,2003,NA,1.5,2.70213153886215,3.19148459593501,1.83151661303942,2.99105359104411,FALSE,2.66589037162968
"CAN","cpi",0.2,2005,3,2005,NA,0,1.6420288455525,1.70492285302036,2.18071628336509,2.35062481142317,FALSE,1.25237758332968
"CAN","cpi",0.2,2005,3,2005,NA,0.5,2.10163734413639,2.44863336487443,2.18071628336509,1.4552837212303,TRUE,0.346996020738045
"CAN","cpi",0.2,2005,3,2004,NA,1,1.09486625166425,1.44186227240229,2.18071628336509,0.79648671202377,FALSE,2.19413104814504
"CAN","cpi",0.2,2005,3,2004,NA,1.5,1.10590257033523,1.45289859107328,2.18071628336509,1.13680951350797,FALSE,2.16654025146758
"CAN","cpi",0.2,2006,3,2006,NA,0,1.63947825731404,1.70410420882902,1.97519342012289,2.06448042324351,FALSE,0.74234897974964
"CAN","cpi",0.2,2006,3,2006,NA,0.5,2.44505111270957,2.84050036148689,1.97519342012289,1.77073314120205,FALSE,1.57009348024403
"CAN","cpi",0.2,2006,3,2005,NA,1,2.74294429074213,3.13839353951945,1.97519342012289,2.58808204718941,FALSE,2.31482642532543
"CAN","cpi",0.2,2006,3,2005,NA,1.5,0.779656856080433,1.17510610485775,1.97519342012289,0.762075268916728,FALSE,2.39566753694016
"CAN","cpi",0.2,2007,3,2007,NA,0,1.58496564265002,1.65538207076486,2.10062087284572,2.10807340507977,FALSE,1.183513433317
"CAN","cpi",0.2,2007,3,2007,NA,0.5,2.57553210830083,2.94825108025833,2.10062087284572,2.09760271424675,FALSE,1.55999706059527
"CAN","cpi",0.2,2007,3,2006,NA,1,0.784573018940244,1.15729199089774,2.10062087284572,0.438862458623872,FALSE,2.73104117682745
"CAN","cpi",0.2,2007,3,2006,NA,1.5,1.08055355561092,1.45327252756842,2.10062087284572,1.08089197775225,FALSE,1.99108983515075
"CAN","cpi",0.2,2008,3,2008,NA,0,1.89302113959669,1.97337412777736,2.31447335265955,2.9146675338117,FALSE,0.933101050386156
"CAN","cpi",0.2,2008,3,2008,NA,0.5,1.86594902928546,2.21925401530942,2.31447335265955,1.04562745221765,FALSE,0.591353329399289
"CAN","cpi",0.2,2008,3,2007,NA,1,0.791475593599585,1.14478057962355,2.31447335265955,0.365030180386173,FALSE,3.27753691861398
"CAN","cpi",0.2,2008,3,2007,NA,1.5,1.88511692023552,2.23842190625948,2.31447335265955,2.04107389452134,FALSE,0.543433602024144
"CAN","cpi",0.2,2009,3,2009,NA,0,1.06865007041099,1.11825124142163,0.284533874408197,0.272618836216429,FALSE,2.00989166101762
"CAN","cpi",0.2,2009,3,2009,NA,0.5,0.699375339570605,1.00685344108653,0.284533874408197,-0.807426338518035,FALSE,1.34458176442195
"CAN","cpi",0.2,2009,3,2008,NA,1,3.39272309406306,3.78894042155212,0.284533874408197,3.28355694764985,FALSE,8.16669037662622
"CAN","cpi",0.2,2009,3,2008,NA,1.5,0.771705511973418,1.16792283946247,0.284533874408197,0.703376955238912,FALSE,1.61414642140211
"CAN","cpi",0.2,2010,3,2010,NA,0,0.976192077362385,1.01178680203748,1.75525687020327,1.72708036400674,FALSE,1.89426989508958
"CAN","cpi",0.2,2010,3,2010,NA,0.5,1.58136319896242,1.72873693181713,1.75525687020327,1.42243266198166,FALSE,0.21367357882006
"CAN","cpi",0.2,2010,3,2009,NA,1,0.868590895281564,1.01596462813627,1.75525687020327,0.515829437079458,FALSE,1.99560433802221
"CAN","cpi",0.2,2010,3,2009,NA,1.5,-0.237731933876833,-0.090358201022127,1.75525687020327,-0.666399632006793,FALSE,4.7614114109182
"CAN","cpi",0.2,2011,3,2011,NA,0,1.77445484933425,1.84755216335894,2.85717434028225,2.82871118728348,FALSE,2.59715275633295
"CAN","cpi",0.2,2011,3,2011,NA,0.5,2.82330558288383,3.19713106168706,2.85717434028225,2.59305645945043,TRUE,0.373825478803232
"CAN","cpi",0.2,2011,3,2010,NA,1,1.85622209318712,2.23004757199035,2.85717434028225,1.58194849312145,FALSE,1.94164239953297
"CAN","cpi",0.2,2011,3,2010,NA,1.5,1.05954054132821,1.43336602013144,2.85717434028225,1.00866231757724,FALSE,3.93334627918025
"CAN","cpi",0.2,2012,3,2012,NA,0,1.63665900838367,1.71324210480746,1.50118536134935,1.46681751445377,FALSE,0.415267214009598
"CAN","cpi",0.2,2012,3,2012,NA,0.5,2.49085701616159,2.97917091983648,1.50118536134935,1.63866597060755,FALSE,2.9624930407055
"CAN","cpi",0.2,2012,3,2011,NA,1,1.34667807672592,1.83499198040081,1.50118536134935,0.848240548987433,TRUE,0.488313903674888
"CAN","cpi",0.2,2012,3,2011,NA,1.5,1.66841921259382,2.15673311626871,1.50118536134935,1.68384299188515,FALSE,0.906398531786066
"CAN","cpi",0.2,2013,3,2013,NA,0,1.1021274634445,1.15096788543454,0.931270594714462,1.03083115414128,FALSE,0.475982593815135
"CAN","cpi",0.2,2013,3,2013,NA,0.5,1.64074220004082,1.91314308045904,0.931270594714462,1.00184063196526,FALSE,2.04607989373411
"CAN","cpi",0.2,2013,3,2012,NA,1,0.314818384625191,0.587219265043409,0.931270594714462,-0.272545990872386,FALSE,1.13252920459585
"CAN","cpi",0.2,2013,3,2012,NA,1.5,1.11150401852563,1.38390489894385,0.931270594714462,0.958608804136071,FALSE,0.72298443994614
"CAN","cpi",0.2,2014,3,2014,NA,0,1.25058428660582,1.30613534853816,1.87639912240215,1.98613278510701,FALSE,1.48121049659231
"CAN","cpi",0.2,2014,3,2014,NA,0.5,2.06797903551365,2.32025550205536,1.87639912240215,1.95223885123801,FALSE,0.73122624932046
"CAN","cpi",0.2,2014,3,2013,NA,1,1.10909922821217,1.36137569475389,1.87639912240215,0.688658687283847,FALSE,1.53983503566238
"CAN","cpi",0.2,2014,3,2013,NA,1.5,1.01315815052604,1.26543461706775,1.87639912240215,0.891594199884501,FALSE,1.77968772987771
"CAN","cpi",0.2,2015,3,2015,NA,0,1.27358152317012,1.33591828292947,1.11090953952792,1.24641866377254,FALSE,0.469016718864854
"CAN","cpi",0.2,2015,3,2015,NA,0.5,1.13333702159956,1.48272102213849,1.11090953952792,0.198117162089698,FALSE,0.405452705718039
"CAN","cpi",0.2,2015,3,2014,NA,1,1.0891126342236,1.4427882412756,1.11090953952792,0.532106072596766,TRUE,0.353675607052001
"CAN","cpi",0.2,2015,3,2014,NA,1.5,1.78823777656013,2.14191338361213,1.11090953952792,1.81035920235268,FALSE,2.04699619963252
"CAN","cpi",0.2,2016,3,2016,NA,0,1.11298173829654,1.16775265628237,1.41168586698797,1.44184957394589,FALSE,0.664603944749815
"CAN","cpi",0.2,2016,3,2016,NA,0.5,1.35869449642127,1.629981864865,1.41168586698797,0.843100047406122,TRUE,0.271287368443731
"CAN","cpi",0.2,2016,3,2015,NA,1,1.61838681220573,1.88967418064946,1.41168586698797,1.23484853770273,FALSE,0.788039731488133
"CAN","cpi",0.2,2016,3,2015,NA,1.5,0.352639210369454,0.623926578813185,1.41168586698797,0.107462752177283,FALSE,2.24068558888068
"CAN","cpi",0.2,2017,3,2017,NA,0,1.22684244853195,1.28370823869025,1.57888581671161,1.51739925639673,FALSE,0.794809735211709
"CAN","cpi",0.2,2017,3,2017,NA,0.5,2.1510181014464,2.46632108361514,1.57888581671161,1.88170269277887,FALSE,1.74563369400572
"CAN","cpi",0.2,2017,3,2016,NA,1,0.92294791700005,1.23825089916879,1.57888581671161,0.418338346755244,FALSE,1.1668902760258
"CAN","cpi",0.2,2017,3,2016,NA,1.5,0.681271581454745,0.996574563623482,1.57888581671161,0.52557608733729,FALSE,1.77108111488906
"CAN","cpi",0.2,2018,3,2018,NA,0,1.57851038904918,1.64833014153015,2.23316270166586,2.40611378585155,FALSE,1.53190115282025
"CAN","cpi",0.2,2018,3,2018,NA,0.5,2.64702040688545,3.003988783528,2.23316270166586,2.62207020824204,FALSE,1.39161263969152
"CAN","cpi",0.2,2018,3,2017,NA,1,0.930818816565237,1.28778719320779,2.23316270166586,0.40411310060617,FALSE,2.72040714778772
"CAN","cpi",0.2,2018,3,2017,NA,1.5,1.45262051925891,1.80958889590146,2.23316270166586,1.53787524714926,FALSE,1.41590289105355
"CAN","cpi",0.2,2019,3,2019,NA,0,1.62713295244153,1.71050443202588,1.91921619871868,2.01142839895124,FALSE,0.605150896316354
"CAN","cpi",0.2,2019,3,2019,NA,0.5,2.04992789352624,2.506422512344,1.91921619871868,1.51883708040586,FALSE,0.783273855836659
"CAN","cpi",0.2,2019,3,2018,NA,1,1.90626116404542,2.36275578286318,1.91921619871868,1.41942984101848,TRUE,0.456494618817755
"CAN","cpi",0.2,2019,3,2018,NA,1.5,1.90208253946244,2.35857715828019,1.91921619871868,2.06105171090012,TRUE,0.456494618817755
"CAN","cpi",0.2,2020,3,2020,NA,0,1.10434550823343,1.16503171158155,0.71139989671781,0.726179852791075,FALSE,1.04305023213717
"CAN","cpi",0.2,2020,3,2020,NA,0.5,1.68301674431936,2.0640933489053,0.71139989671781,1.07225945048052,FALSE,2.81011872358981
"CAN","cpi",0.2,2020,3,2019,NA,1,1.49315171385538,1.87422831844133,0.71139989671781,1.01913964327806,FALSE,2.33545614742988
"CAN","cpi",0.2,2020,3,2019,NA,1.5,1.24797121978304,1.62904782436898,0.71139989671781,1.22761645350518,FALSE,1.72250491224902
"CAN","cpi",0.2,2021,3,2021,NA,0,1.61862295136661,1.68628364570931,3.31148121717802,3.30988753190892,FALSE,4.13065462301449
"CAN","cpi",0.2,2021,3,2021,NA,0.5,2.23845210249274,2.50584486226645,3.31148121717802,2.4899040786607,FALSE,2.28148364705265
"CAN","cpi",0.2,2021,3,2020,NA,1,1.48978889489793,1.75718165467163,3.31148121717802,1.1979067045331,FALSE,4.15314166603968
"CAN","cpi",0.2,2021,3,2020,NA,1.5,0.808530547280625,1.07592330705433,3.31148121717802,0.670626810990653,FALSE,5.85628753508294
"CAN","cpi",0.2,2022,3,2022,NA,0,3.46138086243347,3.61509316911302,6.50977236228281,6.54555789178856,FALSE,7.39041028960403
"CAN","cpi",0.2,2022,3,2022,NA,0.5,5.22148352760197,5.96482781674548,6.50977236228281,5.96468998606203,FALSE,2.10570565298685
"CAN","cpi",0.2,2022,3,2021,NA,1,3.67323955087553,4.41658384001904,6.50977236228281,3.42105264822981,FALSE,5.97631559480293
"CAN","cpi",0.2,2022,3,2021,NA,1.5,1.69239509531459,2.4357393844581,6.50977236228281,1.93276265883962,FALSE,10.9284267337053
"CAN","cpi",0.2,2023,3,2023,NA,0,3.52950583282614,3.71072808035988,3.78831288758619,3.97188685244318,FALSE,0.375184265599517
"CAN","cpi",0.2,2023,3,2023,NA,0.5,4.13166847621301,5.23370449031801,3.78831288758619,2.8392001035463,FALSE,1.96042498567205
"CAN","cpi",0.2,2023,3,2022,NA,1,3.59412404427342,4.69616005837842,3.78831288758619,2.86884991489758,TRUE,1.102036014105
"CAN","cpi",0.2,2023,3,2022,NA,1.5,3.38833962939796,4.49037564350297,3.78831288758619,4.03317247515909,TRUE,1.102036014105
"CAN","cpi",0.2,2024,3,2023,NA,1,3.41391887340949,4.07609093168924,NA,2.89946754179362,NA,NA
"CAN","cpi",0.2,2024,3,2023,NA,1.5,1.1865415228644,1.84871358114415,NA,1.17991651782151,NA,NA
"CAN","cpi",0.3,1952,3,1952,NA,0,-31.1810924632298,-23.5854586567751,2.55562336095485,2.50792675283471,FALSE,82.2844395713973
"CAN","cpi",0.3,1952,3,1952,NA,0.5,-26.7297379152308,-7.97826405012173,2.55562336095485,3.80942800622696,FALSE,48.8482950396136
"CAN","cpi",0.3,1952,3,1951,NA,1,-8.27263077263851,10.4788430924706,2.55562336095485,6.36946346746546,TRUE,18.7514738651091
"CAN","cpi",0.3,1952,3,1951,NA,1.5,-79.9024794716228,-61.1510056065137,2.55562336095485,4.80604275648344,FALSE,200.770413772162
"CAN","cpi",0.3,1953,3,1953,NA,0,-2.9245591609438,-3.06231191864089,-1.01492775838436,-1.00118391953201,FALSE,5.71191627160728
"CAN","cpi",0.3,1953,3,1953,NA,0.5,-14.6391176297787,-13.0978483517194,-1.01492775838436,-1.88711612688489,FALSE,36.0638995447308
"CAN","cpi",0.3,1953,3,1952,NA,1,-15.6455978903209,-12.2351989110663,-1.01492775838436,-0.873617238258229,FALSE,35.4683165583459
"CAN","cpi",0.3,1953,3,1952,NA,1.5,-20.802641726513,-17.3922427472584,-1.01492775838436,0.432272395627528,FALSE,50.2027275188946
"CAN","cpi",0.3,1954,3,1954,NA,0,1.1768383919383,0.51071604255143,0.644425455961438,0.831821956393317,FALSE,1.23708436314705
"CAN","cpi",0.3,1954,3,1954,NA,0.5,2.18095086192938,1.51482851254251,0.644425455961438,-0.141712452464762,FALSE,3.72395023909297
"CAN","cpi",0.3,1954,3,1953,NA,1,10.5842644846999,9.91814213531301,0.644425455961438,2.12291681679911,FALSE,27.733417732723
"CAN","cpi",0.3,1954,3,1953,NA,1.5,-0.328259329028332,-0.994381678415203,0.644425455961438,-1.28741438714058,FALSE,4.0161837488321
"CAN","cpi",0.3,1955,3,1955,NA,0,0.430659673386025,0.557046549272954,0.173649026558865,0.10295813188439,FALSE,0.860703009678816
"CAN","cpi",0.3,1955,3,1955,NA,0.5,-0.908892214318162,-0.297237503528371,0.173649026558865,-0.548848324097393,FALSE,1.95704479675332
"CAN","cpi",0.3,1955,3,1954,NA,1,5.52868938580377,7.94545460887061,0.173649026558865,2.19101630104756,FALSE,17.7168805351951
"CAN","cpi",0.3,1955,3,1954,NA,1.5,-9.41016812564218,-6.99340290257534,0.173649026558865,-0.815294949881493,FALSE,22.8940564491646
"CAN","cpi",0.3,1956,3,1956,NA,0,0.999307759703701,1.13258211116179,1.32752769429961,1.46434436590257,FALSE,0.690261731851861
"CAN","cpi",0.3,1956,3,1956,NA,0.5,-0.147231010268642,-0.0139566588105563,1.32752769429961,-0.485738076612692,FALSE,3.9660867889157
"CAN","cpi",0.3,1956,3,1955,NA,1,1.16024198482996,2.15032816957902,1.32752769429961,0.557995939500226,TRUE,0.990086184749061
"CAN","cpi",0.3,1956,3,1955,NA,1.5,-5.26306663309598,-4.27298044834692,1.32752769429961,-0.793756041684752,FALSE,16.991538020882
"CAN","cpi",0.3,1957,3,1957,NA,0,1.85156827129507,2.29986520929604,3.24684755852518,3.35523637829212,FALSE,3.15396079294137
"CAN","cpi",0.3,1957,3,1957,NA,0.5,2.80556086114042,4.8324932926144,3.24684755852518,2.12793087018929,TRUE,2.02693243147397
"CAN","cpi",0.3,1957,3,1956,NA,1,6.26612542404524,10.6627531442779,3.24684755852518,4.42886834530761,FALSE,13.0231359074329
"CAN","cpi",0.3,1957,3,1956,NA,1.5,-11.9694023712979,-7.57277465106524,3.24684755852518,-0.785064469253982,FALSE,35.3098340333482
"CAN","cpi",0.3,1958,3,1958,NA,0,1.83609077829807,2.12105818756148,2.33186388641149,2.20013349321115,FALSE,0.887269405977729
"CAN","cpi",0.3,1958,3,1958,NA,0.5,2.99165358950875,4.8932314694214,2.33186388641149,2.0126030377883,FALSE,3.7866913173334
"CAN","cpi",0.3,1958,3,1957,NA,1,0.13639353795572,3.72173976774838,2.33186388641149,2.83859761398538,TRUE,3.58534622979266
"CAN","cpi",0.3,1958,3,1957,NA,1.5,-17.7734423971931,-14.1880961674004,2.33186388641149,0.366312073207214,FALSE,50.7852320978267
"CAN","cpi",0.3,1959,3,1959,NA,0,1.28992474942079,1.49684602986514,1.19382698397654,1.18954599151176,FALSE,0.481486324570782
"CAN","cpi",0.3,1959,3,1959,NA,0.5,1.4428663291441,2.35174559138213,1.19382698397654,0.545308327160925,FALSE,1.62042024843106
"CAN","cpi",0.3,1959,3,1958,NA,1,-0.869177423893324,0.953465942441706,1.19382698397654,1.13295114249046,FALSE,2.5093891992917
"CAN","cpi",0.3,1959,3,1958,NA,1.5,-11.650360895473,-9.82771752913797,1.19382698397654,0.717422088079289,FALSE,33.3127705466622
"CAN","cpi",0.3,1960,3,1960,NA,0,0.968612292404402,1.10637499809493,1.34209404870695,1.02361304259477,FALSE,0.811245707439161
"CAN","cpi",0.3,1960,3,1960,NA,0.5,1.43030961189954,1.9400654739423,1.34209404870695,0.648611007713657,FALSE,0.761800328307298
"CAN","cpi",0.3,1960,3,1959,NA,1,2.1934917481692,3.69554731703942,1.34209404870695,2.37666873185636,FALSE,3.93462042447665
"CAN","cpi",0.3,1960,3,1959,NA,1.5,-6.3900317250462,-4.88797615617597,1.34209404870695,-0.349092179567277,FALSE,19.30225615425
"CAN","cpi",0.3,1961,3,1961,NA,0,1.01564007442926,1.1954677374563,1.00921348094007,1.00921348094007,FALSE,0.19818935871044
"CAN","cpi",0.3,1961,3,1961,NA,0.5,1.86230863747761,2.3196752334216,1.00921348094007,1.00921348094007,FALSE,2.89478132890839
"CAN","cpi",0.3,1961,3,1960,NA,1,-0.655769995031134,-0.19840339908714,1.00921348094007,0.0537704626035329,FALSE,3.90770053887888
"CAN","cpi",0.3,1961,3,1960,NA,1.5,-5.82539201983595,-5.36802542389195,1.00921348094007,-0.332316386156399,FALSE,18.6780491811784
"CAN","cpi",0.3,1962,3,1962,NA,0,0.963493832912152,1.11653358187451,1.04957947883042,1.0653801125483,TRUE,0.15303974896236
"CAN","cpi",0.3,1962,3,1962,NA,0.5,0.833270267056695,1.00439630465819,1.04957947883042,0,FALSE,0.300220820950718
"CAN","cpi",0.3,1962,3,1961,NA,1,-0.159716285579294,0.0114097520221969,1.04957947883042,0,FALSE,3.13732525705354
"CAN","cpi",0.3,1962,3,1961,NA,1.5,-3.94595508263725,-3.77482904503576,1.04957947883042,0,FALSE,13.9551503915048
"CAN","cpi",0.3,1963,3,1963,NA,0,1.25426076842927,1.42503340824879,1.60677118395228,1.83024954277348,FALSE,0.690023427543789
"CAN","cpi",0.3,1963,3,1963,NA,0.5,1.52032348455055,1.96902665110761,1.60677118395228,0.836828714617504,TRUE,0.448703166557054
"CAN","cpi",0.3,1963,3,1962,NA,1,1.60246730326571,2.05117046982276,1.60677118395228,1.60935100695326,TRUE,0.448703166557054
"CAN","cpi",0.3,1963,3,1962,NA,1.5,-3.36166152546642,-2.91295835890936,1.60677118395228,0,FALSE,13.3622161461618
"CAN","cpi",0.3,1964,3,1964,NA,0,1.4123918459592,1.6137835082551,1.88764670034376,1.95194648443024,FALSE,0.983857925406349
"CAN","cpi",0.3,1964,3,1964,NA,0.5,2.04743522092615,2.58628748995577,1.88764670034376,1.27307816843398,FALSE,0.995390899265019
"CAN","cpi",0.3,1964,3,1963,NA,1,2.96431099224657,3.68828008485373,1.88764670034376,3.20172332637508,FALSE,3.80015278375804
"CAN","cpi",0.3,1964,3,1963,NA,1.5,-4.0689147747748,-3.34494568216763,1.88764670034376,0,FALSE,15.6742330426397
"CAN","cpi",0.3,1965,3,1965,NA,0,1.60909942656146,1.80845951581933,2.29538304394236,2.29800189469823,FALSE,1.59057016960938
"CAN","cpi",0.3,1965,3,1965,NA,0.5,2.40098367089761,2.60055451090078,2.29538304394236,1.39443218256826,FALSE,0.501286917018172
"CAN","cpi",0.3,1965,3,1964,NA,1,1.3349362098095,1.53450704981267,2.29538304394236,1.48078368039448,FALSE,2.37350225180227
"CAN","cpi",0.3,1965,3,1964,NA,1.5,-3.65501823525838,-3.4554473952552,2.29538304394236,0.293257399533461,FALSE,16.6305149519962
"CAN","cpi",0.3,1966,3,1966,NA,0,2.24657928312774,2.50610882555068,3.72486065470629,3.77511268244847,FALSE,3.74167762572469
"CAN","cpi",0.3,1966,3,1966,NA,0.5,4.19312051945597,4.50375849379204,3.72486065470629,3.37743719728421,FALSE,1.6485233021923
"CAN","cpi",0.3,1966,3,1965,NA,1,1.84397858256799,2.15461655690406,3.72486065470629,1.98486973144544,FALSE,4.79704968234244
"CAN","cpi",0.3,1966,3,1965,NA,1.5,-3.70152082960746,-3.39088285527139,3.72486065470629,0.578640834001038,FALSE,20.6413337171294
"CAN","cpi",0.3,1967,3,1967,NA,0,2.61907222161619,2.81692992356753,3.49360316391996,3.68375770714608,FALSE,2.131209817244
"CAN","cpi",0.3,1967,3,1967,NA,0.5,3.69956012827612,3.89741783022746,3.49360316391996,2.11054708048259,FALSE,0.786306171540372
"CAN","cpi",0.3,1967,3,1966,NA,1,1.91884011655427,2.11669781850561,3.49360316391996,2.02003307533501,FALSE,4.13187297456376
"CAN","cpi",0.3,1967,3,1966,NA,1.5,-4.50965189782185,-4.31179419587051,3.49360316391996,1.71558536379673,FALSE,22.4989930156384
"CAN","cpi",0.3,1968,3,1968,NA,0,2.64437992202479,2.92101474330171,3.95128347779386,4.07085717819357,FALSE,3.22025977696876
"CAN","cpi",0.3,1968,3,1968,NA,0.5,4.65228833498414,5.25966110740288,3.95128347779386,3.50732233276501,FALSE,2.61024379296239
"CAN","cpi",0.3,1968,3,1967,NA,1,3.68834260150938,4.29571537392812,3.95128347779386,3.66303679301692,TRUE,0.607372772418741
"CAN","cpi",0.3,1968,3,1967,NA,1.5,-4.36647680323978,-3.75910403082104,3.95128347779386,0.834881519045053,FALSE,22.6370513684613
"CAN","cpi",0.3,1969,3,1969,NA,0,2.92311582696169,3.21878554652357,4.42679496126681,4.52532640008253,FALSE,3.74712519025686
"CAN","cpi",0.3,1969,3,1969,NA,0.5,4.14944455440538,4.69528820656015,4.42679496126681,2.69090620784681,TRUE,0.545843652154769
"CAN","cpi",0.3,1969,3,1968,NA,1,4.22744892160689,4.77329257376166,4.42679496126681,4.0779393276339,TRUE,0.545843652154769
"CAN","cpi",0.3,1969,3,1968,NA,1.5,-4.43570118843588,-3.88985753628111,4.42679496126681,1.61221871335458,FALSE,24.3077079308631
"CAN","cpi",0.3,1970,3,1970,NA,0,2.71575953538944,2.95680077007803,3.28128405769805,3.55878605435979,FALSE,1.16813634217435
"CAN","cpi",0.3,1970,3,1970,NA,0.5,5.40480970676474,5.78537265882681,3.28128405769805,3.74969277403504,FALSE,6.44777909225262
"CAN","cpi",0.3,1970,3,1969,NA,1,3.25751128850402,3.63807424056609,3.28128405769805,3.11186608282608,TRUE,0.380562952062074
"CAN","cpi",0.3,1970,3,1969,NA,1.5,-5.42089066504195,-5.04032771297987,3.28128405769805,0.764941977259638,FALSE,24.1565965825704
"CAN","cpi",0.3,1971,3,1971,NA,0,2.13980104399343,2.34107560684844,2.64123406634756,2.81514553288871,FALSE,1.05887016142393
"CAN","cpi",0.3,1971,3,1971,NA,0.5,2.54050003715081,3.13638540957462,2.64123406634756,1.11673730766521,TRUE,0.595885372423805
"CAN","cpi",0.3,1971,3,1970,NA,1,1.8404683899789,2.7905238243904,2.64123406634756,1.92043450460395,TRUE,0.950055434411503
"CAN","cpi",0.3,1971,3,1970,NA,1.5,-1.8890888486609,-0.939033414249393,2.64123406634756,1.70194075200601,FALSE,11.1793910932599
"CAN","cpi",0.3,1972,3,1972,NA,0,2.76027180591656,3.00926405334076,4.83230569625923,5.04828762155974,FALSE,5.45768265576268
"CAN","cpi",0.3,1972,3,1972,NA,0.5,4.67143346359434,5.80534222961662,4.83230569625923,4.09602385359717,TRUE,1.13390876602228
"CAN","cpi",0.3,1972,3,1971,NA,1,4.17890117785548,5.79260304131483,4.83230569625923,4.16812111633716,TRUE,1.61370186345935
"CAN","cpi",0.3,1972,3,1971,NA,1.5,-2.06254280021376,-0.448840936754419,4.83230569625923,0.692030005351089,FALSE,16.7026922434983
"CAN","cpi",0.3,1973,3,1973,NA,0,4.09049831811492,4.45408298452799,7.12388603531779,7.25096132226983,FALSE,7.99159338295536
"CAN","cpi",0.3,1973,3,1973,NA,0.5,6.43529459057447,7.86209408036504,7.12388603531779,5.30446017290082,TRUE,1.42679948979057
"CAN","cpi",0.3,1973,3,1972,NA,1,4.56019852506982,6.89611283767492,7.12388603531779,4.92276035792265,FALSE,2.986694877299
"CAN","cpi",0.3,1973,3,1972,NA,1.5,-2.6638407271002,-0.327926414495102,7.12388603531779,1.79187879074203,FALSE,23.6268070263562
"CAN","cpi",0.3,1974,3,1974,NA,0,5.64887576679764,6.21998841984895,10.2717243737774,10.148911210151,FALSE,12.1475010928469
"CAN","cpi",0.3,1974,3,1974,NA,0.5,9.31061410832771,11.5252142836186,10.2717243737774,7.90446289245049,TRUE,2.21460017529093
"CAN","cpi",0.3,1974,3,1973,NA,1,6.80955879060856,9.74075927493227,10.2717243737774,7.30476096756609,FALSE,4.44824362388128
"CAN","cpi",0.3,1974,3,1973,NA,1.5,-3.98932160916098,-1.05812112483727,10.2717243737774,2.5663290958369,FALSE,35.3021876232228
"CAN","cpi",0.3,1975,3,1975,NA,0,6.39860015175353,7.00849651158684,10.0232981493341,10.1746571103793,FALSE,9.22361532482554
"CAN","cpi",0.3,1975,3,1975,NA,0.5,11.0870175281148,12.3980275595224,10.0232981493341,8.07152306914465,FALSE,4.35020825649524
"CAN","cpi",0.3,1975,3,1974,NA,1,6.72598312263224,8.03699315403977,10.0232981493341,7.8187778356914,FALSE,6.98616716081997
"CAN","cpi",0.3,1975,3,1974,NA,1.5,-8.52207389167778,-7.21106386027025,10.0232981493341,3.64914274700436,FALSE,50.5520443445629
"CAN","cpi",0.3,1976,3,1976,NA,0,5.36013887846985,5.88184996894871,7.22784311401172,7.18995143043805,FALSE,4.36740579065889
"CAN","cpi",0.3,1976,3,1976,NA,0.5,9.06838538004132,11.3985283737886,7.22784311401172,6.61333364285308,FALSE,7.58883518240325
"CAN","cpi",0.3,1976,3,1975,NA,1,6.4470212709606,8.77716426470784,7.22784311401172,8.584971075903,TRUE,2.33014299374724
"CAN","cpi",0.3,1976,3,1975,NA,1.5,-9.37702519965607,-7.04688220590883,7.22784311401172,3.14738569995591,FALSE,43.1150724792345
"CAN","cpi",0.3,1977,3,1977,NA,0,4.74562377858503,5.2002956207992,7.58101410153764,7.50176944503946,FALSE,7.25672464432401
"CAN","cpi",0.3,1977,3,1977,NA,0.5,7.83848796000168,10.1012329187194,7.58101410153764,6.40571638826874,FALSE,2.99838455432924
"CAN","cpi",0.3,1977,3,1976,NA,1,2.37504847619781,5.09365238882116,7.58101410153764,4.04909286077014,FALSE,9.82535166324187
"CAN","cpi",0.3,1977,3,1976,NA,1.5,-5.71861620028709,-3.00001228766373,7.58101410153764,2.59432747727492,FALSE,32.9501078817701
"CAN","cpi",0.3,1978,3,1978,NA,0,5.18280525785366,5.695573482682,8.50208927062595,8.59104847384149,FALSE,8.53138476181105
"CAN","cpi",0.3,1978,3,1978,NA,0.5,8.69407716568807,11.2491199275617,8.50208927062595,7.34113908733495,FALSE,3.10357960490829
"CAN","cpi",0.3,1978,3,1977,NA,1,3.62307661037027,6.92678402476908,8.50208927062595,5.87902868518151,FALSE,7.80457954541843
"CAN","cpi",0.3,1978,3,1977,NA,1.5,-4.99687866156016,-1.69317124716135,8.50208927062595,3.89293485842214,FALSE,32.4330231795054
"CAN","cpi",0.3,1979,3,1979,NA,0,5.38332482155192,5.92638273135346,8.65147652410481,8.48651410143776,FALSE,8.32904017480539
"CAN","cpi",0.3,1979,3,1979,NA,0.5,9.15816348214089,11.8209067055418,8.65147652410481,7.46186747064873,FALSE,4.11042024636115
"CAN","cpi",0.3,1979,3,1978,NA,1,3.90296410168909,7.92389165173858,8.65147652410481,6.93686058379669,FALSE,6.09974147109586
"CAN","cpi",0.3,1979,3,1978,NA,1.5,-3.713998396566,0.306929153483493,8.65147652410481,3.9179710204728,FALSE,27.8624914661104
"CAN","cpi",0.3,1980,3,1980,NA,0,5.72653189149262,6.2956478145799,9.5171912664748,9.43711128155219,FALSE,9.77352578564413
"CAN","cpi",0.3,1980,3,1980,NA,0.5,9.53827215459072,12.2026214945954,9.5171912664748,7.89144076485851,FALSE,2.72458044890733
"CAN","cpi",0.3,1980,3,1979,NA,1,2.88627785295639,6.3235610157149,9.5171912664748,5.69387794711803,FALSE,12.5619410220725
"CAN","cpi",0.3,1980,3,1979,NA,1.5,-1.69418648540257,1.74309667735594,9.5171912664748,4.27199048256738,FALSE,25.6489819888124
"CAN","cpi",0.3,1981,3,1981,NA,0,6.62685448312562,7.34885219582095,11.5813425032741,11.617538759154,FALSE,12.8148271625616
"CAN","cpi",0.3,1981,3,1981,NA,0.5,12.4460825247691,15.7368109901013,11.5813425032741,11.3038259100907,FALSE,5.7614142410321
"CAN","cpi",0.3,1981,3,1980,NA,1,5.00148369098213,8.29221215631429,11.5813425032741,8.22922472590444,FALSE,12.6882437423603
"CAN","cpi",0.3,1981,3,1980,NA,1.5,-0.563906575694665,2.7268218896375,11.5813425032741,4.54818367546621,FALSE,28.5893587900083
"CAN","cpi",0.3,1982,3,1982,NA,0,6.67546222997953,7.42022364309786,10.1124203763629,10.1863972123348,FALSE,8.43675207959002
"CAN","cpi",0.3,1982,3,1982,NA,0.5,11.834369137397,14.9935953374466,10.1124203763629,9.38011590167964,FALSE,8.079079803004
"CAN","cpi",0.3,1982,3,1981,NA,1,4.80760377622666,8.07934449510746,10.1124203763629,8.92774959502704,FALSE,9.08052895103934
"CAN","cpi",0.3,1982,3,1981,NA,1.5,4.52254675794687,7.79428747682768,10.1124203763629,7.65688060941457,FALSE,9.89497757469586
"CAN","cpi",0.3,1983,3,1983,NA,0,4.88098224441294,5.43805577317737,5.67091787896303,5.79231449937116,FALSE,1.22239383100919
"CAN","cpi",0.3,1983,3,1983,NA,0.5,7.93280013050479,9.93459091469219,5.67091787896303,4.48935486750539,FALSE,8.46431150287812
"CAN","cpi",0.3,1983,3,1982,NA,1,3.96045325663475,6.16056902086527,5.67091787896303,6.68360843662591,TRUE,2.20011576423052
"CAN","cpi",0.3,1983,3,1982,NA,1.5,3.28591051264675,5.48602627687727,5.67091787896303,5.80492936344428,FALSE,2.72837748447555
"CAN","cpi",0.3,1984,3,1984,NA,0,3.17916477054963,3.5230445689461,4.19799576814029,4.1863442377944,FALSE,2.27231179609415
"CAN","cpi",0.3,1984,3,1984,NA,0.5,6.09558989709285,7.53647606029974,4.19799576814029,4.37368919035215,FALSE,6.86258367449993
"CAN","cpi",0.3,1984,3,1983,NA,1,3.55640719921402,4.99729336242091,4.19799576814029,4.8252398586334,TRUE,1.44088616320689
"CAN","cpi",0.3,1984,3,1983,NA,1.5,-1.31065809588647,0.130228067320416,4.19799576814029,1.63651850095104,FALSE,13.0630795941208
"CAN","cpi",0.3,1985,3,1985,NA,0,2.69350307710517,2.98939022303849,3.86444262005169,3.87488963413478,FALSE,2.79603685168533
"CAN","cpi",0.3,1985,3,1985,NA,0.5,4.83939717759837,6.20868009960134,3.86444262005169,3.66954460168274,FALSE,4.15486737213633
"CAN","cpi",0.3,1985,3,1984,NA,1,1.41756636876624,2.93524368315154,3.86444262005169,2.51760914226531,FALSE,4.17253141981432
"CAN","cpi",0.3,1985,3,1984,NA,1.5,1.71632380901953,3.23400112340483,3.86444262005169,2.74468923002786,FALSE,3.31893873337635
"CAN","cpi",0.3,1986,3,1986,NA,0,2.69078427668154,2.96170238770553,4.08685396749431,4.09009381020777,FALSE,3.48563691042051
"CAN","cpi",0.3,1986,3,1986,NA,0.5,5.09490773447639,6.29647196441499,4.08685396749431,4.18867743652029,FALSE,4.08171784988739
"CAN","cpi",0.3,1986,3,1985,NA,1,2.15645895436719,3.35802318430579,4.08685396749431,2.96346536694636,FALSE,3.28393789619153
"CAN","cpi",0.3,1986,3,1985,NA,1.5,1.97504212489844,3.17660635483704,4.08685396749431,2.65645514502224,FALSE,3.80227169467367
"CAN","cpi",0.3,1987,3,1987,NA,0,2.83653807945086,3.08606443355475,4.23980729277887,4.30382748919395,FALSE,3.54593452331567
"CAN","cpi",0.3,1987,3,1987,NA,0.5,4.5801830778667,5.83170259444578,4.23980729277887,3.60745044359556,FALSE,2.22402175968717
"CAN","cpi",0.3,1987,3,1986,NA,1,2.71840651939122,3.96992603597031,4.23980729277887,3.48954394276064,FALSE,2.02260882174641
"CAN","cpi",0.3,1987,3,1986,NA,1.5,2.7333152993234,3.98483481590248,4.23980729277887,3.05061614822702,FALSE,1.98001230765449
"CAN","cpi",0.3,1988,3,1988,NA,0,2.7742358170226,3.00801062693538,3.92899537638065,3.96651200874969,FALSE,2.86515980832785
"CAN","cpi",0.3,1988,3,1988,NA,0.5,4.52603889243519,5.47947270470852,3.92899537638065,3.27588434563216,FALSE,2.65927242957201
"CAN","cpi",0.3,1988,3,1987,NA,1,2.74199704723384,3.69543085950717,3.92899537638065,3.36557853238272,FALSE,1.62076100334043
"CAN","cpi",0.3,1988,3,1987,NA,1.5,2.05086711183902,3.00430092411235,3.92899537638065,2.22890665988493,FALSE,3.59541796161133
"CAN","cpi",0.3,1989,3,1989,NA,0,3.03337520912855,3.26675980949085,4.82821664544208,4.96224122245117,FALSE,4.69468984593724
"CAN","cpi",0.3,1989,3,1989,NA,0.5,5.09473625531244,5.93400525813724,4.82821664544208,4.15246181762677,FALSE,1.60075360245442
"CAN","cpi",0.3,1989,3,1988,NA,1,2.74159901123377,3.58086801405858,4.82821664544208,3.35061776773985,FALSE,4.40312223534909
"CAN","cpi",0.3,1989,3,1988,NA,1.5,1.88217157669785,2.72144057952265,4.82821664544208,2.03293210635829,FALSE,6.85862919116602
"CAN","cpi",0.3,1990,3,1990,NA,0,3.10332390634224,3.35159495547931,4.64347549432717,4.49116732458404,FALSE,3.93935830298809
"CAN","cpi",0.3,1990,3,1990,NA,0.5,5.82832786756554,6.95154883033639,4.64347549432717,4.80635133900141,FALSE,4.50851345773761
"CAN","cpi",0.3,1990,3,1989,NA,1,3.69811561364654,4.82133657641739,4.64347549432717,4.45332930526201,TRUE,1.12322096277085
"CAN","cpi",0.3,1990,3,1989,NA,1.5,2.89346038195807,4.01668134472892,4.64347549432717,2.93994143296931,FALSE,2.91406139019442
"CAN","cpi",0.3,1991,3,1991,NA,0,3.43784255344898,3.71475310088204,5.4258100696218,5.5966415351231,FALSE,5.16564474383236
"CAN","cpi",0.3,1991,3,1991,NA,0.5,8.18776519866036,9.30298946096122,5.4258100696218,8.0424604401558,FALSE,9.00652463098247
"CAN","cpi",0.3,1991,3,1990,NA,1,2.3644121450333,3.47963640733416,5.4258100696218,3.00766385389873,FALSE,6.67572044026553
"CAN","cpi",0.3,1991,3,1990,NA,1.5,3.58454691008443,4.69977117238529,5.4258100696218,3.42461322750937,FALSE,3.18962111154801
"CAN","cpi",0.3,1992,3,1992,NA,0,2.25228467077067,2.45225582431171,1.47496888572843,1.46118300949616,FALSE,2.42087339651885
"CAN","cpi",0.3,1992,3,1992,NA,0.5,3.35370205339794,4.24692308254693,1.47496888572843,1.2379681755847,FALSE,6.2610300796333
"CAN","cpi",0.3,1992,3,1991,NA,1,1.28418891698585,2.17740994613483,1.47496888572843,1.8723365291461,TRUE,0.893221029148987
"CAN","cpi",0.3,1992,3,1991,NA,1.5,8.09143152951245,8.98465255866144,1.47496888572843,6.89933696838937,FALSE,19.797400011389
"CAN","cpi",0.3,1993,3,1993,NA,0,1.30427951412731,1.41230781359502,1.84351085411351,1.80220567555903,FALSE,1.3400369866634
"CAN","cpi",0.3,1993,3,1993,NA,0.5,2.63897216136846,3.14657426662862,1.84351085411351,2.21818498229346,FALSE,2.78034869741716
"CAN","cpi",0.3,1993,3,1992,NA,1,1.38018876522042,1.88779087048058,1.84351085411351,1.3520429918812,TRUE,0.507602105260159
"CAN","cpi",0.3,1993,3,1992,NA,1.5,1.01494127455116,1.52254337981132,1.84351085411351,0.933485487336859,FALSE,1.42465203183786
"CAN","cpi",0.3,1994,3,1994,NA,0,0.879100440853142,0.95812211520197,0.161630694655448,0.202109657487191,FALSE,2.12893523491367
"CAN","cpi",0.3,1994,3,1994,NA,0.5,0.691483328535516,1.01357179761488,0.161630694655448,-0.572639707462777,FALSE,1.83595313730813
"CAN","cpi",0.3,1994,3,1993,NA,1,1.11684396942429,1.65855984181263,0.161630694655448,1.14110533076836,FALSE,3.27089665744219
"CAN","cpi",0.3,1994,3,1993,NA,1.5,1.6971715403462,2.23888741273454,0.161630694655448,1.65023462295923,FALSE,4.92897543150476
"CAN","cpi",0.3,1995,3,1995,NA,0,1.062590275352,1.14078054150434,2.11688403676572,2.14851249512314,FALSE,2.86705739547055
"CAN","cpi",0.3,1995,3,1995,NA,0.5,2.42415052084654,2.747656464194,2.11688403676572,2.60072443309243,FALSE,1.20141018357839
"CAN","cpi",0.3,1995,3,1994,NA,1,1.65082617642833,1.97433211977579,2.11688403676572,1.43373972642191,FALSE,0.730797134747238
"CAN","cpi",0.3,1995,3,1994,NA,1.5,-1.09588371538359,-0.772377772036128,2.11688403676572,-1.26611333424577,FALSE,8.5785396827813
"CAN","cpi",0.3,1996,3,1996,NA,0,1.37742642927116,1.48007484733596,1.55309584667184,1.43665270425039,FALSE,0.311279844738747
"CAN","cpi",0.3,1996,3,1996,NA,0.5,1.98408614875808,2.58252029490785,1.55309584667184,1.23276330365037,FALSE,1.82983500925331
"CAN","cpi",0.3,1996,3,1995,NA,1,0.603124661137827,1.33552097757609,1.55309584667184,0.729753259393914,FALSE,1.35403879956898
"CAN","cpi",0.3,1996,3,1995,NA,1.5,2.17556959114051,2.90796590757878,1.55309584667184,2.31904839186543,FALSE,2.51089272920589
"CAN","cpi",0.3,1997,3,1997,NA,0,1.30783597132638,1.40365216982458,1.60528783555959,1.67949478723595,FALSE,0.671918100598229
"CAN","cpi",0.3,1997,3,1997,NA,0.5,2.28186958075949,2.84932348009826,1.60528783555959,1.93291992098407,FALSE,2.5005445999099
"CAN","cpi",0.3,1997,3,1996,NA,1,0.687016049755862,1.25446994909463,1.60528783555959,0.614630451620954,FALSE,1.56979071781009
"CAN","cpi",0.3,1997,3,1996,NA,1.5,0.866490663893764,1.43394456323253,1.60528783555959,0.962161564198873,FALSE,1.05700610598751
"CAN","cpi",0.3,1998,3,1998,NA,0,1.08362370611649,1.16207802075592,0.988908029337191,0.967063680387792,FALSE,0.349070534008855
"CAN","cpi",0.3,1998,3,1998,NA,0.5,1.83258893533268,2.3762234748632,0.988908029337191,1.34897459866337,FALSE,2.95415141380335
"CAN","cpi",0.3,1998,3,1997,NA,1,0.950490546655841,1.49412508618636,0.988908029337191,0.792689959246129,TRUE,0.543634539530521
"CAN","cpi",0.3,1998,3,1997,NA,1.5,1.16745108241331,1.71108562194383,0.988908029337191,1.28384000376946,FALSE,1.05375754831944
"CAN","cpi",0.3,1999,3,1999,NA,0,1.18216730561582,1.26277381828728,1.7107350135213,1.76864633894604,FALSE,1.36049564191152
"CAN","cpi",0.3,1999,3,1999,NA,0.5,1.20199478351792,1.59379162626524,1.7107350135213,0.732099710600531,FALSE,0.725920806336044
"CAN","cpi",0.3,1999,3,1998,NA,1,0.605932426473047,0.997729269220371,1.7107350135213,0.369052571959629,FALSE,2.42895611217854
"CAN","cpi",0.3,1999,3,1998,NA,1.5,1.21314758456345,1.60494442731077,1.7107350135213,1.26847007023129,FALSE,0.694055660491681
"CAN","cpi",0.3,2000,3,2000,NA,0,1.69968165918763,1.81151518356223,2.6718361971244,2.70257810674034,FALSE,2.56989356312365
"CAN","cpi",0.3,2000,3,2000,NA,0.5,2.25352118214717,2.8893604514115,2.6718361971244,1.95948305880876,TRUE,0.635839269264336
"CAN","cpi",0.3,2000,3,1999,NA,1,2.24884076163919,2.88468003090352,2.6718361971244,2.16154661985999,TRUE,0.635839269264336
"CAN","cpi",0.3,2000,3,1999,NA,1.5,0.379486120717468,1.0153253899818,2.6718361971244,0.50278387806376,FALSE,5.36872728967175
"CAN","cpi",0.3,2001,3,2001,NA,0,1.99087968830611,2.11471656655822,2.47906219852806,2.73154549386087,FALSE,1.16482439816594
"CAN","cpi",0.3,2001,3,2001,NA,0.5,2.35057312607238,3.08772987073307,2.47906219852806,1.65861828263926,TRUE,0.737156744660697
"CAN","cpi",0.3,2001,3,2000,NA,1,2.90452074448639,3.64167748914709,2.47906219852806,2.84133895788986,FALSE,1.95275259025591
"CAN","cpi",0.3,2001,3,2000,NA,1.5,0.913022360885253,1.65017910554595,2.47906219852806,1.14191354447969,FALSE,3.10539415318102
"CAN","cpi",0.3,2002,3,2002,NA,0,1.7890952281396,1.90391556526892,2.20880570551249,2.31282527465204,FALSE,0.985935023539515
"CAN","cpi",0.3,2002,3,2002,NA,0.5,2.03916250392916,2.69251008318785,2.20880570551249,1.24731948634093,TRUE,0.653347579258695
"CAN","cpi",0.3,2002,3,2001,NA,1,0.812825541986266,1.46617312124496,2.20880570551249,0.695491540886875,FALSE,2.77515496288019
"CAN","cpi",0.3,2002,3,2001,NA,1.5,0.33185282905573,0.985200408314426,2.20880570551249,0.47606161882134,FALSE,4.1493627141103
"CAN","cpi",0.3,2003,3,2003,NA,0,1.8512606815537,1.97086133450032,2.71189071546809,2.75460397277825,FALSE,2.23682745571168
"CAN","cpi",0.3,2003,3,2003,NA,0.5,4.00146298836638,4.76120575066269,2.71189071546809,4.16096970792426,FALSE,4.44423497057714
"CAN","cpi",0.3,2003,3,2002,NA,1,3.19416443752878,3.95390719982509,2.71189071546809,3.27791908188471,FALSE,2.1376676824697
"CAN","cpi",0.3,2003,3,2002,NA,1.5,1.26374258599175,2.02348534828806,2.71189071546809,1.51830012756901,FALSE,2.72661523995355
"CAN","cpi",0.3,2004,3,2004,NA,0,1.66823199095642,1.77167587233981,1.83151661303942,1.76153103901938,FALSE,0.274417426239422
"CAN","cpi",0.3,2004,3,2004,NA,0.5,2.14983936041394,2.93009625206596,1.83151661303942,1.38945604480572,FALSE,1.68975045557921
"CAN","cpi",0.3,2004,3,2003,NA,1,1.08088307176884,1.86113996342086,1.83151661303942,1.01874619159597,TRUE,0.780256891652027
"CAN","cpi",0.3,2004,3,2003,NA,1.5,2.63635992904161,3.41661682069363,1.83151661303942,2.99105359104411,FALSE,3.07980922308684
"CAN","cpi",0.3,2005,3,2005,NA,0,1.61801189333797,1.72036242186995,2.18071628336509,2.35062481142317,FALSE,1.41764727566096
"CAN","cpi",0.3,2005,3,2005,NA,0.5,1.95928276001741,2.52500600175551,2.18071628336509,1.4552837212303,TRUE,0.565723241738106
"CAN","cpi",0.3,2005,3,2004,NA,1,0.989897532805294,1.5556207745434,2.18071628336509,0.79648671202377,FALSE,2.35171040980008
"CAN","cpi",0.3,2005,3,2004,NA,1.5,1.04910307792945,1.61482631966756,2.18071628336509,1.13680951350797,FALSE,2.18255170944535
"CAN","cpi",0.3,2006,3,2006,NA,0,1.60984631092281,1.71915020039327,1.97519342012289,2.06448042324351,FALSE,0.840855945840799
"CAN","cpi",0.3,2006,3,2006,NA,0.5,2.27961184847133,2.92242143422667,1.97519342012289,1.77073314120205,FALSE,1.51257652389376
"CAN","cpi",0.3,2006,3,2005,NA,1,2.60030454373763,3.24311412949297,1.97519342012289,2.58808204718941,FALSE,2.42884136751174
