isdrw/probabilistic-benchmark-forecasts/results/linear_quantile_regression/archive/ldr_prediction_ar1_2026-02-18_16-02-44.csv
"country","target","tau","target_year","target_quarter","forecast_year","forecast_quarter","horizon","lower_bound","upper_bound","truth_value","prediction","covered","IS"
"CAN","cpi",0.1,1950,3,1950,NA,0,2.26226897836617,2.26226897836617,2.59031220731124,2.32166735935542,FALSE,0.728984953211261
"CAN","cpi",0.1,1950,3,1950,NA,0.5,-1.36203192878396,-1.36203192878396,2.59031220731124,1.23070468188811,FALSE,8.78298696910043
"CAN","cpi",0.1,1950,3,1949,NA,1,43.4928139491237,43.4928139491237,2.59031220731124,5.09987337388258,FALSE,90.8944483151389
"CAN","cpi",0.1,1950,3,1949,NA,1.5,9.12556990552849,9.12556990552849,2.59031220731124,7.87125428886177,FALSE,14.5227948849272
"CAN","cpi",0.1,1951,3,1951,NA,0,9.74061084427501,9.76662036483785,9.87945438999359,9.91468181420993,FALSE,0.27675179868672
"CAN","cpi",0.1,1951,3,1951,NA,0.5,9.12075965572379,9.14676917628663,9.87945438999359,8.91293028153729,FALSE,1.65419888435608
"CAN","cpi",0.1,1951,3,1950,NA,1,2.8410968068076,2.86710632737044,9.87945438999359,6.69633780377586,FALSE,15.609005215281
"CAN","cpi",0.1,1951,3,1950,NA,1.5,16.8565969150347,16.8826064355976,9.87945438999359,4.62302705298717,FALSE,15.5307706873209
"CAN","cpi",0.1,1952,3,1952,NA,0,2.90964700495483,2.90964700495483,2.55562336095485,2.65771800091113,FALSE,0.786719208888845
"CAN","cpi",0.1,1952,3,1952,NA,0.5,5.97405762238164,5.97405762238164,2.55562336095485,5.20333179389047,FALSE,7.59652058094844
"CAN","cpi",0.1,1952,3,1951,NA,1,5.35925187046927,9.87595244275523,2.55562336095485,8.18998200969936,FALSE,10.7469861489847
"CAN","cpi",0.1,1952,3,1951,NA,1.5,4.26248590402806,8.77918647631402,2.55562336095485,7.55460015368862,FALSE,8.30972844578199
"CAN","cpi",0.1,1953,3,1953,NA,0,-0.91519203172675,-0.91519203172675,-1.01492775838436,-0.921435878605124,FALSE,0.221634948128027
"CAN","cpi",0.1,1953,3,1953,NA,0.5,-2.41284769771241,-0.402480682434857,-1.01492775838436,-0.76897284692861,TRUE,2.01036701527755
"CAN","cpi",0.1,1953,3,1952,NA,1,1.1441636863254,3.15453070160295,-1.01492775838436,2.43113434957527,FALSE,6.80834800352147
"CAN","cpi",0.1,1953,3,1952,NA,1.5,6.64969144830867,8.66005846358623,-1.01492775838436,5.93557635631702,FALSE,19.0428541412621
"CAN","cpi",0.1,1954,3,1954,NA,0,0.830257174133786,0.813442668082503,0.644425455961438,0.902670593188762,FALSE,0.396144867665046
"CAN","cpi",0.1,1954,3,1954,NA,0.5,0.523872469754884,0.523872469754884,0.644425455961438,0.795164313951574,FALSE,0.267895524903454
"CAN","cpi",0.1,1954,3,1953,NA,1,0.0479016494240763,1.30082381640059,0.644425455961438,4.14534384936852,TRUE,1.25292216697651
"CAN","cpi",0.1,1954,3,1953,NA,1.5,2.08804974908494,11.4107950934642,0.644425455961438,3.28639485866967,FALSE,12.5307993290981
"CAN","cpi",0.1,1955,3,1955,NA,0,0.0838265608004709,0.0890484509432331,0.173649026558865,0.179965740558204,FALSE,0.193223169288611
"CAN","cpi",0.1,1955,3,1955,NA,0.5,0.00882836910640389,0.134296314504417,0.173649026558865,0.271639815719239,FALSE,0.21291841663012
"CAN","cpi",0.1,1955,3,1954,NA,1,0.664070295546421,1.02939244058292,0.173649026558865,4.00726070064464,FALSE,1.45514718723107
"CAN","cpi",0.1,1955,3,1954,NA,1.5,0.86728745831851,1.23260960335501,0.173649026558865,3.09849569962328,FALSE,1.90674088228015
"CAN","cpi",0.1,1956,3,1956,NA,0,1.46393868575398,1.3646120360815,1.32752769429961,1.49944483483663,FALSE,0.203808886892781
"CAN","cpi",0.1,1956,3,1956,NA,0.5,0.15279705598852,0.0534704063160397,1.32752769429961,0.239658941687119,FALSE,2.73191176806878
"CAN","cpi",0.1,1956,3,1955,NA,1,-0.822940907110248,-0.922267556782728,1.32752769429961,2.42699902405841,FALSE,4.90021835273271
"CAN","cpi",0.1,1956,3,1955,NA,1.5,0.383831406376998,0.383831406376998,1.32752769429961,2.6723883730094,FALSE,2.09710286205024
"CAN","cpi",0.1,1957,3,1957,NA,0,3.30567071989159,3.32317699242721,3.24684755852518,3.40805864327458,FALSE,0.148224408905434
"CAN","cpi",0.1,1957,3,1957,NA,0.5,2.57728214955302,2.59478842208864,3.24684755852518,2.77134230956367,FALSE,1.46652657572792
"CAN","cpi",0.1,1957,3,1956,NA,1,1.29358575297282,1.31109202550843,3.24684755852518,5.53767573267731,FALSE,4.31918523479505
"CAN","cpi",0.1,1957,3,1956,NA,1.5,0.232536580523637,0.900459005320121,3.24684755852518,2.3159105314434,FALSE,5.88211920969661
"CAN","cpi",0.1,1958,3,1958,NA,0,2.1394414947113,2.15680517791701,2.33186388641149,2.2666416787086,FALSE,0.406383035415665
"CAN","cpi",0.1,1958,3,1958,NA,0.5,2.43147941651807,2.44884309972378,2.33186388641149,2.6047181946108,FALSE,0.238731527886997
"CAN","cpi",0.1,1958,3,1957,NA,1,0.811128194155428,1.33318258783802,2.33186388641149,4.25451187896576,FALSE,2.7413461682903
"CAN","cpi",0.1,1958,3,1957,NA,1.5,1.07060466173675,1.59265905541935,2.33186388641149,3.21878619474396,FALSE,2.16473179588735
"CAN","cpi",0.1,1959,3,1959,NA,0,1.15996361095368,1.14960496256518,1.19382698397654,1.23804892137791,FALSE,0.0879125103034051
"CAN","cpi",0.1,1959,3,1959,NA,0.5,1.06251905430227,1.09906675988312,1.19382698397654,1.22423653017582,FALSE,0.247125981344005
"CAN","cpi",0.1,1959,3,1958,NA,1,1.43286457375177,1.47521119010777,1.19382698397654,2.76661875727304,FALSE,0.573541260300959
"CAN","cpi",0.1,1959,3,1958,NA,1.5,1.49857575803491,1.54092237439091,1.19382698397654,3.40313655953963,FALSE,0.719566114263487
"CAN","cpi",0.1,1960,3,1960,NA,0,1.01929706111769,1.05320853747584,1.34209404870695,1.09496250556158,FALSE,0.675879279093952
"CAN","cpi",0.1,1960,3,1960,NA,0.5,1.14723528872001,1.18352698938332,1.34209404870695,1.31117730754252,FALSE,0.38866294360471
"CAN","cpi",0.1,1960,3,1959,NA,1,1.47103245051853,1.74045690685206,1.34209404870695,3.67993081372331,FALSE,0.555954238137039
"CAN","cpi",0.1,1960,3,1959,NA,1.5,0.970478419583107,1.29050125532074,1.34209404870695,2.53752597259669,FALSE,0.43467348770699
"CAN","cpi",0.1,1961,3,1961,NA,0,1.07417453091979,1.00236012338413,1.00921348094007,1.07956241593662,FALSE,0.0877731647658145
"CAN","cpi",0.1,1961,3,1961,NA,0.5,1.57315850121168,1.50134409367602,1.00921348094007,1.62810563897838,FALSE,1.18139674862347
"CAN","cpi",0.1,1961,3,1960,NA,1,0.760775404298362,0.688960996762696,1.00921348094007,1.72683407115431,FALSE,0.639857779525169
"CAN","cpi",0.1,1961,3,1960,NA,1.5,1.27462887451508,1.32188732551405,1.00921348094007,2.46209267036318,FALSE,0.637070436721216
"CAN","cpi",0.1,1962,3,1962,NA,0,1.04756919272921,1.0764326245887,1.04957947883042,1.11859419449202,TRUE,0.028863431859492
"CAN","cpi",0.1,1962,3,1962,NA,0.5,0.43125213358303,0.552035279847466,1.04957947883042,0.567427238599509,FALSE,1.2264369217821
"CAN","cpi",0.1,1962,3,1961,NA,1,0.842198980956539,0.962982127220975,1.04957947883042,1.63689072516514,FALSE,0.313221705396525
"CAN","cpi",0.1,1962,3,1961,NA,1.5,1.06213185738459,1.31763584838347,1.04957947883042,2.63635903501327,FALSE,0.28339816556372
"CAN","cpi",0.1,1963,3,1963,NA,0,1.77849162511199,1.80740922689933,1.60677118395228,1.86240003699012,FALSE,0.410518582142242
"CAN","cpi",0.1,1963,3,1963,NA,0.5,1.26337587460695,1.35684480905765,1.60677118395228,1.39337130813056,FALSE,0.648860878660996
"CAN","cpi",0.1,1963,3,1962,NA,1,1.35933973939161,1.57143291713662,1.60677118395228,2.94326130570012,FALSE,0.290622659557589
"CAN","cpi",0.1,1963,3,1962,NA,1.5,1.00336088357879,1.26449958544935,1.60677118395228,2.44281938697022,FALSE,1.0217422540993
"CAN","cpi",0.1,1964,3,1964,NA,0,1.91757408282711,1.92964919900152,1.88764670034376,2.0039339947047,FALSE,0.0785804105818522
"CAN","cpi",0.1,1964,3,1964,NA,0.5,1.6575943014472,1.80988306584077,1.88764670034376,1.7991677011144,FALSE,0.325096841066879
"CAN","cpi",0.1,1964,3,1963,NA,1,1.75724383363257,2.10953902450371,1.88764670034376,4.16988253093083,TRUE,0.352295190871137
"CAN","cpi",0.1,1964,3,1963,NA,1.5,0.94319399534234,1.29548918621348,1.88764670034376,2.39235828979053,FALSE,1.66820077782732
"CAN","cpi",0.1,1965,3,1965,NA,0,2.24760613627973,2.25395517677378,2.29538304394236,2.3444020011952,FALSE,0.0984109675353321
"CAN","cpi",0.1,1965,3,1965,NA,0.5,1.82024699720483,1.88177266280303,2.29538304394236,1.87416183614195,FALSE,0.980659845907809
"CAN","cpi",0.1,1965,3,1964,NA,1,1.34605238383759,1.46549520887554,2.29538304394236,2.77513442256292,FALSE,1.96363801407533
"CAN","cpi",0.1,1965,3,1964,NA,1.5,1.26993978751509,1.38938261255304,2.29538304394236,2.58300862182973,FALSE,2.13277711701422
"CAN","cpi",0.1,1966,3,1966,NA,0,3.70441021008268,3.737156706607,3.72486065470629,3.82226531435883,TRUE,0.0327464965243154
"CAN","cpi",0.1,1966,3,1966,NA,0.5,3.59556216613984,3.71262301440956,3.72486065470629,3.71609253757358,FALSE,0.144255604484678
"CAN","cpi",0.1,1966,3,1965,NA,1,1.52100608380732,1.65119249815948,3.72486065470629,3.18026314560651,FALSE,4.73833787334507
"CAN","cpi",0.1,1966,3,1965,NA,1.5,1.30167425465645,1.43186066900861,3.72486065470629,2.72588429168219,FALSE,5.22574193812478
"CAN","cpi",0.1,1967,3,1967,NA,0,3.59468788445608,3.61437678668224,3.49360316391996,3.71060899730274,FALSE,0.244321614528656
"CAN","cpi",0.1,1967,3,1967,NA,0.5,2.48155594293601,2.61225593743731,3.49360316391996,2.56028521952089,FALSE,2.08924938668496
"CAN","cpi",0.1,1967,3,1966,NA,1,1.57690253259724,1.71413662124736,3.49360316391996,3.23068289349593,FALSE,4.09160418347811
"CAN","cpi",0.1,1967,3,1966,NA,1.5,1.57097689934324,1.847035202583,3.49360316391996,3.48379255951164,FALSE,3.93509821732188
"CAN","cpi",0.1,1968,3,1968,NA,0,3.96566320668408,3.98792691248527,3.95128347779386,4.08812321751386,FALSE,0.0542186588905771
"CAN","cpi",0.1,1968,3,1968,NA,0.5,3.78595168597479,3.86223211393255,3.95128347779386,3.86057245484849,FALSE,0.274172347649549
"CAN","cpi",0.1,1968,3,1967,NA,1,2.01677048472726,2.31977146818669,3.95128347779386,4.52914843962159,FALSE,3.92858322703092
"CAN","cpi",0.1,1968,3,1967,NA,1.5,1.42028148158747,1.7232824650469,3.95128347779386,2.90317969156253,FALSE,5.25411434511933
"CAN","cpi",0.1,1969,3,1969,NA,0,4.42772013536431,4.43280036637994,4.42679496126681,4.56202018095233,FALSE,0.00713617345450126
"CAN","cpi",0.1,1969,3,1969,NA,0.5,3.12700773664518,3.20865211498265,4.42679496126681,3.1731721410374,FALSE,2.78862848119117
"CAN","cpi",0.1,1969,3,1968,NA,1,2.09336264812744,2.514770038059,4.42679496126681,4.79164269130369,FALSE,4.67035166372671
"CAN","cpi",0.1,1969,3,1968,NA,1.5,1.55836933340936,2.08892179068757,4.42679496126681,3.43166930802121,FALSE,5.72582616967652
"CAN","cpi",0.1,1970,3,1970,NA,0,3.48915770304486,3.4947841701338,3.28128405769805,3.60731179706845,FALSE,0.467567901192972
"CAN","cpi",0.1,1970,3,1970,NA,0.5,4.07694319504223,4.15909557991489,3.28128405769805,4.09876840974541,FALSE,1.85028380119307
"CAN","cpi",0.1,1970,3,1969,NA,1,2.15317875705276,2.28623615616035,3.28128405769805,4.16731408225431,FALSE,2.34427495808025
"CAN","cpi",0.1,1970,3,1969,NA,1.5,1.69947654054082,1.99414059162869,3.28128405769805,2.94225383025522,FALSE,3.15498286457533
"CAN","cpi",0.1,1971,3,1971,NA,0,2.72477865675901,2.730223948602,2.64123406634756,2.83090781749212,FALSE,0.191099937201764
"CAN","cpi",0.1,1971,3,1971,NA,0.5,1.64120624051158,1.73494537365706,2.64123406634756,1.62320660035324,FALSE,2.10771400579104
"CAN","cpi",0.1,1971,3,1970,NA,1,1.68572818283859,1.85665124775942,2.64123406634756,3.17007770946556,FALSE,1.91444043956115
"CAN","cpi",0.1,1971,3,1970,NA,1.5,1.81108733834999,2.38166358569422,2.64123406634756,3.54353814347809,FALSE,1.14739953768499
"CAN","cpi",0.1,1972,3,1972,NA,0,4.90555378222762,4.9098607512745,4.83230569625923,5.0489634093373,FALSE,0.167080493421076
"CAN","cpi",0.1,1972,3,1972,NA,0.5,4.38567207001271,4.46503113574822,4.83230569625923,4.42305209693724,FALSE,0.895524755759977
"CAN","cpi",0.1,1972,3,1971,NA,1,2.49055214789489,2.86133938179981,4.83230569625923,4.88112932259212,FALSE,4.75071237714807
"CAN","cpi",0.1,1972,3,1971,NA,1.5,1.6978343682439,2.28810186160736,4.83230569625923,2.93340690449956,FALSE,6.24405379258984
"CAN","cpi",0.1,1973,3,1973,NA,0,7.03171316017806,7.04128099633862,7.12388603531779,7.21795256722813,FALSE,0.193134589447606
"CAN","cpi",0.1,1973,3,1973,NA,0.5,5.40516611928126,5.47530100008005,7.12388603531779,5.49391172870491,FALSE,3.7336571813271
"CAN","cpi",0.1,1973,3,1972,NA,1,2.7356234649164,3.15436787036521,7.12388603531779,5.39692894021178,FALSE,9.23989588312121
"CAN","cpi",0.1,1973,3,1972,NA,1.5,2.03182790621283,2.45057231166164,7.12388603531779,3.58263496028301,FALSE,10.8038860135736
"CAN","cpi",0.1,1974,3,1974,NA,0,9.88895798827784,9.89406256540224,10.2717243737774,10.1210179328964,FALSE,0.844353040180343
"CAN","cpi",0.1,1974,3,1974,NA,0.5,7.73727354656303,7.83119315270476,10.2717243737774,7.94351867110281,FALSE,5.51732231963653
"CAN","cpi",0.1,1974,3,1973,NA,1,4.32398845679106,5.64105236878265,10.2717243737774,7.1912022670208,FALSE,11.6074461453133
"CAN","cpi",0.1,1974,3,1973,NA,1.5,1.64351395928771,2.9605778712793,10.2717243737774,4.0254660999559,FALSE,17.5640561397652
"CAN","cpi",0.1,1975,3,1975,NA,0,9.95998824783032,10.0350344874164,10.0232981493341,10.1376483081154,TRUE,0.0750462395861078
"CAN","cpi",0.1,1975,3,1975,NA,0.5,8.08277865042544,8.9205794145347,10.0232981493341,8.26308676293858,FALSE,3.28828684144131
"CAN","cpi",0.1,1975,3,1974,NA,1,5.17869642067478,6.67675130390223,10.0232981493341,7.73583614861028,FALSE,8.93482565085387
"CAN","cpi",0.1,1975,3,1974,NA,1.5,1.91450904903095,3.4125639322584,10.0232981493341,4.67814014273702,FALSE,16.1885753656179
"CAN","cpi",0.1,1976,3,1976,NA,0,7.10476146175408,7.11130099782583,7.22784311401172,7.2178166349125,FALSE,0.26552201648483
"CAN","cpi",0.1,1976,3,1976,NA,0.5,7.6312029946387,7.68457718281575,7.22784311401172,6.91786916440093,FALSE,0.949729478459236
"CAN","cpi",0.1,1976,3,1975,NA,1,5.89397036167874,8.03149975727578,7.22784311401172,8.273619332389,TRUE,2.13752939559704
"CAN","cpi",0.1,1976,3,1975,NA,1.5,1.58183871772166,3.7193681133187,7.22784311401172,4.5816570194731,FALSE,9.93414050824819
"CAN","cpi",0.1,1977,3,1977,NA,0,7.39697200383736,7.40501315462478,7.58101410153764,7.50701198703803,FALSE,0.399154366149334
"CAN","cpi",0.1,1977,3,1977,NA,0.5,6.80615673908951,7.1877126828371,7.58101410153764,6.51617593246189,FALSE,1.25555909641546
"CAN","cpi",0.1,1977,3,1976,NA,1,3.89380849434834,4.4140429562766,7.58101410153764,4.96992569410004,FALSE,7.55794811806392
"CAN","cpi",0.1,1977,3,1976,NA,1.5,2.50950214433329,3.28985702439866,7.58101410153764,4.37719420243736,FALSE,10.3162594959298
"CAN","cpi",0.1,1978,3,1978,NA,0,8.47016992991474,8.48352510727727,8.50208927062595,8.58158523467168,FALSE,0.0546088736929305
"CAN","cpi",0.1,1978,3,1978,NA,0.5,7.80915549371473,8.29378931225765,8.50208927062595,7.4716201567401,FALSE,0.947522614916906
"CAN","cpi",0.1,1978,3,1977,NA,1,5.36216193976018,6.12609166220632,8.50208927062595,6.36749774462425,FALSE,6.04392440782309
"CAN","cpi",0.1,1978,3,1977,NA,1.5,2.59820617165795,3.36213589410409,8.50208927062595,5.06410799386515,FALSE,12.1860483369392
"CAN","cpi",0.1,1979,3,1979,NA,0,8.38704102724576,8.4186806217852,8.65147652410481,8.49829924825941,FALSE,0.548963821916351
"CAN","cpi",0.1,1979,3,1979,NA,0.5,8.35203729108228,8.39052346236028,8.65147652410481,7.55954787357905,FALSE,0.61838186404362
"CAN","cpi",0.1,1979,3,1978,NA,1,6.43148334882086,7.71354363098193,8.65147652410481,7.11843292779768,FALSE,3.36635560021192
"CAN","cpi",0.1,1979,3,1978,NA,1.5,2.35245181590343,3.63451209806449,8.65147652410481,5.13416174624329,FALSE,12.4308701178062
"CAN","cpi",0.1,1980,3,1980,NA,0,9.32267708027085,9.33631508025681,9.5171912664748,9.41458421512922,FALSE,0.415585080470366
"CAN","cpi",0.1,1980,3,1980,NA,0.5,8.8210536475385,9.06815926512397,9.5171912664748,7.9706129876785,FALSE,1.2449545094762
"CAN","cpi",0.1,1980,3,1979,NA,1,5.78941832041492,7.23181071840406,9.5171912664748,6.28953001008885,FALSE,6.52101583814634
"CAN","cpi",0.1,1980,3,1979,NA,1.5,2.57414530873339,4.01653770672253,9.5171912664748,5.364173973799,FALSE,13.6660669752164
"CAN","cpi",0.1,1981,3,1981,NA,0,11.502537024566,11.5280630657534,11.5813425032741,11.5923033542996,FALSE,0.143924791233451
"CAN","cpi",0.1,1981,3,1981,NA,0.5,12.2430017718441,12.5243386551026,11.5813425032741,11.0172481296202,FALSE,1.75169081341401
"CAN","cpi",0.1,1981,3,1980,NA,1,8.41411821926452,10.1912718288138,11.5813425032741,8.10476531012298,FALSE,4.86619955279447
"CAN","cpi",0.1,1981,3,1980,NA,1.5,2.87268297101165,9.61238363009922,11.5813425032741,5.56064493450504,FALSE,11.1151648216985
"CAN","cpi",0.1,1982,3,1982,NA,0,10.1198199378102,10.1594379136072,10.1124203763629,10.1931679525338,FALSE,0.0560614456797741
"CAN","cpi",0.1,1982,3,1982,NA,0.5,10.3837570535734,10.6557153955035,10.1124203763629,9.37004969245236,FALSE,0.874928735731012
"CAN","cpi",0.1,1982,3,1981,NA,1,10.3828645700099,11.5952770026518,10.1124203763629,8.69554175936175,FALSE,1.81339952963513
"CAN","cpi",0.1,1982,3,1981,NA,1.5,3.06889134133554,13.9219784480813,10.1124203763629,7.27062596384307,TRUE,10.8530871067458
"CAN","cpi",0.1,1983,3,1983,NA,0,5.72454454302003,5.73994856455876,5.67091787896303,5.81768735292628,FALSE,0.134574386109839
"CAN","cpi",0.1,1983,3,1983,NA,0.5,5.37131557839484,5.58952588459852,5.67091787896303,5.01354605702602,FALSE,0.399081404791484
"CAN","cpi",0.1,1983,3,1982,NA,1,7.82736637299627,8.66417010170394,5.67091787896303,7.12656393494862,FALSE,5.62891149322597
"CAN","cpi",0.1,1983,3,1982,NA,1.5,7.79400680177258,11.6206146997815,5.67091787896303,6.40641718255638,FALSE,8.54458328203016
"CAN","cpi",0.1,1984,3,1984,NA,0,4.14267761197663,4.15886296164281,4.19799576814029,4.24028901012313,FALSE,0.103147141882797
"CAN","cpi",0.1,1984,3,1984,NA,0.5,5.19534931078002,5.30824091196519,4.19799576814029,4.75786855948752,FALSE,2.32923280705125
"CAN","cpi",0.1,1984,3,1983,NA,1,5.63214293881417,6.38337717439123,4.19799576814029,5.66557758519989,FALSE,3.93822794818569
"CAN","cpi",0.1,1984,3,1983,NA,1.5,3.73296121380066,5.58149596455786,4.19799576814029,4.21132796972244,TRUE,1.8485347507572
"CAN","cpi",0.1,1985,3,1985,NA,0,3.82498204658965,3.84132431494244,3.86444262005169,3.92349089738505,FALSE,0.0677162797066878
"CAN","cpi",0.1,1985,3,1985,NA,0.5,4.33275354854641,4.53963300499276,3.86444262005169,4.05923277954066,FALSE,1.24757040865683
"CAN","cpi",0.1,1985,3,1984,NA,1,3.10590223047396,3.51269749448703,3.86444262005169,3.95710775307987,FALSE,1.1884510986012
"CAN","cpi",0.1,1985,3,1984,NA,1.5,4.25815415888861,6.22301416886571,3.86444262005169,4.80620472271859,FALSE,2.8397745407258
"CAN","cpi",0.1,1986,3,1986,NA,0,4.03340191694788,4.06367105437556,4.08685396749431,4.13000198176505,FALSE,0.0817867221360111
"CAN","cpi",0.1,1986,3,1986,NA,0.5,4.83829185930857,5.05068680590494,4.08685396749431,4.52376153022901,FALSE,1.88225692840583
"CAN","cpi",0.1,1986,3,1985,NA,1,3.59601674448871,4.23368153406722,4.08685396749431,4.28856700742326,TRUE,0.63766478957851
"CAN","cpi",0.1,1986,3,1985,NA,1.5,4.19270652259942,6.10601832350025,4.08685396749431,4.73207334351572,FALSE,2.1485397011344
"CAN","cpi",0.1,1987,3,1987,NA,0,4.25110103368194,4.28976951281404,4.23980729277887,4.34713339619661,FALSE,0.0637656811389166
"CAN","cpi",0.1,1987,3,1987,NA,0.5,4.31785819143703,4.52457513755792,4.23980729277887,4.04554574241257,FALSE,0.380163387583466
"CAN","cpi",0.1,1987,3,1986,NA,1,4.19116285038271,4.5927260812477,4.23980729277887,4.62985152306341,TRUE,0.401563230864983
"CAN","cpi",0.1,1987,3,1986,NA,1.5,4.3596541618361,6.4044581341904,4.23980729277887,4.92117197950912,FALSE,2.31113034803702
"CAN","cpi",0.1,1988,3,1988,NA,0,3.91210293093128,3.94203787560586,3.92899537638065,4.00901931174773,TRUE,0.029934944674574
"CAN","cpi",0.1,1988,3,1988,NA,0.5,3.95867406231708,4.06606216127989,3.92899537638065,3.73662637763501,FALSE,0.173340734377079
"CAN","cpi",0.1,1988,3,1987,NA,1,4.11214924268572,4.51230935594393,3.92899537638065,4.57559871410537,FALSE,0.807168705047243
"CAN","cpi",0.1,1988,3,1987,NA,1.5,3.87116815277194,5.44767734692178,3.92899537638065,4.47333468954476,TRUE,1.57650919414984
"CAN","cpi",0.1,1989,3,1989,NA,0,4.89641727217137,4.92906411684137,4.82821664544208,4.99076681888079,FALSE,0.184203792957322
"CAN","cpi",0.1,1989,3,1989,NA,0.5,4.74729006480341,4.91401392715975,4.82821664544208,4.4916513034202,TRUE,0.166723862356346
"CAN","cpi",0.1,1989,3,1988,NA,1,4.06271297106064,4.34749689444205,4.82821664544208,4.54165447743213,FALSE,1.35305003671481
"CAN","cpi",0.1,1989,3,1988,NA,1.5,3.82807713754916,4.33860573170641,4.82821664544208,4.35655767104226,FALSE,1.59855284690317
"CAN","cpi",0.1,1990,3,1990,NA,0,4.44160094308648,4.45855519202421,4.64347549432717,4.53713653171057,FALSE,0.427888254055419
"CAN","cpi",0.1,1990,3,1990,NA,0.5,5.42723040167157,5.5702577750203,4.64347549432717,5.08101061108308,FALSE,1.88470494522517
"CAN","cpi",0.1,1990,3,1989,NA,1,5.23682609950965,5.65695813843655,4.64347549432717,5.34783125013627,FALSE,1.73868893933241
"CAN","cpi",0.1,1990,3,1989,NA,1.5,4.22299568934806,5.48083413905947,4.64347549432717,4.81353563225505,TRUE,1.25783844971141
"CAN","cpi",0.1,1991,3,1991,NA,0,5.56777159596213,5.60226809953817,5.4258100696218,5.66037042635664,FALSE,0.34996656211012
"CAN","cpi",0.1,1991,3,1991,NA,0.5,8.38553022360126,8.67431087965998,5.4258100696218,7.84858621299389,FALSE,6.86593655379086
"CAN","cpi",0.1,1991,3,1990,NA,1,3.66606178143211,3.95854848909055,5.4258100696218,4.26930339967321,FALSE,3.55306799772788
"CAN","cpi",0.1,1991,3,1990,NA,1.5,4.48269787957733,4.82619663498919,5.4258100696218,5.0605414207232,FALSE,1.67597305459543
"CAN","cpi",0.1,1992,3,1992,NA,0,1.42654881502954,1.4431511443475,1.47496888572843,1.52994687025859,FALSE,0.0873084212755935
"CAN","cpi",0.1,1992,3,1992,NA,0.5,1.92238565705977,1.95272737997502,1.47496888572843,1.85875773502133,FALSE,1.02460121476267
"CAN","cpi",0.1,1992,3,1991,NA,1,2.7389386819796,3.0139419318206,1.47496888572843,3.50386131646851,FALSE,3.08382501928803
"CAN","cpi",0.1,1992,3,1991,NA,1.5,6.00105208155794,7.5333330246802,1.47496888572843,6.78035435046663,FALSE,11.5902436005212
"CAN","cpi",0.1,1993,3,1993,NA,0,1.76873472382654,1.78537699339422,1.84351085411351,1.87124044779021,FALSE,0.145828626721661
"CAN","cpi",0.1,1993,3,1993,NA,0.5,2.81952125011013,2.9013430569071,1.84351085411351,2.72734178597627,FALSE,2.25073379790056
"CAN","cpi",0.1,1993,3,1992,NA,1,1.94053419671378,2.26652985908283,1.84351085411351,3.08451104384819,FALSE,0.541603090369649
"CAN","cpi",0.1,1993,3,1992,NA,1.5,3.36871877681805,3.92388512713927,1.84351085411351,3.82501351795864,FALSE,3.94451728966464
"CAN","cpi",0.1,1994,3,1994,NA,0,0.17082100219442,0.193537643551073,0.161630694655448,0.262954827743209,FALSE,0.043139546998813
"CAN","cpi",0.1,1994,3,1994,NA,0.5,0.214801617518564,0.261338964972963,0.161630694655448,0.310066271274909,FALSE,0.164694953816879
"CAN","cpi",0.1,1994,3,1993,NA,1,1.5374461347016,1.96993025031241,0.161630694655448,2.87682482634461,FALSE,3.48985176015781
"CAN","cpi",0.1,1994,3,1993,NA,1.5,3.63697072000987,4.14984407729818,0.161630694655448,4.13541986765475,FALSE,8.23585119140925
"CAN","cpi",0.1,1995,3,1995,NA,0,2.12497618117787,2.13733577752008,2.11688403676572,2.22224044651209,FALSE,0.0303421394803241
"CAN","cpi",0.1,1995,3,1995,NA,0.5,3.08920712617857,3.18670229503847,2.11688403676572,2.99405804315788,FALSE,2.25821314533291
"CAN","cpi",0.1,1995,3,1994,NA,1,1.6860011560167,2.14133088720841,2.11688403676572,2.99684369657241,TRUE,0.455329731191707
"CAN","cpi",0.1,1995,3,1994,NA,1.5,2.274213824781,2.97467005222859,2.11688403676572,2.55761383507254,FALSE,1.05007797859267
"CAN","cpi",0.1,1996,3,1996,NA,0,1.4116058660832,1.42349599174559,1.55309584667184,1.51034526106652,FALSE,0.299889803276289
"CAN","cpi",0.1,1996,3,1996,NA,0.5,1.79194584010962,1.87352338086695,1.55309584667184,1.79601314583588,FALSE,0.612355303952387
"CAN","cpi",0.1,1996,3,1995,NA,1,1.06635805297291,1.48325930590382,1.55309584667184,2.55715877011559,FALSE,0.572093565748738
"CAN","cpi",0.1,1996,3,1995,NA,1.5,3.76060088623366,4.26162548471044,1.55309584667184,4.37195408299294,FALSE,5.4065913530586
"CAN","cpi",0.1,1997,3,1997,NA,0,1.64951235482613,1.66155904730752,1.60528783555959,1.74775979926451,FALSE,0.11032340196259
"CAN","cpi",0.1,1997,3,1997,NA,0.5,2.48238721951825,2.57233591387684,1.60528783555959,2.44638235868142,FALSE,2.03905843648893
"CAN","cpi",0.1,1997,3,1996,NA,1,0.892278485507779,1.34471453544694,1.60528783555959,2.43903366578812,FALSE,1.03148782796727
"CAN","cpi",0.1,1997,3,1996,NA,1.5,3.08116224276907,3.61310476097486,1.60528783555959,3.62198739789796,FALSE,3.81166342311574
"CAN","cpi",0.1,1998,3,1998,NA,0,0.939234171110021,0.950813427850508,0.988908029337191,1.03895035119065,FALSE,0.0962339267108935
"CAN","cpi",0.1,1998,3,1998,NA,0.5,1.8306627589506,1.87981306052846,0.988908029337191,1.85198354845497,FALSE,1.91971636738543
"CAN","cpi",0.1,1998,3,1997,NA,1,1.40624300975441,1.45539331133227,0.988908029337191,2.50242700061489,FALSE,0.976561369171684
"CAN","cpi",0.1,1998,3,1997,NA,1.5,3.20462818258407,3.73095237152174,0.988908029337191,3.75826952211307,FALSE,5.4501467517085
"CAN","cpi",0.1,1999,3,1999,NA,0,1.72094716708346,1.74785420817385,1.7107350135213,1.81904689636282,FALSE,0.0496007156729808
"CAN","cpi",0.1,1999,3,1999,NA,0.5,1.23873316377552,1.31588288693595,1.7107350135213,1.31729339512256,FALSE,0.954598893350094
"CAN","cpi",0.1,1999,3,1998,NA,1,0.506353438016263,0.901447049724859,1.7107350135213,2.15211490322884,FALSE,2.19351130903401
"CAN","cpi",0.1,1999,3,1998,NA,1.5,3.10816532686867,3.50325893857727,1.7107350135213,3.69857126490312,FALSE,3.5004943080361
"CAN","cpi",0.1,2000,3,2000,NA,0,2.64655477638153,2.65925762482225,2.6718361971244,2.74274050503735,FALSE,0.0406552313343932
"CAN","cpi",0.1,2000,3,2000,NA,0.5,2.46193285280618,2.56537913049073,2.6718361971244,2.46113990926174,FALSE,0.340017536870485
"CAN","cpi",0.1,2000,3,1999,NA,1,2.72627008254108,2.87529001518841,2.6718361971244,3.49419557264756,FALSE,0.269984122462171
"CAN","cpi",0.1,2000,3,1999,NA,1.5,2.66254061059907,2.9716844677804,2.6718361971244,3.22544865557399,TRUE,0.309143857181327
"CAN","cpi",0.1,2001,3,2001,NA,0,2.70790450998488,2.73336362351912,2.47906219852806,2.80396337772557,FALSE,0.533997583438275
"CAN","cpi",0.1,2001,3,2001,NA,0.5,2.26312180012397,2.36000573708143,2.47906219852806,2.23984277042869,FALSE,0.361453851283313
"CAN","cpi",0.1,2001,3,2000,NA,1,3.30854918065454,3.50438960458267,2.47906219852806,3.95792003209951,FALSE,2.03914482865363
"CAN","cpi",0.1,2001,3,2000,NA,1.5,2.96822038291694,3.16406080684507,2.47906219852806,3.55622040628749,FALSE,1.28285861145896
"CAN","cpi",0.1,2002,3,2002,NA,0,2.25239226359165,2.26483571275695,2.20880570551249,2.34939305392984,FALSE,0.109302467118997
"CAN","cpi",0.1,2002,3,2002,NA,0.5,1.69240441438919,1.7707483001435,2.20880570551249,1.70224895292675,FALSE,1.05180478657429
"CAN","cpi",0.1,2002,3,2001,NA,1,1.29719102996897,1.40024239993009,2.20880570551249,2.47791561910008,FALSE,1.89985871569978
"CAN","cpi",0.1,2002,3,2001,NA,1.5,2.61621367384482,2.75963021991449,2.20880570551249,3.17564245091106,FALSE,1.04876758680818
"CAN","cpi",0.1,2003,3,2003,NA,0,2.71711326905346,2.73386623422535,2.71189071546809,2.81714587005806,FALSE,0.0283586398060444
"CAN","cpi",0.1,2003,3,2003,NA,0.5,4.57535541138245,4.74735346018916,2.71189071546809,4.41787786293317,FALSE,4.31303070639417
"CAN","cpi",0.1,2003,3,2002,NA,1,3.77364669945651,3.98526194913796,2.71189071546809,4.32236105253803,FALSE,2.57107299187794
"CAN","cpi",0.1,2003,3,2002,NA,1.5,3.0966416929621,3.30825694264354,2.71189071546809,3.7551535685832,FALSE,1.06661742189035
"CAN","cpi",0.1,2004,3,2004,NA,0,1.72672266379457,1.74518591026083,1.83151661303942,1.83115885083991,FALSE,0.21030925264091
"CAN","cpi",0.1,2004,3,2004,NA,0.5,1.90933876172892,1.96205655392039,1.83151661303942,1.89356075843229,FALSE,0.225655900390349
"CAN","cpi",0.1,2004,3,2003,NA,1,1.51763279278788,1.57035058497935,1.83151661303942,2.5903955121087,FALSE,0.633086743436073
"CAN","cpi",0.1,2004,3,2003,NA,1.5,3.63501312019099,3.97886018322485,1.83151661303942,4.52605057310407,FALSE,4.35161707892623
"CAN","cpi",0.1,2005,3,2005,NA,0,2.29261768870235,2.30932110636498,2.18071628336509,2.39375726304695,FALSE,0.265373207300989
"CAN","cpi",0.1,2005,3,2005,NA,0.5,2.0220231021727,2.0917202078637,2.18071628336509,2.00628617924563,FALSE,0.267466162360754
"CAN","cpi",0.1,2005,3,2004,NA,1,1.42245041518562,1.49214752087662,2.18071628336509,2.50853787240411,FALSE,1.59984991122094
"CAN","cpi",0.1,2005,3,2004,NA,1.5,2.82676637681246,3.02320845023369,2.18071628336509,3.53910826966273,FALSE,1.63210894774871
"CAN","cpi",0.1,2006,3,2006,NA,0,2.03473852732847,2.05317065909165,1.97519342012289,2.13830460574546,FALSE,0.150754592220032
"CAN","cpi",0.1,2006,3,2006,NA,0.5,2.30004788940459,2.39059768836576,1.97519342012289,2.27462572570213,FALSE,0.812448619587179
"CAN","cpi",0.1,2006,3,2005,NA,1,3.00345855971306,3.23374249788103,1.97519342012289,3.7624469653382,FALSE,2.51531758170169
"CAN","cpi",0.1,2006,3,2005,NA,1.5,2.44772405426042,2.82378919064399,1.97519342012289,3.32314929235963,FALSE,1.42613321224476
"CAN","cpi",0.1,2007,3,2007,NA,0,2.08142884876853,2.09863230659841,2.10062087284572,2.1848630325127,FALSE,0.0216224939350184
"CAN","cpi",0.1,2007,3,2007,NA,0.5,2.52766564267327,2.57102642448569,2.10062087284572,2.4659174627357,FALSE,0.992349159206968
"CAN","cpi",0.1,2007,3,2006,NA,1,1.08079007316997,1.1241508549824,2.10062087284572,2.22963612092819,FALSE,2.21329415484204
"CAN","cpi",0.1,2007,3,2006,NA,1.5,2.59082494833979,2.90611069356664,2.10062087284572,3.47295078658589,FALSE,1.40462813521366
"CAN","cpi",0.1,2008,3,2008,NA,0,2.85027299193544,2.86862274121212,2.31447335265955,2.95153528130006,FALSE,1.20901561433421
"CAN","cpi",0.1,2008,3,2008,NA,0.5,1.56783557097751,1.62348919949083,2.31447335265955,1.59715335325429,FALSE,1.59117396888826
"CAN","cpi",0.1,2008,3,2007,NA,1,1.10773905837809,1.16339268689141,2.31447335265955,2.20911886965343,FALSE,2.61361066355364
"CAN","cpi",0.1,2008,3,2007,NA,1.5,3.03057731553616,3.36310079673316,2.31447335265955,3.9578182731907,FALSE,1.92386562092279
"CAN","cpi",0.1,2009,3,2009,NA,0,0.237980811990014,0.256094800139709,0.284533874408197,0.346622519867227,FALSE,0.0813119309685584
"CAN","cpi",0.1,2009,3,2009,NA,0.5,-0.167452288225282,-0.134627269937817,0.284533874408197,-0.0457515238861102,FALSE,0.964294227945275
"CAN","cpi",0.1,2009,3,2008,NA,1,3.70735583580081,4.11192277831668,0.284533874408197,4.33236618581201,FALSE,8.01083796783279
"CAN","cpi",0.1,2009,3,2008,NA,1.5,2.32458572702051,2.72915266953639,0.284533874408197,3.24825712451693,FALSE,4.93801550387658
"CAN","cpi",0.1,2010,3,2010,NA,0,1.67892399938132,1.6989236098498,1.75525687020327,1.78349521203817,FALSE,0.145184633476193
"CAN","cpi",0.1,2010,3,2010,NA,0.5,1.9711388552591,2.00566379028797,1.75525687020327,1.93597561685668,FALSE,0.514262679597369
"CAN","cpi",0.1,2010,3,2009,NA,1,1.23981957688946,1.27434451191833,1.75525687020327,2.28870864882185,FALSE,1.10321906455097
"CAN","cpi",0.1,2010,3,2009,NA,1.5,1.72290038270727,2.05112839291755,1.75525687020327,2.56709646677203,TRUE,0.328228010210282
"CAN","cpi",0.1,2011,3,2011,NA,0,2.79911394239195,2.81533584599257,2.85717434028225,2.89893270710837,FALSE,0.10919633535546
"CAN","cpi",0.1,2011,3,2011,NA,0.5,3.07001381723642,3.18299001520463,2.85717434028225,3.00273872882262,FALSE,0.585952813421929
"CAN","cpi",0.1,2011,3,2010,NA,1,2.13361857488858,2.34064141040774,2.85717434028225,3.01142322899407,FALSE,1.35487379079584
"CAN","cpi",0.1,2011,3,2010,NA,1.5,2.50063458025181,2.84539494935176,2.85717434028225,3.40953331447502,FALSE,0.370936793389913
"CAN","cpi",0.1,2012,3,2012,NA,0,1.44997671828748,1.46957582004239,1.50118536134935,1.54988369950135,FALSE,0.0898425268814848
"CAN","cpi",0.1,2012,3,2012,NA,0.5,2.13093887025373,2.25841468437519,1.50118536134935,2.15316548342416,FALSE,1.52692805613121
"CAN","cpi",0.1,2012,3,2011,NA,1,1.59644297524667,1.74534955991446,1.50118536134935,2.54342291649057,FALSE,0.360590171106288
"CAN","cpi",0.1,2012,3,2011,NA,1.5,2.78900497938545,3.1526793781852,1.50118536134935,3.73545377968611,FALSE,3.22549577221332
"CAN","cpi",0.1,2013,3,2013,NA,0,0.997595892213989,1.02763050937561,0.931270594714462,1.09800048224073,FALSE,0.177424167160571
"CAN","cpi",0.1,2013,3,2013,NA,0.5,1.49079298999776,1.52648337237321,0.931270594714462,1.51761743040875,FALSE,1.279073483005
"CAN","cpi",0.1,2013,3,2012,NA,1,0.509520608006561,0.545210990382019,0.931270594714462,1.66882566360164,FALSE,0.893600614225331
"CAN","cpi",0.1,2013,3,2012,NA,1.5,2.38934802948944,2.79358690892439,0.931270594714462,3.3545832452448,FALSE,3.64441095671268
"CAN","cpi",0.1,2014,3,2014,NA,0,1.95678544969935,1.97855166925407,1.87639912240215,2.0588007866019,FALSE,0.200402502437383
"CAN","cpi",0.1,2014,3,2014,NA,0.5,2.31517208825625,2.41962310323992,1.87639912240215,2.32770811661281,FALSE,1.07950205021499
"CAN","cpi",0.1,2014,3,2013,NA,1,1.33994747397588,1.44552078748918,1.87639912240215,2.31995786180362,FALSE,1.06308072443101
"CAN","cpi",0.1,2014,3,2013,NA,1.5,2.33369877857551,2.71825244253562,1.87639912240215,3.28547165350463,FALSE,1.40077512212313
"CAN","cpi",0.1,2015,3,2015,NA,0,1.20153962634228,1.22118830412953,1.11090953952792,1.30745939376918,FALSE,0.221048870708055
"CAN","cpi",0.1,2015,3,2015,NA,0.5,0.724609183168924,0.745991580774168,1.11090953952792,0.816310503641023,FALSE,0.832311194835797
"CAN","cpi",0.1,2015,3,2014,NA,1,1.40184839158989,1.42323078919514,1.11090953952792,2.265930123798,FALSE,0.667913179965189
"CAN","cpi",0.1,2015,3,2014,NA,1.5,2.69464600631058,3.14234762077799,1.11090953952792,3.7337371203939,FALSE,3.96711598509556
"CAN","cpi",0.1,2016,3,2016,NA,0,1.40935349319249,1.4288943176604,1.41168586698797,1.51468621085982,TRUE,0.0195408244679052
"CAN","cpi",0.1,2016,3,2016,NA,0.5,1.32268907153564,1.40388641744016,1.41168586698797,1.39785588750173,FALSE,0.0985294560107522
"CAN","cpi",0.1,2016,3,2015,NA,1,1.85037507888445,1.9844115721441,1.41168586698797,2.74144943136963,FALSE,1.10890140858516
"CAN","cpi",0.1,2016,3,2015,NA,1.5,1.92271981821475,2.0567563114744,1.41168586698797,2.82752633095574,FALSE,1.26966749598584
"CAN","cpi",0.1,2017,3,2017,NA,0,1.48246001840076,1.5009479394393,1.57888581671161,1.58758621872303,FALSE,0.191683203865893
"CAN","cpi",0.1,2017,3,2017,NA,0.5,2.27084200371305,2.37996242686479,1.57888581671161,2.28560926705846,FALSE,1.6468008387105
"CAN","cpi",0.1,2017,3,2016,NA,1,1.105985918023,1.21510634117473,1.57888581671161,2.1477774879281,FALSE,0.917519257678137
"CAN","cpi",0.1,2017,3,2016,NA,1.5,2.09407126286967,2.24392972264621,1.57888581671161,3.03010691132674,FALSE,1.29471500679445
"CAN","cpi",0.1,2018,3,2018,NA,0,2.36098882283595,2.37834868652159,2.23316270166586,2.46195010316238,FALSE,0.301417910730284
"CAN","cpi",0.1,2018,3,2018,NA,0.5,2.99587268971544,3.07489445596264,2.23316270166586,2.94436972801409,FALSE,1.77393285080182
"CAN","cpi",0.1,2018,3,2017,NA,1,1.06946085322173,1.14848261946893,2.23316270166586,2.08021290652945,FALSE,2.48942194890704
"CAN","cpi",0.1,2018,3,2017,NA,1.5,2.46953165785567,2.78636400173046,2.23316270166586,3.54405552837179,FALSE,0.842096690963262
"CAN","cpi",0.1,2019,3,2019,NA,0,1.97153030957636,1.98996882641629,1.91921619871868,2.07527494378271,FALSE,0.134692096523656
"CAN","cpi",0.1,2019,3,2019,NA,0.5,1.92276718042946,2.01939091422532,1.91921619871868,1.96131710374494,FALSE,0.10451480426426
"CAN","cpi",0.1,2019,3,2018,NA,1,2.00225721318011,2.13525442026089,1.91921619871868,2.81909694573415,FALSE,0.317532794772847
"CAN","cpi",0.1,2019,3,2018,NA,1.5,2.66710623258917,3.04466579007761,1.91921619871868,3.79624170159109,FALSE,2.03953741053396
"CAN","cpi",0.1,2020,3,2020,NA,0,0.672477686354572,0.690377064398594,0.71139989671781,0.779891991607007,FALSE,0.0646167831978362
"CAN","cpi",0.1,2020,3,2020,NA,0.5,1.52842661670106,1.61928904996364,0.71139989671781,1.59504539616918,FALSE,1.9064773665587
"CAN","cpi",0.1,2020,3,2019,NA,1,1.68787404890574,1.8032660527842,0.71139989671781,2.56912406193859,FALSE,2.28533456429609
"CAN","cpi",0.1,2020,3,2019,NA,1.5,2.12359573087009,2.53843132954531,0.71139989671781,3.3514298226716,FALSE,3.55304856345807
"CAN","cpi",0.1,2021,3,2021,NA,0,3.23706383218685,3.25393718833412,3.31148121717802,3.33723348286849,FALSE,0.144748975800392
"CAN","cpi",0.1,2021,3,2021,NA,0.5,2.83523204835831,2.94082769061388,3.31148121717802,2.81986273764272,FALSE,0.929270145731442
"CAN","cpi",0.1,2021,3,2020,NA,1,1.62115107791188,1.75649958706746,3.31148121717802,2.55173313104187,FALSE,3.59086324273461
"CAN","cpi",0.1,2021,3,2020,NA,1.5,1.95261590643896,2.23021243964745,3.31148121717802,3.05083641297579,FALSE,2.68041603883199
"CAN","cpi",0.1,2022,3,2022,NA,0,6.49817109665549,6.51428424713578,6.50977236228281,6.58834368873213,TRUE,0.0161131504802867
"CAN","cpi",0.1,2022,3,2022,NA,0.5,6.20799293012004,6.41036663260669,6.50977236228281,5.98101887959915,FALSE,0.423275323989139
"CAN","cpi",0.1,2022,3,2021,NA,1,3.49843782188205,4.06395445878181,6.50977236228281,4.27132466765734,FALSE,6.00066753356865
"CAN","cpi",0.1,2022,3,2021,NA,1.5,2.30158142341438,2.87935666973064,6.50977236228281,3.68392050970238,FALSE,8.64536567420997
"CAN","cpi",0.1,2023,3,2023,NA,0,3.91129509599122,3.9263195473674,3.78831288758619,4.00821358342971,FALSE,0.288318247831801
"CAN","cpi",0.1,2023,3,2023,NA,0.5,3.34404925824709,3.47410103710801,3.78831288758619,3.29302587175885,FALSE,0.828300335479095
"CAN","cpi",0.1,2023,3,2022,NA,1,3.29220274870045,3.72891745083378,3.78831288758619,4.01905628942603,FALSE,0.568704561583136
"CAN","cpi",0.1,2023,3,2022,NA,1.5,2.92437820268554,4.06891747775368,3.78831288758619,4.75925635675837,TRUE,1.14453927506814
"CAN","cpi",0.1,2024,3,2023,NA,1,3.24717147088192,3.58439795794264,NA,3.92709419556525,NA,NA
"CAN","cpi",0.1,2024,3,2023,NA,1.5,2.24881758480154,2.58604407186227,NA,3.33916254361279,NA,NA
"CAN","cpi",0.2,1950,3,1950,NA,0,2.26226897836617,2.26226897836617,2.59031220731124,2.32166735935542,FALSE,0.820108072362669
"CAN","cpi",0.2,1950,3,1950,NA,0.5,-1.36203192878396,-1.36203192878396,2.59031220731124,1.23070468188811,FALSE,9.88086034023798
"CAN","cpi",0.2,1950,3,1949,NA,1,43.4928139491237,43.4928139491237,2.59031220731124,5.09987337388258,FALSE,102.256254354531
"CAN","cpi",0.2,1950,3,1949,NA,1.5,9.12556990552849,9.12556990552849,2.59031220731124,7.87125428886177,FALSE,16.3381442455431
"CAN","cpi",0.2,1951,3,1951,NA,0,9.70159656343074,9.80563464568211,9.87945438999359,9.91468181420993,FALSE,0.288587443030074
"CAN","cpi",0.2,1951,3,1951,NA,0.5,7.62897754695895,9.13376441600521,9.87945438999359,8.91293028153729,FALSE,3.36901180401721
"CAN","cpi",0.2,1951,3,1950,NA,1,3.90755806672339,6.01447106599212,9.87945438999359,6.69633780377586,FALSE,11.7693713092724
"CAN","cpi",0.2,1951,3,1950,NA,1.5,15.8161451756818,17.9230581749505,9.87945438999359,4.62302705298717,FALSE,16.9486399634892
"CAN","cpi",0.2,1952,3,1952,NA,0,2.67105007612956,2.8301146953464,2.55562336095485,2.65771800091113,FALSE,0.44763140715363
"CAN","cpi",0.2,1952,3,1952,NA,0.5,5.89452531277322,6.05358993199007,2.55562336095485,5.20333179389047,FALSE,8.50631949876278
"CAN","cpi",0.2,1952,3,1951,NA,1,5.35925187046927,9.87595244275523,2.55562336095485,8.18998200969936,FALSE,11.525771846072
"CAN","cpi",0.2,1952,3,1951,NA,1.5,4.26248590402806,8.77918647631402,2.55562336095485,7.55460015368862,FALSE,8.78385692996899
"CAN","cpi",0.2,1953,3,1953,NA,0,-0.91519203172675,-0.491472464894862,-1.01492775838436,-0.921435878605124,FALSE,0.673058883475919
"CAN","cpi",0.2,1953,3,1953,NA,0.5,-3.7023849133204,0.887056533173135,-1.01492775838436,-0.76897284692861,TRUE,4.58944144649354
"CAN","cpi",0.2,1953,3,1952,NA,1,5.76091151354358,14.4256997520415,-1.01492775838436,2.43113434957527,FALSE,25.6043864183178
"CAN","cpi",0.2,1953,3,1952,NA,1.5,3.32248083669848,11.9872690751964,-1.01492775838436,5.93557635631702,FALSE,19.508309726205
"CAN","cpi",0.2,1954,3,1954,NA,0,0.830257174133786,0.813442668082503,0.644425455961438,0.902670593188762,FALSE,0.447764789379587
"CAN","cpi",0.2,1954,3,1954,NA,0.5,0.523872469754884,0.523872469754884,0.644425455961438,0.795164313951574,FALSE,0.301382465516386
"CAN","cpi",0.2,1954,3,1953,NA,1,0.0479016494240763,1.30082381640059,0.644425455961438,4.14534384936852,TRUE,1.25292216697651
"CAN","cpi",0.2,1954,3,1953,NA,1.5,1.20708359695581,11.4107950934642,0.644425455961438,3.28639485866967,FALSE,11.6103568489943
"CAN","cpi",0.2,1955,3,1955,NA,0,0.071829118170175,0.0890484509432331,0.173649026558865,0.179965740558204,FALSE,0.228720771812138
"CAN","cpi",0.2,1955,3,1955,NA,0.5,0.00882836910640389,0.134296314504417,0.173649026558865,0.271639815719239,FALSE,0.223849725534133
"CAN","cpi",0.2,1955,3,1954,NA,1,0.579177536593938,1.1142851995354,0.173649026558865,4.00726070064464,FALSE,1.54892893802915
"CAN","cpi",0.2,1955,3,1954,NA,1.5,0.569914513080891,1.14771684440252,0.173649026558865,3.09849569962328,FALSE,1.5684660476267
"CAN","cpi",0.2,1956,3,1956,NA,0,1.43666675431086,1.39188396752461,1.32752769429961,1.49944483483663,FALSE,0.228064863241881
"CAN","cpi",0.2,1956,3,1956,NA,0.5,0.0823644715305158,0.0375816847442653,1.32752769429961,0.239658941687119,FALSE,3.18008223710211
"CAN","cpi",0.2,1956,3,1955,NA,1,-0.851004579845626,-0.895787366631876,1.32752769429961,2.42699902405841,FALSE,5.51350486554246
"CAN","cpi",0.2,1956,3,1955,NA,1.5,0.400942715466441,0.383831406376998,1.32752769429961,2.6723883730094,FALSE,2.34212941071708
"CAN","cpi",0.2,1957,3,1957,NA,0,3.26592363302001,3.31576338764856,3.24684755852518,3.40805864327458,FALSE,0.0975299408656338
"CAN","cpi",0.2,1957,3,1957,NA,0.5,2.56111540850656,2.6109551631351,3.24684755852518,2.77134230956367,FALSE,1.63957074310373
"CAN","cpi",0.2,1957,3,1956,NA,1,1.5296720595532,2.95441287396302,3.24684755852518,5.53767573267731,FALSE,2.15582752581522
"CAN","cpi",0.2,1957,3,1956,NA,1.5,0.0322491461722585,1.45698996058208,3.24684755852518,2.3159105314434,FALSE,5.89938480926757
"CAN","cpi",0.2,1958,3,1958,NA,0,2.13075965310845,2.18060211512281,2.33186388641149,2.2666416787086,FALSE,0.427996890236059
"CAN","cpi",0.2,1958,3,1958,NA,0.5,2.42431191267789,3.07823314057663,2.33186388641149,2.6047181946108,FALSE,0.885041293564751
"CAN","cpi",0.2,1958,3,1957,NA,1,0.764300371271479,1.41822159917022,2.33186388641149,4.25451187896576,FALSE,2.93802694600192
"CAN","cpi",0.2,1958,3,1957,NA,1.5,0.908543412684418,1.56246464058316,2.33186388641149,3.21878619474396,FALSE,2.57741934246957
"CAN","cpi",0.2,1959,3,1959,NA,0,1.1158435382652,1.14960496256518,1.19382698397654,1.23804892137791,FALSE,0.144316477828379
"CAN","cpi",0.2,1959,3,1959,NA,0.5,1.06251905430227,1.09906675988312,1.19382698397654,1.22423653017582,FALSE,0.273448265814398
"CAN","cpi",0.2,1959,3,1958,NA,1,0.100232315265656,1.16360350474224,1.19382698397654,2.76661875727304,FALSE,1.13892988756233
"CAN","cpi",0.2,1959,3,1958,NA,1.5,1.40405297674326,2.46742416621984,1.19382698397654,3.40313655953963,FALSE,1.58893617139337
"CAN","cpi",0.2,1960,3,1960,NA,0,0.974659665257943,1.05320853747584,1.34209404870695,1.09496250556158,FALSE,0.800762650295671
"CAN","cpi",0.2,1960,3,1960,NA,0.5,1.14723528872001,1.27762344859822,1.34209404870695,1.31117730754252,FALSE,0.291564660150038
"CAN","cpi",0.2,1960,3,1959,NA,1,1.47677300469215,1.86474102749562,1.34209404870695,3.67993081372331,FALSE,0.724665412766468
"CAN","cpi",0.2,1960,3,1959,NA,1.5,0.908273786690897,1.29624180949436,1.34209404870695,2.53752597259669,FALSE,0.502598620834937
"CAN","cpi",0.2,1961,3,1961,NA,0,1.04444422662928,1.00501812536423,1.00921348094007,1.07956241593662,FALSE,0.0591391518975795
"CAN","cpi",0.2,1961,3,1961,NA,0.5,1.5392851096949,1.49985900842985,1.00921348094007,1.62810563897838,FALSE,1.28575297062203
"CAN","cpi",0.2,1961,3,1960,NA,1,0.586414956766558,0.546988855501505,1.00921348094007,1.72683407115431,FALSE,1.11613546233136
"CAN","cpi",0.2,1961,3,1960,NA,1.5,0.946645262422098,1.32188732551405,1.00921348094007,2.46209267036318,TRUE,0.375242063091953
"CAN","cpi",0.2,1962,3,1962,NA,0,1.04252909282158,1.0764326245887,1.04957947883042,1.11859419449202,TRUE,0.0339035317671215
"CAN","cpi",0.2,1962,3,1962,NA,0.5,0.446485442148898,0.536801971281599,1.04957947883042,0.567427238599509,FALSE,1.37226029800474
"CAN","cpi",0.2,1962,3,1961,NA,1,0.826965672390672,0.917282201523373,1.04957947883042,1.63689072516514,FALSE,0.421059722400305
"CAN","cpi",0.2,1962,3,1961,NA,1.5,1.06213185738459,1.36856899114519,1.04957947883042,2.63635903501327,FALSE,0.337818080146045
"CAN","cpi",0.2,1963,3,1963,NA,0,1.77849162511199,1.80740922689933,1.60677118395228,1.86240003699012,FALSE,0.458218704686604
"CAN","cpi",0.2,1963,3,1963,NA,0.5,1.22732620155116,1.42088545783274,1.60677118395228,1.39337130813056,FALSE,0.658273571580432
"CAN","cpi",0.2,1963,3,1962,NA,1,1.26984623225863,1.58884183412349,1.60677118395228,2.94326130570012,FALSE,0.363818976436848
"CAN","cpi",0.2,1963,3,1962,NA,1.5,0.967909267502389,1.28690486936725,1.60677118395228,2.44281938697022,FALSE,1.11866138832744
"CAN","cpi",0.2,1964,3,1964,NA,0,1.91289609738943,1.92964919900152,1.88764670034376,2.0039339947047,FALSE,0.0798765942262624
"CAN","cpi",0.2,1964,3,1964,NA,0.5,1.6575943014472,1.80988306584077,1.88764670034376,1.7991677011144,FALSE,0.346697850651042
"CAN","cpi",0.2,1964,3,1963,NA,1,1.70357435572258,2.18641062898727,1.88764670034376,4.16988253093083,TRUE,0.482836273264686
"CAN","cpi",0.2,1964,3,1963,NA,1.5,0.904204303866218,1.3870405771309,1.88764670034376,2.39235828979053,FALSE,1.73435158129683
"CAN","cpi",0.2,1965,3,1965,NA,0,2.24760613627973,2.26809053319583,2.29538304394236,2.3444020011952,FALSE,0.0887156737824228
"CAN","cpi",0.2,1965,3,1965,NA,0.5,1.74018431417333,1.94930804526849,2.29538304394236,1.87416183614195,FALSE,1.07431122777983
"CAN","cpi",0.2,1965,3,1964,NA,1,1.30121193080899,1.51033566190414,2.29538304394236,2.77513442256292,FALSE,2.1717421861907
"CAN","cpi",0.2,1965,3,1964,NA,1.5,1.04593127126468,1.35427772986527,2.29538304394236,2.58300862182973,FALSE,2.66110974379331
"CAN","cpi",0.2,1966,3,1966,NA,0,3.70047594370276,3.737156706607,3.72486065470629,3.82226531435883,TRUE,0.0366807629042407
"CAN","cpi",0.2,1966,3,1966,NA,0.5,3.51982646138174,3.79807169779887,3.72486065470629,3.71609253757358,TRUE,0.278245236417126
"CAN","cpi",0.2,1966,3,1965,NA,1,1.42755637010815,1.72319596551105,3.72486065470629,3.18026314560651,FALSE,5.299801318391
"CAN","cpi",0.2,1966,3,1965,NA,1.5,1.34098432192191,1.67210457902276,3.72486065470629,2.72588429168219,FALSE,5.46301044630967
"CAN","cpi",0.2,1967,3,1967,NA,0,3.59070794931931,3.62374008769494,3.49360316391996,3.71060899730274,FALSE,0.275794101874001
"CAN","cpi",0.2,1967,3,1967,NA,0.5,2.48155594293601,2.62591942564138,3.49360316391996,2.56028521952089,FALSE,2.31357282840182
"CAN","cpi",0.2,1967,3,1966,NA,1,1.44206876935346,1.79612795575601,3.49360316391996,3.23068289349593,FALSE,4.59774720681242
"CAN","cpi",0.2,1967,3,1966,NA,1.5,1.53163231124654,2.09901608582033,3.49360316391996,3.48379255951164,FALSE,4.05385146982286
"CAN","cpi",0.2,1968,3,1968,NA,0,3.96183767933708,3.9877921957302,3.95128347779386,4.08812321751386,FALSE,0.0523400202511768
"CAN","cpi",0.2,1968,3,1968,NA,0.5,3.73481680180299,3.93437686991845,3.95128347779386,3.86057245484849,FALSE,0.241826587803983
"CAN","cpi",0.2,1968,3,1967,NA,1,1.86316494243435,2.47176685004792,3.95128347779386,4.52914843962159,FALSE,4.30739347697841
"CAN","cpi",0.2,1968,3,1967,NA,1.5,1.38177679460619,1.99037870221976,3.95128347779386,2.90317969156253,FALSE,5.51086384654882
"CAN","cpi",0.2,1969,3,1969,NA,0,4.41770068763339,4.45022951691988,4.42679496126681,4.56202018095233,TRUE,0.0325288292864876
"CAN","cpi",0.2,1969,3,1969,NA,0.5,3.07227710729059,3.28587000573752,4.42679496126681,3.1731721410374,FALSE,3.06590528727016
"CAN","cpi",0.2,1969,3,1968,NA,1,1.95030386541647,2.79134445726512,4.42679496126681,4.79164269130369,FALSE,4.9296668518529
"CAN","cpi",0.2,1969,3,1968,NA,1.5,1.5409187949826,2.38195938683125,4.42679496126681,3.43166930802121,FALSE,5.95312952793756
"CAN","cpi",0.2,1970,3,1970,NA,0,3.48813305247384,3.51408733599365,3.28128405769805,3.60731179706845,FALSE,0.543076770459301
"CAN","cpi",0.2,1970,3,1970,NA,0.5,4.01428702432211,4.17559022995582,3.28128405769805,4.09876840974541,FALSE,1.99381062219387
"CAN","cpi",0.2,1970,3,1969,NA,1,1.88679690184026,2.44220433270907,3.28128405769805,4.16731408225431,FALSE,2.65310674334125
"CAN","cpi",0.2,1970,3,1969,NA,1.5,1.43998957526762,2.28945851010147,3.28128405769805,2.94225383025522,FALSE,3.32903280382529
"CAN","cpi",0.2,1971,3,1971,NA,0,2.71391133936368,2.73195489161652,2.64123406634756,2.83090781749212,FALSE,0.199736734793125
"CAN","cpi",0.2,1971,3,1971,NA,0.5,1.57836784481703,1.8236022817024,2.64123406634756,1.62320660035324,FALSE,2.28931389849828
"CAN","cpi",0.2,1971,3,1970,NA,1,1.55685066425956,1.85665124775942,2.64123406634756,3.17007770946556,FALSE,2.26125762997022
"CAN","cpi",0.2,1971,3,1970,NA,1.5,1.58542815415903,2.43505078493131,2.64123406634756,3.54353814347809,FALSE,1.36508083431291
"CAN","cpi",0.2,1972,3,1972,NA,0,4.88790114728243,4.91122984556741,4.83230569625923,5.0489634093373,FALSE,0.162317325842977
"CAN","cpi",0.2,1972,3,1972,NA,0.5,4.3251463143865,4.48096493996962,4.83230569625923,4.42305209693724,FALSE,1.03417051630714
"CAN","cpi",0.2,1972,3,1971,NA,1,2.40781111535503,3.62599189429434,4.83230569625923,4.88112932259212,FALSE,4.23396528385154
"CAN","cpi",0.2,1972,3,1971,NA,1.5,1.41299350269736,2.63117428163666,4.83230569625923,2.93340690449956,FALSE,6.72100931549572
"CAN","cpi",0.2,1973,3,1973,NA,0,7.02499687944596,7.04229624650027,7.12388603531779,7.21795256722813,FALSE,0.221273839098107
"CAN","cpi",0.2,1973,3,1973,NA,0.5,5.35167548633646,5.61362606424365,7.12388603531779,5.49391172870491,FALSE,4.03760050559254
"CAN","cpi",0.2,1973,3,1972,NA,1,3.05590832956065,4.53598898613938,7.12388603531779,5.39692894021178,FALSE,7.94982327952476
"CAN","cpi",0.2,1973,3,1972,NA,1.5,1.4919920059687,2.97207266254743,7.12388603531779,3.58263496028301,FALSE,11.8596140885046
"CAN","cpi",0.2,1974,3,1974,NA,0,9.88537475666615,9.95747311561183,10.2717243737774,10.1210179328964,FALSE,0.857726504359662
"CAN","cpi",0.2,1974,3,1974,NA,0.5,7.69987585880894,8.33624289437869,10.2717243737774,7.94351867110281,FALSE,5.47507073406658
"CAN","cpi",0.2,1974,3,1973,NA,1,4.01899146025376,6.29772075817057,10.2717243737774,7.1912022670208,FALSE,12.2137383369339
"CAN","cpi",0.2,1974,3,1973,NA,1.5,1.45216595764006,3.73089525555687,10.2717243737774,4.0254660999559,FALSE,18.6308020934682
"CAN","cpi",0.2,1975,3,1975,NA,0,9.94115346006252,10.0323006153491,10.0232981493341,10.1376483081154,TRUE,0.0911471552865848
"CAN","cpi",0.2,1975,3,1975,NA,0.5,8.00621476538654,9.17765599835415,10.0232981493341,8.26308676293858,FALSE,3.28554661041754
"CAN","cpi",0.2,1975,3,1974,NA,1,4.62009688340533,7.05085666696099,10.0232981493341,7.73583614861028,FALSE,9.86186348948848
"CAN","cpi",0.2,1975,3,1974,NA,1.5,1.52439787173378,3.95515765528944,10.0232981493341,4.67814014273702,FALSE,17.6011110186674
"CAN","cpi",0.2,1976,3,1976,NA,0,7.06090110497414,7.11765006506995,7.22784311401172,7.2178166349125,FALSE,0.332231582450217
"CAN","cpi",0.2,1976,3,1976,NA,0.5,7.08028694537165,7.72488849350227,7.22784311401172,6.91786916440093,TRUE,0.644601548130629
"CAN","cpi",0.2,1976,3,1975,NA,1,5.84656756556646,9.59823149992729,7.22784311401172,8.273619332389,TRUE,3.75166393436084
"CAN","cpi",0.2,1976,3,1975,NA,1.5,0.864989668342862,4.6166536027037,7.22784311401172,4.5816570194731,FALSE,10.2796377126309
"CAN","cpi",0.2,1977,3,1977,NA,0,7.34937310291722,7.41182858333653,7.58101410153764,7.50701198703803,FALSE,0.485419275922098
"CAN","cpi",0.2,1977,3,1977,NA,0.5,6.72889272926209,7.24265221546131,7.58101410153764,6.51617593246189,FALSE,1.35966420139004
"CAN","cpi",0.2,1977,3,1976,NA,1,3.14370749594605,4.69024617574852,7.58101410153764,4.96992569410004,FALSE,8.77345849427529
"CAN","cpi",0.2,1977,3,1976,NA,1.5,2.01626716014646,3.56280583994893,7.58101410153764,4.37719420243736,FALSE,11.5920593337743
"CAN","cpi",0.2,1978,3,1978,NA,0,8.46686448196154,8.48224987996779,8.50208927062595,8.58158523467168,FALSE,0.0649838746516478
"CAN","cpi",0.2,1978,3,1978,NA,0.5,7.81469910463401,8.3229117786008,8.50208927062595,7.4716201567401,FALSE,0.956156404029665
"CAN","cpi",0.2,1978,3,1977,NA,1,4.14744848901357,6.34706917966429,8.50208927062595,6.36749774462425,FALSE,7.58717091805486
"CAN","cpi",0.2,1978,3,1977,NA,1.5,2.0164710709407,4.21609176159142,8.50208927062595,5.06410799386515,FALSE,12.914614463237
"CAN","cpi",0.2,1979,3,1979,NA,0,8.38355866005451,8.41890483273672,8.65147652410481,8.49829924825941,FALSE,0.616775401102433
"CAN","cpi",0.2,1979,3,1979,NA,0.5,7.90788342047731,8.60039865151913,8.65147652410481,7.55954787357905,FALSE,0.820209912506026
"CAN","cpi",0.2,1979,3,1978,NA,1,6.06204752678327,9.02506090094944,8.65147652410481,7.11843292779768,TRUE,2.96301337416617
"CAN","cpi",0.2,1979,3,1978,NA,1.5,2.62558075816538,6.22723029983421,8.65147652410481,5.13416174624329,FALSE,9.66226510234534
"CAN","cpi",0.2,1980,3,1980,NA,0,9.30141876332239,9.33407259623194,9.5171912664748,9.41458421512922,FALSE,0.490450508516682
"CAN","cpi",0.2,1980,3,1980,NA,0.5,8.81245832977281,9.05999840375559,9.5171912664748,7.9706129876785,FALSE,1.39052223078079
"CAN","cpi",0.2,1980,3,1979,NA,1,5.22553200005529,7.38970871602068,9.5171912664748,6.28953001008885,FALSE,7.48288309210068
"CAN","cpi",0.2,1980,3,1979,NA,1.5,2.66085241645188,9.11160751871998,9.5171912664748,5.364173973799,FALSE,7.46471447165514
"CAN","cpi",0.2,1981,3,1981,NA,0,11.505937689579,11.5637448386004,11.5813425032741,11.5923033542996,FALSE,0.101801310705763
"CAN","cpi",0.2,1981,3,1981,NA,0.5,12.2326540878966,12.5543137578556,11.5813425032741,11.0172481296202,FALSE,1.9499386315151
"CAN","cpi",0.2,1981,3,1980,NA,1,7.05743834361178,10.6197946019321,11.5813425032741,8.10476531012298,FALSE,5.96622601167538
"CAN","cpi",0.2,1981,3,1980,NA,1.5,2.69098062599485,9.69636385169125,11.5813425032741,5.56064493450504,FALSE,11.7178298546536
"CAN","cpi",0.2,1982,3,1982,NA,0,10.1117809984571,10.1743031712951,10.1124203763629,10.1931679525338,TRUE,0.0625221728380225
"CAN","cpi",0.2,1982,3,1982,NA,0.5,9.83414766380167,10.6246672134496,10.1124203763629,9.37004969245236,TRUE,0.79051954964789
"CAN","cpi",0.2,1982,3,1981,NA,1,9.47593161359337,12.4098325652982,10.1124203763629,8.69554175936175,TRUE,2.93390095170479
"CAN","cpi",0.2,1982,3,1981,NA,1.5,2.95320088786596,13.931209102538,10.1124203763629,7.27062596384307,TRUE,10.978008214672
"CAN","cpi",0.2,1983,3,1983,NA,0,5.71795102295293,5.76617348948349,5.67091787896303,5.81768735292628,FALSE,0.165805326505308
"CAN","cpi",0.2,1983,3,1983,NA,0.5,5.35353458162456,5.75378928491084,5.67091787896303,5.01354605702602,TRUE,0.400254703286278
"CAN","cpi",0.2,1983,3,1982,NA,1,7.79226324639921,9.03820737303016,5.67091787896303,7.12656393494862,FALSE,6.54930754522139
"CAN","cpi",0.2,1983,3,1982,NA,1.5,2.85133351138671,11.7685128327919,5.67091787896303,6.40641718255638,TRUE,8.91717932140523
"CAN","cpi",0.2,1984,3,1984,NA,0,4.13370707128509,4.17455108235261,4.19799576814029,4.24028901012313,FALSE,0.099455725536707
"CAN","cpi",0.2,1984,3,1984,NA,0.5,5.09306634190738,5.46792383320844,4.19799576814029,4.75786855948752,FALSE,2.61253392571879
"CAN","cpi",0.2,1984,3,1983,NA,1,5.33091914860357,6.6760379762116,4.19799576814029,5.66557758519989,FALSE,4.17742727876624
"CAN","cpi",0.2,1984,3,1983,NA,1.5,3.07838380849394,6.50492288366078,4.19799576814029,4.21132796972244,TRUE,3.42653907516684
"CAN","cpi",0.2,1985,3,1985,NA,0,3.81553411497705,3.86444719328769,3.86444262005169,3.92349089738505,TRUE,0.0489130783106404
"CAN","cpi",0.2,1985,3,1985,NA,0.5,4.31107753808514,4.68679982060389,3.86444262005169,4.05923277954066,FALSE,1.49230957760237
"CAN","cpi",0.2,1985,3,1984,NA,1,2.67591208935162,3.83926239006546,3.86444262005169,3.95710775307987,FALSE,1.22630087567942
"CAN","cpi",0.2,1985,3,1984,NA,1.5,4.16270939455779,7.76840005427282,3.86444262005169,4.80620472271859,FALSE,4.35135759598028
"CAN","cpi",0.2,1986,3,1986,NA,0,4.02294141819507,4.07177920389962,4.08685396749431,4.13000198176505,FALSE,0.0865246946912852
"CAN","cpi",0.2,1986,3,1986,NA,0.5,4.69365610153907,5.14140661748109,4.08685396749431,4.52376153022901,FALSE,1.96475585105392
"CAN","cpi",0.2,1986,3,1985,NA,1,3.20619223857309,4.37959931375971,4.08685396749431,4.28856700742326,TRUE,1.17340707518662
"CAN","cpi",0.2,1986,3,1985,NA,1.5,3.80373345233849,6.35273757978755,4.08685396749431,4.73207334351572,TRUE,2.54900412744906
"CAN","cpi",0.2,1987,3,1987,NA,0,4.24982467591795,4.2897737626724,4.23980729277887,4.34713339619661,FALSE,0.0649925446021515
"CAN","cpi",0.2,1987,3,1987,NA,0.5,4.18008223760226,4.58420368633851,4.23980729277887,4.04554574241257,TRUE,0.404121448736252
"CAN","cpi",0.2,1987,3,1986,NA,1,3.80054949991494,4.86332252294651,4.23980729277887,4.62985152306341,TRUE,1.06277302303157
"CAN","cpi",0.2,1987,3,1986,NA,1.5,3.95859393018614,6.63279909315046,4.23980729277887,4.92117197950912,TRUE,2.67420516296432
"CAN","cpi",0.2,1988,3,1988,NA,0,3.90143370639479,3.95031560159857,3.92899537638065,4.00901931174773,TRUE,0.0488818952037793
"CAN","cpi",0.2,1988,3,1988,NA,0.5,3.8587363702259,4.2373989869884,3.92899537638065,3.73662637763501,TRUE,0.3786626167625
"CAN","cpi",0.2,1988,3,1987,NA,1,3.73964284382711,4.78073812569211,3.92899537638065,4.57559871410537,TRUE,1.041095281865
"CAN","cpi",0.2,1988,3,1987,NA,1.5,3.82325417557618,5.96953683052821,3.92899537638065,4.47333468954476,TRUE,2.14628265495202
"CAN","cpi",0.2,1989,3,1989,NA,0,4.8952814381262,4.93596200888376,4.82821664544208,4.99076681888079,FALSE,0.208342552467875
"CAN","cpi",0.2,1989,3,1989,NA,0.5,4.65959656061874,5.01536056735787,4.82821664544208,4.4916513034202,TRUE,0.355764006739129
"CAN","cpi",0.2,1989,3,1988,NA,1,3.88789659231799,4.62878454901803,4.82821664544208,4.54165447743213,FALSE,1.23946819776016
"CAN","cpi",0.2,1989,3,1988,NA,1.5,3.71463474578568,5.79658609317355,4.82821664544208,4.35655767104226,TRUE,2.08195134738787
"CAN","cpi",0.2,1990,3,1990,NA,0,4.43184285467052,4.48052809692674,4.64347549432717,4.53713653171057,FALSE,0.456053735757306
"CAN","cpi",0.2,1990,3,1990,NA,0.5,5.35545885296868,5.6637473762212,4.64347549432717,5.08101061108308,FALSE,2.08824691985629
"CAN","cpi",0.2,1990,3,1989,NA,1,4.86399410827191,5.95624147295048,4.64347549432717,5.34783125013627,FALSE,1.64354389954042
"CAN","cpi",0.2,1990,3,1989,NA,1.5,4.13969000246443,6.23458397867821,4.64347549432717,4.81353563225505,TRUE,2.09489397621378
"CAN","cpi",0.2,1991,3,1991,NA,0,5.55995137083586,5.60823119410066,5.4258100696218,5.66037042635664,FALSE,0.383633076299964
"CAN","cpi",0.2,1991,3,1991,NA,0.5,8.22032076852707,8.7085105444266,5.4258100696218,7.84858621299389,FALSE,7.47446652316272
"CAN","cpi",0.2,1991,3,1990,NA,1,3.41904979089887,4.31449104263712,5.4258100696218,4.26930339967321,FALSE,3.67373881919994
"CAN","cpi",0.2,1991,3,1990,NA,1.5,4.39559642793688,6.62441418746078,5.4258100696218,5.0605414207232,TRUE,2.2288177595239
"CAN","cpi",0.2,1992,3,1992,NA,0,1.4116395686517,1.46138191060098,1.47496888572843,1.52994687025859,FALSE,0.0837097797679037
"CAN","cpi",0.2,1992,3,1992,NA,0.5,1.86686803939918,2.11876856194672,1.47496888572843,1.85875773502133,FALSE,1.23164840672441
"CAN","cpi",0.2,1992,3,1991,NA,1,2.63136407886846,3.14932421922897,1.47496888572843,3.50386131646851,FALSE,3.40894812321058
"CAN","cpi",0.2,1992,3,1991,NA,1.5,6.01212878610133,9.33866245519036,1.47496888572843,6.78035435046663,FALSE,14.6694334200213
"CAN","cpi",0.2,1993,3,1993,NA,0,1.76776124599169,1.8040386042224,1.84351085411351,1.87124044779021,FALSE,0.134957982958483
"CAN","cpi",0.2,1993,3,1993,NA,0.5,2.78065781829178,2.93255699801345,1.84351085411351,2.72734178597627,FALSE,2.49476659016734
"CAN","cpi",0.2,1993,3,1992,NA,1,2.07398465134343,2.51098327121279,1.84351085411351,3.08451104384819,FALSE,1.01318311294415
"CAN","cpi",0.2,1993,3,1992,NA,1.5,3.32823835290742,4.24682603578901,1.84351085411351,3.82501351795864,FALSE,4.63040642986635
"CAN","cpi",0.2,1994,3,1994,NA,0,0.164315262653533,0.18298249519285,0.161630694655448,0.262954827743209,FALSE,0.0253786525345301
"CAN","cpi",0.2,1994,3,1994,NA,0.5,0.206772150198661,0.225439382737978,0.161630694655448,0.310066271274909,FALSE,0.131520871397351
"CAN","cpi",0.2,1994,3,1993,NA,1,1.56773985265786,2.0297652672609,0.161630694655448,2.87682482634461,FALSE,3.97729830960908
"CAN","cpi",0.2,1994,3,1993,NA,1.5,3.58637328234236,4.48922938828556,0.161630694655448,4.13541986765475,FALSE,9.46471257516049
"CAN","cpi",0.2,1995,3,1995,NA,0,2.12296084516199,2.1564339038659,2.11688403676572,2.22224044651209,FALSE,0.0486650796945891
"CAN","cpi",0.2,1995,3,1995,NA,0.5,3.02745286032778,3.2321001171109,2.11688403676572,2.99405804315788,FALSE,2.48106931568828
"CAN","cpi",0.2,1995,3,1994,NA,1,1.72710393773841,2.2171305978177,2.11688403676572,2.99684369657241,TRUE,0.49002666007929
"CAN","cpi",0.2,1995,3,1994,NA,1.5,2.02298111232884,2.89187967341742,2.11688403676572,2.55761383507254,TRUE,0.868898561088586
"CAN","cpi",0.2,1996,3,1996,NA,0,1.40623071792533,1.44170878106431,1.55309584667184,1.51034526106652,FALSE,0.313945727157819
"CAN","cpi",0.2,1996,3,1996,NA,0.5,1.75016243986536,1.88580890613332,1.55309584667184,1.79601314583588,FALSE,0.628312949251755
"CAN","cpi",0.2,1996,3,1995,NA,1,1.14327919505003,1.53072427329509,1.55309584667184,2.55715877011559,FALSE,0.443374011686941
"CAN","cpi",0.2,1996,3,1995,NA,1.5,3.52695195560076,4.72869346284527,1.55309584667184,4.37195408299294,FALSE,6.1363817795668
"CAN","cpi",0.2,1997,3,1997,NA,0,1.64798507319501,1.68006709340805,1.60528783555959,1.74775979926451,FALSE,0.138825114301588
"CAN","cpi",0.2,1997,3,1997,NA,0.5,2.46879184191233,2.58543481495908,1.60528783555959,2.44638235868142,FALSE,2.27540298892859
"CAN","cpi",0.2,1997,3,1996,NA,1,1.25835219766957,1.37499517071632,1.60528783555959,2.43903366578812,FALSE,0.692374635154921
"CAN","cpi",0.2,1997,3,1996,NA,1.5,2.94409327511918,3.66295227691518,1.60528783555959,3.62198739789796,FALSE,4.06587260069497
"CAN","cpi",0.2,1998,3,1998,NA,0,0.934005936424705,0.96843997445172,0.988908029337191,1.03895035119065,FALSE,0.0856041752406925
"CAN","cpi",0.2,1998,3,1998,NA,0.5,1.82770012157044,1.92554630347939,0.988908029337191,1.85198354845497,FALSE,2.19482641249207
"CAN","cpi",0.2,1998,3,1997,NA,1,1.39161688270425,1.4894630646132,0.988908029337191,2.50242700061489,FALSE,1.1046183153266
"CAN","cpi",0.2,1998,3,1997,NA,1.5,3.00624634028154,3.82995747857413,0.988908029337191,3.75826952211307,FALSE,5.86705691565346
"CAN","cpi",0.2,1999,3,1999,NA,0,1.71547580993335,1.75272274048244,1.7107350135213,1.81904689636282,FALSE,0.0490989215792232
"CAN","cpi",0.2,1999,3,1999,NA,0.5,1.21472443250357,1.34686239128718,1.7107350135213,1.31729339512256,FALSE,1.04181951436891
"CAN","cpi",0.2,1999,3,1998,NA,1,0.605451725574819,0.898397224513574,1.7107350135213,2.15211490322884,FALSE,2.32378997145806
"CAN","cpi",0.2,1999,3,1998,NA,1.5,2.74272211901265,3.75680100598863,1.7107350135213,3.69857126490312,FALSE,3.59404665070437
"CAN","cpi",0.2,2000,3,2000,NA,0,2.64079554375209,2.67900306271595,2.6718361971244,2.74274050503735,TRUE,0.0382075189638549
"CAN","cpi",0.2,2000,3,2000,NA,0.5,2.45585165306579,2.63067534028811,2.6718361971244,2.46113990926174,FALSE,0.277725829313056
"CAN","cpi",0.2,2000,3,1999,NA,1,2.53908925401408,3.01133836908943,2.6718361971244,3.49419557264756,TRUE,0.472249115075344
"CAN","cpi",0.2,2000,3,1999,NA,1.5,2.33544505735751,3.10712270886612,2.6718361971244,3.22544865557399,TRUE,0.771677651508615
"CAN","cpi",0.2,2001,3,2001,NA,0,2.70212619682522,2.74046930956655,2.47906219852806,2.80396337772557,FALSE,0.596003108484222
"CAN","cpi",0.2,2001,3,2001,NA,0.5,2.21982787174039,2.38431361071003,2.47906219852806,2.23984277042869,FALSE,0.401357208514719
"CAN","cpi",0.2,2001,3,2000,NA,1,3.06554403885584,3.7329991657953,2.47906219852806,3.95792003209951,FALSE,2.1336597277589
"CAN","cpi",0.2,2001,3,2000,NA,1.5,2.64953615137354,3.52506140506717,2.47906219852806,3.55622040628749,FALSE,1.30171013580733
"CAN","cpi",0.2,2002,3,2002,NA,0,2.24432399809209,2.28409197040319,2.20880570551249,2.34939305392984,FALSE,0.128563703760118
"CAN","cpi",0.2,2002,3,2002,NA,0.5,1.67474781880744,1.75300897297136,2.20880570551249,1.70224895292675,FALSE,1.21775298551674
"CAN","cpi",0.2,2002,3,2001,NA,1,1.35704305552507,1.43530420968899,2.20880570551249,2.47791561910008,FALSE,2.01201489372265
"CAN","cpi",0.2,2002,3,2001,NA,1.5,2.31304336954231,2.98784712689974,2.20880570551249,3.17564245091106,FALSE,0.935397917431989
"CAN","cpi",0.2,2003,3,2003,NA,0,2.71313389517773,2.75369878741895,2.71189071546809,2.81714587005806,FALSE,0.0436728415153147
"CAN","cpi",0.2,2003,3,2003,NA,0.5,4.5454522444316,4.83116061066697,2.71189071546809,4.41787786293317,FALSE,4.86961218864415
"CAN","cpi",0.2,2003,3,2002,NA,1,3.47928481765629,4.30015233574626,2.71189071546809,4.32236105253803,FALSE,2.73935277356047
"CAN","cpi",0.2,2003,3,2002,NA,1.5,2.56584244994357,3.66497795367772,2.71189071546809,3.7551535685832,TRUE,1.09913550373415
"CAN","cpi",0.2,2004,3,2004,NA,0,1.7233969202236,1.76379150388505,1.83151661303942,1.83115885083991,FALSE,0.20970735654739
"CAN","cpi",0.2,2004,3,2004,NA,0.5,1.86396735929843,1.98269049904297,1.83151661303942,1.89356075843229,FALSE,0.199850005392048
"CAN","cpi",0.2,2004,3,2003,NA,1,1.499562141848,1.61828528159254,1.83151661303942,2.5903955121087,FALSE,0.651801468361748
"CAN","cpi",0.2,2004,3,2003,NA,1.5,3.03453776772777,4.56573397045393,1.83151661303942,4.52605057310407,FALSE,4.53874908944703
"CAN","cpi",0.2,2005,3,2005,NA,0,2.28878846648938,2.32862679592568,2.18071628336509,2.39375726304695,FALSE,0.310018787247027
"CAN","cpi",0.2,2005,3,2005,NA,0.5,1.99414141025432,2.09830056629718,2.18071628336509,2.00628617924563,FALSE,0.310198448712633
"CAN","cpi",0.2,2005,3,2004,NA,1,1.39668410924729,1.50084326529015,2.18071628336509,2.50853787240411,FALSE,1.80384170123022
"CAN","cpi",0.2,2005,3,2004,NA,1.5,2.43601644284697,3.41253942848228,2.18071628336509,3.53910826966273,FALSE,1.61477338434002
"CAN","cpi",0.2,2006,3,2006,NA,0,2.03132356331529,2.07215846405925,1.97519342012289,2.13830460574546,FALSE,0.181160258724964
"CAN","cpi",0.2,2006,3,2006,NA,0.5,2.25692552547691,2.42412162105897,1.97519342012289,2.27462572570213,FALSE,0.871526358967109
"CAN","cpi",0.2,2006,3,2005,NA,1,2.88782721867705,3.54294697094781,1.97519342012289,3.7624469653382,FALSE,2.93670424865617
"CAN","cpi",0.2,2006,3,2005,NA,1.5,2.24555530262299,2.97426985096265,1.97519342012289,3.32314929235963,FALSE,1.40461925458992
"CAN","cpi",0.2,2007,3,2007,NA,0,2.07751637847003,2.11118355831685,2.10062087284572,2.1848630325127,TRUE,0.033667179846824
"CAN","cpi",0.2,2007,3,2007,NA,0.5,2.47908644615859,2.6190863934284,2.10062087284572,2.4659174627357,FALSE,1.08616388055198
"CAN","cpi",0.2,2007,3,2006,NA,1,1.08781986837324,1.22781981564304,2.10062087284572,2.22963612092819,FALSE,2.3220025902765
"CAN","cpi",0.2,2007,3,2006,NA,1.5,2.25927856908623,3.14204480491484,2.10062087284572,3.47295078658589,FALSE,1.27941047642988
"CAN","cpi",0.2,2008,3,2008,NA,0,2.84662179870752,2.88166962479655,2.31447335265955,2.95153528130006,FALSE,1.36541894120894
"CAN","cpi",0.2,2008,3,2008,NA,0.5,1.52680074049345,1.65080529533123,2.31447335265955,1.59715335325429,FALSE,1.78317469815859
"CAN","cpi",0.2,2008,3,2007,NA,1,1.167509462692,1.29151401752978,2.31447335265955,2.20911886965343,FALSE,2.68140289266221
"CAN","cpi",0.2,2008,3,2007,NA,1.5,2.34159260998657,3.68508758735305,2.31447335265955,3.9578182731907,FALSE,1.41129312068404
"CAN","cpi",0.2,2009,3,2009,NA,0,0.23442555303989,0.263798702438644,0.284533874408197,0.346622519867227,FALSE,0.081211079322638
"CAN","cpi",0.2,2009,3,2009,NA,0.5,-0.240886389184058,-0.179808062680014,0.284533874408197,-0.0457515238861102,FALSE,1.22193316922457
"CAN","cpi",0.2,2009,3,2008,NA,1,3.49104137036785,4.25568115987012,0.284533874408197,4.33236618581201,FALSE,8.78090852940139
"CAN","cpi",0.2,2009,3,2008,NA,1.5,2.15835821023657,2.92299799973884,0.284533874408197,3.24825712451693,FALSE,5.4492006290732
"CAN","cpi",0.2,2010,3,2010,NA,0,1.6756121012595,1.70781913016898,1.75525687020327,1.78349521203817,FALSE,0.150801378995213
"CAN","cpi",0.2,2010,3,2010,NA,0.5,1.92508074930792,2.06418066661377,1.75525687020327,1.93597561685668,FALSE,0.563659615067467
"CAN","cpi",0.2,2010,3,2009,NA,1,1.28490950783268,1.42400942513853,1.75525687020327,2.28870864882185,FALSE,0.967218529967704
"CAN","cpi",0.2,2010,3,2009,NA,1.5,1.97508334747536,2.11418326478121,1.75525687020327,2.56709646677203,FALSE,0.688666110486064
"CAN","cpi",0.2,2011,3,2011,NA,0,2.79388548759097,2.83581080726836,2.85717434028225,2.89893270710837,FALSE,0.0953341522121032
"CAN","cpi",0.2,2011,3,2011,NA,0.5,3.01681501845614,3.26824807415905,2.85717434028225,3.00273872882262,FALSE,0.650534751137637
"CAN","cpi",0.2,2011,3,2010,NA,1,2.13100542427871,2.40259056672043,2.85717434028225,3.01142322899407,FALSE,1.40804457634626
"CAN","cpi",0.2,2011,3,2010,NA,1.5,2.1476014119865,3.04541411059589,2.85717434028225,3.40953331447502,TRUE,0.897812698609394
"CAN","cpi",0.2,2012,3,2012,NA,0,1.44300782158856,1.48140439334469,1.50118536134935,1.54988369950135,FALSE,0.0878489917677809
"CAN","cpi",0.2,2012,3,2012,NA,0.5,2.13582649543352,2.30580384903381,1.50118536134935,2.15316548342416,FALSE,1.75658018881073
"CAN","cpi",0.2,2012,3,2011,NA,1,1.65082242084594,1.82079977444623,1.50118536134935,2.54342291649057,FALSE,0.544070002341772
"CAN","cpi",0.2,2012,3,2011,NA,1.5,2.23089539630222,3.41638280703303,1.50118536134935,3.73545377968611,FALSE,3.009762498113
"CAN","cpi",0.2,2013,3,2013,NA,0,0.990103387293056,1.02772484254617,0.931270594714462,1.09800048224073,FALSE,0.184703436699601
"CAN","cpi",0.2,2013,3,2013,NA,0.5,1.46209756826338,1.54035170798828,0.931270594714462,1.51761743040875,FALSE,1.40532157359719
"CAN","cpi",0.2,2013,3,2012,NA,1,0.566362095871251,0.644616235596156,0.931270594714462,1.66882566360164,FALSE,0.794890037520669
"CAN","cpi",0.2,2013,3,2012,NA,1.5,2.13355807720651,2.83154814924929,0.931270594714462,3.3545832452448,FALSE,3.7037087782729
"CAN","cpi",0.2,2014,3,2014,NA,0,1.95307501734293,1.99234453595305,1.87639912240215,2.0588007866019,FALSE,0.230959255962061
"CAN","cpi",0.2,2014,3,2014,NA,0.5,2.33386917270473,2.44292734904079,1.87639912240215,2.32770811661281,FALSE,1.25273330209251
"CAN","cpi",0.2,2014,3,2013,NA,1,1.42198282403768,1.53104100037374,1.87639912240215,2.31995786180362,FALSE,0.972453481407084
"CAN","cpi",0.2,2014,3,2013,NA,1.5,2.06367057627437,2.76375263925972,1.87639912240215,3.28547165350463,FALSE,1.1682606976659
"CAN","cpi",0.2,2015,3,2015,NA,0,1.19836600825701,1.23801639855714,1.11090953952792,1.30745939376918,FALSE,0.258291562122855
"CAN","cpi",0.2,2015,3,2015,NA,0.5,0.667050404716578,0.78706211462971,1.11090953952792,0.816310503641023,FALSE,0.92963027215865
"CAN","cpi",0.2,2015,3,2014,NA,1,1.40893857588664,1.62305278238528,1.11090953952792,2.265930123798,FALSE,0.959186797395438
"CAN","cpi",0.2,2015,3,2014,NA,1.5,2.147420858973,3.18390179595567,1.11090953952792,3.7337371203939,FALSE,3.62775923559538
"CAN","cpi",0.2,2016,3,2016,NA,0,1.40557125327705,1.44606057513112,1.41168586698797,1.51468621085982,TRUE,0.0404893218540714
"CAN","cpi",0.2,2016,3,2016,NA,0.5,1.30082386411782,1.43899704056861,1.41168586698797,1.39785588750173,TRUE,0.138173176450789
"CAN","cpi",0.2,2016,3,2015,NA,1,1.89010449552894,2.23031765414107,1.41168586698797,2.74144943136963,FALSE,1.53625972996457
"CAN","cpi",0.2,2016,3,2015,NA,1.5,1.95133297506736,2.29154613367949,1.41168586698797,2.82752633095574,FALSE,1.68933092881062
"CAN","cpi",0.2,2017,3,2017,NA,0,1.47920502839744,1.51093558588244,1.57888581671161,1.58758621872303,FALSE,0.201606134557922
"CAN","cpi",0.2,2017,3,2017,NA,0.5,2.26699987934375,2.41405915033219,1.57888581671161,2.28560926705846,FALSE,1.86734442756879
"CAN","cpi",0.2,2017,3,2016,NA,1,1.12929316214167,1.27635243313011,1.57888581671161,2.1477774879281,FALSE,0.903392729942202
"CAN","cpi",0.2,2017,3,2016,NA,1.5,1.91452989786681,2.47488756187042,1.57888581671161,3.03010691132674,FALSE,1.3994678668916
"CAN","cpi",0.2,2018,3,2018,NA,0,2.35579189790769,2.39709076938515,2.23316270166586,2.46195010316238,FALSE,0.347871862082039
"CAN","cpi",0.2,2018,3,2018,NA,0.5,2.94074327707014,3.12208740487599,2.23316270166586,2.94436972801409,FALSE,1.95029556631656
"CAN","cpi",0.2,2018,3,2017,NA,1,1.21277668543521,1.39412081324106,2.23316270166586,2.08021290652945,FALSE,2.27894884886785
"CAN","cpi",0.2,2018,3,2017,NA,1.5,2.02092383740108,2.99271067446647,2.23316270166586,3.54405552837179,TRUE,0.971786837065386
"CAN","cpi",0.2,2019,3,2019,NA,0,1.96763913470066,2.00887819744369,1.91921619871868,2.07527494378271,FALSE,0.16229640269798
"CAN","cpi",0.2,2019,3,2019,NA,0.5,1.87042519929982,2.05471331159534,1.91921619871868,1.96131710374494,TRUE,0.184288112295515
"CAN","cpi",0.2,2019,3,2018,NA,1,1.94472277156399,2.35342916565443,1.91921619871868,2.81909694573415,FALSE,0.472472826203713
"CAN","cpi",0.2,2019,3,2018,NA,1.5,2.07312960189781,3.15688668472052,1.91921619871868,3.79624170159109,FALSE,1.46854059077054
"CAN","cpi",0.2,2020,3,2020,NA,0,0.66883823343138,0.699223476890227,0.71139989671781,0.779891991607007,FALSE,0.0608262930278048
"CAN","cpi",0.2,2020,3,2020,NA,0.5,1.49299889189035,1.6532423113672,0.71139989671781,1.59504539616918,FALSE,2.11424090740819
"CAN","cpi",0.2,2020,3,2019,NA,1,1.67592949367972,2.02337630720039,0.71139989671781,2.56912406193859,FALSE,2.75877080592544
"CAN","cpi",0.2,2020,3,2019,NA,1.5,1.92408403855178,2.64965485101718,0.71139989671781,3.3514298226716,FALSE,3.75728116705032
"CAN","cpi",0.2,2021,3,2021,NA,0,3.23292743047155,3.27585425799,3.31148121717802,3.33723348286849,FALSE,0.131994225488506
"CAN","cpi",0.2,2021,3,2021,NA,0.5,2.77773073417998,2.99576654408164,3.31148121717802,2.81986273764272,FALSE,1.00732249264262
"CAN","cpi",0.2,2021,3,2020,NA,1,1.65900372872801,2.00041411079538,3.31148121717802,2.55173313104187,FALSE,3.61907814802397
"CAN","cpi",0.2,2021,3,2020,NA,1.5,1.85938153189253,2.30687950344887,3.31148121717802,3.05083641297579,FALSE,2.95900225587923
"CAN","cpi",0.2,2022,3,2022,NA,0,6.49267643753054,6.53989335092897,6.50977236228281,6.58834368873213,TRUE,0.047216913398433
"CAN","cpi",0.2,2022,3,2022,NA,0.5,6.14596627850335,6.46071481046141,6.50977236228281,5.98101887959915,FALSE,0.437392411511555
"CAN","cpi",0.2,2022,3,2021,NA,1,3.33260029089841,4.27088478511656,6.50977236228281,4.27132466765734,FALSE,6.53550343713379
"CAN","cpi",0.2,2022,3,2021,NA,1.5,1.99565241030523,3.13363005351297,6.50977236228281,3.68392050970238,FALSE,9.57833341513235
"CAN","cpi",0.2,2023,3,2023,NA,0,3.90598660256965,3.94950196086018,3.78831288758619,4.00821358342971,FALSE,0.337699645749183
"CAN","cpi",0.2,2023,3,2023,NA,0.5,3.3169631836931,3.53522109339634,3.78831288758619,3.29302587175885,FALSE,0.850987395177873
"CAN","cpi",0.2,2023,3,2022,NA,1,3.10697478363369,3.94612637392771,3.78831288758619,4.01905628942603,TRUE,0.839151590294018
"CAN","cpi",0.2,2023,3,2022,NA,1.5,2.27248595697778,4.2170725163221,3.78831288758619,4.75925635675837,TRUE,1.94458655934432
"CAN","cpi",0.2,2024,3,2023,NA,1,3.04231001400522,3.8163784820493,NA,3.92709419556525,NA,NA
"CAN","cpi",0.2,2024,3,2023,NA,1.5,1.97850836801665,2.78632439503394,NA,3.33916254361279,NA,NA
"CAN","cpi",0.3,1950,3,1950,NA,0,2.26226897836617,2.26226897836617,2.59031220731124,2.32166735935542,FALSE,0.937266368414478
"CAN","cpi",0.3,1950,3,1950,NA,0.5,-1.36203192878396,-1.36203192878396,2.59031220731124,1.23070468188811,FALSE,11.2924118174148
"CAN","cpi",0.3,1950,3,1949,NA,1,43.4928139491237,43.4928139491237,2.59031220731124,5.09987337388258,FALSE,116.864290690893
"CAN","cpi",0.3,1950,3,1949,NA,1.5,9.12556990552849,9.12556990552849,2.59031220731124,7.87125428886177,FALSE,18.6721648520493
"CAN","cpi",0.3,1951,3,1951,NA,0,9.70159656343074,9.80563464568211,9.87945438999359,9.91468181420993,FALSE,0.314951637427032
"CAN","cpi",0.3,1951,3,1951,NA,0.5,7.62897754695895,9.13376441600521,9.87945438999359,8.91293028153729,FALSE,3.6353296518702
"CAN","cpi",0.3,1951,3,1950,NA,1,2.85410156708902,7.06792756562649,9.87945438999359,6.69633780377586,FALSE,12.2467597824435
"CAN","cpi",0.3,1951,3,1950,NA,1.5,1.47543810536024,16.8696016753161,9.87945438999359,4.62302705298717,TRUE,15.3941635699559
"CAN","cpi",0.3,1952,3,1952,NA,0,2.67186685227897,2.83256502379463,2.55562336095485,2.65771800091113,FALSE,0.492822432441727
"CAN","cpi",0.3,1952,3,1952,NA,0.5,5.89370853662381,6.05440670813947,2.55562336095485,5.20333179389047,FALSE,9.69808438771271
"CAN","cpi",0.3,1952,3,1951,NA,1,5.35925187046927,9.87595244275523,2.55562336095485,8.18998200969936,FALSE,12.5270677423272
"CAN","cpi",0.3,1952,3,1951,NA,1.5,4.26248590402806,8.77918647631402,2.55562336095485,7.55460015368862,FALSE,9.39345069535229
"CAN","cpi",0.3,1953,3,1953,NA,0,-0.91519203172675,-0.523002110100388,-1.01492775838436,-0.921435878605124,FALSE,0.677149140648112
"CAN","cpi",0.3,1953,3,1953,NA,0.5,-2.62805322134312,-0.187275158804148,-1.01492775838436,-0.76897284692861,TRUE,2.44077806253897
"CAN","cpi",0.3,1953,3,1952,NA,1,1.57457473358682,4.01535279612579,-1.01492775838436,2.43113434957527,FALSE,9.83935661102805
"CAN","cpi",0.3,1953,3,1952,NA,1.5,6.43448592467796,8.87526398721693,-1.01492775838436,5.93557635631702,FALSE,23.7248171570028
"CAN","cpi",0.3,1954,3,1954,NA,0,0.830257174133786,0.818986706777694,0.644425455961438,0.902670593188762,FALSE,0.519677298850616
"CAN","cpi",0.3,1954,3,1954,NA,0.5,0.523872469754884,2.21933409093311,0.644425455961438,0.795164313951574,TRUE,1.69546162117823
"CAN","cpi",0.3,1954,3,1953,NA,1,0.0479016494240763,2.75957874157218,0.644425455961438,4.14534384936852,TRUE,2.7116770921481
"CAN","cpi",0.3,1954,3,1953,NA,1.5,1.01667198185124,11.4107950934642,0.644425455961438,3.28639485866967,FALSE,11.4576846141552
"CAN","cpi",0.3,1955,3,1955,NA,0,0.071829118170175,0.0923959601429467,0.173649026558865,0.179965740558204,FALSE,0.252718460303967
"CAN","cpi",0.3,1955,3,1955,NA,0.5,0.00882836910640389,0.134296314504417,0.173649026558865,0.271639815719239,FALSE,0.237904265553579
"CAN","cpi",0.3,1955,3,1954,NA,1,0.579177536593938,2.45553437450058,0.173649026558865,4.00726070064464,FALSE,3.03500972372113
"CAN","cpi",0.3,1955,3,1954,NA,1.5,0.56991451308089,11.6260657053938,0.173649026558865,3.09849569962328,FALSE,12.1883382966616
"CAN","cpi",0.3,1956,3,1956,NA,0,1.43433577979063,1.42863748883432,1.32752769429961,1.49944483483663,FALSE,0.299467667589472
"CAN","cpi",0.3,1956,3,1956,NA,0.5,0.06282222361555,0.0571239326592311,1.32752769429961,0.239658941687119,FALSE,3.6240267423019
"CAN","cpi",0.3,1956,3,1955,NA,1,-0.872306363705772,-0.878004654662091,1.32752769429961,2.42699902405841,FALSE,6.29582270607711
"CAN","cpi",0.3,1956,3,1955,NA,1.5,0.400942715466441,1.01308820450539,1.32752769429961,2.6723883730094,FALSE,1.51054403130815
"CAN","cpi",0.3,1957,3,1957,NA,0,3.25699981262481,3.33784591644761,3.24684755852518,3.40805864327458,FALSE,0.109852544107469
"CAN","cpi",0.3,1957,3,1957,NA,0.5,2.46803902147879,2.6020313427399,3.24684755852518,2.77134230956367,FALSE,1.9763243663619
"CAN","cpi",0.3,1957,3,1956,NA,1,1.99770948724542,4.87282469229631,3.24684755852518,5.53767573267731,TRUE,2.87511520505089
"CAN","cpi",0.3,1957,3,1956,NA,1.5,-0.692938049148277,2.18217715590261,3.24684755852518,2.3159105314434,FALSE,5.91703064111536
"CAN","cpi",0.3,1958,3,1958,NA,0,2.11945243350407,2.18060211512281,2.33186388641149,2.2666416787086,FALSE,0.493326171014963
"CAN","cpi",0.3,1958,3,1958,NA,0.5,2.40767850463013,3.09486654862439,2.33186388641149,2.6047181946108,FALSE,0.903801238904673
"CAN","cpi",0.3,1958,3,1957,NA,1,0.696010221072154,1.48651174936955,2.33186388641149,4.25451187896576,FALSE,3.20579334841723
"CAN","cpi",0.3,1958,3,1957,NA,1.5,0.617615408904471,3.26568640180287,2.33186388641149,3.21878619474396,TRUE,2.6480709928984
"CAN","cpi",0.3,1959,3,1959,NA,0,1.1158435382652,1.22858985212191,1.19382698397654,1.23804892137791,TRUE,0.112746313856717
"CAN","cpi",0.3,1959,3,1959,NA,0.5,1.28986116062664,1.52305877953326,1.19382698397654,1.22423653017582,FALSE,0.507580980764042
"CAN","cpi",0.3,1959,3,1958,NA,1,-0.319702717259402,-0.086505098352775,1.19382698397654,2.76661875727304,FALSE,3.89128928270467
"CAN","cpi",0.3,1959,3,1958,NA,1.5,1.05674069917501,2.36013344034418,1.19382698397654,3.40313655953963,TRUE,1.30339274116917
"CAN","cpi",0.3,1960,3,1960,NA,0,0.974659665257943,1.0505922395782,1.34209404870695,1.09496250556158,FALSE,0.908794886116696
"CAN","cpi",0.3,1960,3,1960,NA,0.5,1.14723528872001,1.27762344859822,1.34209404870695,1.31117730754252,FALSE,0.314589874474584
"CAN","cpi",0.3,1960,3,1959,NA,1,0.463130844150825,1.85376183355559,1.34209404870695,3.67993081372331,TRUE,1.39063098940477
"CAN","cpi",0.3,1960,3,1959,NA,1.5,0.875389052940763,2.26602004234553,1.34209404870695,2.53752597259669,TRUE,1.39063098940477
"CAN","cpi",0.3,1961,3,1961,NA,0,1.0126030800769,1.01743529109792,1.00921348094007,1.07956241593662,FALSE,0.0145167799833827
"CAN","cpi",0.3,1961,3,1961,NA,0.5,1.54856233812703,1.55339454914806,1.00921348094007,1.62810563897838,FALSE,1.54582894584091
"CAN","cpi",0.3,1961,3,1960,NA,1,0.564285800623519,0.569118011644544,1.00921348094007,1.72683407115431,FALSE,1.26224783757968
"CAN","cpi",0.3,1961,3,1960,NA,1.5,0.89970897604668,2.2158272926043,1.00921348094007,2.46209267036318,TRUE,1.31611831655762
"CAN","cpi",0.3,1962,3,1962,NA,0,1.05136031524315,1.10065866621658,1.04957947883042,1.11859419449202,FALSE,0.0543864550098069
"CAN","cpi",0.3,1962,3,1962,NA,0.5,0.45626697090813,0.505565321881564,1.04957947883042,0.567427238599509,FALSE,1.60362451368444
"CAN","cpi",0.3,1962,3,1961,NA,1,0.548421412433257,0.597719763406691,1.04957947883042,1.63689072516514,FALSE,1.34032610932693
"CAN","cpi",0.3,1962,3,1961,NA,1.5,0.954174954317809,1.36856899114519,1.04957947883042,2.63635903501327,TRUE,0.414394036827385
"CAN","cpi",0.3,1963,3,1963,NA,0,1.77375575060836,1.81882532465991,1.60677118395228,1.86240003699012,FALSE,0.522168335926053
"CAN","cpi",0.3,1963,3,1963,NA,0.5,1.22732620155116,1.42088545783274,1.60677118395228,1.39337130813056,FALSE,0.724661330908839
"CAN","cpi",0.3,1963,3,1962,NA,1,1.15823122780624,1.59149084742437,1.60677118395228,2.94326130570012,FALSE,0.476917723983605
"CAN","cpi",0.3,1963,3,1962,NA,1.5,0.938040909232749,1.37130052885088,1.60677118395228,2.44281938697022,FALSE,1.10603291990786
"CAN","cpi",0.3,1964,3,1964,NA,0,1.87154505132511,1.96050600162198,1.88764670034376,2.0039339947047,TRUE,0.0889609502968702
"CAN","cpi",0.3,1964,3,1964,NA,0.5,1.62273953227047,1.98960741638118,1.88764670034376,1.7991677011144,TRUE,0.36686788411071
"CAN","cpi",0.3,1964,3,1963,NA,1,1.70478389969754,2.20031168282116,1.88764670034376,4.16988253093083,TRUE,0.495527783123622
"CAN","cpi",0.3,1964,3,1963,NA,1.5,0.892722337982239,1.38825012110586,1.88764670034376,2.39235828979053,FALSE,1.92237515237476
"CAN","cpi",0.3,1965,3,1965,NA,0,2.2231083696481,2.30132694962922,2.29538304394236,2.3444020011952,TRUE,0.0782185799811277
"CAN","cpi",0.3,1965,3,1965,NA,0.5,1.7063409576082,2.04983219017429,2.29538304394236,1.87416183614195,FALSE,1.04506510047487
"CAN","cpi",0.3,1965,3,1964,NA,1,1.1858854746563,1.52937670722239,2.29538304394236,2.77513442256292,FALSE,2.53208076605171
"CAN","cpi",0.3,1965,3,1964,NA,1.5,1.04455723110792,1.63912785732733,2.29538304394236,2.58300862182973,FALSE,2.46958544511948
"CAN","cpi",0.3,1966,3,1966,NA,0,3.67924076560451,3.77593872795758,3.72486065470629,3.82226531435883,TRUE,0.0966979623530717
"CAN","cpi",0.3,1966,3,1966,NA,0.5,3.51982646138174,3.79807169779887,3.72486065470629,3.71609253757358,TRUE,0.278245236417127
"CAN","cpi",0.3,1966,3,1965,NA,1,1.31937496600595,1.7414949161764,3.72486065470629,3.18026314560651,FALSE,6.088879203113
"CAN","cpi",0.3,1966,3,1965,NA,1.5,1.086319810148,1.95223802573646,3.72486065470629,2.72588429168219,FALSE,5.9305542983594
"CAN","cpi",0.3,1967,3,1967,NA,0,3.56922627439252,3.65566632347053,3.49360316391996,3.71060899730274,FALSE,0.302506078999618
"CAN","cpi",0.3,1967,3,1967,NA,0.5,2.39699602096595,2.70766052927312,3.49360316391996,2.56028521952089,FALSE,2.55621489301242
"CAN","cpi",0.3,1967,3,1966,NA,1,1.44206876935346,1.89223714639013,3.49360316391996,3.23068289349593,FALSE,5.02549985569332
"CAN","cpi",0.3,1967,3,1966,NA,1.5,1.30785650686514,2.09901608582033,3.49360316391996,3.48379255951164,FALSE,4.77569408781126
"CAN","cpi",0.3,1968,3,1968,NA,0,3.94118941948669,3.99474290354681,3.95128347779386,4.08812321751386,TRUE,0.0535534840601226
"CAN","cpi",0.3,1968,3,1968,NA,0.5,3.66018415475433,4.1004503807237,3.95128347779386,3.86057245484849,TRUE,0.440266225969372
"CAN","cpi",0.3,1968,3,1967,NA,1,1.81580825041906,2.65466471820894,3.95128347779386,4.52914843962159,FALSE,4.54348149517536
"CAN","cpi",0.3,1968,3,1967,NA,1.5,1.38358601692681,2.28346661270343,3.95128347779386,2.90317969156253,FALSE,5.66507163889212
"CAN","cpi",0.3,1969,3,1969,NA,0,4.40811806888319,4.46046604309108,4.42679496126681,4.56202018095233,TRUE,0.0523479742078834
"CAN","cpi",0.3,1969,3,1969,NA,0.5,2.99239637988641,3.30396546648333,4.42679496126681,3.1731721410374,FALSE,3.51965335740687
"CAN","cpi",0.3,1969,3,1968,NA,1,1.89401301187995,2.80614438790036,4.42679496126681,4.79164269130369,FALSE,5.54256158563886
"CAN","cpi",0.3,1969,3,1968,NA,1.5,1.50930350205275,2.42143487807316,4.42679496126681,3.43166930802121,FALSE,6.64173161371657
"CAN","cpi",0.3,1970,3,1970,NA,0,3.46744798520097,3.51644645433685,3.28128405769805,3.60731179706845,FALSE,0.580895404858521
"CAN","cpi",0.3,1970,3,1970,NA,0.5,3.96439812729953,4.32112243130865,3.28128405769805,4.09876840974541,FALSE,2.30847878858478
"CAN","cpi",0.3,1970,3,1969,NA,1,1.93854441775504,3.34452034975209,3.28128405769805,4.16731408225431,TRUE,1.40597593199705
"CAN","cpi",0.3,1970,3,1969,NA,1.5,1.16852743682596,2.57450336882301,3.28128405769805,2.94225383025522,FALSE,3.42534932878287
"CAN","cpi",0.3,1971,3,1971,NA,0,2.70246046778948,2.75532745047637,2.64123406634756,2.83090781749212,FALSE,0.227799558235234
"CAN","cpi",0.3,1971,3,1971,NA,0.5,1.48665362891661,2.02768591571048,2.64123406634756,1.62320660035324,FALSE,2.29402700289983
"CAN","cpi",0.3,1971,3,1970,NA,1,1.47884427749171,2.52443384814964,2.64123406634756,3.17007770946556,FALSE,1.37930447979486
"CAN","cpi",0.3,1971,3,1970,NA,1.5,1.54666101054659,3.27246247442838,2.64123406634756,3.54353814347809,TRUE,1.72580146388179
"CAN","cpi",0.3,1972,3,1972,NA,0,4.87608635404866,4.92770316594462,4.83230569625923,5.0489634093373,FALSE,0.176704405580045
"CAN","cpi",0.3,1972,3,1972,NA,0.5,4.27695372369758,4.62154880191951,4.83230569625923,4.42305209693724,FALSE,0.94675763347827
"CAN","cpi",0.3,1972,3,1971,NA,1,2.08906392610976,4.17325800035622,4.83230569625923,4.88112932259212,FALSE,3.96718749111221
"CAN","cpi",0.3,1972,3,1971,NA,1.5,1.3066937311481,3.39088780539457,4.83230569625923,2.93340690449956,FALSE,6.20253090528836
"CAN","cpi",0.3,1973,3,1973,NA,0,7.01623563429095,7.05451201663573,7.12388603531779,7.21795256722813,FALSE,0.236487864293514
"CAN","cpi",0.3,1973,3,1973,NA,0.5,5.3090844909407,5.74634954429327,7.12388603531779,5.49391172870491,FALSE,4.37308359913691
"CAN","cpi",0.3,1973,3,1972,NA,1,2.57394679110995,4.81297767513827,7.12388603531779,5.39692894021178,FALSE,8.84162619882695
"CAN","cpi",0.3,1973,3,1972,NA,1.5,1.31456612396068,3.553597007989,7.12388603531779,3.58263496028301,FALSE,12.4398566763963
"CAN","cpi",0.3,1974,3,1974,NA,0,9.88070050735324,9.99841532515284,10.2717243737774,10.1210179328964,FALSE,0.898597813869813
"CAN","cpi",0.3,1974,3,1974,NA,0.5,7.67009859390744,8.28621049689879,10.2717243737774,7.94351867110281,FALSE,6.28900869407314
"CAN","cpi",0.3,1974,3,1973,NA,1,3.54141809536188,6.44841863099546,10.2717243737774,7.1912022670208,FALSE,13.8307312292963
"CAN","cpi",0.3,1974,3,1973,NA,1.5,1.04786113638768,3.95486167202126,10.2717243737774,4.0254660999559,FALSE,20.9551796835083
"CAN","cpi",0.3,1975,3,1975,NA,0,9.89710975745283,10.0323006153491,10.0232981493341,10.1376483081154,TRUE,0.135190857896276
"CAN","cpi",0.3,1975,3,1975,NA,0.5,7.97810913985399,9.17926661608753,10.0232981493341,8.26308676293858,FALSE,3.61267614265236
"CAN","cpi",0.3,1975,3,1974,NA,1,4.66871372122713,7.64507016841637,10.0232981493341,7.73583614861028,FALSE,9.77129353552568
"CAN","cpi",0.3,1975,3,1974,NA,1.5,1.17888845135584,4.15524489854508,10.0232981493341,4.67814014273702,FALSE,19.7422228780151
"CAN","cpi",0.3,1976,3,1976,NA,0,7.05389556741256,7.12375066131521,7.22784311401172,7.2178166349125,FALSE,0.367262101606948
"CAN","cpi",0.3,1976,3,1976,NA,0.5,6.68154287579964,7.72983319283756,7.22784311401172,6.91786916440093,TRUE,1.04829031703792
"CAN","cpi",0.3,1976,3,1975,NA,1,5.41251152821432,9.55828462349107,7.22784311401172,8.273619332389,TRUE,4.14577309527675
"CAN","cpi",0.3,1976,3,1975,NA,1.5,0.669265105765712,4.81503820104246,7.22784311401172,4.5816570194731,FALSE,11.039501418046
"CAN","cpi",0.3,1977,3,1977,NA,0,7.34058850378076,7.41175820508802,7.58101410153764,7.50701198703803,FALSE,0.554757976877615
"CAN","cpi",0.3,1977,3,1977,NA,0.5,6.56896775089225,7.2970202435432,7.58101410153764,6.51617593246189,FALSE,1.53946351549221
"CAN","cpi",0.3,1977,3,1976,NA,1,2.72747197777762,5.55128577830252,7.58101410153764,4.96992569410004,FALSE,8.62303758119669
"CAN","cpi",0.3,1977,3,1976,NA,1.5,1.96583113557326,5.42671507555514,7.58101410153764,4.37719420243736,FALSE,9.61602401421761
"CAN","cpi",0.3,1978,3,1978,NA,0,8.41660252548724,8.54123715629581,8.50208927062595,8.58158523467168,TRUE,0.124634630808576
"CAN","cpi",0.3,1978,3,1978,NA,0.5,7.72823270565123,8.668931018819,8.50208927062595,7.4716201567401,TRUE,0.940698313167772
"CAN","cpi",0.3,1978,3,1977,NA,1,3.50029855696627,7.89166363361069,8.50208927062595,6.36749774462425,FALSE,6.13543832525943
"CAN","cpi",0.3,1978,3,1977,NA,1.5,2.09333653460228,6.71099121430252,8.50208927062595,5.06410799386515,FALSE,9.73507769776718
"CAN","cpi",0.3,1979,3,1979,NA,0,8.37785468160045,8.457631254028,8.65147652410481,8.49829924825941,FALSE,0.633620201218433
"CAN","cpi",0.3,1979,3,1979,NA,0.5,7.90890991427592,8.59958736285722,8.65147652410481,7.55954787357905,FALSE,0.838932195002986
"CAN","cpi",0.3,1979,3,1978,NA,1,4.24613375686539,9.06149073987374,8.65147652410481,7.11843292779768,TRUE,4.81535698300835
"CAN","cpi",0.3,1979,3,1978,NA,1.5,2.10633995913958,8.30638892243698,8.65147652410481,5.13416174624329,FALSE,7.1860135394912
"CAN","cpi",0.3,1980,3,1980,NA,0,9.29754600923689,9.37743582967855,9.5171912664748,9.41458421512922,FALSE,0.47919106843093
"CAN","cpi",0.3,1980,3,1980,NA,0.5,8.3452073914332,9.11103516699118,9.5171912664748,7.9706129876785,FALSE,1.9262737740826
"CAN","cpi",0.3,1980,3,1979,NA,1,3.72213725190734,7.77020339134587,9.5171912664748,6.28953001008885,FALSE,9.03946006837832
"CAN","cpi",0.3,1980,3,1979,NA,1.5,2.46317458351993,9.13401305924018,9.5171912664748,5.364173973799,FALSE,7.76563335353343
"CAN","cpi",0.3,1981,3,1981,NA,0,11.4833609890077,11.6579663535061,11.5813425032741,11.5923033542996,TRUE,0.17460536449833
"CAN","cpi",0.3,1981,3,1981,NA,0.5,11.5788537911281,12.7061616138296,11.5813425032741,11.0172481296202,TRUE,1.12730782270155
"CAN","cpi",0.3,1981,3,1980,NA,1,7.04977991448837,11.5036535472619,11.5813425032741,8.10476531012298,FALSE,4.67584207852285
"CAN","cpi",0.3,1981,3,1980,NA,1.5,2.50122355026076,9.54998366880849,11.5813425032741,5.56064493450504,FALSE,12.8526425027353
"CAN","cpi",0.3,1982,3,1982,NA,0,10.1342383663724,10.1744519484883,10.1124203763629,10.1931679525338,FALSE,0.102550696428623
"CAN","cpi",0.3,1982,3,1982,NA,0.5,9.8326527764928,10.6755640233506,10.1124203763629,9.37004969245236,TRUE,0.842911246857778
"CAN","cpi",0.3,1982,3,1981,NA,1,7.67277688751141,12.5243676391662,10.1124203763629,8.69554175936175,TRUE,4.85159075165481
"CAN","cpi",0.3,1982,3,1981,NA,1.5,2.83238196206337,13.8289184641868,10.1124203763629,7.27062596384307,TRUE,10.9965365021234
"CAN","cpi",0.3,1983,3,1983,NA,0,5.69673856872963,5.77471885584591,5.67091787896303,5.81768735292628,FALSE,0.151753686449422
"CAN","cpi",0.3,1983,3,1983,NA,0.5,5.20772539673258,5.8051217752601,5.67091787896303,5.01354605702602,TRUE,0.59739637852752
"CAN","cpi",0.3,1983,3,1982,NA,1,6.0182281379647,9.8135659859733,5.67091787896303,7.12656393494862,FALSE,4.78765287372765
"CAN","cpi",0.3,1983,3,1982,NA,1.5,2.66501752785818,11.3318414971641,5.67091787896303,6.40641718255638,TRUE,8.66682396930588
"CAN","cpi",0.3,1984,3,1984,NA,0,4.10484734509317,4.18857728096774,4.19799576814029,4.24028901012313,FALSE,0.110639899224695
"CAN","cpi",0.3,1984,3,1984,NA,0.5,4.93629446089252,5.49296299015723,4.19799576814029,4.75786855948752,FALSE,2.66609336569966
"CAN","cpi",0.3,1984,3,1983,NA,1,4.47756064064953,6.79819345492359,4.19799576814029,5.66557758519989,FALSE,3.1193895928719
"CAN","cpi",0.3,1984,3,1983,NA,1.5,2.23991207638512,6.70617763869219,4.19799576814029,4.21132796972244,TRUE,4.46626556230708
"CAN","cpi",0.3,1985,3,1985,NA,0,3.78513854253658,3.87002321391842,3.86444262005169,3.92349089738505,TRUE,0.0848846713818343
"CAN","cpi",0.3,1985,3,1985,NA,0.5,4.19461259452581,4.71828512795268,3.86444262005169,4.05923277954066,FALSE,1.46701531763864
"CAN","cpi",0.3,1985,3,1984,NA,1,2.49824482547577,4.13669301569713,3.86444262005169,3.95710775307987,TRUE,1.63844819022136
"CAN","cpi",0.3,1985,3,1984,NA,1.5,2.57528957065179,7.9589580158437,3.86444262005169,4.80620472271859,TRUE,5.3836684451919
"CAN","cpi",0.3,1986,3,1986,NA,0,4.02211181968105,4.07767895167341,4.08685396749431,4.13000198176505,FALSE,0.0817814629092258
"CAN","cpi",0.3,1986,3,1986,NA,0.5,4.68776304670811,5.23337489266982,4.08685396749431,4.52376153022901,FALSE,2.26249492942971
"CAN","cpi",0.3,1986,3,1985,NA,1,3.02544889367495,4.44964328985547,4.08685396749431,4.28856700742326,TRUE,1.42419439618052
"CAN","cpi",0.3,1986,3,1985,NA,1.5,2.56392175467376,7.80284107779093,4.08685396749431,4.73207334351572,TRUE,5.23891932311717
"CAN","cpi",0.3,1987,3,1987,NA,0,4.24083219539301,4.29601388603753,4.23980729277887,4.34713339619661,FALSE,0.058109983827774
"CAN","cpi",0.3,1987,3,1987,NA,0.5,4.17746441775431,4.67149674900487,4.23980729277887,4.04554574241257,TRUE,0.494032331250558
"CAN","cpi",0.3,1987,3,1986,NA,1,3.38534682199863,5.00144299598678,4.23980729277887,4.62985152306341,TRUE,1.61609617398816
"CAN","cpi",0.3,1987,3,1986,NA,1.5,2.59291944119713,7.89061108558209,4.23980729277887,4.92117197950912,TRUE,5.29769164438496
"CAN","cpi",0.3,1988,3,1988,NA,0,3.90015599976246,3.95602569672373,3.92899537638065,4.00901931174773,TRUE,0.0558696969612633
"CAN","cpi",0.3,1988,3,1988,NA,0.5,3.84939514743289,4.32610313946965,3.92899537638065,3.73662637763501,TRUE,0.476707992036756
"CAN","cpi",0.3,1988,3,1987,NA,1,3.32813510375493,4.91372532153064,3.92899537638065,4.57559871410537,TRUE,1.5855902177757
"CAN","cpi",0.3,1988,3,1987,NA,1.5,3.24989910493847,7.01638683274868,3.92899537638065,4.47333468954476,TRUE,3.76648772781021
"CAN","cpi",0.3,1989,3,1989,NA,0,4.88672998749152,4.94321485170249,4.82821664544208,4.99076681888079,FALSE,0.223665841495093
"CAN","cpi",0.3,1989,3,1989,NA,0.5,4.65367436469011,5.17027418906956,4.82821664544208,4.4916513034202,TRUE,0.516599824379451
"CAN","cpi",0.3,1989,3,1988,NA,1,3.29233957276135,4.85884319543707,4.82821664544208,4.54165447743213,TRUE,1.56650362267572
"CAN","cpi",0.3,1989,3,1988,NA,1.5,3.49620856632846,6.7884261335479,4.82821664544208,4.35655767104226,TRUE,3.29221756721945
"CAN","cpi",0.3,1990,3,1990,NA,0,4.43067426230982,4.48707017436883,4.64347549432717,4.53713653171057,FALSE,0.50326825479713
"CAN","cpi",0.3,1990,3,1990,NA,0.5,5.27934674479815,5.82921940842618,4.64347549432717,5.08101061108308,FALSE,2.3666476649737
"CAN","cpi",0.3,1990,3,1989,NA,1,4.27518471888243,6.13939881098179,4.64347549432717,5.34783125013627,TRUE,1.86421409209937
"CAN","cpi",0.3,1990,3,1989,NA,1.5,3.87044619669258,6.64621404861813,4.64347549432717,4.81353563225505,TRUE,2.77576785192555
"CAN","cpi",0.3,1991,3,1991,NA,0,5.55901484977232,5.61652995016927,5.4258100696218,5.66037042635664,FALSE,0.438100186541304
"CAN","cpi",0.3,1991,3,1991,NA,0.5,8.21744510256093,8.73590994630264,5.4258100696218,7.84858621299389,FALSE,8.49456493785353
"CAN","cpi",0.3,1991,3,1990,NA,1,3.18675171467162,4.3852593586361,5.4258100696218,4.26930339967321,FALSE,4.17150967535218
"CAN","cpi",0.3,1991,3,1990,NA,1.5,4.07272917050868,6.99466400830054,5.4258100696218,5.0605414207232,TRUE,2.92193483779186
"CAN","cpi",0.3,1992,3,1992,NA,0,1.40981265424459,1.463212207651,1.47496888572843,1.52994687025859,FALSE,0.0869900621990756
"CAN","cpi",0.3,1992,3,1992,NA,0.5,1.85818882424912,2.26024266834017,1.47496888572843,1.85875773502133,FALSE,1.49696795415015
"CAN","cpi",0.3,1992,3,1991,NA,1,2.41427984404338,3.18090606380166,1.47496888572843,3.50386131646851,FALSE,3.45037181494384
"CAN","cpi",0.3,1992,3,1991,NA,1.5,5.96911440816504,9.38631143707967,1.47496888572843,6.78035435046663,FALSE,16.2576128073049
"CAN","cpi",0.3,1993,3,1993,NA,0,1.75444568820455,1.80639751339934,1.84351085411351,1.87124044779021,FALSE,0.157989941520998
"CAN","cpi",0.3,1993,3,1993,NA,0.5,2.74309446855033,3.19927812446609,1.84351085411351,2.72734178597627,FALSE,3.02642255430668
"CAN","cpi",0.3,1993,3,1992,NA,1,1.99107827641692,2.45828917117366,1.84351085411351,3.08451104384819,FALSE,0.888832101337915
"CAN","cpi",0.3,1993,3,1992,NA,1.5,2.742582899311,5.00935111842206,1.84351085411351,3.82501351795864,FALSE,4.83554549110388
"CAN","cpi",0.3,1994,3,1994,NA,0,0.140009437305017,0.202434467729411,0.161630694655448,0.262954827743209,TRUE,0.0624250304243945
"CAN","cpi",0.3,1994,3,1994,NA,0.5,0.138272099554596,0.390611498133605,0.161630694655448,0.310066271274909,TRUE,0.252339398579009
"CAN","cpi",0.3,1994,3,1993,NA,1,1.6280110921775,2.12050411752386,0.161630694655448,2.87682482634461,FALSE,4.68215130398079
"CAN","cpi",0.3,1994,3,1993,NA,1.5,2.52111454610185,5.46907348287309,0.161630694655448,4.13541986765475,FALSE,9.68934136947525
"CAN","cpi",0.3,1995,3,1995,NA,0,2.11749189724061,2.17029085585953,2.11688403676572,2.22224044651209,FALSE,0.0545357028329015
"CAN","cpi",0.3,1995,3,1995,NA,0.5,3.02423384617643,3.40376336116518,2.11688403676572,2.99405804315788,FALSE,2.9719575418765
"CAN","cpi",0.3,1995,3,1994,NA,1,1.66327591998871,2.29933209213243,2.11688403676572,2.99684369657241,TRUE,0.636056172143716
"CAN","cpi",0.3,1995,3,1994,NA,1.5,2.23047516553071,3.1322890689785,2.11688403676572,2.55761383507254,FALSE,1.2263599856335
"CAN","cpi",0.3,1996,3,1996,NA,0,1.40564875065373,1.44350195030484,1.55309584667184,1.51034526106652,FALSE,0.350978617842541
"CAN","cpi",0.3,1996,3,1996,NA,0.5,1.73786199595152,2.0472761951149,1.55309584667184,1.79601314583588,FALSE,0.837317482819602
"CAN","cpi",0.3,1996,3,1995,NA,1,1.28480247779988,1.59421667696325,1.55309584667184,2.55715877011559,TRUE,0.309414199163372
"CAN","cpi",0.3,1996,3,1995,NA,1.5,2.42183850252362,5.53766983504235,1.55309584667184,4.37195408299294,FALSE,5.59795320638095
"CAN","cpi",0.3,1997,3,1997,NA,0,1.64358680819223,1.69373462343183,1.60528783555959,1.74775979926451,FALSE,0.159573451332857
"CAN","cpi",0.3,1997,3,1997,NA,0.5,2.39753238980249,2.61669802558177,1.60528783555959,2.44638235868142,FALSE,2.48272150504469
"CAN","cpi",0.3,1997,3,1996,NA,1,1.17237757714927,1.39154321292855,1.60528783555959,2.43903366578812,FALSE,0.82986455758227
"CAN","cpi",0.3,1997,3,1996,NA,1.5,2.29578403724264,4.35405518680405,1.60528783555959,3.62198739789796,FALSE,4.0311174400844
"CAN","cpi",0.3,1998,3,1998,NA,0,0.934690805647469,0.981824533857669,0.988908029337191,1.03895035119065,FALSE,0.0673722867231201
"CAN","cpi",0.3,1998,3,1998,NA,0.5,1.75488219733689,1.94946155581761,0.988908029337191,1.85198354845497,FALSE,2.38307698133701
"CAN","cpi",0.3,1998,3,1997,NA,1,1.23952771911627,1.49349460318527,0.988908029337191,2.50242700061489,FALSE,0.970023140580657
"CAN","cpi",0.3,1998,3,1997,NA,1.5,2.15217185389729,4.56913876547475,0.988908029337191,3.75826952211307,FALSE,5.74057783889204
"CAN","cpi",0.3,1999,3,1999,NA,0,1.71414860850553,1.76533356136734,1.7107350135213,1.81904689636282,FALSE,0.0609380813881969
"CAN","cpi",0.3,1999,3,1999,NA,0.5,1.21798617141955,1.32080178276818,1.7107350135213,1.31729339512256,FALSE,1.21691055635754
"CAN","cpi",0.3,1999,3,1998,NA,1,0.847875116211497,0.950690727560133,1.7107350135213,2.15211490322884,FALSE,2.27437071409482
"CAN","cpi",0.3,1999,3,1998,NA,1.5,2.14061056771584,4.47492160474974,1.7107350135213,3.69857126490312,FALSE,3.56252690616117
"CAN","cpi",0.3,2000,3,2000,NA,0,2.63690161184569,2.69306780852998,2.6718361971244,2.74274050503735,TRUE,0.0561661966842903
