isdrw/probabilistic-benchmark-forecasts/results/empirical_quantiles_prediction/archive/empirical_prediction_rw_2026-01-02_11-44-29.csv
"country","target","forecast_year","tau","forecast_quarter","target_year","target_quarter","horizon","lower_bound","upper_bound","truth_value","prediction","covered","IS"
"CAN","cpi",1959,0.1,NA,1959,4,0.5,1.5742171732311,2.40032470613896,1.42085685959275,1.98727093968503,FALSE,1.16690822988197
"CAN","cpi",1959,0.1,NA,1960,4,1,0.839858441823982,2.00185527736152,1.34570677924433,1.42085685959275,TRUE,1.16199683553754
"CAN","cpi",1959,0.2,NA,1959,4,0.5,1.40766881402295,2.56687306534711,1.42085685959275,1.98727093968503,TRUE,1.15920425132416
"CAN","cpi",1959,0.2,NA,1960,4,1,0.673819392146027,2.16789432703947,1.34570677924433,1.42085685959275,TRUE,1.49407493489345
"CAN","cpi",1959,0.3,NA,1959,4,0.5,1.27611652853864,2.69842535083143,1.42085685959275,1.98727093968503,TRUE,1.42230882229279
"CAN","cpi",1959,0.3,NA,1960,4,1,0.384544728085438,2.45716899110006,1.34570677924433,1.42085685959275,TRUE,2.07262426301462
"CAN","cpi",1959,0.4,NA,1959,4,0.5,0.977948076576053,2.99659380279401,1.42085685959275,1.98727093968503,TRUE,2.01864572621796
"CAN","cpi",1959,0.4,NA,1960,4,1,-0.588715023600955,3.43042874278646,1.34570677924433,1.42085685959275,TRUE,4.01914376638741
"CAN","cpi",1959,0.5,NA,1959,4,0.5,0.858828806950391,3.11571307241967,1.42085685959275,1.98727093968503,TRUE,2.25688426546928
"CAN","cpi",1959,0.5,NA,1960,4,1,-1.02937846698869,3.87109218617419,1.34570677924433,1.42085685959275,TRUE,4.90047065316288
"CAN","cpi",1959,0.6,NA,1959,4,0.5,0.510649537524102,3.46389234184596,1.42085685959275,1.98727093968503,TRUE,2.95324280432186
"CAN","cpi",1959,0.6,NA,1960,4,1,-1.88088613366676,4.72259985285226,1.34570677924433,1.42085685959275,TRUE,6.60348598651902
"CAN","cpi",1959,0.7,NA,1959,4,0.5,-0.837331381758651,4.81187326112871,1.42085685959275,1.98727093968503,TRUE,5.64920464288736
"CAN","cpi",1959,0.7,NA,1960,4,1,-2.46302514619874,5.30473886538424,1.34570677924433,1.42085685959275,TRUE,7.76776401158299
"CAN","cpi",1959,0.8,NA,1959,4,0.5,-2.25505458831846,6.22959646768852,1.42085685959275,1.98727093968503,TRUE,8.48465105600698
"CAN","cpi",1959,0.8,NA,1960,4,1,-5.28162345451967,8.12333717370517,1.34570677924433,1.42085685959275,TRUE,13.4049606282248
"CAN","cpi",1959,0.9,NA,1959,4,0.5,-2.46020358592605,6.43474546529611,1.42085685959275,1.98727093968503,TRUE,8.89494905122216
"CAN","cpi",1959,0.9,NA,1960,4,1,-5.52846554478618,8.37017926397167,1.34570677924433,1.42085685959275,TRUE,13.8986448087579
"CAN","cpi",1960,0.1,NA,1960,4,0.5,0.719921064344362,1.54602859725222,1.34570677924433,1.13297483079829,TRUE,0.826107532907863
"CAN","cpi",1960,0.1,NA,1961,4,1,0.875694361860644,1.81571919662801,1.32757858722203,1.34570677924433,TRUE,0.940024834767366
"CAN","cpi",1960,0.2,NA,1960,4,0.5,0.566560750706013,1.69938891089057,1.34570677924433,1.13297483079829,TRUE,1.13282816018456
"CAN","cpi",1960,0.2,NA,1961,4,1,0.764708361475559,1.92670519701309,1.32757858722203,1.34570677924433,TRUE,1.16199683553754
"CAN","cpi",1960,0.3,NA,1960,4,0.5,0.553372705136213,1.71257695646037,1.34570677924433,1.13297483079829,TRUE,1.15920425132416
"CAN","cpi",1960,0.3,NA,1961,4,1,0.598669311797604,2.09274424669105,1.32757858722203,1.34570677924433,TRUE,1.49407493489345
"CAN","cpi",1960,0.4,NA,1960,4,0.5,0.421820419651899,1.84412924194469,1.34570677924433,1.13297483079829,TRUE,1.42230882229279
"CAN","cpi",1960,0.4,NA,1961,4,1,0.309394647737015,2.38201891075164,1.32757858722203,1.34570677924433,TRUE,2.07262426301462
"CAN","cpi",1960,0.5,NA,1960,4,0.5,0.123651967689316,2.14229769390727,1.34570677924433,1.13297483079829,TRUE,2.01864572621796
"CAN","cpi",1960,0.5,NA,1961,4,1,-0.663865103949378,3.35527866243803,1.32757858722203,1.34570677924433,TRUE,4.01914376638741
"CAN","cpi",1960,0.6,NA,1960,4,0.5,0.00453269806365397,2.26141696353293,1.34570677924433,1.13297483079829,TRUE,2.25688426546928
"CAN","cpi",1960,0.6,NA,1961,4,1,-1.10452854733711,3.79594210582576,1.32757858722203,1.34570677924433,TRUE,4.90047065316288
"CAN","cpi",1960,0.7,NA,1960,4,0.5,-0.343646571362635,2.60959623295922,1.34570677924433,1.13297483079829,TRUE,2.95324280432186
"CAN","cpi",1960,0.7,NA,1961,4,1,-1.95603621401519,4.64744977250384,1.32757858722203,1.34570677924433,TRUE,6.60348598651902
"CAN","cpi",1960,0.8,NA,1960,4,0.5,-2.9301289360992,5.19607859769579,1.34570677924433,1.13297483079829,TRUE,8.12620753379499
"CAN","cpi",1960,0.8,NA,1961,4,1,-2.71739698765317,5.40881054614182,1.32757858722203,1.34570677924433,TRUE,8.12620753379499
"CAN","cpi",1960,0.9,NA,1960,4,0.5,-3.31449969481279,5.58044935640938,1.34570677924433,1.13297483079829,TRUE,8.89494905122216
"CAN","cpi",1960,0.9,NA,1961,4,1,-5.3567735348681,8.04818709335675,1.32757858722203,1.34570677924433,TRUE,13.4049606282248
"CAN","cpi",1961,0.1,NA,1961,4,0.5,1.19862018283585,1.5847033013127,1.32757858722203,1.39166174207428,TRUE,0.386083118476859
"CAN","cpi",1961,0.1,NA,1962,4,1,1.1345370279836,1.52062014646046,0.577977430468435,1.32757858722203,FALSE,1.62288222406612
"CAN","cpi",1961,0.2,NA,1961,4,0.5,0.978607975620344,1.80471550852821,1.32757858722203,1.39166174207428,TRUE,0.826107532907863
"CAN","cpi",1961,0.2,NA,1962,4,1,0.857566169838349,1.79759100460572,0.577977430468435,1.32757858722203,FALSE,1.63899668319215
"CAN","cpi",1961,0.3,NA,1961,4,0.5,0.825247661981995,1.95807582216656,1.32757858722203,1.39166174207428,TRUE,1.13282816018456
"CAN","cpi",1961,0.3,NA,1962,4,1,0.746580169453264,1.9085770049908,0.577977430468435,1.32757858722203,FALSE,1.64371894692276
"CAN","cpi",1961,0.4,NA,1961,4,0.5,0.812059616412195,1.97126386773636,1.32757858722203,1.39166174207428,TRUE,1.15920425132416
"CAN","cpi",1961,0.4,NA,1962,4,1,0.580541119775309,2.07461605466875,0.577977430468435,1.32757858722203,FALSE,1.50262056591636
"CAN","cpi",1961,0.5,NA,1961,4,0.5,0.68050733092788,2.10281615322067,1.32757858722203,1.39166174207428,TRUE,1.42230882229279
"CAN","cpi",1961,0.5,NA,1962,4,1,0.29126645571472,2.36389071872934,0.577977430468435,1.32757858722203,TRUE,2.07262426301462
"CAN","cpi",1961,0.6,NA,1961,4,0.5,0.382338878965297,2.40098460518325,1.32757858722203,1.39166174207428,TRUE,2.01864572621796
"CAN","cpi",1961,0.6,NA,1962,4,1,-0.681993295971673,3.33715047041574,0.577977430468435,1.32757858722203,TRUE,4.01914376638741
"CAN","cpi",1961,0.7,NA,1961,4,0.5,0.263219609339636,2.52010387480891,1.32757858722203,1.39166174207428,TRUE,2.25688426546928
"CAN","cpi",1961,0.7,NA,1962,4,1,-1.12265673935941,3.77781391380347,0.577977430468435,1.32757858722203,TRUE,4.90047065316288
"CAN","cpi",1961,0.8,NA,1961,4,0.5,-0.0849596600866529,2.8682831442352,1.32757858722203,1.39166174207428,TRUE,2.95324280432186
"CAN","cpi",1961,0.8,NA,1962,4,1,-1.97416440603748,4.62932158048154,0.577977430468435,1.32757858722203,TRUE,6.60348598651902
"CAN","cpi",1961,0.9,NA,1961,4,0.5,-2.85066378592922,5.63398727007777,1.32757858722203,1.39166174207428,TRUE,8.48465105600698
"CAN","cpi",1961,0.9,NA,1962,4,1,-5.37490172689039,8.03005890133446,0.577977430468435,1.32757858722203,TRUE,13.4049606282248
"CAN","cpi",1962,0.1,NA,1962,4,0.5,0.493020997827131,0.780903026621588,0.577977430468435,0.636962012224359,TRUE,0.287882028794457
"CAN","cpi",1962,0.1,NA,1963,4,1,0.434036416071207,0.721918444865664,1.66779362321099,0.577977430468435,FALSE,2.38982686956184
"CAN","cpi",1962,0.2,NA,1962,4,0.5,0.223908245770428,1.05001577867829,0.577977430468435,0.636962012224359,TRUE,0.826107532907863
"CAN","cpi",1962,0.2,NA,1963,4,1,0.107965013084752,1.04798984785212,1.66779362321099,0.577977430468435,FALSE,2.48953427316454
"CAN","cpi",1962,0.3,NA,1962,4,0.5,0.0705479321320788,1.20337609231664,0.577977430468435,0.636962012224359,TRUE,1.13282816018456
"CAN","cpi",1962,0.3,NA,1963,4,1,-0.00302098730033251,1.1589758482372,1.66779362321099,0.577977430468435,FALSE,2.6157619068912
"CAN","cpi",1962,0.4,NA,1962,4,0.5,0.0573598865622786,1.21656413788644,0.577977430468435,0.636962012224359,TRUE,1.15920425132416
"CAN","cpi",1962,0.4,NA,1963,4,1,-0.169060036978287,1.32501489791516,1.66779362321099,0.577977430468435,FALSE,2.63667068587954
"CAN","cpi",1962,0.5,NA,1962,4,0.5,-0.0741923989220357,1.34811642337075,0.577977430468435,0.636962012224359,TRUE,1.42230882229279
"CAN","cpi",1962,0.5,NA,1963,4,1,-0.171623726285161,1.32757858722203,1.66779362321099,0.577977430468435,FALSE,2.86006245746301
"CAN","cpi",1962,0.6,NA,1962,4,0.5,-0.372360850884619,1.64628487533334,0.577977430468435,0.636962012224359,TRUE,2.01864572621796
"CAN","cpi",1962,0.6,NA,1963,4,1,-0.458334701038877,1.61428956197575,1.66779362321099,0.577977430468435,FALSE,2.34014456919082
"CAN","cpi",1962,0.7,NA,1962,4,0.5,-0.49148012051028,1.765404144959,0.577977430468435,0.636962012224359,TRUE,2.25688426546928
"CAN","cpi",1962,0.7,NA,1963,4,1,-1.43159445272527,2.58754931366214,1.66779362321099,0.577977430468435,TRUE,4.01914376638741
"CAN","cpi",1962,0.8,NA,1962,4,0.5,-0.839659389936569,2.11358341438529,0.577977430468435,0.636962012224359,TRUE,2.95324280432186
"CAN","cpi",1962,0.8,NA,1963,4,1,-1.872257896113,3.02821275704987,1.66779362321099,0.577977430468435,TRUE,4.90047065316288
"CAN","cpi",1962,0.9,NA,1962,4,0.5,-3.13507224840714,4.40899627285586,0.577977430468435,0.636962012224359,TRUE,7.544068521263
"CAN","cpi",1962,0.9,NA,1963,4,1,-3.19405683016307,4.35001169109994,1.66779362321099,0.577977430468435,TRUE,7.544068521263
"CAN","cpi",1963,0.1,NA,1963,4,0.5,1.45709837234015,1.58526468204464,1.66779362321099,1.52118152719239,FALSE,0.311563956740818
"CAN","cpi",1963,0.1,NA,1964,4,1,1.59264354286256,1.74294370355941,1.89274723222648,1.66779362321099,FALSE,0.483196891068105
"CAN","cpi",1963,0.2,NA,1963,4,0.5,1.30844957874636,1.73391347563843,1.66779362321099,1.52118152719239,TRUE,0.425463896892067
"CAN","cpi",1963,0.2,NA,1964,4,1,1.1977812058273,2.13780604059467,1.89274723222648,1.66779362321099,TRUE,0.940024834767367
"CAN","cpi",1963,0.3,NA,1963,4,0.5,1.10812776073846,1.93423529364633,1.66779362321099,1.52118152719239,TRUE,0.826107532907863
"CAN","cpi",1963,0.3,NA,1964,4,1,1.08679520544222,2.24879204097976,1.89274723222648,1.66779362321099,TRUE,1.16199683553754
"CAN","cpi",1963,0.4,NA,1963,4,0.5,0.954767447100115,2.08759560728468,1.66779362321099,1.52118152719239,TRUE,1.13282816018456
"CAN","cpi",1963,0.4,NA,1964,4,1,0.920756155764265,2.41483109065771,1.89274723222648,1.66779362321099,TRUE,1.49407493489345
"CAN","cpi",1963,0.5,NA,1963,4,0.5,0.941579401530314,2.10078365285448,1.66779362321099,1.52118152719239,TRUE,1.15920425132416
"CAN","cpi",1963,0.5,NA,1964,4,1,0.918192466457391,2.41739477996458,1.89274723222648,1.66779362321099,TRUE,1.49920231350719
"CAN","cpi",1963,0.6,NA,1963,4,0.5,0.810027116046,2.23233593833879,1.66779362321099,1.52118152719239,TRUE,1.42230882229279
"CAN","cpi",1963,0.6,NA,1964,4,1,0.631481491703675,2.7041057547183,1.89274723222648,1.66779362321099,TRUE,2.07262426301462
"CAN","cpi",1963,0.7,NA,1963,4,0.5,0.511858664083417,2.53050439030137,1.66779362321099,1.52118152719239,TRUE,2.01864572621796
"CAN","cpi",1963,0.7,NA,1964,4,1,0.577977430468435,2.75760981595354,1.89274723222648,1.66779362321099,TRUE,2.1796323854851
"CAN","cpi",1963,0.8,NA,1963,4,0.5,0.392739394457756,2.64962365992703,1.66779362321099,1.52118152719239,TRUE,2.25688426546928
"CAN","cpi",1963,0.8,NA,1964,4,1,-0.341778259982718,3.67736550640469,1.89274723222648,1.66779362321099,TRUE,4.01914376638741
"CAN","cpi",1963,0.9,NA,1963,4,0.5,0.0445601250314669,2.99780292935332,1.66779362321099,1.52118152719239,TRUE,2.95324280432186
"CAN","cpi",1963,0.9,NA,1964,4,1,-0.78244170337045,4.11802894979242,1.89274723222648,1.66779362321099,TRUE,4.90047065316288
"CAN","cpi",1964,0.1,NA,1964,4,0.5,1.53279699936111,1.6609633090656,1.89274723222648,1.59688015421336,FALSE,0.643241694506439
"CAN","cpi",1964,0.1,NA,1965,4,1,1.81759715187805,1.9678973125749,2.00763200760394,1.89274723222648,FALSE,0.238599482983607
"CAN","cpi",1964,0.2,NA,1964,4,0.5,1.45026805819476,1.74349225023195,1.89274723222648,1.59688015421336,FALSE,0.666361647023508
"CAN","cpi",1964,0.2,NA,1965,4,1,1.66779362321099,2.11770084124197,2.00763200760394,1.89274723222648,TRUE,0.44990721803098
"CAN","cpi",1964,0.3,NA,1964,4,0.5,1.38414820576732,1.80961210265939,1.89274723222648,1.59688015421336,FALSE,0.662992838512319
"CAN","cpi",1964,0.3,NA,1965,4,1,1.42273481484279,2.36275964961016,2.00763200760394,1.89274723222648,TRUE,0.940024834767367
"CAN","cpi",1964,0.4,NA,1964,4,0.5,1.18382638775942,2.00993392066729,1.89274723222648,1.59688015421336,TRUE,0.826107532907863
"CAN","cpi",1964,0.4,NA,1965,4,1,1.31174881445771,2.47374564999525,2.00763200760394,1.89274723222648,TRUE,1.16199683553754
"CAN","cpi",1964,0.5,NA,1964,4,0.5,1.03046607412108,2.16329423430564,1.89274723222648,1.59688015421336,TRUE,1.13282816018456
"CAN","cpi",1964,0.5,NA,1965,4,1,1.14570976477975,2.6397846996732,2.00763200760394,1.89274723222648,TRUE,1.49407493489345
"CAN","cpi",1964,0.6,NA,1964,4,0.5,1.01727802855128,2.17648227987544,1.89274723222648,1.59688015421336,TRUE,1.15920425132416
"CAN","cpi",1964,0.6,NA,1965,4,1,1.14314607547288,2.64234838898007,2.00763200760394,1.89274723222648,TRUE,1.49920231350719
"CAN","cpi",1964,0.7,NA,1964,4,0.5,0.885725743066961,2.30803456535975,1.89274723222648,1.59688015421336,TRUE,1.42230882229279
"CAN","cpi",1964,0.7,NA,1965,4,1,0.856435100719165,2.92905936373379,2.00763200760394,1.89274723222648,TRUE,2.07262426301462
"CAN","cpi",1964,0.8,NA,1964,4,0.5,0.587557291104378,2.60620301732233,1.89274723222648,1.59688015421336,TRUE,2.01864572621796
"CAN","cpi",1964,0.8,NA,1965,4,1,0.802931039483925,2.98256342496903,2.00763200760394,1.89274723222648,TRUE,2.1796323854851
"CAN","cpi",1964,0.9,NA,1964,4,0.5,0.468438021478716,2.72532228694799,1.89274723222648,1.59688015421336,TRUE,2.25688426546928
"CAN","cpi",1964,0.9,NA,1965,4,1,-0.116824650967228,3.90231911542018,2.00763200760394,1.89274723222648,TRUE,4.01914376638741
"CAN","cpi",1965,0.1,NA,1965,4,0.5,1.81661508496422,1.94478139466871,2.00763200760394,1.88069823981647,FALSE,0.267834338449448
"CAN","cpi",1965,0.1,NA,1966,4,1,1.93248192725552,2.08278208795237,3.50850431851723,2.00763200760394,FALSE,3.31857178417432
"CAN","cpi",1965,0.2,NA,1965,4,0.5,1.74994980411844,2.0114466755145,2.00763200760394,1.88069823981647,TRUE,0.261496871396058
"CAN","cpi",1965,0.2,NA,1966,4,1,1.87688357190591,2.13838044330197,3.50850431851723,2.00763200760394,FALSE,3.6868065594342
"CAN","cpi",1965,0.3,NA,1965,4,0.5,1.66796629137043,2.0934301882625,2.00763200760394,1.88069823981647,TRUE,0.425463896892066
"CAN","cpi",1965,0.3,NA,1966,4,1,1.78267839858845,2.23258561661943,3.50850431851723,2.00763200760394,FALSE,4.09538922345325
"CAN","cpi",1965,0.4,NA,1965,4,0.5,1.58483116180334,2.17656531782959,2.00763200760394,1.88069823981647,TRUE,0.591734156026243
"CAN","cpi",1965,0.4,NA,1966,4,1,1.53761959022026,2.47764442498763,3.50850431851723,2.00763200760394,FALSE,4.37622447986604
"CAN","cpi",1965,0.5,NA,1965,4,0.5,1.46764447336253,2.2937520062704,2.00763200760394,1.88069823981647,TRUE,0.826107532907863
"CAN","cpi",1965,0.5,NA,1966,4,1,1.42663358983517,2.58863042537271,3.50850431851723,2.00763200760394,FALSE,4.8414924081156
"CAN","cpi",1965,0.6,NA,1965,4,0.5,1.31428415972419,2.44711231990875,2.00763200760394,1.88069823981647,TRUE,1.13282816018456
"CAN","cpi",1965,0.6,NA,1966,4,1,1.26059454015722,2.75466947505067,3.50850431851723,2.00763200760394,FALSE,5.26324915222625
"CAN","cpi",1965,0.7,NA,1965,4,0.5,1.30109611415439,2.46030036547855,2.00763200760394,1.88069823981647,TRUE,1.15920425132416
"CAN","cpi",1965,0.7,NA,1966,4,1,1.25803085085035,2.75723316435754,3.50850431851723,2.00763200760394,FALSE,6.50767667457178
"CAN","cpi",1965,0.8,NA,1965,4,0.5,1.16954382867007,2.59185265096286,2.00763200760394,1.88069823981647,TRUE,1.42230882229279
"CAN","cpi",1965,0.8,NA,1966,4,1,0.97131987609663,3.04394413911125,3.50850431851723,2.00763200760394,FALSE,6.71822605707435
"CAN","cpi",1965,0.9,NA,1965,4,0.5,0.871375376707489,2.89002110292544,2.00763200760394,1.88069823981647,TRUE,2.01864572621796
"CAN","cpi",1965,0.9,NA,1966,4,1,0.91781581486139,3.09744820034649,3.50850431851723,2.00763200760394,FALSE,10.4007547488998
"CAN","cpi",1966,0.1,NA,1966,4,0.5,2.66005765446288,2.78822396416737,3.50850431851723,2.72414080931513,FALSE,1.72878931937083
"CAN","cpi",1966,0.1,NA,1967,4,1,3.4333542381688,3.58365439886565,3.43593854851327,3.50850431851723,TRUE,0.150300160696847
"CAN","cpi",1966,0.2,NA,1966,4,0.5,2.60323153773266,2.8450500808976,3.50850431851723,2.72414080931513,FALSE,1.90045413721401
"CAN","cpi",1966,0.2,NA,1967,4,1,3.38759504693476,3.6294135900997,3.43593854851327,3.50850431851723,TRUE,0.241818543164941
"CAN","cpi",1966,0.3,NA,1966,4,0.5,2.57752871329654,2.87075290533372,3.50850431851723,2.72414080931513,FALSE,2.11537108684721
"CAN","cpi",1966,0.3,NA,1967,4,1,3.28355070950174,3.73345792753272,3.43593854851327,3.50850431851723,TRUE,0.44990721803098
"CAN","cpi",1966,0.4,NA,1966,4,0.5,2.51140886086909,2.93687275776116,3.50850431851723,2.72414080931513,FALSE,2.33090243274562
"CAN","cpi",1966,0.4,NA,1967,4,1,2.92750590074846,4.089502736286,3.43593854851327,3.50850431851723,TRUE,1.16199683553754
"CAN","cpi",1966,0.5,NA,1966,4,0.5,2.42827373130201,3.02000788732825,3.50850431851723,2.72414080931513,FALSE,2.54571988078215
"CAN","cpi",1966,0.5,NA,1967,4,1,2.7614668510705,4.25554178596395,3.43593854851327,3.50850431851723,TRUE,1.49407493489345
"CAN","cpi",1966,0.6,NA,1966,4,0.5,2.3110870428612,3.13719457576906,3.50850431851723,2.72414080931513,FALSE,2.6826562466487
"CAN","cpi",1966,0.6,NA,1967,4,1,2.75890316176363,4.25810547527082,3.43593854851327,3.50850431851723,TRUE,1.49920231350719
"CAN","cpi",1966,0.7,NA,1966,4,0.5,2.15772672922285,3.29055488940741,3.50850431851723,2.72414080931513,FALSE,2.58582435425002
"CAN","cpi",1966,0.7,NA,1967,4,1,2.47219218700991,4.54481645002454,3.43593854851327,3.50850431851723,TRUE,2.07262426301462
"CAN","cpi",1966,0.8,NA,1966,4,0.5,2.14453868365305,3.30374293497721,3.50850431851723,2.72414080931513,FALSE,3.20681808672435
"CAN","cpi",1966,0.8,NA,1967,4,1,2.41868812577468,4.59832051125978,3.43593854851327,3.50850431851723,TRUE,2.1796323854851
"CAN","cpi",1966,0.9,NA,1966,4,0.5,2.01298639816873,3.43529522046152,3.50850431851723,2.72414080931513,FALSE,2.88649078340688
"CAN","cpi",1966,0.9,NA,1967,4,1,2.00763200760394,5.00937662943051,3.43593854851327,3.50850431851723,TRUE,3.00174462182657
"CAN","cpi",1967,0.1,NA,1967,4,0.5,3.53711718722917,3.66528349693365,3.43593854851327,3.60120034208141,FALSE,0.353007729073147
"CAN","cpi",1967,0.1,NA,1968,4,1,3.36337277850931,3.50850431851723,3.85741006811451,3.43593854851327,FALSE,0.920477650224102
"CAN","cpi",1967,0.2,NA,1967,4,0.5,3.50015841801346,3.70224226614936,3.43593854851327,3.60120034208141,FALSE,0.362633521886377
"CAN","cpi",1967,0.2,NA,1968,4,1,3.33489662444532,3.53698047258122,3.85741006811451,3.43593854851327,FALSE,1.00315783696913
"CAN","cpi",1967,0.3,NA,1967,4,0.5,3.47045190638338,3.73194877777944,3.43593854851327,3.60120034208141,FALSE,0.360106465310663
"CAN","cpi",1967,0.3,NA,1968,4,1,3.30519011281524,3.5666869842113,3.85741006811451,3.43593854851327,FALSE,1.09213425397667
"CAN","cpi",1967,0.4,NA,1967,4,0.5,3.38846839363538,3.81393229052744,3.43593854851327,3.60120034208141,TRUE,0.425463896892066
"CAN","cpi",1967,0.4,NA,1968,4,1,3.21098493949778,3.66089215752876,3.85741006811451,3.43593854851327,FALSE,1.10496691998349
"CAN","cpi",1967,0.5,NA,1967,4,0.5,3.30533326406829,3.89706742009453,3.43593854851327,3.60120034208141,TRUE,0.591734156026243
"CAN","cpi",1967,0.5,NA,1968,4,1,2.68890108106655,4.18297601595999,3.85741006811451,3.43593854851327,TRUE,1.49407493489345
"CAN","cpi",1967,0.6,NA,1967,4,0.5,3.03478626198913,4.16761442217369,3.43593854851327,3.60120034208141,TRUE,1.13282816018456
"CAN","cpi",1967,0.6,NA,1968,4,1,2.68633739175967,4.18553970526686,3.85741006811451,3.43593854851327,TRUE,1.49920231350719
"CAN","cpi",1967,0.7,NA,1967,4,0.5,3.02159821641933,4.18080246774349,3.43593854851327,3.60120034208141,TRUE,1.15920425132416
"CAN","cpi",1967,0.7,NA,1968,4,1,2.39962641700596,4.47225068002058,3.85741006811451,3.43593854851327,TRUE,2.07262426301462
"CAN","cpi",1967,0.8,NA,1967,4,0.5,2.89004593093501,4.3123547532278,3.43593854851327,3.60120034208141,TRUE,1.42230882229279
"CAN","cpi",1967,0.8,NA,1968,4,1,2.34612235577072,4.52575474125582,3.85741006811451,3.43593854851327,TRUE,2.1796323854851
"CAN","cpi",1967,0.9,NA,1967,4,0.5,2.81683683287931,4.38556385128351,3.43593854851327,3.60120034208141,TRUE,1.5687270184042
"CAN","cpi",1967,0.9,NA,1968,4,1,1.93506623759998,4.93681085942655,3.85741006811451,3.43593854851327,TRUE,3.00174462182657
"CAN","cpi",1968,0.1,NA,1968,4,0.5,3.76572268506899,3.89388899477348,3.85741006811451,3.82980583992124,TRUE,0.128166309704486
"CAN","cpi",1968,0.1,NA,1969,4,1,3.78484429811055,3.92997583811847,4.42973002734916,3.85741006811451,FALSE,1.25569640496501
"CAN","cpi",1968,0.2,NA,1968,4,0.5,3.72876391585329,3.93084776398919,3.85741006811451,3.82980583992124,TRUE,0.202083848135899
"CAN","cpi",1968,0.2,NA,1969,4,1,3.75636814404656,3.95845199218246,4.42973002734916,3.85741006811451,FALSE,1.38027893605265
"CAN","cpi",1968,0.3,NA,1968,4,0.5,3.69905740422321,3.96055427561927,3.85741006811451,3.82980583992124,TRUE,0.261496871396058
"CAN","cpi",1968,0.3,NA,1969,4,1,3.72666163241648,3.98815850381254,4.42973002734916,3.85741006811451,FALSE,1.5231297957864
"CAN","cpi",1968,0.4,NA,1968,4,0.5,3.6645440463531,3.99506763348938,3.85741006811451,3.82980583992124,TRUE,0.330523587136281
"CAN","cpi",1968,0.4,NA,1969,4,1,3.63245645909902,4.08236367713,4.42973002734916,3.85741006811451,FALSE,1.60779505209485
"CAN","cpi",1968,0.5,NA,1968,4,0.5,3.6170738914752,4.04253778836727,3.85741006811451,3.82980583992124,TRUE,0.425463896892066
"CAN","cpi",1968,0.5,NA,1969,4,1,3.43593854851327,4.27888158771575,4.42973002734916,3.85741006811451,FALSE,1.44633679773612
"CAN","cpi",1968,0.6,NA,1968,4,0.5,3.53393876190812,4.12567291793436,3.85741006811451,3.82980583992124,TRUE,0.591734156026244
"CAN","cpi",1968,0.6,NA,1969,4,1,3.11037260066779,4.60444753556123,4.42973002734916,3.85741006811451,TRUE,1.49407493489345
"CAN","cpi",1968,0.7,NA,1968,4,0.5,3.26339175982896,4.39621992001352,3.85741006811451,3.82980583992124,TRUE,1.13282816018456
"CAN","cpi",1968,0.7,NA,1969,4,1,3.10780891136091,4.60701122486811,4.42973002734916,3.85741006811451,TRUE,1.49920231350719
"CAN","cpi",1968,0.8,NA,1968,4,0.5,3.11865142877484,4.54096025106763,3.85741006811451,3.82980583992124,TRUE,1.42230882229279
"CAN","cpi",1968,0.8,NA,1969,4,1,2.8210979366072,4.89372219962182,4.42973002734916,3.85741006811451,TRUE,2.07262426301462
"CAN","cpi",1968,0.9,NA,1968,4,0.5,3.04544233071914,4.61416934912334,3.85741006811451,3.82980583992124,TRUE,1.5687270184042
"CAN","cpi",1968,0.9,NA,1969,4,1,2.76759387537196,4.94722626085706,4.42973002734916,3.85741006811451,TRUE,2.1796323854851
"CAN","cpi",1969,0.1,NA,1969,4,0.5,3.7175540554887,3.83552321900055,4.42973002734916,3.77653863724463,FALSE,1.43842873761987
"CAN","cpi",1969,0.1,NA,1970,4,1,4.3571642573452,4.50229579735312,3.84669808502433,4.42973002734916,FALSE,1.27950081183206
"CAN","cpi",1969,0.2,NA,1969,4,0.5,3.71245548239238,3.84062179209687,4.42973002734916,3.77653863724463,FALSE,1.60093689783521
"CAN","cpi",1969,0.2,NA,1970,4,1,4.35457994700074,4.50488010769758,3.84669808502433,4.42973002734916,FALSE,1.42000481563785
"CAN","cpi",1969,0.3,NA,1969,4,0.5,3.65562936566216,3.8974479088271,4.42973002734916,3.77653863724463,FALSE,1.76262459608512
"CAN","cpi",1969,0.3,NA,1970,4,1,4.30882075576669,4.55063929893163,3.84669808502433,4.42973002734916,FALSE,1.56216903100024
"CAN","cpi",1969,0.4,NA,1969,4,0.5,3.62992654122603,3.92315073326322,4.42973002734916,3.77653863724463,FALSE,1.98182183899032
"CAN","cpi",1969,0.4,NA,1970,4,1,4.20477641833367,4.65468363636465,3.84669808502433,4.42973002734916,FALSE,1.64350166239543
"CAN","cpi",1969,0.5,NA,1969,4,0.5,3.61127684367649,3.94180043081277,4.42973002734916,3.77653863724463,FALSE,2.28224197328185
"CAN","cpi",1969,0.5,NA,1970,4,1,4.00825850774792,4.8512015469504,3.84669808502433,4.42973002734916,FALSE,1.48918473009682
"CAN","cpi",1969,0.6,NA,1969,4,0.5,3.56380668879859,3.98927058569066,4.42973002734916,3.77653863724463,FALSE,2.62776110518457
"CAN","cpi",1969,0.6,NA,1970,4,1,3.85741006811451,5.00204998658381,3.84669808502433,4.42973002734916,FALSE,1.19819983392018
"CAN","cpi",1969,0.7,NA,1969,4,0.5,3.4806715592315,4.07240571525775,4.42973002734916,3.77653863724463,FALSE,2.97389623663565
"CAN","cpi",1969,0.7,NA,1970,4,1,3.68012887059556,5.17933118410276,3.84669808502433,4.42973002734916,TRUE,1.49920231350719
"CAN","cpi",1969,0.8,NA,1969,4,0.5,3.21012455715235,4.34295271733691,4.42973002734916,3.77653863724463,FALSE,2.00060126030709
"CAN","cpi",1969,0.8,NA,1970,4,1,3.39341789584185,5.46604215885647,3.84669808502433,4.42973002734916,TRUE,2.07262426301462
"CAN","cpi",1969,0.9,NA,1969,4,0.5,3.06538422609823,4.48769304839102,4.42973002734916,3.77653863724463,TRUE,1.42230882229279
"CAN","cpi",1969,0.9,NA,1970,4,1,3.33991383460661,5.51954622009171,3.84669808502433,4.42973002734916,TRUE,2.1796323854851
"CAN","cpi",1970,0.1,NA,1970,4,0.5,4.66348973261889,4.78145889613074,3.84669808502433,4.72247431437482,FALSE,1.93306171372198
"CAN","cpi",1970,0.1,NA,1971,4,1,3.77413231502038,3.91926385502829,2.09886045002039,3.84669808502433,FALSE,3.86795790667455
"CAN","cpi",1970,0.2,NA,1970,4,0.5,4.65839115952257,4.78655746922706,3.84669808502433,4.72247431437482,FALSE,2.15739899595009
"CAN","cpi",1970,0.2,NA,1971,4,1,3.77154800467591,3.92184816537276,2.09886045002039,3.84669808502433,FALSE,4.33201904733565
"CAN","cpi",1970,0.3,NA,1970,4,0.5,4.60156504279235,4.84338358595729,3.84669808502433,4.72247431437482,FALSE,2.39858127964498
"CAN","cpi",1970,0.3,NA,1971,4,1,3.72578881344186,3.96760735660681,2.09886045002039,3.84669808502433,FALSE,4.89018529579773
"CAN","cpi",1970,0.4,NA,1970,4,0.5,4.57586221835623,4.86908641039341,3.84669808502433,4.72247431437482,FALSE,2.72377130314349
"CAN","cpi",1970,0.4,NA,1971,4,1,3.62174447600884,4.07165169403982,2.09886045002039,3.84669808502433,FALSE,5.52618730465917
"CAN","cpi",1970,0.5,NA,1970,4,0.5,4.55721252080668,4.88773610794296,3.84669808502433,4.72247431437482,FALSE,3.17258133026565
"CAN","cpi",1970,0.5,NA,1971,4,1,3.42522656542309,4.26816960462558,2.09886045002039,3.84669808502433,FALSE,6.1484075008133
"CAN","cpi",1970,0.6,NA,1970,4,0.5,4.50974236592878,4.93520626282085,3.84669808502433,4.72247431437482,FALSE,3.74068530141432
"CAN","cpi",1970,0.6,NA,1971,4,1,3.27437812578968,4.41901804425898,2.09886045002039,3.84669808502433,FALSE,7.02222829731578
"CAN","cpi",1970,0.7,NA,1970,4,0.5,4.4266072363617,5.01834139238794,3.84669808502433,4.72247431437482,FALSE,4.45779516494199
"CAN","cpi",1970,0.7,NA,1971,4,1,3.26366614269951,4.42973002734916,2.09886045002039,3.84669808502433,FALSE,8.93143516917712
"CAN","cpi",1970,0.8,NA,1970,4,0.5,4.15606023428254,5.2888883944671,3.84669808502433,4.72247431437482,FALSE,4.22644965276659
"CAN","cpi",1970,0.8,NA,1971,4,1,3.09709692827074,4.59629924177793,2.09886045002039,3.84669808502433,FALSE,11.4815670960107
"CAN","cpi",1970,0.9,NA,1970,4,0.5,4.06928292427028,5.37566570447935,3.84669808502433,4.72247431437482,FALSE,5.75807956512807
"CAN","cpi",1970,0.9,NA,1971,4,1,2.75688189228178,4.93651427776689,2.09886045002039,3.84669808502433,FALSE,15.340061230713
"CAN","cpi",1971,0.1,NA,1971,4,0.5,2.33143693937811,2.44940610288996,2.09886045002039,2.39042152113403,FALSE,0.634805806529008
"CAN","cpi",1971,0.1,NA,1972,4,1,2.02629468001643,2.17142622002435,4.61402341086119,2.09886045002039,FALSE,5.57312529742312
"CAN","cpi",1971,0.2,NA,1971,4,0.5,2.32633836628179,2.45450467598628,2.09886045002039,2.39042152113403,FALSE,0.696861100357993
"CAN","cpi",1971,0.2,NA,1972,4,1,1.98397567464292,2.21374522539785,4.61402341086119,2.09886045002039,FALSE,6.23046501441326
"CAN","cpi",1971,0.3,NA,1971,4,0.5,2.26348775334656,2.51735528892151,2.09886045002039,2.39042152113403,FALSE,0.724231259364009
"CAN","cpi",1971,0.3,NA,1972,4,1,1.8739068410049,2.32381405903588,4.61402341086119,2.09886045002039,FALSE,6.99336250896043
"CAN","cpi",1971,0.4,NA,1971,4,0.5,2.24380942511544,2.53703361715263,2.09886045002039,2.39042152113403,FALSE,0.77638744235403
"CAN","cpi",1971,0.4,NA,1972,4,1,1.67738893041915,2.52033196962163,4.61402341086119,2.09886045002039,FALSE,7.82191451000101
"CAN","cpi",1971,0.5,NA,1971,4,0.5,2.22515972756589,2.55568331470218,2.09886045002039,2.39042152113403,FALSE,0.835720697318302
"CAN","cpi",1971,0.5,NA,1972,4,1,1.52654049078574,2.67118040925504,4.61402341086119,2.09886045002039,FALSE,8.9160119248939
"CAN","cpi",1971,0.6,NA,1971,4,0.5,2.177689572688,2.60315346958007,2.09886045002039,2.39042152113403,FALSE,0.81960951023013
"CAN","cpi",1971,0.6,NA,1972,4,1,1.51582850769556,2.68189239234521,4.61402341086119,2.09886045002039,FALSE,10.8267189772295
"CAN","cpi",1971,0.7,NA,1971,4,0.5,2.09455444312091,2.68628859914716,2.09886045002039,2.39042152113403,TRUE,0.591734156026243
"CAN","cpi",1971,0.7,NA,1972,4,1,1.34925929326679,2.84846160677399,4.61402341086119,2.09886045002039,FALSE,13.2696143407552
"CAN","cpi",1971,0.8,NA,1971,4,0.5,1.7372301310295,3.04361291123857,2.09886045002039,2.39042152113403,TRUE,1.30638278020907
"CAN","cpi",1971,0.8,NA,1972,4,1,1.00904425727784,3.18867664276294,4.61402341086119,2.09886045002039,FALSE,16.4331000664676
"CAN","cpi",1971,0.9,NA,1971,4,0.5,1.60605801193194,3.17478503033613,2.09886045002039,2.39042152113403,TRUE,1.5687270184042
"CAN","cpi",1971,0.9,NA,1972,4,1,0.597988139107104,3.59973276093367,4.61402341086119,2.09886045002039,FALSE,23.2875576203769
"CAN","cpi",1972,0.1,NA,1972,4,0.5,3.47919477688092,3.59716394039277,4.61402341086119,3.53817935863684,FALSE,2.3776568756639
"CAN","cpi",1972,0.1,NA,1973,4,1,4.49913863548372,4.72890818623865,6.22342912205835,4.61402341086119,FALSE,3.5509271859098
"CAN","cpi",1972,0.2,NA,1972,4,0.5,3.4740962037846,3.60226251348908,4.61402341086119,3.53817935863684,FALSE,2.65756855313475
"CAN","cpi",1972,0.2,NA,1973,4,1,4.3890698018457,4.83897701987668,6.22342912205835,4.61402341086119,FALSE,3.91103747348515
"CAN","cpi",1972,0.3,NA,1972,4,0.5,3.41124559084937,3.66511312642432,4.61402341086119,3.53817935863684,FALSE,2.96503977682315
"CAN","cpi",1972,0.3,NA,1973,4,1,4.19255189125995,5.03549493046243,6.22342912205835,4.61402341086119,FALSE,4.23704072947653
"CAN","cpi",1972,0.4,NA,1972,4,0.5,3.39156726261825,3.68479145465543,4.61402341086119,3.53817935863684,FALSE,3.39066404605637
"CAN","cpi",1972,0.4,NA,1973,4,1,4.04170345162654,5.18634337009584,6.22342912205835,4.61402341086119,FALSE,4.60159242501099
"CAN","cpi",1972,0.5,NA,1972,4,0.5,3.3729175650687,3.70344115220498,4.61402341086119,3.53817935863684,FALSE,3.97285262176111
"CAN","cpi",1972,0.5,NA,1973,4,1,4.03099146853636,5.19705535318601,6.22342912205835,4.61402341086119,FALSE,5.27155896013898
"CAN","cpi",1972,0.6,NA,1972,4,0.5,3.2466182875232,3.82974042975049,4.61402341086119,3.53817935863684,FALSE,4.5045370477808
"CAN","cpi",1972,0.6,NA,1973,4,1,3.86442225410759,5.36362456761479,6.22342912205835,4.61402341086119,FALSE,5.79822508572499
"CAN","cpi",1972,0.7,NA,1972,4,0.5,3.24231228062372,3.83404643664996,4.61402341086119,3.53817935863684,FALSE,5.79158065076774
"CAN","cpi",1972,0.7,NA,1973,4,1,3.52420721811864,5.70383960360374,6.22342912205835,4.61402341086119,FALSE,5.64356250851581
"CAN","cpi",1972,0.8,NA,1972,4,0.5,2.88498796853231,4.19137074874138,4.61402341086119,3.53817935863684,FALSE,5.53290940140719
"CAN","cpi",1972,0.8,NA,1973,4,1,3.1131510999479,6.11489572177447,6.22342912205835,4.61402341086119,FALSE,4.08707862466529
"CAN","cpi",1972,0.9,NA,1972,4,0.5,2.75381584943474,4.32254286783894,4.61402341086119,3.53817935863684,FALSE,7.39833787884915
"CAN","cpi",1972,0.9,NA,1973,4,1,2.86618577585724,6.36186104586513,6.22342912205835,4.61402341086119,TRUE,3.49567527000789
"CAN","cpi",1973,0.1,NA,1973,4,0.5,4.93349764472542,5.05146680823727,6.22342912205835,4.99248222648134,FALSE,2.72232986089202
"CAN","cpi",1973,0.1,NA,1974,4,1,6.10854434668088,6.33831389743581,9.59455553431256,6.22342912205835,FALSE,7.46586207714772
"CAN","cpi",1973,0.2,NA,1973,4,0.5,4.86554845869387,5.11941599426882,6.22342912205835,4.99248222648134,FALSE,3.01390035504877
"CAN","cpi",1973,0.2,NA,1974,4,1,5.99847551304286,6.44838273107383,9.59455553431256,6.22342912205835,FALSE,8.3153392261278
"CAN","cpi",1973,0.3,NA,1973,4,0.5,4.84587013046275,5.13909432249994,6.22342912205835,4.99248222648134,FALSE,3.39132361934692
"CAN","cpi",1973,0.3,NA,1974,4,1,5.8019576024571,6.64490064165959,9.59455553431256,6.22342912205835,FALSE,9.27052844678242
"CAN","cpi",1973,0.4,NA,1973,4,0.5,4.8272204329132,5.15774402004948,6.22342912205835,4.99248222648134,FALSE,3.88280726049915
"CAN","cpi",1973,0.4,NA,1974,4,1,5.6511091628237,6.79574908129299,9.59455553431256,6.22342912205835,FALSE,10.4739947618679
"CAN","cpi",1973,0.5,NA,1973,4,0.5,4.7009211553677,5.28404329759499,6.22342912205835,4.99248222648134,FALSE,4.34066544008071
"CAN","cpi",1973,0.5,NA,1974,4,1,5.64039717973352,6.80646106438317,9.59455553431256,6.22342912205835,FALSE,12.3184417643672
"CAN","cpi",1973,0.6,NA,1973,4,0.5,4.69661514846822,5.28834930449447,6.22342912205835,4.99248222648134,FALSE,5.26713324384564
"CAN","cpi",1973,0.6,NA,1974,4,1,5.13361292931579,7.3132453148009,9.59455553431256,6.22342912205835,FALSE,13.5861834830434
"CAN","cpi",1973,0.7,NA,1973,4,0.5,4.33929083637681,5.64567361658588,6.22342912205835,4.99248222648134,FALSE,5.15808615002552
"CAN","cpi",1973,0.7,NA,1974,4,1,4.72255681114506,7.72430143297163,9.59455553431256,6.22342912205835,FALSE,15.4701052974328
"CAN","cpi",1973,0.8,NA,1973,4,0.5,4.20811871727924,5.77684573568344,6.22342912205835,4.99248222648134,FALSE,6.03456088215322
"CAN","cpi",1973,0.8,NA,1974,4,1,4.61402341086119,7.8328348332555,9.59455553431256,6.22342912205835,FALSE,20.8360184329649
"CAN","cpi",1973,0.9,NA,1973,4,0.5,4.11670599713086,5.86825845583183,6.22342912205835,4.99248222648134,FALSE,8.85496578323134
"CAN","cpi",1973,0.9,NA,1974,4,1,4.4755914870544,7.97126675706229,9.59455553431256,6.22342912205835,FALSE,35.9614508150134
"CAN","cpi",1974,0.1,NA,1974,4,0.5,7.90193030069167,8.14374884385661,9.59455553431256,8.02283957227414,FALSE,3.46583341084485
"CAN","cpi",1974,0.1,NA,1975,4,1,9.47364626273009,9.71546480589504,10.5280192696423,9.59455553431256,FALSE,2.04749512926994
"CAN","cpi",1974,0.2,NA,1974,4,0.5,7.87622747625554,8.16945166829273,9.59455553431256,8.02283957227414,FALSE,3.85598385708677
"CAN","cpi",1974,0.2,NA,1975,4,1,9.36960192529707,9.81950914332805,10.5280192696423,9.59455553431256,FALSE,2.22118253381655
"CAN","cpi",1974,0.3,NA,1974,4,0.5,7.857577778706,8.18810136584228,9.59455553431256,8.02283957227414,FALSE,4.34896406847996
"CAN","cpi",1974,0.3,NA,1975,4,1,9.17308401471132,10.0160270539138,10.5280192696423,9.59455553431256,FALSE,2.30577794128385
"CAN","cpi",1974,0.4,NA,1974,4,0.5,7.73127850116049,8.31440064338778,9.59455553431256,8.02283957227414,FALSE,4.85030511197656
"CAN","cpi",1974,0.4,NA,1975,4,1,9.02223557507791,10.1668754935472,10.5280192696423,9.59455553431256,FALSE,2.34845250545286
"CAN","cpi",1974,0.5,NA,1974,4,0.5,7.72697249426102,8.31870665028726,9.59455553431256,8.02283957227414,FALSE,5.69512969212747
"CAN","cpi",1974,0.5,NA,1975,4,1,9.01152359198774,10.1775874766374,10.5280192696423,9.59455553431256,FALSE,2.56779105666923
"CAN","cpi",1974,0.6,NA,1974,4,0.5,7.3696481821696,8.67603096237867,9.59455553431256,8.02283957227414,FALSE,5.89900563987853
"CAN","cpi",1974,0.6,NA,1975,4,1,8.09368322339928,11.0954278452258,10.5280192696423,9.59455553431256,TRUE,3.00174462182657
"CAN","cpi",1974,0.7,NA,1974,4,0.5,7.23847606307204,8.80720308147624,9.59455553431256,8.02283957227414,FALSE,6.81774337064638
"CAN","cpi",1974,0.7,NA,1975,4,1,7.98514982311541,11.2039612455097,10.5280192696423,9.59455553431256,TRUE,3.21881142239431
"CAN","cpi",1974,0.8,NA,1974,4,0.5,7.14706334292365,8.89861580162462,9.59455553431256,8.02283957227414,FALSE,8.7109497855804
"CAN","cpi",1974,0.8,NA,1975,4,1,7.84671789930862,11.3423931693165,10.5280192696423,9.59455553431256,TRUE,3.49567527000789
"CAN","cpi",1974,0.9,NA,1974,4,0.5,6.94699552004979,9.09868362449848,9.59455553431256,8.02283957227414,FALSE,12.0691263007303
"CAN","cpi",1974,0.9,NA,1975,4,1,7.07939257347176,12.1097184951534,10.5280192696423,9.59455553431256,TRUE,5.0303259216816
"CAN","cpi",1975,0.1,NA,1975,4,0.5,10.5805496623187,10.8223682054836,10.5280192696423,10.7014589339012,FALSE,0.35855274911254
"CAN","cpi",1975,0.1,NA,1976,4,1,10.4071099980598,10.6489285412248,8.13534117389669,10.5280192696423,FALSE,5.29019370797188
"CAN","cpi",1975,0.2,NA,1975,4,0.5,10.536197140333,10.8667207274693,10.5280192696423,10.7014589339012,FALSE,0.350968263863154
"CAN","cpi",1975,0.2,NA,1976,4,1,10.106547750041,10.9494907892435,8.13534117389669,10.5280192696423,FALSE,5.77095947956337
"CAN","cpi",1975,0.3,NA,1975,4,0.5,10.4098978627875,10.9930200050148,10.5280192696423,10.7014589339012,TRUE,0.583122142227293
"CAN","cpi",1975,0.3,NA,1976,4,1,9.95569931040763,11.1003392288769,8.13534117389669,10.5280192696423,FALSE,6.34566316564343
"CAN","cpi",1975,0.4,NA,1975,4,0.5,10.4055918558881,10.9973260119143,10.5280192696423,10.7014589339012,TRUE,0.591734156026241
"CAN","cpi",1975,0.4,NA,1976,4,1,9.94498732731746,11.1110512119671,8.13534117389669,10.5280192696423,FALSE,7.19821772938555
"CAN","cpi",1975,0.5,NA,1975,4,0.5,10.0482675437966,11.3546503240057,10.5280192696423,10.7014589339012,TRUE,1.30638278020907
"CAN","cpi",1975,0.5,NA,1976,4,1,9.59455553431256,11.461483004972,8.13534117389669,10.5280192696423,FALSE,7.70378491232294
"CAN","cpi",1975,0.6,NA,1975,4,0.5,9.91709542469907,11.4858224431033,10.5280192696423,10.7014589339012,TRUE,1.5687270184042
"CAN","cpi",1975,0.6,NA,1976,4,1,9.027146958729,12.0288915805556,8.13534117389669,10.5280192696423,FALSE,7.46077354598812
"CAN","cpi",1975,0.7,NA,1975,4,0.5,9.82568270455069,11.5772351632517,10.5280192696423,10.7014589339012,TRUE,1.75155245870097
"CAN","cpi",1975,0.7,NA,1976,4,1,8.91861355844513,12.1374249808394,8.13534117389669,10.5280192696423,FALSE,8.4406273193839
"CAN","cpi",1975,0.8,NA,1975,4,0.5,9.62561488167682,11.7773029861255,10.5280192696423,10.7014589339012,TRUE,2.1516881044487
"CAN","cpi",1975,0.8,NA,1976,4,1,8.78018163463834,12.2758569046462,8.13534117389669,10.5280192696423,FALSE,9.94407987742439
"CAN","cpi",1975,0.9,NA,1975,4,0.5,9.47051203832417,11.9324058294782,10.5280192696423,10.7014589339012,TRUE,2.461893791154
"CAN","cpi",1975,0.9,NA,1976,4,1,8.01285630880148,13.0431822304831,8.13534117389669,10.5280192696423,TRUE,5.0303259216816
"CAN","cpi",1976,0.1,NA,1976,4,0.5,9.41723590288625,9.6711034384612,8.13534117389669,9.54416967067372,FALSE,3.10252248888508
"CAN","cpi",1976,0.1,NA,1977,4,1,7.71386965429545,8.55681269349793,6.84168016809657,8.13534117389669,FALSE,2.7811418974222
"CAN","cpi",1976,0.2,NA,1976,4,0.5,9.37890787710558,9.70943146424186,8.13534117389669,9.54416967067372,FALSE,3.43944034515851
"CAN","cpi",1976,0.2,NA,1977,4,1,7.56302121466204,8.70766113313134,6.84168016809657,8.13534117389669,FALSE,2.94799253488297
"CAN","cpi",1976,0.3,NA,1976,4,0.5,9.37073000641483,9.71760933493261,8.13534117389669,9.54416967067372,FALSE,3.87656170714105
"CAN","cpi",1976,0.3,NA,1977,4,1,7.55230923157186,8.71837311622151,6.84168016809657,8.13534117389669,FALSE,3.1964326374362
"CAN","cpi",1976,0.4,NA,1976,4,0.5,9.25260859956007,9.83573074178737,8.13534117389669,9.54416967067372,FALSE,4.30734689443858
"CAN","cpi",1976,0.4,NA,1977,4,1,7.20187743856697,9.06880490922641,6.84168016809657,8.13534117389669,FALSE,3.0675850388941
"CAN","cpi",1976,0.5,NA,1976,4,0.5,8.89097828056919,10.1973610607783,8.13534117389669,9.54416967067372,FALSE,4.32893120689907
"CAN","cpi",1976,0.5,NA,1977,4,1,6.6344688629834,9.63621348480997,6.84168016809657,8.13534117389669,TRUE,3.00174462182657
"CAN","cpi",1976,0.6,NA,1976,4,0.5,8.75980616147162,10.3285331798758,8.13534117389669,9.54416967067372,FALSE,4.69105195627887
"CAN","cpi",1976,0.6,NA,1977,4,1,6.52593546269953,9.74474688509384,6.84168016809657,8.13534117389669,TRUE,3.21881142239431
"CAN","cpi",1976,0.7,NA,1976,4,0.5,8.66839344132324,10.4199459000242,8.13534117389669,9.54416967067372,FALSE,5.30523424154463
"CAN","cpi",1976,0.7,NA,1977,4,1,6.38750353889274,9.88317880890063,6.84168016809657,8.13534117389669,TRUE,3.49567527000789
"CAN","cpi",1976,0.8,NA,1976,4,0.5,8.46832561844937,10.6200137228981,8.13534117389669,9.54416967067372,FALSE,5.48153254997555
"CAN","cpi",1976,0.8,NA,1977,4,1,5.74266307815109,10.5280192696423,6.84168016809657,8.13534117389669,TRUE,4.78535619149119
"CAN","cpi",1976,0.9,NA,1976,4,0.5,8.31322277509672,10.7751165662507,8.13534117389669,9.54416967067372,FALSE,6.01952581515463
"CAN","cpi",1976,0.9,NA,1977,4,1,5.62017821305589,10.6505041347375,6.84168016809657,8.13534117389669,TRUE,5.0303259216816
"CAN","cpi",1977,0.1,NA,1977,4,0.5,6.40638833276827,6.73691191990455,6.84168016809657,6.57165012633641,FALSE,0.563341916451882
"CAN","cpi",1977,0.1,NA,1978,4,1,6.42020864849533,7.26315168769781,8.56560161197079,6.84168016809657,FALSE,3.73727620425355
"CAN","cpi",1977,0.2,NA,1977,4,0.5,6.39821046207752,6.7450897905953,6.84168016809657,6.57165012633641,FALSE,0.588355272270957
"CAN","cpi",1977,0.2,NA,1978,4,1,6.26936020886192,7.41400012733122,8.56560161197079,6.84168016809657,FALSE,4.02364363006823
"CAN","cpi",1977,0.3,NA,1977,4,0.5,6.28008905522277,6.86321119745006,6.84168016809657,6.57165012633641,TRUE,0.583122142227291
"CAN","cpi",1977,0.3,NA,1978,4,1,6.25864822577175,7.4247121104214,8.56560161197079,6.84168016809657,FALSE,4.42574817479078
"CAN","cpi",1977,0.4,NA,1977,4,0.5,5.91845873623188,7.22484151644094,6.84168016809657,6.57165012633641,TRUE,1.30638278020907
"CAN","cpi",1977,0.4,NA,1978,4,1,5.90821643276685,7.77514390342629,8.56560161197079,6.84168016809657,FALSE,4.50178649914111
"CAN","cpi",1977,0.5,NA,1977,4,0.5,5.78728661713431,7.35601363553851,6.84168016809657,6.57165012633641,TRUE,1.5687270184042
"CAN","cpi",1977,0.5,NA,1978,4,1,5.54801916229646,8.13534117389669,8.56560161197079,6.84168016809657,FALSE,4.30836376389665
"CAN","cpi",1977,0.6,NA,1977,4,0.5,5.69587389698593,7.44742635568689,6.84168016809657,6.57165012633641,TRUE,1.75155245870097
"CAN","cpi",1977,0.6,NA,1978,4,1,5.23227445689941,8.45108587929373,8.56560161197079,6.84168016809657,FALSE,3.79139008577963
"CAN","cpi",1977,0.7,NA,1977,4,0.5,5.49580607411206,7.64749417856076,6.84168016809657,6.57165012633641,TRUE,2.15168810444869
"CAN","cpi",1977,0.7,NA,1978,4,1,5.09384253309263,8.58951780310052,8.56560161197079,6.84168016809657,TRUE,3.49567527000789
"CAN","cpi",1977,0.8,NA,1977,4,0.5,5.34070323075941,7.80259702191341,6.84168016809657,6.57165012633641,TRUE,2.461893791154
"CAN","cpi",1977,0.8,NA,1978,4,1,4.44900207235098,9.23435826384217,8.56560161197079,6.84168016809657,TRUE,4.78535619149119
"CAN","cpi",1977,0.9,NA,1977,4,0.5,5.16282162955938,7.98047862311344,6.84168016809657,6.57165012633641,TRUE,2.81765699355407
"CAN","cpi",1977,0.9,NA,1978,4,1,4.32651720725577,9.35684312893737,8.56560161197079,6.84168016809657,TRUE,5.0303259216816
"CAN","cpi",1978,0.1,NA,1978,4,0.5,7.97830352771222,8.3088271148485,8.56560161197079,8.14356532128036,FALSE,0.901133580741366
"CAN","cpi",1978,0.1,NA,1979,4,1,7.99328165273614,9.13792157120544,8.51558792202395,8.56560161197079,TRUE,1.1446399184693
"CAN","cpi",1978,0.2,NA,1978,4,0.5,7.97012565702147,8.31700498553925,8.56560161197079,8.14356532128036,FALSE,0.968370894596626
"CAN","cpi",1978,0.2,NA,1979,4,1,7.98256966964597,9.14863355429562,8.51558792202395,8.56560161197079,TRUE,1.16606388464965
"CAN","cpi",1978,0.3,NA,1978,4,0.5,7.8735352795202,8.41359536304052,8.56560161197079,8.14356532128036,FALSE,0.974363651892513
"CAN","cpi",1978,0.3,NA,1979,4,1,7.63213787664107,9.49906534730051,8.51558792202395,8.56560161197079,TRUE,1.86692747065944
"CAN","cpi",1978,0.4,NA,1978,4,0.5,7.85200425016672,8.43512639239401,8.56560161197079,8.14356532128036,FALSE,1.01803954081657
"CAN","cpi",1978,0.4,NA,1979,4,1,7.27194060617068,9.85926261777091,8.51558792202395,8.56560161197079,TRUE,2.58732201160023
"CAN","cpi",1978,0.5,NA,1978,4,0.5,7.49037393117583,8.7967567113849,8.56560161197079,8.14356532128036,TRUE,1.30638278020907
"CAN","cpi",1978,0.5,NA,1979,4,1,6.95619590077363,10.1750073231679,8.51558792202395,8.56560161197079,TRUE,3.21881142239431
"CAN","cpi",1978,0.6,NA,1978,4,0.5,7.26778909192988,9.01934155063085,8.56560161197079,8.14356532128036,TRUE,1.75155245870097
"CAN","cpi",1978,0.6,NA,1979,4,1,6.84168016809657,10.289523055845,8.51558792202395,8.56560161197079,TRUE,3.44784288774844
"CAN","cpi",1978,0.7,NA,1978,4,0.5,7.06772126905602,9.21940937350471,8.56560161197079,8.14356532128036,TRUE,2.15168810444869
"CAN","cpi",1978,0.7,NA,1979,4,1,6.81776397696685,10.3134392469747,8.51558792202395,8.56560161197079,TRUE,3.49567527000789
"CAN","cpi",1978,0.8,NA,1978,4,0.5,6.91261842570336,9.37451221685737,8.56560161197079,8.14356532128036,TRUE,2.461893791154
"CAN","cpi",1978,0.8,NA,1979,4,1,6.1729235162252,10.9582797077164,8.51558792202395,8.56560161197079,TRUE,4.78535619149119
"CAN","cpi",1978,0.9,NA,1978,4,0.5,6.73473682450333,9.5523938180574,8.56560161197079,8.14356532128036,TRUE,2.81765699355407
"CAN","cpi",1978,0.9,NA,1979,4,1,6.05043865112999,11.0807645728116,8.51558792202395,8.56560161197079,TRUE,5.0303259216816
"CAN","cpi",1979,0.1,NA,1979,4,0.5,8.30836394717875,8.65524327569653,8.51558792202395,8.48180361143764,TRUE,0.34687932851778
"CAN","cpi",1979,0.1,NA,1980,4,1,7.9432679627893,9.0879078812586,9.17959378630866,8.51558792202395,FALSE,1.3483863741361
"CAN","cpi",1979,0.2,NA,1979,4,0.5,8.21177356967748,8.75183365319781,8.51558792202395,8.48180361143764,TRUE,0.540060083520324
"CAN","cpi",1979,0.2,NA,1980,4,1,7.93255597969912,9.09861986434877,9.17959378630866,8.51558792202395,FALSE,1.36849868954936
"CAN","cpi",1979,0.3,NA,1979,4,0.5,8.190242540324,8.77336468255129,8.51558792202395,8.48180361143764,TRUE,0.583122142227293
"CAN","cpi",1979,0.3,NA,1980,4,1,7.58212418669423,9.44905165735367,9.17959378630866,8.51558792202395,TRUE,1.86692747065944
"CAN","cpi",1979,0.4,NA,1979,4,0.5,8.05976732074722,8.90383990212807,8.51558792202395,8.48180361143764,TRUE,0.844072581380857
"CAN","cpi",1979,0.4,NA,1980,4,1,7.22192691622383,9.80924892782406,9.17959378630866,8.51558792202395,TRUE,2.58732201160023
"CAN","cpi",1979,0.5,NA,1979,4,0.5,7.82861222133311,9.13499500154218,8.51558792202395,8.48180361143764,TRUE,1.30638278020907
"CAN","cpi",1979,0.5,NA,1980,4,1,6.90618221082679,10.1249936332211,9.17959378630866,8.51558792202395,TRUE,3.21881142239431
"CAN","cpi",1979,0.6,NA,1979,4,0.5,7.60602738208716,9.35757984078813,8.51558792202395,8.48180361143764,TRUE,1.75155245870097
"CAN","cpi",1979,0.6,NA,1980,4,1,6.79166647814973,10.2395093658982,9.17959378630866,8.51558792202395,TRUE,3.44784288774844
"CAN","cpi",1979,0.7,NA,1979,4,0.5,7.4059595592133,9.55764766366199,8.51558792202395,8.48180361143764,TRUE,2.15168810444869
"CAN","cpi",1979,0.7,NA,1980,4,1,6.76775028702,10.2634255570279,9.17959378630866,8.51558792202395,TRUE,3.49567527000789
"CAN","cpi",1979,0.8,NA,1979,4,0.5,7.25085671586064,9.71275050701465,8.51558792202395,8.48180361143764,TRUE,2.461893791154
"CAN","cpi",1979,0.8,NA,1980,4,1,6.12290982627835,10.9082660177695,9.17959378630866,8.51558792202395,TRUE,4.78535619149119
"CAN","cpi",1979,0.9,NA,1979,4,0.5,7.07297511466061,9.89063210821468,8.51558792202395,8.48180361143764,TRUE,2.81765699355407
"CAN","cpi",1979,0.9,NA,1980,4,1,6.00042496118315,11.0307508828647,9.17959378630866,8.51558792202395,TRUE,5.0303259216816
"CAN","cpi",1980,0.1,NA,1980,4,0.5,8.60387953687932,8.9507588653971,9.17959378630866,8.77731920113821,FALSE,0.85540137498792
"CAN","cpi",1980,0.1,NA,1981,4,1,8.59656184398384,9.76262572863348,11.279360028481,9.17959378630866,FALSE,4.53658455097751
"CAN","cpi",1980,0.2,NA,1980,4,0.5,8.50728915937805,9.04734924289837,9.17959378630866,8.77731920113821,FALSE,0.870671442046052
"CAN","cpi",1980,0.2,NA,1981,4,1,8.51558792202395,9.84359965059337,11.279360028481,9.17959378630866,FALSE,4.91741267328855
"CAN","cpi",1980,0.3,NA,1980,4,0.5,8.48575813002456,9.06888027225185,9.17959378630866,8.77731920113821,FALSE,0.899446468103883
"CAN","cpi",1980,0.3,NA,1981,4,1,8.24613005097894,10.1130575216384,11.279360028481,9.17959378630866,FALSE,5.1992203473527
"CAN","cpi",1980,0.4,NA,1980,4,0.5,8.35528291044778,9.19935549182864,9.17959378630866,8.77731920113821,TRUE,0.844072581380857
"CAN","cpi",1980,0.4,NA,1981,4,1,7.88593278050854,10.4732547921088,11.279360028481,9.17959378630866,FALSE,5.27433946617438
"CAN","cpi",1980,0.5,NA,1980,4,0.5,8.12412781103367,9.43051059124274,9.17959378630866,8.77731920113821,TRUE,1.30638278020907
"CAN","cpi",1980,0.5,NA,1981,4,1,7.5701880751115,10.7889994975058,11.279360028481,9.17959378630866,FALSE,5.18025354629513
"CAN","cpi",1980,0.6,NA,1980,4,0.5,7.90154297178772,9.65309543048869,9.17959378630866,8.77731920113821,TRUE,1.75155245870097
"CAN","cpi",1980,0.6,NA,1981,4,1,7.45567234243444,10.9035152301829,11.279360028481,9.17959378630866,FALSE,5.32706687923915
"CAN","cpi",1980,0.7,NA,1980,4,0.5,7.70147514891386,9.85316325336255,9.17959378630866,8.77731920113821,TRUE,2.15168810444869
"CAN","cpi",1980,0.7,NA,1981,4,1,7.43175615130471,10.9274314213126,11.279360028481,9.17959378630866,FALSE,5.841865984464
"CAN","cpi",1980,0.8,NA,1980,4,0.5,7.54637230556121,10.0082660967152,9.17959378630866,8.77731920113821,TRUE,2.461893791154
"CAN","cpi",1980,0.8,NA,1981,4,1,6.78691569056306,11.5722718820543,11.279360028481,9.17959378630866,TRUE,4.78535619149119
"CAN","cpi",1980,0.9,NA,1980,4,0.5,7.36849070436117,10.1861476979152,9.17959378630866,8.77731920113821,TRUE,2.81765699355407
"CAN","cpi",1980,0.9,NA,1981,4,1,6.66443082546786,11.6947567471495,11.279360028481,9.17959378630866,TRUE,5.0303259216816
"CAN","cpi",1981,0.1,NA,1981,4,0.5,9.96024108460638,10.3071204131242,11.279360028481,10.1336807488653,FALSE,2.50741180708858
"CAN","cpi",1981,0.1,NA,1982,4,1,10.6153541641963,11.9433658927657,10.7097306947659,11.279360028481,TRUE,1.32801172856942
"CAN","cpi",1981,0.2,NA,1981,4,0.5,9.86365070710511,10.4037107906254,11.279360028481,10.1336807488653,FALSE,2.72918317815929
"CAN","cpi",1981,0.2,NA,1982,4,1,10.3458962931513,12.2128237638107,10.7097306947659,11.279360028481,TRUE,1.86692747065944
"CAN","cpi",1981,0.3,NA,1981,4,0.5,9.84211967775163,10.4252418199789,11.279360028481,10.1336807488653,FALSE,3.02345988080473
"CAN","cpi",1981,0.3,NA,1982,4,1,9.9856990226809,12.5730210342811,10.7097306947659,11.279360028481,TRUE,2.58732201160023
"CAN","cpi",1981,0.4,NA,1981,4,0.5,9.73140616369482,10.5359553340357,11.279360028481,10.1336807488653,FALSE,3.28256481849189
"CAN","cpi",1981,0.4,NA,1982,4,1,9.66995431728386,12.8887657396782,10.7097306947659,11.279360028481,TRUE,3.21881142239431
"CAN","cpi",1981,0.5,NA,1981,4,0.5,9.71164445817484,10.5557170395557,11.279360028481,10.1336807488653,FALSE,3.73864453708214
"CAN","cpi",1981,0.5,NA,1982,4,1,9.5554385846068,13.0032814723552,10.7097306947659,11.279360028481,TRUE,3.44784288774844
"CAN","cpi",1981,0.6,NA,1981,4,0.5,9.25790451951479,11.0094569782158,11.279360028481,10.1336807488653,FALSE,3.10106771002729
"CAN","cpi",1981,0.6,NA,1982,4,1,9.53152239347708,13.027197663485,10.7097306947659,11.279360028481,TRUE,3.49567527000789
"CAN","cpi",1981,0.7,NA,1981,4,0.5,9.05783669664093,11.2095248010896,11.279360028481,10.1336807488653,FALSE,2.61725628705804
"CAN","cpi",1981,0.7,NA,1982,4,1,9.17959378630866,13.3791262706534,10.7097306947659,11.279360028481,TRUE,4.19953248434472
"CAN","cpi",1981,0.8,NA,1981,4,0.5,8.90273385328827,11.3646276444423,11.279360028481,10.1336807488653,TRUE,2.461893791154
"CAN","cpi",1981,0.8,NA,1982,4,1,8.88668193273543,13.6720381242266,10.7097306947659,11.279360028481,TRUE,4.78535619149119
"CAN","cpi",1981,0.9,NA,1981,4,0.5,8.72485225208824,11.5425092456423,11.279360028481,10.1336807488653,TRUE,2.81765699355407
"CAN","cpi",1981,0.9,NA,1982,4,1,8.76419706764022,13.7945229893218,10.7097306947659,11.279360028481,TRUE,5.0303259216816
"CAN","cpi",1982,0.1,NA,1982,4,0.5,11.206144354368,11.5530236828858,10.7097306947659,11.3795840186269,FALSE,1.45002079430029
"CAN","cpi",1982,0.1,NA,1983,4,1,10.1401013610508,11.279360028481,6.81192865303165,10.7097306947659,FALSE,8.53519801858388
"CAN","cpi",1982,0.2,NA,1982,4,0.5,11.1095539768668,11.6496140603871,10.7097306947659,11.3795840186269,FALSE,1.53961828877246
"CAN","cpi",1982,0.2,NA,1983,4,1,10.0457248304812,11.3737365590506,6.81192865303165,10.7097306947659,FALSE,9.41250217219329
"CAN","cpi",1982,0.3,NA,1982,4,0.5,11.0880229475133,11.6711450897406,10.7097306947659,11.3795840186269,FALSE,1.66395715007693
"CAN","cpi",1982,0.3,NA,1983,4,1,9.77626695943618,11.6431944300956,6.81192865303165,10.7097306947659,FALSE,10.3364654889581
"CAN","cpi",1982,0.4,NA,1982,4,0.5,10.9773094334565,11.7818586037974,10.7097306947659,11.3795840186269,FALSE,1.69647829930946
"CAN","cpi",1982,0.4,NA,1983,4,1,9.41606968896579,12.003391700566,6.81192865303165,10.7097306947659,FALSE,11.2677921313807
"CAN","cpi",1982,0.5,NA,1982,4,0.5,10.9575477279365,11.8016203093173,10.7097306947659,11.3795840186269,FALSE,1.83534071406321
"CAN","cpi",1982,0.5,NA,1983,4,1,9.10032498356875,12.3191364059631,6.81192865303165,10.7097306947659,FALSE,12.3723967445427
"CAN","cpi",1982,0.6,NA,1982,4,0.5,10.3037399664026,12.4554280708513,10.7097306947659,11.3795840186269,TRUE,2.15168810444869
"CAN","cpi",1982,0.6,NA,1983,4,1,8.98580925089168,12.4336521386401,6.81192865303165,10.7097306947659,FALSE,14.3172458770486
"CAN","cpi",1982,0.7,NA,1982,4,0.5,10.2339047390112,12.5252632982427,10.7097306947659,11.3795840186269,TRUE,2.2913585592315
"CAN","cpi",1982,0.7,NA,1983,4,1,8.60996445259354,12.8094969369383,6.81192865303165,10.7097306947659,FALSE,16.1864378147574
"CAN","cpi",1982,0.8,NA,1982,4,0.5,10.1486371230499,12.6105309142039,10.7097306947659,11.3795840186269,TRUE,2.461893791154
"CAN","cpi",1982,0.8,NA,1983,4,1,8.31705259902031,13.1024087905115,6.81192865303165,10.7097306947659,FALSE,19.8365956513778
"CAN","cpi",1982,0.9,NA,1982,4,0.5,9.97075552184989,12.788412515404,10.7097306947659,11.3795840186269,TRUE,2.81765699355407
"CAN","cpi",1982,0.9,NA,1983,4,1,8.1945677339251,13.2248936556067,6.81192865303165,10.7097306947659,FALSE,32.6831075395507
"CAN","cpi",1983,0.1,NA,1983,4,0.5,9.11287300764412,9.4597523361619,6.81192865303165,9.28631267190301,FALSE,5.46008900543439
"CAN","cpi",1983,0.1,NA,1984,4,1,6.24229931931653,7.38155798674676,4.43433180473976,6.81192865303165,FALSE,5.15696425537862
"CAN","cpi",1983,0.2,NA,1983,4,0.5,9.01628263014285,9.55634271366317,6.81192865303165,9.28631267190301,FALSE,6.05094502629833
"CAN","cpi",1983,0.2,NA,1984,4,1,6.14792278874693,7.47593451731636,4.43433180473976,6.81192865303165,FALSE,5.61198918858737
"CAN","cpi",1983,0.3,NA,1983,4,0.5,8.88403808673256,9.68858725707346,6.81192865303165,9.28631267190301,FALSE,6.72486183805779
"CAN","cpi",1983,0.3,NA,1984,4,1,5.87846491770193,7.74539238836136,4.43433180473976,6.81192865303165,FALSE,5.99302207912278
"CAN","cpi",1983,0.4,NA,1983,4,0.5,8.86427638121258,9.70834896259344,6.81192865303165,9.28631267190301,FALSE,7.68523167531731
"CAN","cpi",1983,0.4,NA,1984,4,1,5.51826764723153,8.10558965883176,4.43433180473976,6.81192865303165,FALSE,6.20044148657281
"CAN","cpi",1983,0.5,NA,1983,4,0.5,8.61645934804199,9.95616599576403,6.81192865303165,9.28631267190301,FALSE,8.55782942776342
"CAN","cpi",1983,0.5,NA,1984,4,1,5.20252294183449,8.4213343642288,4.43433180473976,6.81192865303165,FALSE,6.29157597077324
"CAN","cpi",1983,0.6,NA,1983,4,0.5,8.21046861967866,10.3621567241274,6.81192865303165,9.28631267190301,FALSE,9.14438793768377
"CAN","cpi",1983,0.6,NA,1984,4,1,5.08800720915743,8.53585009690586,4.43433180473976,6.81192865303165,FALSE,6.71621990983678
"CAN","cpi",1983,0.7,NA,1983,4,0.5,8.14063339228726,10.4319919515188,6.81192865303165,9.28631267190301,FALSE,11.1493901542689
"CAN","cpi",1983,0.7,NA,1984,4,1,4.71216241085928,8.91169489520401,4.43433180473976,6.81192865303165,FALSE,6.05173652514157
"CAN","cpi",1983,0.8,NA,1983,4,0.5,8.05536577632601,10.51725956748,6.81192865303165,9.28631267190301,FALSE,14.8962650240976
"CAN","cpi",1983,0.8,NA,1984,4,1,4.41925055728605,9.20460674877724,4.43433180473976,6.81192865303165,TRUE,4.78535619149119
"CAN","cpi",1983,0.9,NA,1983,4,0.5,7.87748417512597,10.69514116868,6.81192865303165,9.28631267190301,FALSE,24.1287674354407
"CAN","cpi",1983,0.9,NA,1984,4,1,3.44080224077743,10.1830550652859,4.43433180473976,6.81192865303165,TRUE,6.74225282450844
"CAN","cpi",1984,0.1,NA,1984,4,0.5,4.9126685613509,5.25954788986868,4.43433180473976,5.08610822560979,FALSE,1.40984989876475
"CAN","cpi",1984,0.1,NA,1985,4,1,3.86470247102464,5.00396113845488,3.75272544104399,4.43433180473976,FALSE,1.38809651183168
"CAN","cpi",1984,0.2,NA,1984,4,0.5,4.81607818384962,5.35613826736995,4.43433180473976,5.08610822560979,FALSE,1.49442603129499
"CAN","cpi",1984,0.2,NA,1985,4,1,3.77032594045505,5.09833766902447,3.75272544104399,4.43433180473976,FALSE,1.37201297709706
"CAN","cpi",1984,0.3,NA,1984,4,0.5,4.68383364043933,5.48838281078024,4.43433180473976,5.08610822560979,FALSE,1.51741155805398
"CAN","cpi",1984,0.3,NA,1985,4,1,3.50086806941004,5.36779554006948,3.75272544104399,4.43433180473976,TRUE,1.86692747065944
"CAN","cpi",1984,0.4,NA,1984,4,0.5,4.66407193491936,5.50814451630021,4.43433180473976,5.08610822560979,FALSE,1.60987301531286
"CAN","cpi",1984,0.4,NA,1985,4,1,3.14067079893964,5.72799281053987,3.75272544104399,4.43433180473976,TRUE,2.58732201160023
"CAN","cpi",1984,0.5,NA,1984,4,0.5,4.41625490174877,5.7559615494708,4.43433180473976,5.08610822560979,TRUE,1.33970664772204
"CAN","cpi",1984,0.5,NA,1985,4,1,2.71041036086554,6.15825324861398,3.75272544104399,4.43433180473976,TRUE,3.44784288774844
"CAN","cpi",1984,0.6,NA,1984,4,0.5,3.94042894599404,6.23178750522553,4.43433180473976,5.08610822560979,TRUE,2.2913585592315
"CAN","cpi",1984,0.6,NA,1985,4,1,2.3345655625674,6.53409804691212,3.75272544104399,4.43433180473976,TRUE,4.19953248434472
"CAN","cpi",1984,0.7,NA,1984,4,0.5,3.85516133003278,6.31705512118679,4.43433180473976,5.08610822560979,TRUE,2.461893791154
"CAN","cpi",1984,0.7,NA,1985,4,1,2.05673495644787,6.81192865303165,3.75272544104399,4.43433180473976,TRUE,4.75519369658378
"CAN","cpi",1984,0.8,NA,1984,4,0.5,3.67727972883275,6.49493672238682,4.43433180473976,5.08610822560979,TRUE,2.81765699355407
"CAN","cpi",1984,0.8,NA,1985,4,1,2.04165370899416,6.82700990048535,3.75272544104399,4.43433180473976,TRUE,4.78535619149119
"CAN","cpi",1984,0.9,NA,1984,4,0.5,3.51439226357136,6.65782418764821,4.43433180473976,5.08610822560979,TRUE,3.14343192407685
"CAN","cpi",1984,0.9,NA,1985,4,1,1.06320539248554,7.80545821699398,3.75272544104399,4.43433180473976,TRUE,6.74225282450844
"CAN","cpi",1985,0.1,NA,1985,4,0.5,3.66126550523038,4.00814483374816,3.75272544104399,3.83470516948927,TRUE,0.34687932851778
"CAN","cpi",1985,0.1,NA,1986,4,1,3.18309610732887,4.32235477475911,4.02668174324255,3.75272544104399,TRUE,1.13925866743024
"CAN","cpi",1985,0.2,NA,1985,4,0.5,3.56467512772911,4.10473521124943,3.75272544104399,3.83470516948927,TRUE,0.540060083520322
"CAN","cpi",1985,0.2,NA,1986,4,1,3.08871957675928,4.4167313053287,4.02668174324255,3.75272544104399,TRUE,1.32801172856942
"CAN","cpi",1985,0.3,NA,1985,4,0.5,3.43243058431882,4.23697975465972,3.75272544104399,3.83470516948927,TRUE,0.804549170340906
"CAN","cpi",1985,0.3,NA,1986,4,1,3.07111907734822,4.43433180473976,4.02668174324255,3.75272544104399,TRUE,1.36321272739154
"CAN","cpi",1985,0.4,NA,1985,4,0.5,3.41266887879884,4.2567414601797,3.75272544104399,3.83470516948927,TRUE,0.844072581380857
"CAN","cpi",1985,0.4,NA,1986,4,1,2.81926170571427,4.68618917637371,4.02668174324255,3.75272544104399,TRUE,1.86692747065944
"CAN","cpi",1985,0.5,NA,1985,4,0.5,3.18292874861924,4.4864815903593,3.75272544104399,3.83470516948927,TRUE,1.30355284174006
"CAN","cpi",1985,0.5,NA,1986,4,1,2.45906443524387,5.0463864468441,4.02668174324255,3.75272544104399,TRUE,2.58732201160023
"CAN","cpi",1985,0.6,NA,1985,4,0.5,3.16485184562825,4.50455849335029,3.75272544104399,3.83470516948927,TRUE,1.33970664772204
"CAN","cpi",1985,0.6,NA,1986,4,1,2.02880399716977,5.47664688491821,4.02668174324255,3.75272544104399,TRUE,3.44784288774844
"CAN","cpi",1985,0.7,NA,1985,4,0.5,2.68902588987352,4.98038444910502,3.75272544104399,3.83470516948927,TRUE,2.2913585592315
"CAN","cpi",1985,0.7,NA,1986,4,1,1.65295919887163,5.85249168321635,4.02668174324255,3.75272544104399,TRUE,4.19953248434472
"CAN","cpi",1985,0.8,NA,1985,4,0.5,2.42587667271224,5.2435336662663,3.75272544104399,3.83470516948927,TRUE,2.81765699355407
"CAN","cpi",1985,0.8,NA,1986,4,1,1.3751285927521,6.13032228933588,4.02668174324255,3.75272544104399,TRUE,4.75519369658378
"CAN","cpi",1985,0.9,NA,1985,4,0.5,2.26298920745084,5.4064211315277,3.75272544104399,3.83470516948927,TRUE,3.14343192407685
"CAN","cpi",1985,0.9,NA,1986,4,1,1.36004734529839,6.14540353678958,4.02668174324255,3.75272544104399,TRUE,4.78535619149119
"CAN","cpi",1986,0.1,NA,1986,4,0.5,3.94430321317498,4.10826267006555,4.02668174324255,4.02628294162027,TRUE,0.163959456890565
"CAN","cpi",1986,0.1,NA,1987,4,1,3.75272544104399,4.30063804544111,4.2837330645361,4.02668174324255,TRUE,0.547912604397117
"CAN","cpi",1986,0.2,NA,1986,4,0.5,3.85284327736138,4.19972260587916,4.02668174324255,4.02628294162027,TRUE,0.34687932851778
"CAN","cpi",1986,0.2,NA,1987,4,1,3.45705240952743,4.59631107695767,4.2837330645361,4.02668174324255,TRUE,1.13925866743024
"CAN","cpi",1986,0.3,NA,1986,4,0.5,3.75625289986011,4.29631298338043,4.02668174324255,4.02628294162027,TRUE,0.540060083520322
"CAN","cpi",1986,0.3,NA,1987,4,1,3.36267587895784,4.69068760752726,4.2837330645361,4.02668174324255,TRUE,1.32801172856942
"CAN","cpi",1986,0.4,NA,1986,4,0.5,3.62400835644981,4.42855752679072,4.02668174324255,4.02628294162027,TRUE,0.804549170340906
"CAN","cpi",1986,0.4,NA,1987,4,1,3.34507537954678,4.70828810693832,4.2837330645361,4.02668174324255,TRUE,1.36321272739154
"CAN","cpi",1986,0.5,NA,1986,4,0.5,3.60424665092984,4.44831923231069,4.02668174324255,4.02628294162027,TRUE,0.844072581380857
"CAN","cpi",1986,0.5,NA,1987,4,1,2.73302073744243,5.32034274904266,4.2837330645361,4.02668174324255,TRUE,2.58732201160023
"CAN","cpi",1986,0.6,NA,1986,4,0.5,3.37450652075024,4.67805936249029,4.02668174324255,4.02628294162027,TRUE,1.30355284174006
"CAN","cpi",1986,0.6,NA,1987,4,1,2.30276029936833,5.75060318711677,4.2837330645361,4.02668174324255,TRUE,3.44784288774844
"CAN","cpi",1986,0.7,NA,1986,4,0.5,3.35642961775925,4.69613626548128,4.02668174324255,4.02628294162027,TRUE,1.33970664772204
"CAN","cpi",1986,0.7,NA,1987,4,1,1.92691550107019,6.12644798541491,4.2837330645361,4.02668174324255,TRUE,4.19953248434472
"CAN","cpi",1986,0.8,NA,1986,4,0.5,2.88060366200452,5.17196222123602,4.02668174324255,4.02628294162027,TRUE,2.2913585592315
"CAN","cpi",1986,0.8,NA,1987,4,1,1.64908489495066,6.40427859153444,4.2837330645361,4.02668174324255,TRUE,4.75519369658378
"CAN","cpi",1986,0.9,NA,1986,4,0.5,2.61745444484323,5.4351114383973,4.02668174324255,4.02628294162027,TRUE,2.81765699355407
"CAN","cpi",1986,0.9,NA,1987,4,1,1.63400364749695,6.41935983898814,4.2837330645361,4.02668174324255,TRUE,4.78535619149119
"CAN","cpi",1987,0.1,NA,1987,4,0.5,3.98654624072808,4.05411486190069,4.2837330645361,4.02033055131438,FALSE,0.577831293695736
"CAN","cpi",1987,0.1,NA,1988,4,1,4.02668174324255,4.54078438582965,3.95767765957829,4.2837330645361,FALSE,0.66744505072989
"CAN","cpi",1987,0.2,NA,1987,4,0.5,3.9383508228691,4.10231027975967,4.2837330645361,4.02033055131438,FALSE,0.617516418831638
"CAN","cpi",1987,0.2,NA,1988,4,1,4.00977676233754,4.55768936673465,3.95767765957829,4.2837330645361,FALSE,0.678160361295234
"CAN","cpi",1987,0.3,NA,1987,4,0.5,3.75030050955422,4.29036059307455,4.2837330645361,4.02033055131438,TRUE,0.540060083520322
"CAN","cpi",1987,0.3,NA,1988,4,1,3.71410373082098,4.85336239825121,3.95767765957829,4.2837330645361,TRUE,1.13925866743024
"CAN","cpi",1987,0.4,NA,1987,4,0.5,3.61805596614393,4.42260513648484,4.2837330645361,4.02033055131438,TRUE,0.804549170340906
"CAN","cpi",1987,0.4,NA,1988,4,1,3.61972720025139,4.94773892882081,3.95767765957829,4.2837330645361,TRUE,1.32801172856942
"CAN","cpi",1987,0.5,NA,1987,4,0.5,3.59829426062396,4.44236684200481,4.2837330645361,4.02033055131438,TRUE,0.844072581380857
"CAN","cpi",1987,0.5,NA,1988,4,1,3.60212670084033,4.96533942823186,3.95767765957829,4.2837330645361,TRUE,1.36321272739154
"CAN","cpi",1987,0.6,NA,1987,4,0.5,3.36855413044436,4.67210697218441,4.2837330645361,4.02033055131438,TRUE,1.30355284174006
"CAN","cpi",1987,0.6,NA,1988,4,1,2.99007205873598,5.57739407033621,3.95767765957829,4.2837330645361,TRUE,2.58732201160023
"CAN","cpi",1987,0.7,NA,1987,4,0.5,3.35047722745337,4.6901838751754,4.2837330645361,4.02033055131438,TRUE,1.33970664772204
"CAN","cpi",1987,0.7,NA,1988,4,1,2.55981162066188,6.00765450841032,3.95767765957829,4.2837330645361,TRUE,3.44784288774844
"CAN","cpi",1987,0.8,NA,1987,4,0.5,2.87465127169864,5.16600983093013,4.2837330645361,4.02033055131438,TRUE,2.2913585592315
"CAN","cpi",1987,0.8,NA,1988,4,1,2.18396682236374,6.38349930670846,3.95767765957829,4.2837330645361,TRUE,4.19953248434472
"CAN","cpi",1987,0.9,NA,1987,4,0.5,2.61150205453735,5.42915904809142,4.2837330645361,4.02033055131438,TRUE,2.81765699355407
"CAN","cpi",1987,0.9,NA,1988,4,1,1.90613621624421,6.66132991282799,3.95767765957829,4.2837330645361,TRUE,4.75519369658378
"CAN","cpi",1988,0.1,NA,1988,4,0.5,4.2276905373575,4.29525915853011,3.95767765957829,4.26147484794381,FALSE,0.667597238459747
"CAN","cpi",1988,0.1,NA,1989,4,1,3.70062633828474,4.21472898087184,4.56141251415513,3.95767765957829,FALSE,1.28451049432775
"CAN","cpi",1988,0.2,NA,1988,4,0.5,4.17949511949853,4.34345457638909,3.95767765957829,4.26147484794381,FALSE,0.71850310669115
"CAN","cpi",1988,0.2,NA,1989,4,1,3.68372135737973,4.23163396177685,4.56141251415513,3.95767765957829,FALSE,1.37235898534282
"CAN","cpi",1988,0.3,NA,1988,4,0.5,3.9980723347221,4.52487736116552,3.95767765957829,4.26147484794381,FALSE,0.642218383997151
"CAN","cpi",1988,0.3,NA,1989,4,1,3.63162225462049,4.2837330645361,4.56141251415513,3.95767765957829,FALSE,1.44548066597
"CAN","cpi",1988,0.4,NA,1988,4,0.5,3.99144480618365,4.53150488970397,3.95767765957829,4.26147484794381,FALSE,0.652617238871507
"CAN","cpi",1988,0.4,NA,1989,4,1,3.38804832586317,4.52730699329341,4.56141251415513,3.95767765957829,FALSE,1.25294373696931
"CAN","cpi",1988,0.5,NA,1988,4,0.5,3.85920026277335,4.66374943311426,3.95767765957829,4.26147484794381,TRUE,0.804549170340906
"CAN","cpi",1988,0.5,NA,1989,4,1,3.29367179529358,4.621683523863,4.56141251415513,3.95767765957829,TRUE,1.32801172856942
"CAN","cpi",1988,0.6,NA,1988,4,0.5,3.83943855725338,4.68351113863424,3.95767765957829,4.26147484794381,TRUE,0.844072581380857
"CAN","cpi",1988,0.6,NA,1989,4,1,3.27607129588252,4.63928402327406,4.56141251415513,3.95767765957829,TRUE,1.36321272739154
"CAN","cpi",1988,0.7,NA,1988,4,0.5,3.60969842707378,4.91325126881384,3.95767765957829,4.26147484794381,TRUE,1.30355284174006
"CAN","cpi",1988,0.7,NA,1989,4,1,2.23375621570407,5.68159910345251,4.56141251415513,3.95767765957829,TRUE,3.44784288774844
"CAN","cpi",1988,0.8,NA,1988,4,0.5,3.59162152408279,4.93132817180483,3.95767765957829,4.26147484794381,TRUE,1.33970664772204
"CAN","cpi",1988,0.8,NA,1989,4,1,1.85791141740593,6.05744390175065,4.56141251415513,3.95767765957829,TRUE,4.19953248434472
"CAN","cpi",1988,0.9,NA,1988,4,0.5,3.11579556832806,5.40715412755956,3.95767765957829,4.26147484794381,TRUE,2.2913585592315
"CAN","cpi",1988,0.9,NA,1989,4,1,1.5800808112864,6.33527450787018,4.56141251415513,3.95767765957829,TRUE,4.75519369658378
"CAN","cpi",1989,0.1,NA,1989,4,0.5,3.9810632414084,4.048631862581,4.56141251415513,4.0148475519947,FALSE,1.20708118022622
"CAN","cpi",1989,0.1,NA,1990,4,1,4.30436119286158,4.81846383544868,4.70378167021394,4.56141251415513,TRUE,0.514102642587098
"CAN","cpi",1989,0.2,NA,1989,4,0.5,3.93286782354942,4.09682728043998,4.56141251415513,4.0148475519947,FALSE,1.32542254117844
"CAN","cpi",1989,0.2,NA,1990,4,1,4.28745621195657,4.83536881635369,4.70378167021394,4.56141251415513,TRUE,0.547912604397117
"CAN","cpi",1989,0.3,NA,1989,4,0.5,3.75144503877299,4.27825006521641,4.56141251415513,4.0148475519947,FALSE,1.33584059483977
"CAN","cpi",1989,0.3,NA,1990,4,1,4.23535710919733,4.88746791911294,4.70378167021394,4.56141251415513,TRUE,0.652110809915611
"CAN","cpi",1989,0.4,NA,1989,4,0.5,3.71105036362918,4.31864474036022,4.56141251415513,4.0148475519947,FALSE,1.41682028938075
"CAN","cpi",1989,0.4,NA,1990,4,1,3.99178318044001,5.13104184787025,4.70378167021394,4.56141251415513,TRUE,1.13925866743024
"CAN","cpi",1989,0.5,NA,1989,4,0.5,3.61257296682425,4.41712213716515,4.56141251415513,4.0148475519947,FALSE,1.38171067830082
"CAN","cpi",1989,0.5,NA,1990,4,1,3.95767765957829,5.16514736873197,4.70378167021394,4.56141251415513,TRUE,1.20746970915368
"CAN","cpi",1989,0.6,NA,1989,4,0.5,3.59281126130427,4.43688384268513,4.56141251415513,4.0148475519947,FALSE,1.46671593873087
"CAN","cpi",1989,0.6,NA,1990,4,1,3.89740664987042,5.22541837843984,4.70378167021394,4.56141251415513,TRUE,1.32801172856942
"CAN","cpi",1989,0.7,NA,1989,4,0.5,3.36307113112467,4.66662397286473,4.56141251415513,4.0148475519947,TRUE,1.30355284174006
"CAN","cpi",1989,0.7,NA,1990,4,1,3.87980615045936,5.2430188778509,4.70378167021394,4.56141251415513,TRUE,1.36321272739154
"CAN","cpi",1989,0.8,NA,1989,4,0.5,3.34499422813368,4.68470087585572,4.56141251415513,4.0148475519947,TRUE,1.33970664772204
"CAN","cpi",1989,0.8,NA,1990,4,1,2.46164627198277,6.66117875632749,4.70378167021394,4.56141251415513,TRUE,4.19953248434472
"CAN","cpi",1989,0.9,NA,1989,4,0.5,2.86916827237895,5.16052683161045,4.56141251415513,4.0148475519947,TRUE,2.2913585592315
"CAN","cpi",1989,0.9,NA,1990,4,1,2.18381566586324,6.93900936244702,4.70378167021394,4.56141251415513,TRUE,4.75519369658378
"CAN","cpi",1990,0.1,NA,1990,4,0.5,5.01691059676077,5.08447921793338,4.70378167021394,5.05069490734707,FALSE,0.763410680165566
"CAN","cpi",1990,0.1,NA,1991,4,1,4.44673034892039,4.96083299150749,5.63511155207928,4.70378167021394,FALSE,2.01249944385776
"CAN","cpi",1990,0.2,NA,1990,4,0.5,4.96871517890179,5.13267463579236,4.70378167021394,5.05069490734707,FALSE,0.826293228610197
"CAN","cpi",1990,0.2,NA,1991,4,1,4.42982536801538,4.9777379724125,5.63511155207928,4.70378167021394,FALSE,2.19134655356408
"CAN","cpi",1990,0.3,NA,1990,4,0.5,4.78729239412536,5.31409742056878,4.70378167021394,5.05069490734707,FALSE,0.765407094761776
"CAN","cpi",1990,0.3,NA,1991,4,1,4.37772626525613,5.02983707517174,5.63511155207928,4.70378167021394,FALSE,2.38146645822287
"CAN","cpi",1990,0.4,NA,1990,4,0.5,4.74689771898156,5.35449209571259,4.70378167021394,5.05069490734707,FALSE,0.751314539289762
"CAN","cpi",1990,0.4,NA,1991,4,1,4.13415233649882,5.27341100392906,5.63511155207928,4.70378167021394,FALSE,2.34492716126433
"CAN","cpi",1990,0.5,NA,1990,4,0.5,4.64842032217662,5.45296949251753,4.70378167021394,5.05069490734707,TRUE,0.804549170340906
"CAN","cpi",1990,0.5,NA,1991,4,1,4.1000468156371,5.30751652479078,5.63511155207928,4.70378167021394,FALSE,2.5178498183077
"CAN","cpi",1990,0.6,NA,1990,4,0.5,4.50412994518664,5.5972598695075,4.70378167021394,5.05069490734707,TRUE,1.09312992432086
"CAN","cpi",1990,0.6,NA,1991,4,1,4.03977580592923,5.36778753449865,5.63511155207928,4.70378167021394,FALSE,2.66463181647259
"CAN","cpi",1990,0.7,NA,1990,4,0.5,4.39891848647704,5.7024713282171,4.70378167021394,5.05069490734707,TRUE,1.30355284174006
"CAN","cpi",1990,0.7,NA,1991,4,1,4.02217530651817,5.38538803390971,5.63511155207928,4.70378167021394,FALSE,3.02803618185538
"CAN","cpi",1990,0.8,NA,1990,4,0.5,4.38084158348606,5.72054823120809,4.70378167021394,5.05069490734707,TRUE,1.33970664772204
"CAN","cpi",1990,0.8,NA,1991,4,1,2.60401542804158,6.8035479123863,5.63511155207928,4.70378167021394,TRUE,4.19953248434472
"CAN","cpi",1990,0.9,NA,1990,4,0.5,3.90501562773132,6.19637418696282,4.70378167021394,5.05069490734707,TRUE,2.2913585592315
"CAN","cpi",1990,0.9,NA,1991,4,1,2.32618482192205,7.08137851850583,5.63511155207928,4.70378167021394,TRUE,4.75519369658378
"CAN","cpi",1991,0.1,NA,1991,4,0.5,4.79609397729258,4.96005343418314,5.63511155207928,4.87807370573786,FALSE,1.66408860777088
"CAN","cpi",1991,0.1,NA,1992,4,1,5.37806023078573,5.89216287337283,2.02050638420239,5.63511155207928,FALSE,7.97533341277231
"CAN","cpi",1991,0.2,NA,1991,4,0.5,4.61467119251615,5.14147621895957,5.63511155207928,4.87807370573786,FALSE,1.76089335924271
"CAN","cpi",1991,0.2,NA,1992,4,1,5.36115524988072,5.90906785427784,2.02050638420239,5.63511155207928,FALSE,8.89953476859296
"CAN","cpi",1991,0.3,NA,1991,4,0.5,4.57427651737234,5.18187089410337,5.63511155207928,4.87807370573786,FALSE,1.90256768523363
"CAN","cpi",1991,0.3,NA,1992,4,1,5.30905614712148,5.96116695703709,2.02050638420239,5.63511155207928,FALSE,10.0479672753987
"CAN","cpi",1991,0.4,NA,1991,4,0.5,4.53116046860472,5.22498694287099,5.63511155207928,4.87807370573786,FALSE,2.06090850496057
"CAN","cpi",1991,0.4,NA,1992,4,1,5.06548221836416,6.2047408857944,2.02050638420239,5.63511155207928,FALSE,11.2891781146362
"CAN","cpi",1991,0.5,NA,1991,4,0.5,4.47579912056741,5.28034829090831,5.63511155207928,4.87807370573786,FALSE,2.22360221502479
"CAN","cpi",1991,0.5,NA,1992,4,1,5.03137669750244,6.23884640665612,2.02050638420239,5.63511155207928,FALSE,13.2509509623539
"CAN","cpi",1991,0.6,NA,1991,4,0.5,4.33150874357743,5.42463866789829,5.63511155207928,4.87807370573786,FALSE,2.14549434522583
"CAN","cpi",1991,0.6,NA,1992,4,1,4.95350518838351,6.31671791577505,2.02050638420239,5.63511155207928,FALSE,16.0282067482972
"CAN","cpi",1991,0.7,NA,1991,4,0.5,4.22629728486783,5.52985012660789,5.63511155207928,4.87807370573786,FALSE,2.00529567821603
"CAN","cpi",1991,0.7,NA,1992,4,1,4.70378167021394,6.56644143394463,2.02050638420239,5.63511155207928,FALSE,19.7511616704744
"CAN","cpi",1991,0.8,NA,1991,4,0.5,4.20822038187684,5.54792702959888,5.63511155207928,4.87807370573786,FALSE,2.21155187252611
"CAN","cpi",1991,0.8,NA,1992,4,1,3.53534530990692,7.73487779425164,2.02050638420239,5.63511155207928,FALSE,19.3479217413901
"CAN","cpi",1991,0.9,NA,1991,4,0.5,3.73239442612211,6.02375298535361,5.63511155207928,4.87807370573786,TRUE,2.2913585592315
"CAN","cpi",1991,0.9,NA,1992,4,1,3.25751470378739,8.01270840037117,2.02050638420239,5.63511155207928,FALSE,29.4953600882839
"CAN","cpi",1992,0.1,NA,1992,4,0.5,4.19007734555176,4.35403680244232,2.02050638420239,4.27205707399704,FALSE,4.98522825988917
"CAN","cpi",1992,0.1,NA,1993,4,1,1.76345506290884,2.27755770549594,1.84186847486189,2.02050638420239,TRUE,0.514102642587098
"CAN","cpi",1992,0.2,NA,1992,4,0.5,4.00865456077533,4.53545958721875,2.02050638420239,4.27205707399704,FALSE,5.49717546787578
"CAN","cpi",1992,0.2,NA,1993,4,1,1.74655008200383,2.29446268640095,1.84186847486189,2.02050638420239,TRUE,0.547912604397117
"CAN","cpi",1992,0.3,NA,1992,4,0.5,3.96825988563153,4.57585426236256,2.02050638420239,4.27205707399704,FALSE,6.17260438081428
"CAN","cpi",1992,0.3,NA,1993,4,1,1.69445097924458,2.34656178916019,1.84186847486189,2.02050638420239,TRUE,0.652110809915611
"CAN","cpi",1992,0.4,NA,1992,4,0.5,3.92514383686391,4.61897031113018,2.02050638420239,4.27205707399704,FALSE,7.042617983138
"CAN","cpi",1992,0.4,NA,1993,4,1,1.45087705048727,2.59013571791751,1.84186847486189,2.02050638420239,TRUE,1.13925866743024
"CAN","cpi",1992,0.5,NA,1992,4,0.5,3.72549211183661,4.81862203615747,2.02050638420239,4.27205707399704,FALSE,7.91307283485776
"CAN","cpi",1992,0.5,NA,1993,4,1,1.41677152962555,2.62424123877923,1.84186847486189,2.02050638420239,TRUE,1.20746970915368
"CAN","cpi",1992,0.6,NA,1992,4,0.5,3.62028065312701,4.92383349486707,2.02050638420239,4.27205707399704,FALSE,9.30242418636319
"CAN","cpi",1992,0.6,NA,1993,4,1,1.33890002050662,2.70211274789816,1.84186847486189,2.02050638420239,TRUE,1.36321272739154
"CAN","cpi",1992,0.7,NA,1992,4,0.5,3.60220375013602,4.94191039785806,2.02050638420239,4.27205707399704,FALSE,11.8843557539463
"CAN","cpi",1992,0.7,NA,1993,4,1,1.08917650233704,2.95183626606773,1.84186847486189,2.02050638420239,TRUE,1.86265976373069
"CAN","cpi",1992,0.8,NA,1992,4,0.5,3.51501922765562,5.02909492033847,2.02050638420239,4.27205707399704,FALSE,16.4592041272152
"CAN","cpi",1992,0.8,NA,1993,4,1,-0.357090464089501,4.39810323249428,1.84186847486189,2.02050638420239,TRUE,4.75519369658378
"CAN","cpi",1992,0.9,NA,1992,4,0.5,3.12637779438129,5.41773635361279,2.02050638420239,4.27205707399704,FALSE,24.4087867628096
"CAN","cpi",1992,0.9,NA,1993,4,1,-1.59409878367451,5.63511155207928,1.84186847486189,2.02050638420239,TRUE,7.22921033575379
"CAN","cpi",1993,0.1,NA,1993,4,0.5,1.52418750697103,1.68814696386159,1.84186847486189,1.60616723541631,FALSE,0.505562814669009
"CAN","cpi",1993,0.1,NA,1994,4,1,1.66323056552139,2.02050638420239,0.62038151471279,1.84186847486189,FALSE,2.67471815381122
"CAN","cpi",1993,0.2,NA,1993,4,0.5,1.34594031815868,1.86639415267394,1.84186847486189,1.60616723541631,TRUE,0.52045383451526
"CAN","cpi",1993,0.2,NA,1994,4,1,1.58164155760426,2.10209539211952,0.62038151471279,1.84186847486189,FALSE,2.92360394174394
"CAN","cpi",1993,0.3,NA,1993,4,0.5,1.31729049013427,1.89504398069835,1.84186847486189,1.60616723541631,TRUE,0.577753490564075
"CAN","cpi",1993,0.3,NA,1994,4,1,1.55299172957985,2.13074522014393,0.62038151471279,1.84186847486189,FALSE,3.24235410446997
"CAN","cpi",1993,0.4,NA,1993,4,0.5,1.26968291437084,1.94265155646178,1.84186847486189,1.60616723541631,TRUE,0.67296864209094
"CAN","cpi",1993,0.4,NA,1994,4,1,1.50538415381642,2.17835279590736,0.62038151471279,1.84186847486189,FALSE,3.62297743910304
"CAN","cpi",1993,0.5,NA,1993,4,0.5,1.05960227325588,2.15273219757674,1.84186847486189,1.60616723541631,TRUE,1.09312992432086
"CAN","cpi",1993,0.5,NA,1994,4,1,1.23813362028505,2.44560332943873,0.62038151471279,1.84186847486189,FALSE,3.67847813144272
"CAN","cpi",1993,0.6,NA,1993,4,0.5,0.95439081454628,2.25794365628634,1.84186847486189,1.60616723541631,TRUE,1.30355284174006
"CAN","cpi",1993,0.6,NA,1994,4,1,1.16026211116612,2.52347483855766,0.62038151471279,1.84186847486189,FALSE,4.0626157096582
"CAN","cpi",1993,0.7,NA,1993,4,0.5,0.936313911555291,2.27602055927733,1.84186847486189,1.60616723541631,TRUE,1.33970664772204
"CAN","cpi",1993,0.7,NA,1994,4,1,0.910538592996546,2.77319835672724,0.62038151471279,1.84186847486189,FALSE,3.79704028562239
"CAN","cpi",1993,0.8,NA,1993,4,0.5,0.849129389074883,2.36320508175773,1.84186847486189,1.60616723541631,TRUE,1.51407569268285
"CAN","cpi",1993,0.8,NA,1994,4,1,-0.535728373429998,4.21946532315378,0.62038151471279,1.84186847486189,TRUE,4.75519369658378
"CAN","cpi",1993,0.9,NA,1993,4,0.5,-0.645383454378346,3.85771792521096,1.84186847486189,1.60616723541631,TRUE,4.50310137958931
"CAN","cpi",1993,0.9,NA,1994,4,1,-1.772736693015,5.45647364273879,0.62038151471279,1.84186847486189,TRUE,7.22921033575379
"CAN","cpi",1994,0.1,NA,1994,4,0.5,1.37460861154222,1.53856806843278,0.62038151471279,1.4565883399875,FALSE,1.84001967206706
"CAN","cpi",1994,0.1,NA,1995,4,1,0.441743605372293,0.799019424053287,1.60030724029718,0.62038151471279,FALSE,2.13791541033409
"CAN","cpi",1994,0.2,NA,1994,4,0.5,1.22088710054192,1.69228957943308,0.62038151471279,1.4565883399875,FALSE,1.97266644346398
"CAN","cpi",1994,0.2,NA,1995,4,1,0.363330193419242,0.877432836006339,1.60030724029718,0.62038151471279,FALSE,2.32128865331421
"CAN","cpi",1994,0.3,NA,1994,4,0.5,1.19318582676579,1.71999085320921,0.62038151471279,1.4565883399875,FALSE,2.16338877516627
"CAN","cpi",1994,0.3,NA,1995,4,1,0.346425212514232,0.894337816911349,1.60030724029718,0.62038151471279,FALSE,2.56496809978521
"CAN","cpi",1994,0.4,NA,1994,4,0.5,1.15279115162198,1.76038552835301,0.62038151471279,1.4565883399875,FALSE,2.38229316642834
"CAN","cpi",1994,0.4,NA,1995,4,1,0.294326109754985,0.946436919670596,1.60030724029718,0.62038151471279,FALSE,2.83167854533757
"CAN","cpi",1994,0.5,NA,1994,4,0.5,1.10967510285436,1.80350157712063,0.62038151471279,1.4565883399875,FALSE,2.65100082683256
"CAN","cpi",1994,0.5,NA,1995,4,1,0.0166466601359497,1.22411636928963,1.60030724029718,0.62038151471279,FALSE,2.71223319318389
"CAN","cpi",1994,0.6,NA,1994,4,0.5,0.910023377827066,2.00315330214793,0.62038151471279,1.4565883399875,FALSE,2.54133923989224
"CAN","cpi",1994,0.6,NA,1995,4,1,-0.0612248489829778,1.30198787840856,1.60030724029718,0.62038151471279,FALSE,2.85480953683466
"CAN","cpi",1994,0.7,NA,1994,4,0.5,0.804811919117469,2.10836476085753,0.62038151471279,1.4565883399875,FALSE,2.53308887110458
"CAN","cpi",1994,0.7,NA,1995,4,1,-0.310948367152555,1.55171139657814,1.60030724029718,0.62038151471279,FALSE,2.186632055191
"CAN","cpi",1994,0.8,NA,1994,4,0.5,0.699550493646073,2.21362618632892,0.62038151471279,1.4565883399875,FALSE,2.30576548201567
"CAN","cpi",1994,0.8,NA,1995,4,1,-0.60110544543631,1.84186847486189,1.60030724029718,0.62038151471279,TRUE,2.4429739202982
"CAN","cpi",1994,0.9,NA,1994,4,0.5,-0.794962349807157,3.70813902978215,0.62038151471279,1.4565883399875,TRUE,4.50310137958931
"CAN","cpi",1994,0.9,NA,1995,4,1,-1.7572153335791,2.99797836300468,1.60030724029718,0.62038151471279,TRUE,4.75519369658378
"CAN","cpi",1995,0.1,NA,1995,4,0.5,0.318743520186922,0.482702977077487,1.60030724029718,0.400723248632204,FALSE,2.64752448626767
"CAN","cpi",1995,0.1,NA,1996,4,1,1.42166933095669,1.77894514963768,1.57188450223428,1.60030724029718,TRUE,0.357275818680994
"CAN","cpi",1995,0.2,NA,1995,4,0.5,0.165022009186622,0.636424488077787,1.60030724029718,0.400723248632204,FALSE,2.88110935943965
"CAN","cpi",1995,0.2,NA,1996,4,1,1.34325591900363,1.85735856159073,1.57188450223428,1.60030724029718,TRUE,0.514102642587098
"CAN","cpi",1995,0.3,NA,1995,4,0.5,0.137320735410493,0.664125761853916,1.60030724029718,0.400723248632204,FALSE,3.20160925056704
"CAN","cpi",1995,0.3,NA,1996,4,1,1.32635093809862,1.87426354249574,1.57188450223428,1.60030724029718,TRUE,0.547912604397117
"CAN","cpi",1995,0.4,NA,1995,4,0.5,0.0969260602666879,0.704520436997721,1.60030724029718,0.400723248632204,FALSE,3.59355038772924
"CAN","cpi",1995,0.4,NA,1996,4,1,1.27425183533938,1.92636264525499,1.57188450223428,1.60030724029718,TRUE,0.652110809915611
"CAN","cpi",1995,0.5,NA,1995,4,0.5,0.0538100114990691,0.747636485765339,1.60030724029718,0.400723248632204,FALSE,4.10450949239364
"CAN","cpi",1995,0.5,NA,1996,4,1,0.996572385720342,2.20404209487402,1.57188450223428,1.60030724029718,TRUE,1.20746970915368
"CAN","cpi",1995,0.6,NA,1995,4,0.5,-0.145841713528227,0.947288210792636,1.60030724029718,0.400723248632204,FALSE,4.3582250718436
"CAN","cpi",1995,0.6,NA,1996,4,1,0.918700876601414,2.28191360399295,1.57188450223428,1.60030724029718,TRUE,1.36321272739154
"CAN","cpi",1995,0.7,NA,1995,4,0.5,-0.251053172237824,1.05249966950223,1.60030724029718,0.400723248632204,FALSE,4.95560331370639
"CAN","cpi",1995,0.7,NA,1996,4,1,0.668977358431837,2.53163712216253,1.57188450223428,1.60030724029718,TRUE,1.86265976373069
"CAN","cpi",1995,0.8,NA,1995,4,0.5,-0.356314597709221,1.15776109497363,1.60030724029718,0.400723248632204,FALSE,5.93953714591838
"CAN","cpi",1995,0.8,NA,1996,4,1,0.62038151471279,2.58023296588157,1.57188450223428,1.60030724029718,TRUE,1.95985145116878
"CAN","cpi",1995,0.9,NA,1995,4,0.5,-0.435483576642503,1.23693007390691,1.60030724029718,0.400723248632204,FALSE,8.93995697835483
"CAN","cpi",1995,0.9,NA,1996,4,1,0.378820280148082,2.82179420044628,1.57188450223428,1.60030724029718,TRUE,2.4429739202982
"CAN","cpi",1996,0.1,NA,1996,4,0.5,2.02069039148348,2.18464984837404,1.57188450223428,2.10267011992876,FALSE,1.16130587744433
"CAN","cpi",1996,0.1,NA,1997,4,1,1.42951534617548,1.71425365829309,1.83379947449567,1.57188450223428,FALSE,0.550395681456672
"CAN","cpi",1996,0.2,NA,1996,4,0.5,1.89550054553572,2.3098396943218,1.57188450223428,2.10267011992876,FALSE,1.22337925703967
"CAN","cpi",1996,0.2,NA,1997,4,1,1.36471492784124,1.77905407662732,1.83379947449567,1.57188450223428,FALSE,0.551202643456938
"CAN","cpi",1996,0.3,NA,1996,4,0.5,1.84244320267113,2.36289703718639,1.57188450223428,2.10267011992876,FALSE,1.29347869290625
"CAN","cpi",1996,0.3,NA,1997,4,1,1.31165758497665,1.83211141949191,1.83379947449567,1.57188450223428,FALSE,0.525276848811697
"CAN","cpi",1996,0.4,NA,1996,4,0.5,1.81379337464672,2.3915468652108,1.57188450223428,2.10267011992876,FALSE,1.38411639860554
"CAN","cpi",1996,0.4,NA,1997,4,1,1.28300775695225,1.86076124751632,1.83379947449567,1.57188450223428,TRUE,0.577753490564075
"CAN","cpi",1996,0.5,NA,1996,4,0.5,1.76618579888329,2.43915444097423,1.57188450223428,2.10267011992876,FALSE,1.45017382868697
"CAN","cpi",1996,0.5,NA,1997,4,1,1.23540018118881,1.90836882327975,1.83379947449567,1.57188450223428,TRUE,0.67296864209094
"CAN","cpi",1996,0.6,NA,1996,4,0.5,1.55610515776833,2.64923508208919,1.57188450223428,2.10267011992876,TRUE,1.09312992432086
"CAN","cpi",1996,0.6,NA,1997,4,1,0.968149647657444,2.17561935681112,1.83379947449567,1.57188450223428,TRUE,1.20746970915368
"CAN","cpi",1996,0.7,NA,1996,4,0.5,1.34563227358734,2.85970796627019,1.57188450223428,2.10267011992876,TRUE,1.51407569268285
"CAN","cpi",1996,0.7,NA,1997,4,1,0.640554620368939,2.50321438409963,1.83379947449567,1.57188450223428,TRUE,1.86265976373069
"CAN","cpi",1996,0.8,NA,1996,4,0.5,1.26646329465406,2.93887694520347,1.57188450223428,2.10267011992876,TRUE,1.67241365054941
"CAN","cpi",1996,0.8,NA,1997,4,1,0.591958776649892,2.55181022781868,1.83379947449567,1.57188450223428,TRUE,1.95985145116878
"CAN","cpi",1996,0.9,NA,1996,4,0.5,0.903086128263784,3.30225411159374,1.57188450223428,2.10267011992876,TRUE,2.39916798332996
"CAN","cpi",1996,0.9,NA,1997,4,1,0.350397542085184,2.79337146238338,1.83379947449567,1.57188450223428,TRUE,2.4429739202982
"CAN","cpi",1997,0.1,NA,1997,4,0.5,1.52543989190227,1.90351028740666,1.83379947449567,1.71447508965446,TRUE,0.378070395504389
"CAN","cpi",1997,0.1,NA,1998,4,1,1.64476427674347,2.02283467224786,0.973278201206617,1.83379947449567,FALSE,1.87026167447518
"CAN","cpi",1997,0.2,NA,1997,4,0.5,1.49345487837336,1.93549530093557,1.83379947449567,1.71447508965446,TRUE,0.442040422562208
"CAN","cpi",1997,0.2,NA,1998,4,1,1.61277926321456,2.05481968577677,0.973278201206617,1.83379947449567,FALSE,2.04079307758207
"CAN","cpi",1997,0.3,NA,1997,4,0.5,1.43405083482493,1.994899344484,1.83379947449567,1.71447508965446,TRUE,0.560848509659065
"CAN","cpi",1997,0.3,NA,1998,4,1,1.55337521966614,2.1142237293252,0.973278201206617,1.83379947449567,FALSE,2.21826856240055
"CAN","cpi",1997,0.4,NA,1997,4,0.5,1.4100609849572,2.01888919435172,1.83379947449567,1.71447508965446,TRUE,0.608828209394518
"CAN","cpi",1997,0.4,NA,1998,4,1,1.52938536979841,2.13821357919293,0.973278201206617,1.83379947449567,FALSE,2.46251877136716
"CAN","cpi",1997,0.5,NA,1997,4,0.5,1.28605457832832,2.14289560098061,1.83379947449567,1.71447508965446,TRUE,0.856841022652283
"CAN","cpi",1997,0.5,NA,1998,4,1,1.40537896316953,2.26221998582181,0.973278201206617,1.83379947449567,FALSE,2.58524407050392
"CAN","cpi",1997,0.6,NA,1997,4,0.5,1.16791012749403,2.26104005181489,1.83379947449567,1.71447508965446,TRUE,1.09312992432086
"CAN","cpi",1997,0.6,NA,1998,4,1,1.23006461991883,2.43753432907251,0.973278201206617,1.83379947449567,FALSE,2.49140180271473
"CAN","cpi",1997,0.7,NA,1997,4,0.5,0.957437243313039,2.47151293599589,1.83379947449567,1.71447508965446,TRUE,1.51407569268285
"CAN","cpi",1997,0.7,NA,1998,4,1,0.902469592630323,2.76512935636101,0.973278201206617,1.83379947449567,TRUE,1.86265976373069
"CAN","cpi",1997,0.8,NA,1997,4,0.5,0.878268264379757,2.55068191492917,1.83379947449567,1.71447508965446,TRUE,1.67241365054941
"CAN","cpi",1997,0.8,NA,1998,4,1,0.853873748911276,2.81372520008006,0.973278201206617,1.83379947449567,TRUE,1.95985145116878
"CAN","cpi",1997,0.9,NA,1997,4,0.5,0.514891097989486,2.91405908131944,1.83379947449567,1.71447508965446,TRUE,2.39916798332996
"CAN","cpi",1997,0.9,NA,1998,4,1,0.612312514346567,3.05528643464477,0.973278201206617,1.83379947449567,TRUE,2.4429739202982
"CAN","cpi",1998,0.1,NA,1998,4,0.5,1.15145675001103,1.52952714551542,0.973278201206617,1.34049194776323,FALSE,0.774022726180872
"CAN","cpi",1998,0.1,NA,1999,4,1,0.784243003454422,1.16231339895881,1.40211292309609,0.973278201206617,FALSE,0.91095822692056
"CAN","cpi",1998,0.2,NA,1998,4,0.5,1.11947173648212,1.56151215904433,0.973278201206617,1.34049194776323,FALSE,0.807524260750978
"CAN","cpi",1998,0.2,NA,1999,4,1,0.752257989925513,1.19429841248772,1.40211292309609,0.973278201206617,FALSE,0.961576699083126
"CAN","cpi",1998,0.3,NA,1998,4,0.5,1.05763586744978,1.62334802807668,0.973278201206617,1.34049194776323,FALSE,0.806734064178791
"CAN","cpi",1998,0.3,NA,1999,4,1,0.690422120893167,1.25613428152007,1.40211292309609,0.973278201206617,FALSE,0.982793993701246
"CAN","cpi",1998,0.4,NA,1998,4,0.5,1.00400762671776,1.6769762688087,0.973278201206617,1.34049194776323,FALSE,0.775400060461413
"CAN","cpi",1998,0.4,NA,1999,4,1,0.636793880161147,1.30976252225209,1.40211292309609,0.973278201206617,FALSE,0.980803311570944
"CAN","cpi",1998,0.5,NA,1998,4,0.5,0.809706330068751,1.87127756545771,0.973278201206617,1.34049194776323,TRUE,1.06157123538896
"CAN","cpi",1998,0.5,NA,1999,4,1,0.369543346629776,1.57701305578346,1.40211292309609,0.973278201206617,TRUE,1.20746970915368
"CAN","cpi",1998,0.6,NA,1998,4,0.5,0.793926985602797,1.88705690992366,0.973278201206617,1.34049194776323,TRUE,1.09312992432086
"CAN","cpi",1998,0.6,NA,1999,4,1,0.112756927917566,1.83379947449567,1.40211292309609,0.973278201206617,TRUE,1.7210425465781
"CAN","cpi",1998,0.7,NA,1998,4,0.5,0.583454101421804,2.09752979410465,0.973278201206617,1.34049194776323,TRUE,1.51407569268285
"CAN","cpi",1998,0.7,NA,1999,4,1,0.0419483193412717,1.90460808307196,1.40211292309609,0.973278201206617,TRUE,1.86265976373069
"CAN","cpi",1998,0.8,NA,1998,4,0.5,0.504285122488522,2.17669877303794,0.973278201206617,1.34049194776323,TRUE,1.67241365054941
"CAN","cpi",1998,0.8,NA,1999,4,1,-0.00664752437777516,1.95320392679101,1.40211292309609,0.973278201206617,TRUE,1.95985145116878
"CAN","cpi",1998,0.9,NA,1998,4,0.5,0.140907956098251,2.54007593942821,0.973278201206617,1.34049194776323,TRUE,2.39916798332996
"CAN","cpi",1998,0.9,NA,1999,4,1,-0.248208758942484,2.19476516135572,1.40211292309609,0.973278201206617,TRUE,2.4429739202982
"CAN","cpi",1999,0.1,NA,1999,4,0.5,0.734095122765922,1.11216551827031,1.40211292309609,0.923130320518117,FALSE,1.02239796178389
"CAN","cpi",1999,0.1,NA,2000,4,1,1.21307772534389,1.59114812084828,2.50399207866046,1.40211292309609,FALSE,2.40661252397589
"CAN","cpi",1999,0.2,NA,1999,4,0.5,0.68191277166511,1.16434786937112,1.40211292309609,0.923130320518117,FALSE,1.07684773201842
"CAN","cpi",1999,0.2,NA,2000,4,1,1.16089537424308,1.64333047194909,2.50399207866046,1.40211292309609,FALSE,2.63408911448442
"CAN","cpi",1999,0.3,NA,1999,4,0.5,0.618716215820858,1.22754442521538,1.40211292309609,0.923130320518117,FALSE,1.10759534619655
"CAN","cpi",1999,0.3,NA,2000,4,1,1.09769881839883,1.70652702779335,2.50399207866046,1.40211292309609,FALSE,2.88729978330054
"CAN","cpi",1999,0.4,NA,1999,4,0.5,0.555916573961505,1.29034406707473,1.40211292309609,0.923130320518117,FALSE,1.10699034651776
"CAN","cpi",1999,0.4,NA,2000,4,1,0.973278201206617,1.83094764498556,2.50399207866046,1.40211292309609,FALSE,3.10115088936193
"CAN","cpi",1999,0.5,NA,1999,4,0.5,0.392344702823639,1.45391593821259,1.40211292309609,0.923130320518117,TRUE,1.06157123538896
"CAN","cpi",1999,0.5,NA,2000,4,1,0.798378068519247,2.00584777767293,2.50399207866046,1.40211292309609,FALSE,3.20004691310379
"CAN","cpi",1999,0.6,NA,1999,4,0.5,0.376565358357685,1.46969528267855,1.40211292309609,0.923130320518117,TRUE,1.09312992432086
"CAN","cpi",1999,0.6,NA,2000,4,1,0.541591649807037,2.26263419638514,2.50399207866046,1.40211292309609,FALSE,2.92783195795469
"CAN","cpi",1999,0.7,NA,1999,4,0.5,0.166092474176692,1.68016816685954,1.40211292309609,0.923130320518117,TRUE,1.51407569268285
"CAN","cpi",1999,0.7,NA,2000,4,1,0.470783041230743,2.33344280496143,2.50399207866046,1.40211292309609,FALSE,2.99965492172418
"CAN","cpi",1999,0.8,NA,1999,4,0.5,0.0869234952434097,1.75933714579282,1.40211292309609,0.923130320518117,TRUE,1.67241365054941
"CAN","cpi",1999,0.8,NA,2000,4,1,0.422187197511696,2.38203864868048,2.50399207866046,1.40211292309609,FALSE,3.17938575096855
"CAN","cpi",1999,0.9,NA,1999,4,0.5,-0.276453671146861,2.12271431218309,1.40211292309609,0.923130320518117,TRUE,2.39916798332996
"CAN","cpi",1999,0.9,NA,2000,4,1,0.180625962946988,2.62359988324519,2.50399207866046,1.40211292309609,TRUE,2.4429739202982
"CAN","cpi",2000,0.1,NA,2000,4,0.5,1.98256799113993,2.36063838664432,2.50399207866046,2.17160318889212,FALSE,0.696634155540258
"CAN","cpi",2000,0.1,NA,2001,4,1,2.31495688090826,2.69302727641265,2.96814309391761,2.50399207866046,FALSE,0.989438878848734
"CAN","cpi",2000,0.2,NA,2000,4,0.5,1.9088276156553,2.43437876212894,2.50399207866046,2.17160318889212,FALSE,0.69958443780243
"CAN","cpi",2000,0.2,NA,2001,4,1,2.24121650542364,2.76676765189727,2.96814309391761,2.50399207866046,FALSE,1.02898975152447
"CAN","cpi",2000,0.3,NA,2000,4,0.5,1.85703882948312,2.48616754830112,2.50399207866046,2.17160318889212,FALSE,0.680055948416103
"CAN","cpi",2000,0.3,NA,2001,4,1,2.18942771925146,2.81855643806945,2.96814309391761,2.50399207866046,FALSE,1.05651916409843
"CAN","cpi",2000,0.4,NA,2000,4,0.5,1.7176945266584,2.62551185112584,2.50399207866046,2.17160318889212,TRUE,0.907817324467443
"CAN","cpi",2000,0.4,NA,2001,4,1,2.05008341642673,2.95790074089418,2.96814309391761,2.50399207866046,FALSE,0.941958501212203
"CAN","cpi",2000,0.5,NA,2000,4,0.5,1.64081757119764,2.7023888065866,2.50399207866046,2.17160318889212,TRUE,1.06157123538896
"CAN","cpi",2000,0.5,NA,2001,4,1,1.64347080537141,3.36451335194951,2.96814309391761,2.50399207866046,TRUE,1.7210425465781
"CAN","cpi",2000,0.6,NA,2000,4,0.5,1.62503822673169,2.71816815105255,2.50399207866046,2.17160318889212,TRUE,1.09312992432086
"CAN","cpi",2000,0.6,NA,2001,4,1,1.57266219679511,3.4353219605258,2.96814309391761,2.50399207866046,TRUE,1.86265976373069
"CAN","cpi",2000,0.7,NA,2000,4,0.5,1.4145653425507,2.92864103523355,2.50399207866046,2.17160318889212,TRUE,1.51407569268285
"CAN","cpi",2000,0.7,NA,2001,4,1,1.52406635307606,3.48391780424485,2.96814309391761,2.50399207866046,TRUE,1.95985145116878
"CAN","cpi",2000,0.8,NA,2000,4,0.5,1.33539636361741,3.00781001416683,2.50399207866046,2.17160318889212,TRUE,1.67241365054941
"CAN","cpi",2000,0.8,NA,2001,4,1,1.40211292309609,3.60587123422482,2.96814309391761,2.50399207866046,TRUE,2.20375831112874
"CAN","cpi",2000,0.9,NA,2000,4,0.5,0.972019197227143,3.3711871805571,2.50399207866046,2.17160318889212,TRUE,2.39916798332996
"CAN","cpi",2000,0.9,NA,2001,4,1,1.28250511851136,3.72547903880956,2.96814309391761,2.50399207866046,TRUE,2.4429739202982
"CAN","cpi",2001,0.1,NA,2001,4,0.5,2.49085033460043,2.90518948338651,2.96814309391761,2.69801990899347,FALSE,0.554236061077414
"CAN","cpi",2001,0.1,NA,2002,4,1,2.76097351952457,3.17531266831065,1.54486874462913,2.96814309391761,FALSE,3.11679420410927
"CAN","cpi",2001,0.2,NA,2001,4,0.5,2.40086797797861,2.99517184000832,2.96814309391761,2.69801990899347,TRUE,0.594303862029719
"CAN","cpi",2001,0.2,NA,2002,4,1,2.67099116290275,3.26529502493247,1.54486874462913,2.96814309391761,FALSE,3.40960990771375
"CAN","cpi",2001,0.3,NA,2001,4,0.5,2.35110667186033,3.0449331461266,2.96814309391761,2.69801990899347,TRUE,0.69382647426627
"CAN","cpi",2001,0.3,NA,2002,4,1,2.53930837202813,3.39697781580708,1.54486874462913,2.96814309391761,FALSE,3.69892552206181
"CAN","cpi",2001,0.4,NA,2001,4,0.5,2.33080616243685,3.06523365555008,2.96814309391761,2.69801990899347,TRUE,0.734427493113224
"CAN","cpi",2001,0.4,NA,2002,4,1,2.50399207866046,3.43229410917476,1.54486874462913,2.96814309391761,FALSE,4.12537981061871
"CAN","cpi",2001,0.5,NA,2001,4,0.5,2.21903730641549,3.17700251157144,2.96814309391761,2.69801990899347,TRUE,0.957965205155943
"CAN","cpi",2001,0.5,NA,2002,4,1,2.10762182062855,3.82866436720666,1.54486874462913,2.96814309391761,FALSE,3.97205485057579
"CAN","cpi",2001,0.6,NA,2001,4,0.5,2.16723429129899,3.22880552668794,2.96814309391761,2.69801990899347,TRUE,1.06157123538896
"CAN","cpi",2001,0.6,NA,2002,4,1,2.03681321205226,3.89947297578295,1.54486874462913,2.96814309391761,FALSE,4.32238210084633
"CAN","cpi",2001,0.7,NA,2001,4,0.5,1.94098206265204,3.45505775533489,2.96814309391761,2.69801990899347,TRUE,1.51407569268285
"CAN","cpi",2001,0.7,NA,2002,4,1,1.98821736833321,3.948068819502,1.54486874462913,2.96814309391761,FALSE,4.91550894252933
"CAN","cpi",2001,0.8,NA,2001,4,0.5,1.86181308371876,3.53422673426817,2.96814309391761,2.69801990899347,TRUE,1.67241365054941
"CAN","cpi",2001,0.8,NA,2002,4,1,1.86626393835324,4.07002224948197,1.54486874462913,2.96814309391761,FALSE,5.41771024836979
"CAN","cpi",2001,0.9,NA,2001,4,0.5,1.49843591732849,3.89760390065844,2.96814309391761,2.69801990899347,TRUE,2.39916798332996
"CAN","cpi",2001,0.9,NA,2002,4,1,1.74665613376851,4.18963005406671,1.54486874462913,2.96814309391761,FALSE,6.47872170308566
"CAN","cpi",2002,0.1,NA,2002,4,0.5,1.97303987238296,2.38737902116904,1.54486874462913,2.180209446776,FALSE,1.36583054379459
"CAN","cpi",2002,0.1,NA,2003,4,1,1.33769917023609,1.75203831902217,3.2075247865732,1.54486874462913,FALSE,3.6487535211217
"CAN","cpi",2002,0.2,NA,2002,4,0.5,1.91419036818324,2.44622852536876,1.54486874462913,2.180209446776,FALSE,1.45534221607079
"CAN","cpi",2002,0.2,NA,2003,4,1,1.27884966603637,1.81088782322189,3.2075247865732,1.54486874462913,FALSE,4.02363056556379
"CAN","cpi",2002,0.3,NA,2002,4,0.5,1.84782055700767,2.51259833654434,1.54486874462913,2.180209446776,FALSE,1.53035438633248
"CAN","cpi",2002,0.3,NA,2003,4,1,1.11603402273966,1.9737034665186,3.2075247865732,1.54486874462913,FALSE,4.3828732153635
"CAN","cpi",2002,0.4,NA,2002,4,0.5,1.81299570021939,2.54742319333261,1.54486874462913,2.180209446776,FALSE,1.62818401174742
"CAN","cpi",2002,0.4,NA,2003,4,1,1.08071772937198,2.00901975988628,3.2075247865732,1.54486874462913,FALSE,4.92331878613736
"CAN","cpi",2002,0.5,NA,2002,4,0.5,1.70122684419803,2.65919204935397,1.54486874462913,2.180209446776,FALSE,1.58339760343154
"CAN","cpi",2002,0.5,NA,2003,4,1,0.684347471340081,2.40539001791818,3.2075247865732,1.54486874462913,FALSE,4.92958162119817
"CAN","cpi",2002,0.6,NA,2002,4,0.5,1.64942382908152,2.71099506447048,1.54486874462913,2.180209446776,FALSE,1.58434665765092
"CAN","cpi",2002,0.6,NA,2003,4,1,0.56494301904474,2.52479447021352,3.2075247865732,1.54486874462913,FALSE,5.37350303296716
"CAN","cpi",2002,0.7,NA,2002,4,0.5,1.42317160043458,2.93724729311743,1.54486874462913,2.180209446776,TRUE,1.51407569268285
"CAN","cpi",2002,0.7,NA,2003,4,1,0.442989589064764,2.6467479001935,3.2075247865732,1.54486874462913,FALSE,5.94227088699339
"CAN","cpi",2002,0.8,NA,2002,4,0.5,1.3440026215013,3.01641627205071,1.54486874462913,2.180209446776,TRUE,1.67241365054941
"CAN","cpi",2002,0.8,NA,2003,4,1,0.323381784480032,2.76635570477823,3.2075247865732,1.54486874462913,FALSE,6.85466473824787
"CAN","cpi",2002,0.9,NA,2002,4,0.5,0.980625455111024,3.37979343844098,1.54486874462913,2.180209446776,TRUE,2.39916798332996
"CAN","cpi",2002,0.9,NA,2003,4,1,0.121594395340659,2.96814309391761,3.2075247865732,1.54486874462913,FALSE,7.63418255168882
"CAN","cpi",2003,0.1,NA,2003,4,0.5,2.71083282121031,3.12517196999639,3.2075247865732,2.91800239560335,FALSE,0.597345407845662
"CAN","cpi",2003,0.1,NA,2004,4,1,3.00035521218016,3.41469436096624,1.69584100230101,3.2075247865732,FALSE,3.31325961518418
"CAN","cpi",2003,0.2,NA,2003,4,0.5,2.65198331701059,3.18402147419611,3.2075247865732,2.91800239560335,FALSE,0.590796438128249
"CAN","cpi",2003,0.2,NA,2004,4,1,2.94150570798044,3.47354386516596,1.69584100230101,3.2075247865732,FALSE,3.64619992138408
"CAN","cpi",2003,0.3,NA,2003,4,0.5,2.58561350583501,3.25039128537168,3.2075247865732,2.91800239560335,TRUE,0.664777779536671
"CAN","cpi",2003,0.3,NA,2004,4,1,2.77869006468373,3.63635950846267,1.69584100230101,3.2075247865732,FALSE,3.95152390772955
"CAN","cpi",2003,0.4,NA,2003,4,0.5,2.55078864904674,3.28521614215996,3.2075247865732,2.91800239560335,TRUE,0.734427493113224
"CAN","cpi",2003,0.4,NA,2004,4,1,2.74337377131605,3.67167580183035,1.69584100230101,3.2075247865732,FALSE,4.42007792723108
"CAN","cpi",2003,0.5,NA,2003,4,0.5,2.43901979302538,3.39698499818132,3.2075247865732,2.91800239560335,TRUE,0.957965205155943
