isdrw/probabilistic-benchmark-forecasts/results/bayesian_quantile_regression/bqr_prediction_weo_2026-02-20_11-40-32.csv
"country","target","tau","target_year","target_quarter","forecast_year","forecast_quarter","horizon","lower_bound","upper_bound","truth_value","prediction","covered","IS"
"Canada","cpi",0.1,1994,4,1994,NA,0,-7.36393177714553,-6.36226058398383,0.198089708456428,0.186873981074975,FALSE,15.5802273985845
"Canada","cpi",0.1,1994,4,1994,NA,0.5,-6.84336679246491,-5.84169559930321,0.198089708456428,0.522791476131479,FALSE,14.4234163215165
"Canada","cpi",0.1,1995,4,1995,NA,0,1.80664728993891,2.08717102340055,1.91968793597725,2.14305230586886,TRUE,0.280523733461639
"Canada","cpi",0.1,1995,4,1995,NA,0.5,1.78929876321793,2.06982249667957,1.91968793597725,1.99619126700588,TRUE,0.280523733461639
"Canada","cpi",0.1,1995,4,1994,NA,1,8.25054589921579,8.53106963267743,1.91968793597725,1.5978236120703,FALSE,14.3490969851028
"Canada","cpi",0.1,1995,4,1994,NA,1.5,8.52625720465197,8.80678093811361,1.91968793597725,1.71534821064654,FALSE,14.961788774961
"Canada","cpi",0.1,1996,4,1996,NA,0,1.23857914110105,1.37445285218412,1.6556711728335,1.50166806813312,FALSE,0.76080331252614
"Canada","cpi",0.1,1996,4,1996,NA,0.5,0.68799974386866,0.868154022371331,1.6556711728335,1.32822008967348,FALSE,1.93019239064083
"Canada","cpi",0.1,1996,4,1995,NA,1,-0.452155126862281,0.413836674869216,1.6556711728335,2.02244327395347,FALSE,3.62562401942991
"Canada","cpi",0.1,1996,4,1995,NA,1.5,-2.03636188032325,-0.975254684321245,1.6556711728335,1.92718935452521,FALSE,6.90760910079033
"Canada","cpi",0.1,1997,4,1997,NA,0,1.3572416792482,1.48090614144983,1.42496507679055,1.54744278954444,TRUE,0.123664462201629
"Canada","cpi",0.1,1997,4,1997,NA,0.5,1.23117699807024,1.3575423106792,1.42496507679055,1.72303237316327,FALSE,0.276193681745291
"Canada","cpi",0.1,1997,4,1996,NA,1,0.236143697150391,0.715691287344987,1.42496507679055,2.0413885682107,FALSE,2.05571156674029
"Canada","cpi",0.1,1997,4,1996,NA,1.5,1.3800982105097,1.85964580070429,1.42496507679055,1.91986951679499,TRUE,0.479547590194596
"Canada","cpi",0.1,1998,4,1998,NA,0,1.19125760379752,1.2552810335037,1.0323682372128,1.32960503394646,FALSE,0.41711091100556
"Canada","cpi",0.1,1998,4,1998,NA,0.5,0.993293946919638,1.14079214619444,1.0323682372128,1.50726100317662,TRUE,0.147498199274797
"Canada","cpi",0.1,1998,4,1997,NA,1,-0.0274005015850916,0.542694508089436,1.0323682372128,1.58792609966374,FALSE,1.65825885217089
"Canada","cpi",0.1,1998,4,1997,NA,1.5,2.18937937772681,2.75947438740134,1.0323682372128,1.82722544395564,FALSE,3.14123087748344
"Canada","cpi",0.1,1999,4,1999,NA,0,1.1624588288223,1.22325208610315,1.74454349830908,1.50828275233879,FALSE,1.21921861773848
"Canada","cpi",0.1,1999,4,1999,NA,0.5,0.736327998192319,0.80837238122886,1.74454349830908,1.16115671553538,FALSE,2.15242464321481
"Canada","cpi",0.1,1999,4,1998,NA,1,1.04243101691366,1.11447539995021,1.74454349830908,1.9024836587632,FALSE,1.47219571272293
"Canada","cpi",0.1,1999,4,1998,NA,1.5,2.86842167528701,2.94046605832355,1.74454349830908,1.8746928929805,FALSE,2.56955144298749
"Canada","cpi",0.1,2000,4,2000,NA,0,1.72919464315628,1.8581877964363,2.73434549437299,2.29889507469385,FALSE,2.07601025980599
"Canada","cpi",0.1,2000,4,2000,NA,0.5,1.42450952594495,1.67659937039552,2.73434549437299,2.08273990461669,FALSE,2.60263678662273
"Canada","cpi",0.1,2000,4,1999,NA,1,-0.364469977590482,-0.112380133139909,2.73434549437299,1.72008921565576,FALSE,6.57814679447924
"Canada","cpi",0.1,2000,4,1999,NA,1.5,-0.0756748511237664,0.226765019205422,2.73434549437299,1.58716870538138,FALSE,5.87484092625712
"Canada","cpi",0.1,2001,4,2001,NA,0,2.36664702739263,2.51874432143905,2.54467897330315,3.10277295629358,FALSE,0.209729853744414
"Canada","cpi",0.1,2001,4,2001,NA,0.5,2.14182089557138,2.52073301888691,2.54467897330315,2.99102328155023,FALSE,0.432125355351613
"Canada","cpi",0.1,2001,4,2000,NA,1,-0.818543509734345,0.0239045480429043,2.54467897330315,2.05716779240688,FALSE,6.44416900280002
"Canada","cpi",0.1,2001,4,2000,NA,1.5,0.378820740319661,1.65751691996212,2.54467897330315,1.950224564531,FALSE,3.25016740928919
"Canada","cpi",0.1,2002,4,2002,NA,0,1.58355591719785,1.6697881998896,2.27695832736599,1.75121322657836,FALSE,1.43549923263928
"Canada","cpi",0.1,2002,4,2002,NA,0.5,0.574458263027988,0.690900050908376,2.27695832736599,0.885081053587844,FALSE,3.64101573556397
"Canada","cpi",0.1,2002,4,2001,NA,1,0.777680738409939,1.72510174399725,2.27695832736599,2.30325950597698,FALSE,2.17376896862895
"Canada","cpi",0.1,2002,4,2001,NA,1.5,3.060076929424,4.00749793501131,2.27695832736599,2.15511557897725,FALSE,2.68768456571622
"Canada","cpi",0.1,2003,4,2003,NA,0,2.1972714798777,2.42063183237521,2.73694526109434,2.83169100406533,FALSE,0.926279082984463
"Canada","cpi",0.1,2003,4,2003,NA,0.5,2.43468085985426,2.92758140454358,2.73694526109434,3.07009215555252,TRUE,0.492900544689316
"Canada","cpi",0.1,2003,4,2002,NA,1,0.669633627373315,1.37377979828645,2.73694526109434,2.1323009571345,FALSE,3.73340275493066
"Canada","cpi",0.1,2003,4,2002,NA,1.5,2.90377311660352,3.60791928751666,2.73694526109434,1.8128899881162,FALSE,1.07487473871133
"Canada","cpi",0.1,2004,4,2004,NA,0,1.73949559400571,1.84570821040605,1.84630058591067,1.94326335025052,FALSE,0.107529006410615
"Canada","cpi",0.1,2004,4,2004,NA,0.5,0.995548610411056,1.23882563590505,1.84630058591067,1.41202996286323,FALSE,1.59322135883982
"Canada","cpi",0.1,2004,4,2003,NA,1,-1.57711533452173,-1.03282269375912,1.84630058591067,1.72195310807912,FALSE,6.94234437336215
"Canada","cpi",0.1,2004,4,2003,NA,1.5,4.13193575651489,4.6762283972775,1.84630058591067,2.05203708097148,FALSE,5.62348190877199
"Canada","cpi",0.1,2005,4,2005,NA,0,1.80367523604728,1.89278768669828,2.23456211948951,2.2118960782598,FALSE,0.848611190187063
"Canada","cpi",0.1,2005,4,2005,NA,0.5,1.80940382883949,2.11611744613158,2.23456211948951,2.13787262164946,FALSE,0.569924002531931
"Canada","cpi",0.1,2005,4,2004,NA,1,2.27802933821437,2.58474295550645,2.23456211948951,2.16431636867425,FALSE,0.403307436680656
"Canada","cpi",0.1,2005,4,2004,NA,1.5,4.5160677574391,4.82278137473119,2.23456211948951,1.90121867779545,FALSE,5.37672614606896
"Canada","cpi",0.1,2006,4,2006,NA,0,1.83160537456745,1.96025624669632,2.00218136491059,2.21916154315092,FALSE,0.221817801493919
"Canada","cpi",0.1,2006,4,2006,NA,0.5,1.62844565057466,1.82095244154224,2.00218136491059,1.81971630867743,FALSE,0.595237731786144
"Canada","cpi",0.1,2006,4,2005,NA,1,1.80303202950609,2.48618893771581,2.00218136491059,2.47429489273694,TRUE,0.683156908209719
"Canada","cpi",0.1,2006,4,2005,NA,1.5,4.13508453529944,4.81824144350916,2.00218136491059,1.87720365668618,FALSE,5.42294173129606
"Canada","cpi",0.1,2007,4,2007,NA,0,1.77532667578447,1.90221116738187,2.14602107835604,2.18183020638083,FALSE,0.668684293762219
"Canada","cpi",0.1,2007,4,2007,NA,0.5,1.62807360080117,1.88017932033328,2.14602107835604,1.70657479409257,FALSE,0.842865181804908
"Canada","cpi",0.1,2007,4,2006,NA,1,1.29898301831675,1.69858576338722,2.14602107835604,1.88218856041089,FALSE,1.39390344500118
"Canada","cpi",0.1,2007,4,2006,NA,1.5,4.64304366159446,5.04264640666492,2.14602107835604,2.02111311333697,FALSE,5.94854181893361
"Canada","cpi",0.1,2008,4,2008,NA,0,1.99718544436028,2.09182948400298,2.38540342481082,2.5304444255341,FALSE,0.747030574771232
"Canada","cpi",0.1,2008,4,2008,NA,0.5,1.60459020715439,1.86462900016024,2.38540342481082,1.59687536789142,FALSE,1.41731529222936
"Canada","cpi",0.1,2008,4,2007,NA,1,1.4974050608398,1.93477576894767,2.38540342481082,1.90970285875554,FALSE,1.43876549891487
"Canada","cpi",0.1,2008,4,2007,NA,1.5,4.63488393359764,5.07225464170552,2.38540342481082,1.9732512990275,FALSE,5.43621628318971
"Canada","cpi",0.1,2009,4,2009,NA,0,0.808667793832928,0.817741149664083,0.292141396435586,0.146533060789067,FALSE,1.15690979449191
"Canada","cpi",0.1,2009,4,2009,NA,0.5,0.288764025457273,0.455297016859535,0.292141396435586,0.034043559717678,TRUE,0.166532991402262
"Canada","cpi",0.1,2009,4,2008,NA,1,2.01150692300302,2.53973696087384,0.292141396435586,2.12782728451457,FALSE,4.34904231913178
"Canada","cpi",0.1,2009,4,2008,NA,1.5,4.60477599026648,5.1330060281373,0.292141396435586,2.00999852974699,FALSE,10.1118624686061
"Canada","cpi",0.1,2010,4,2010,NA,0,1.26173527749759,1.29577601821838,1.77674215393546,1.77238598089253,FALSE,1.10285437564764
"Canada","cpi",0.1,2010,4,2010,NA,0.5,1.80990425596051,1.91798092219485,1.77674215393546,1.77913637602991,FALSE,0.181770226290004
"Canada","cpi",0.1,2010,4,2009,NA,1,2.75078134833612,2.89386034345587,1.77674215393546,1.25701172011297,FALSE,2.30761053823232
"Canada","cpi",0.1,2010,4,2009,NA,1.5,2.09713668883284,2.24021568395259,1.77674215393546,0.529947261879338,FALSE,0.855066850447258
"Canada","cpi",0.1,2011,4,2011,NA,0,2.08788488268821,2.18718439649956,2.8902561167552,2.90478393121871,FALSE,1.66168111437943
"Canada","cpi",0.1,2011,4,2011,NA,0.5,2.1238914547109,2.36645336470224,2.8902561167552,2.23130448324878,FALSE,1.40656802566458
"Canada","cpi",0.1,2011,4,2010,NA,1,2.44909582800737,2.93610823658626,2.8902561167552,2.01837757685623,TRUE,0.487012408578892
"Canada","cpi",0.1,2011,4,2010,NA,1.5,3.71905784649559,4.20607025507448,2.8902561167552,1.95623721047276,FALSE,2.32879403022421
"Canada","cpi",0.1,2012,4,2012,NA,0,1.82736716189762,1.91741614130919,1.5156782312455,1.79054609126241,FALSE,0.782691047527384
"Canada","cpi",0.1,2012,4,2012,NA,0.5,2.16252522851197,2.42361726792541,1.5156782312455,2.15830835181476,FALSE,1.69852981111671
"Canada","cpi",0.1,2012,4,2011,NA,1,1.56763717637004,2.27227787043042,1.5156782312455,2.06841506112034,FALSE,0.820105016559364
"Canada","cpi",0.1,2012,4,2011,NA,1.5,3.11302357490791,3.81766426896829,1.5156782312455,1.90016524544498,FALSE,4.25429701331017
"Canada","cpi",0.1,2013,4,2013,NA,0,1.19608574800002,1.25742874312398,0.958904109588499,1.14597712094762,FALSE,0.588413302705118
"Canada","cpi",0.1,2013,4,2013,NA,0.5,1.56700527457674,1.72809650971857,0.958904109588499,1.48934937362812,FALSE,1.51242715733792
"Canada","cpi",0.1,2013,4,2012,NA,1,2.44694529809417,3.00186833144691,0.958904109588499,1.95908925659181,FALSE,3.86168123003201
"Canada","cpi",0.1,2013,4,2012,NA,1.5,3.60288568075422,4.15780871410695,0.958904109588499,1.95931269932679,FALSE,6.43043763594322
"Canada","cpi",0.1,2014,4,2014,NA,0,1.41324101801046,1.48723228146049,1.89959294436879,1.93595035364857,FALSE,0.990348292135145
"Canada","cpi",0.1,2014,4,2014,NA,0.5,1.45463920782988,1.63779870855985,1.89959294436879,1.46400358003393,FALSE,0.764924469194284
"Canada","cpi",0.1,2014,4,2013,NA,1,2.42961669210735,2.84535235209832,1.89959294436879,1.64292796635188,FALSE,1.59356621052111
"Canada","cpi",0.1,2014,4,2013,NA,1.5,3.63341054273882,4.0491462027298,1.89959294436879,1.80659536932475,FALSE,4.26866365636882
"Canada","cpi",0.1,2015,4,2015,NA,0,1.19033687175339,1.25182030173806,1.10526666222837,0.996929389764856,FALSE,0.250528340040266
"Canada","cpi",0.1,2015,4,2015,NA,0.5,1.09369566288683,1.29407673590092,1.10526666222837,0.861748608895607,TRUE,0.200381073014083
"Canada","cpi",0.1,2015,4,2014,NA,1,2.25240716982304,2.6136728146276,1.10526666222837,1.95513831061374,FALSE,2.91046677279271
"Canada","cpi",0.1,2015,4,2014,NA,1.5,3.36167610980811,3.79207631027567,1.10526666222837,1.89794664118146,FALSE,5.44464341731143
"Canada","cpi",0.1,2016,4,2016,NA,0,1.31264019940019,1.36434611756922,1.40891434590795,1.6213393128403,FALSE,0.150746425588433
"Canada","cpi",0.1,2016,4,2016,NA,0.5,1.42135697527619,1.58293983475751,1.40891434590795,1.34742733904194,FALSE,0.18923314696629
"Canada","cpi",0.1,2016,4,2015,NA,1,2.20426902376963,2.52473976811741,1.40891434590795,1.60624886613732,FALSE,2.0879255840404
"Canada","cpi",0.1,2016,4,2015,NA,1.5,3.63739545098397,4.00756519414672,1.40891434590795,1.9555852361093,FALSE,5.32234997666501
"Canada","cpi",0.1,2017,4,2017,NA,0,1.35186289472615,1.42511923012213,1.6100759592282,1.60345984100552,FALSE,0.484271288965025
"Canada","cpi",0.1,2017,4,2017,NA,0.5,1.88037731831416,2.03536924353789,1.6100759592282,1.97179134396859,FALSE,0.755661612081419
"Canada","cpi",0.1,2017,4,2016,NA,1,2.62125507879185,3.11048874557038,1.6100759592282,2.06723461080021,FALSE,2.73629837691997
"Canada","cpi",0.1,2017,4,2016,NA,1.5,3.39630908390873,3.92839555318986,1.6100759592282,1.88056227767026,FALSE,4.50149341301565
"Canada","cpi",0.1,2018,4,2018,NA,0,1.86014926447705,1.89317099047543,2.24252491694275,2.56836987799731,FALSE,0.809363784814645
"Canada","cpi",0.1,2018,4,2018,NA,0.5,1.99366175487387,2.16096766106073,2.24252491694275,2.15070147257197,FALSE,0.348544252591348
"Canada","cpi",0.1,2018,4,2017,NA,1,2.00767300553015,2.51101760950154,2.24252491694275,1.78758120401781,TRUE,0.503344603971383
"Canada","cpi",0.1,2018,4,2017,NA,1.5,3.64976645880101,4.17587295526743,2.24252491694275,2.09839963444063,FALSE,3.6533099228181
"Canada","cpi",0.1,2019,4,2019,NA,0,1.69985854746711,1.80252551898491,1.94926902411596,2.01327426888733,FALSE,0.428763649586809
"Canada","cpi",0.1,2019,4,2019,NA,0.5,1.77697869694506,1.89989361497758,1.94926902411596,1.69254280527951,FALSE,0.232638049451138
"Canada","cpi",0.1,2019,4,2018,NA,1,2.45137101866925,2.90398042923555,1.94926902411596,2.22638738015912,FALSE,1.56839162068472
"Canada","cpi",0.1,2019,4,2018,NA,1.5,3.60236569401067,4.05497510457697,1.94926902411596,2.16219381067517,FALSE,4.12615756588788
"Canada","cpi",0.1,2020,4,2020,NA,0,1.03579426399463,1.10527171148445,0.716999632307869,0.616002459846787,FALSE,0.777909962349282
"Canada","cpi",0.1,2020,4,2020,NA,0.5,1.02060011238288,1.12796313482153,0.716999632307869,0.610467294263994,FALSE,0.782030755938676
"Canada","cpi",0.1,2020,4,2019,NA,1,2.29278422624099,2.82760538110754,0.716999632307869,2.02696644348777,FALSE,4.03656469694015
"Canada","cpi",0.1,2020,4,2019,NA,1.5,3.15500442717915,3.74572035824427,0.716999632307869,1.92866243701917,FALSE,6.0085043641124
"Canada","cpi",0.1,2021,4,2021,NA,0,1.89637479496651,1.93087270061086,3.39519318527535,3.15216265299885,FALSE,3.28854342712099
"Canada","cpi",0.1,2021,4,2021,NA,0.5,1.54821669175358,1.67680766630757,3.39519318527535,1.6932278955534,FALSE,3.94722546114906
"Canada","cpi",0.1,2021,4,2020,NA,1,1.88695586157965,2.28093871414945,3.39519318527535,1.26767182443679,FALSE,2.87010389951625
"Canada","cpi",0.1,2021,4,2020,NA,1.5,2.3392586243219,2.73324147689171,3.39519318527535,1.26085388904433,FALSE,1.8649866489779
"Canada","cpi",0.1,2022,4,2022,NA,0,4.1655622345574,4.29611654999303,6.79651641755912,6.89724461197294,FALSE,5.6869984655825
"Canada","cpi",0.1,2022,4,2022,NA,0.5,4.59003853522706,4.96317374174365,6.79651641755912,5.63726787323957,FALSE,4.44723004166207
"Canada","cpi",0.1,2022,4,2021,NA,1,2.8991913073047,3.61942029595513,6.79651641755912,2.63737521674188,FALSE,7.78044259221485
"Canada","cpi",0.1,2022,4,2021,NA,1.5,3.00281626818054,3.72304525683097,6.79651641755912,1.99992665814555,FALSE,7.55016490137966
"Canada","cpi",0.1,2023,4,2023,NA,0,3.49329802401427,3.65971781601499,3.87900159788375,3.62206654600981,FALSE,0.653717085042409
"Canada","cpi",0.1,2023,4,2023,NA,0.5,3.6561412699248,3.84823123544439,3.87900159788375,3.8990209221998,FALSE,0.260468548718164
"Canada","cpi",0.1,2023,4,2022,NA,1,2.19554316397388,3.32737741837281,3.87900159788375,4.1992923554854,FALSE,2.35766576442324
"Canada","cpi",0.1,2023,4,2022,NA,1.5,2.26954322412844,3.40137747852737,3.87900159788375,2.36848892603156,FALSE,2.193221186302
"Canada","cpi",0.1,2024,4,2024,NA,0,2.21572958362911,2.35317135957984,NA,2.43931175105141,NA,NA
"Canada","cpi",0.1,2024,4,2024,NA,0.5,2.54342475285828,2.76233590807191,NA,2.6060205122928,NA,NA
"Canada","cpi",0.1,2024,4,2023,NA,1,1.11033823133624,1.86961675114507,NA,2.43231375635082,NA,NA
"Canada","cpi",0.1,2024,4,2023,NA,1.5,3.96355796689187,4.80748230299775,NA,2.38514817358868,NA,NA
"Canada","cpi",0.1,2025,4,2024,NA,1,NA,NA,NA,1.87361390656267,NA,NA
"Canada","cpi",0.1,2025,4,2024,NA,1.5,NA,NA,NA,1.85379387622673,NA,NA
"Canada","cpi",0.2,1994,4,1994,NA,0,-5.2714823485299,-2.73239272281863,0.198089708456428,0.186873981074975,FALSE,9.86529570389892
"Canada","cpi",0.2,1994,4,1994,NA,0.5,-8.32501645525793,-4.45816112592644,0.198089708456428,0.522791476131479,FALSE,15.5074824152887
"Canada","cpi",0.2,1995,4,1995,NA,0,1.92732580666973,2.14317109103147,1.91968793597725,2.14305230586886,FALSE,0.234939961092943
"Canada","cpi",0.2,1995,4,1995,NA,0.5,1.41259296696736,2.72544565979136,1.91968793597725,1.99619126700588,TRUE,1.312852692824
"Canada","cpi",0.2,1995,4,1994,NA,1,5.67884493614459,7.09884362341821,1.91968793597725,1.5978236120703,FALSE,10.817891187692
"Canada","cpi",0.2,1995,4,1994,NA,1.5,9.39270652159415,10.8127052088678,1.91968793597725,1.71534821064654,FALSE,20.1025451513159
"Canada","cpi",0.2,1996,4,1996,NA,0,1.17297030652197,1.4597043537928,1.6556711728335,1.50166806813312,FALSE,0.776651094872568
"Canada","cpi",0.2,1996,4,1996,NA,0.5,0.60197418418219,0.916504145499622,1.6556711728335,1.32822008967348,FALSE,2.16244752965213
"Canada","cpi",0.2,1996,4,1995,NA,1,-0.320987028123431,0.832771352624059,1.6556711728335,2.02244327395347,FALSE,3.21100793127109
"Canada","cpi",0.2,1996,4,1995,NA,1.5,-1.69373917029082,-0.539980789543333,1.6556711728335,1.92718935452521,FALSE,6.64288828668957
"Canada","cpi",0.2,1997,4,1997,NA,0,1.33859692002727,1.48406766109072,1.42496507679055,1.54744278954444,TRUE,0.145470741063446
"Canada","cpi",0.2,1997,4,1997,NA,0.5,1.07549285010387,1.57583579852068,1.42496507679055,1.72303237316327,TRUE,0.500342948416812
"Canada","cpi",0.2,1997,4,1996,NA,1,-0.253649159120287,1.02614487236052,1.42496507679055,2.0413885682107,FALSE,2.27684454255588
"Canada","cpi",0.2,1997,4,1996,NA,1.5,0.7798599809186,2.05965401239941,1.42496507679055,1.91986951679499,TRUE,1.27979403148081
"Canada","cpi",0.2,1998,4,1998,NA,0,1.17330900404799,1.28499901371973,1.0323682372128,1.32960503394646,FALSE,0.464041926759711
"Canada","cpi",0.2,1998,4,1998,NA,0.5,0.911636182444923,1.24219968332788,1.0323682372128,1.50726100317662,TRUE,0.330563500882953
"Canada","cpi",0.2,1998,4,1997,NA,1,-0.32780230336428,0.524224674415032,1.0323682372128,1.58792609966374,FALSE,2.12238588477373
"Canada","cpi",0.2,1998,4,1997,NA,1.5,1.86207358804891,2.7703848749115,1.0323682372128,1.82722544395564,FALSE,2.98257466395287
"Canada","cpi",0.2,1999,4,1999,NA,0,1.13408470485169,1.23615177026791,1.74454349830908,1.50828275233879,FALSE,1.37304638551914
"Canada","cpi",0.2,1999,4,1999,NA,0.5,0.745400729740545,0.847467795156762,1.74454349830908,1.16115671553538,FALSE,2.34475632329701
"Canada","cpi",0.2,1999,4,1998,NA,1,1.00446425244284,1.10653131785905,1.74454349830908,1.9024836587632,FALSE,1.69709751654128
"Canada","cpi",0.2,1999,4,1998,NA,1.5,3.1074087959553,3.20947586137152,1.74454349830908,1.8746928929805,FALSE,3.50923030953177
"Canada","cpi",0.2,2000,4,2000,NA,0,1.6385266387373,1.91534094757467,2.73434549437299,2.29889507469385,FALSE,2.32432567583317
"Canada","cpi",0.2,2000,4,2000,NA,0.5,1.23637069957868,1.80227136199764,2.73434549437299,2.08273990461669,FALSE,2.89608599335733
"Canada","cpi",0.2,2000,4,1999,NA,1,-0.510761435066792,0.0551392273521754,2.73434549437299,1.72008921565576,FALSE,7.263916329971
"Canada","cpi",0.2,2000,4,1999,NA,1.5,-0.285477614892414,0.280423047526554,2.73434549437299,1.58716870538138,FALSE,6.70070677953506
"Canada","cpi",0.2,2001,4,2001,NA,0,2.28556060866399,2.6347071683945,2.54467897330315,3.10277295629358,TRUE,0.349146559730516
"Canada","cpi",0.2,2001,4,2001,NA,0.5,1.87588517168968,2.61767274265651,2.54467897330315,2.99102328155023,TRUE,0.741787570966824
"Canada","cpi",0.2,2001,4,2000,NA,1,-0.933899696684212,0.318774856577232,2.54467897330315,2.05716779240688,FALSE,6.81743484507624
"Canada","cpi",0.2,2001,4,2000,NA,1.5,0.36394518610075,1.61661973936219,2.54467897330315,1.950224564531,FALSE,3.57282263811383
"Canada","cpi",0.2,2002,4,2002,NA,0,1.50581549239759,1.77169156421374,2.27695832736599,1.75121322657836,FALSE,1.52904297969678
"Canada","cpi",0.2,2002,4,2002,NA,0.5,0.531851227112969,0.809272692386577,2.27695832736599,0.885081053587844,FALSE,3.94663555272214
"Canada","cpi",0.2,2002,4,2001,NA,1,0.363164702320594,2.08923189111151,2.27695832736599,2.30325950597698,FALSE,2.19538327942712
"Canada","cpi",0.2,2002,4,2001,NA,1.5,2.64527510028659,4.3713422890775,2.27695832736599,2.15511557897725,FALSE,2.6468591210924
"Canada","cpi",0.2,2003,4,2003,NA,0,2.10237858821668,2.52287728932999,2.73694526109434,2.83169100406533,FALSE,0.955668630524177
"Canada","cpi",0.2,2003,4,2003,NA,0.5,2.24679747333826,3.08471305647303,2.73694526109434,3.07009215555252,TRUE,0.837915583134762
"Canada","cpi",0.2,2003,4,2002,NA,1,0.0279892371914232,1.79983859072665,2.73694526109434,2.1323009571345,FALSE,4.11461602945444
"Canada","cpi",0.2,2003,4,2002,NA,1.5,2.36279193203045,4.13464128556568,2.73694526109434,1.8128899881162,TRUE,1.77184935353523
"Canada","cpi",0.2,2004,4,2004,NA,0,1.66200038085341,1.934442911869,1.84630058591067,1.94326335025052,TRUE,0.272442531015583
"Canada","cpi",0.2,2004,4,2004,NA,0.5,0.84660877626036,1.35716814394709,1.84630058591067,1.41202996286323,FALSE,1.73339047259568
"Canada","cpi",0.2,2004,4,2003,NA,1,-1.56185487896555,-0.685757485656679,1.84630058591067,1.72195310807912,FALSE,7.20624257222724
"Canada","cpi",0.2,2004,4,2003,NA,1.5,3.61538693040792,5.02013017449465,1.84630058591067,2.05203708097148,FALSE,5.82745910532986
"Canada","cpi",0.2,2005,4,2005,NA,0,1.72422516879024,1.96069916894044,2.23456211948951,2.2118960782598,FALSE,0.921131376522869
"Canada","cpi",0.2,2005,4,2005,NA,0.5,1.69580491258406,2.25516507754908,2.23456211948951,2.13787262164946,TRUE,0.559360164965014
"Canada","cpi",0.2,2005,4,2004,NA,1,2.07442217762136,3.04802526952477,2.23456211948951,2.16431636867425,TRUE,0.973603091903405
"Canada","cpi",0.2,2005,4,2004,NA,1.5,4.22449109082565,5.19809418272906,2.23456211948951,1.90121867779545,FALSE,5.94842552024376
"Canada","cpi",0.2,2006,4,2006,NA,0,1.78998040359397,2.07033576169402,2.00218136491059,2.21916154315092,TRUE,0.280355358100058
"Canada","cpi",0.2,2006,4,2006,NA,0.5,1.45232458456943,1.94189753163534,2.00218136491059,1.81971630867743,FALSE,0.640282530254033
"Canada","cpi",0.2,2006,4,2005,NA,1,1.60692730693529,2.67728000557772,2.00218136491059,2.47429489273694,TRUE,1.07035269864244
"Canada","cpi",0.2,2006,4,2005,NA,1.5,4.08330762698576,5.15366032562819,2.00218136491059,1.87720365668618,FALSE,6.27316835383035
"Canada","cpi",0.2,2007,4,2007,NA,0,1.70996657110774,1.95911486946617,2.14602107835604,2.18183020638083,FALSE,0.716413820583109
"Canada","cpi",0.2,2007,4,2007,NA,0.5,1.47139936823326,1.9411138218184,2.14602107835604,1.70657479409257,FALSE,0.981982594929246
"Canada","cpi",0.2,2007,4,2006,NA,1,1.30449048124992,2.06927478668261,2.14602107835604,1.88218856041089,FALSE,0.956650034616261
"Canada","cpi",0.2,2007,4,2006,NA,1.5,4.61705638530048,5.38184069073317,2.14602107835604,2.02111311333697,FALSE,6.9423725727938
"Canada","cpi",0.2,2008,4,2008,NA,0,1.93404148145759,2.17829412259412,2.38540342481082,2.5304444255341,FALSE,0.762025896678287
"Canada","cpi",0.2,2008,4,2008,NA,0.5,1.41705511759967,1.93976093639306,2.38540342481082,1.59687536789142,FALSE,1.63681203983778
"Canada","cpi",0.2,2008,4,2007,NA,1,1.32230672802448,2.11936636962984,2.38540342481082,1.90970285875554,FALSE,1.46215227955781
"Canada","cpi",0.2,2008,4,2007,NA,1.5,4.43700742431021,5.23406706591557,2.38540342481082,1.9732512990275,FALSE,5.92606964035384
"Canada","cpi",0.2,2009,4,2009,NA,0,0.788761001168659,0.855593223367689,0.292141396435586,0.146533060789067,FALSE,1.30838123403171
"Canada","cpi",0.2,2009,4,2009,NA,0.5,0.129759368685761,0.5905807897248,0.292141396435586,0.034043559717678,TRUE,0.460821421039039
"Canada","cpi",0.2,2009,4,2008,NA,1,1.63671261054875,2.70508278501919,0.292141396435586,2.12782728451457,FALSE,4.42979820975334
"Canada","cpi",0.2,2009,4,2008,NA,1.5,4.42058381154851,5.48895398601895,0.292141396435586,2.00999852974699,FALSE,11.3894762122527
"Canada","cpi",0.2,2010,4,2010,NA,0,1.22674144222664,1.33567295505746,1.77674215393546,1.77238598089253,FALSE,1.21160451002581
"Canada","cpi",0.2,2010,4,2010,NA,0.5,1.69291036008253,1.95341001224349,1.77674215393546,1.77913637602991,TRUE,0.260499652160954
"Canada","cpi",0.2,2010,4,2009,NA,1,2.68446016247508,2.96684612669567,1.77674215393546,1.25701172011297,FALSE,2.55168098556964
"Canada","cpi",0.2,2010,4,2009,NA,1.5,2.04710180451055,2.32948776873114,1.77674215393546,0.529947261879338,FALSE,0.958285090658321
"Canada","cpi",0.2,2011,4,2011,NA,0,2.02880682206235,2.20802483730359,2.8902561167552,2.90478393121871,FALSE,1.88479621387026
"Canada","cpi",0.2,2011,4,2011,NA,0.5,1.98258961319022,2.39952624246798,2.8902561167552,2.23130448324878,FALSE,1.64376131499581
"Canada","cpi",0.2,2011,4,2010,NA,1,2.23276438150485,3.1783603571629,2.8902561167552,2.01837757685623,TRUE,0.945595975658049
"Canada","cpi",0.2,2011,4,2010,NA,1.5,3.44352717358109,4.38912314923914,2.8902561167552,1.95623721047276,FALSE,2.32877361772277
"Canada","cpi",0.2,2012,4,2012,NA,0,1.76069516547967,1.94700711562697,1.5156782312455,1.79054609126241,FALSE,0.79885428573272
"Canada","cpi",0.2,2012,4,2012,NA,0.5,1.99413498006047,2.47285686599986,1.5156782312455,2.15830835181476,FALSE,1.67486375797681
"Canada","cpi",0.2,2012,4,2011,NA,1,1.15897544296132,2.40474857234237,1.5156782312455,2.06841506112034,TRUE,1.24577312938105
"Canada","cpi",0.2,2012,4,2011,NA,1.5,2.84282272377794,4.08859585315899,1.5156782312455,1.90016524544498,FALSE,4.56363436071215
"Canada","cpi",0.2,2013,4,2013,NA,0,1.15752459542567,1.28898539422565,0.958904109588499,1.14597712094762,FALSE,0.628012013392915
"Canada","cpi",0.2,2013,4,2013,NA,0.5,1.42665876988612,1.81345679792504,0.958904109588499,1.48934937362812,FALSE,1.55618467878297
"Canada","cpi",0.2,2013,4,2012,NA,1,2.33215478692952,3.27761170290528,0.958904109588499,1.95908925659181,FALSE,4.37858360932831
"Canada","cpi",0.2,2013,4,2012,NA,1.5,3.38949441826575,4.33495133424151,0.958904109588499,1.95931269932679,FALSE,7.02193268766889
"Canada","cpi",0.2,2014,4,2014,NA,0,1.37006947985732,1.49710519314386,1.89959294436879,1.93595035364857,FALSE,1.13325509134886
"Canada","cpi",0.2,2014,4,2014,NA,0.5,1.37464618705874,1.69141541058038,1.89959294436879,1.46400358003393,FALSE,0.837213057992665
"Canada","cpi",0.2,2014,4,2013,NA,1,2.24625361672127,2.98263093197198,1.89959294436879,1.64292796635188,FALSE,1.60302899613191
"Canada","cpi",0.2,2014,4,2013,NA,1.5,3.40581189510106,4.14218921035177,1.89959294436879,1.80659536932475,FALSE,4.50192469208138
"Canada","cpi",0.2,2015,4,2015,NA,0,1.15703406419722,1.27659776228451,1.10526666222837,0.996929389764856,FALSE,0.248982203009421
"Canada","cpi",0.2,2015,4,2015,NA,0.5,0.998800860028795,1.3635070772888,1.10526666222837,0.861748608895607,TRUE,0.364706217260008
"Canada","cpi",0.2,2015,4,2014,NA,1,1.97020137694412,2.81873637711185,1.10526666222837,1.95513831061374,FALSE,3.01087178695711
"Canada","cpi",0.2,2015,4,2014,NA,1.5,3.151164220563,4.09060287115275,1.10526666222837,1.89794664118146,FALSE,6.05418254642633
"Canada","cpi",0.2,2016,4,2016,NA,0,1.28088746937551,1.39415179280181,1.40891434590795,1.6213393128403,FALSE,0.15017070619165
"Canada","cpi",0.2,2016,4,2016,NA,0.5,1.31719347152085,1.62097708455701,1.40891434590795,1.34742733904194,TRUE,0.303783613036158
"Canada","cpi",0.2,2016,4,2015,NA,1,2.01433876874897,2.7755549555865,1.40891434590795,1.60624886613732,FALSE,2.27477724394008
"Canada","cpi",0.2,2016,4,2015,NA,1.5,3.43752819809631,4.39072342141483,1.40891434590795,1.9555852361093,FALSE,6.02472985378941
"Canada","cpi",0.2,2017,4,2017,NA,0,1.31239889800999,1.44576264859021,1.6100759592282,1.60345984100552,FALSE,0.544147027175199
"Canada","cpi",0.2,2017,4,2017,NA,0.5,1.75255391075115,2.09805108391103,1.6100759592282,1.97179134396859,FALSE,0.70169205196726
"Canada","cpi",0.2,2017,4,2016,NA,1,2.42240793089348,3.17837268878819,1.6100759592282,2.06723461080021,FALSE,2.78679468705791
"Canada","cpi",0.2,2017,4,2016,NA,1.5,3.16528739301219,4.05028493984458,1.6100759592282,1.88056227767026,FALSE,4.77302613129237
"Canada","cpi",0.2,2018,4,2018,NA,0,1.79074756388347,1.94091944311515,2.24252491694275,2.56836987799731,FALSE,0.904185563800673
"Canada","cpi",0.2,2018,4,2018,NA,0.5,1.8566277871586,2.23850120176853,2.24252491694275,2.15070147257197,FALSE,0.391932702545485
"Canada","cpi",0.2,2018,4,2017,NA,1,1.81556004468127,2.64650900610129,2.24252491694275,1.78758120401781,TRUE,0.830948961420015
"Canada","cpi",0.2,2018,4,2017,NA,1.5,3.4550182010139,4.44741889796486,2.24252491694275,2.09839963444063,FALSE,4.02363390712884
"Canada","cpi",0.2,2019,4,2019,NA,0,1.65799872099579,1.82618352338343,1.94926902411596,2.01327426888733,FALSE,0.475898554218973
"Canada","cpi",0.2,2019,4,2019,NA,0.5,1.61409539717022,1.94219453277381,1.94926902411596,1.69254280527951,FALSE,0.345785363958971
"Canada","cpi",0.2,2019,4,2018,NA,1,2.09509639100863,3.31167380952652,1.94926902411596,2.22638738015912,FALSE,1.58114583574957
"Canada","cpi",0.2,2019,4,2018,NA,1.5,3.18796929863524,4.40454671715314,1.94926902411596,2.16219381067517,FALSE,4.3133281048161
"Canada","cpi",0.2,2020,4,2020,NA,0,0.998214203259873,1.12470470801594,0.716999632307869,0.616002459846787,FALSE,0.829526932136075
"Canada","cpi",0.2,2020,4,2020,NA,0.5,0.908400271974312,1.16674691346838,0.716999632307869,0.610467294263994,FALSE,0.736848240660172
"Canada","cpi",0.2,2020,4,2019,NA,1,2.01223558047815,3.01359382921209,0.716999632307869,2.02696644348777,FALSE,4.23944811915964
"Canada","cpi",0.2,2020,4,2019,NA,1.5,2.88190568753906,3.883263936273,0.716999632307869,1.92866243701917,FALSE,6.41362338681191
"Canada","cpi",0.2,2021,4,2021,NA,0,1.86063353622048,1.96374652915337,3.39519318527535,3.15216265299885,FALSE,3.68172963323785
"Canada","cpi",0.2,2021,4,2021,NA,0.5,1.47220772894977,1.72680669528076,3.39519318527535,1.6932278955534,FALSE,4.42556519131748
"Canada","cpi",0.2,2021,4,2020,NA,1,1.78521717960069,2.36779218110873,3.39519318527535,1.26767182443679,FALSE,3.1510775119246
"Canada","cpi",0.2,2021,4,2020,NA,1.5,2.29131309566511,3.00900272932833,3.39519318527535,1.26085388904433,FALSE,1.68316577353076
"Canada","cpi",0.2,2022,4,2022,NA,0,4.09722669374288,4.38384073346486,6.79651641755912,6.89724461197294,FALSE,6.31830324995763
"Canada","cpi",0.2,2022,4,2022,NA,0.5,4.29840327484813,5.09636661697051,6.79651641755912,5.63726787323957,FALSE,5.04833784359391
"Canada","cpi",0.2,2022,4,2021,NA,1,2.46519273493821,4.04688536347288,6.79651641755912,2.63737521674188,FALSE,8.45577026375027
"Canada","cpi",0.2,2022,4,2021,NA,1.5,2.59827884487276,4.17997147340743,6.79651641755912,1.99992665814555,FALSE,8.1230549889139
"Canada","cpi",0.2,2023,4,2023,NA,0,3.35353034541046,3.72664498869946,3.87900159788375,3.62206654600981,FALSE,0.754006166249725
"Canada","cpi",0.2,2023,4,2023,NA,0.5,3.37831743310148,3.99657948674507,3.87900159788375,3.8990209221998,TRUE,0.618262053643591
"Canada","cpi",0.2,2023,4,2022,NA,1,1.57793732786142,4.1215584445985,3.87900159788375,4.1992923554854,TRUE,2.54362111673708
"Canada","cpi",0.2,2023,4,2022,NA,1.5,1.47892959187623,4.02255070861332,3.87900159788375,2.36848892603156,TRUE,2.54362111673708
"Canada","cpi",0.2,2024,4,2024,NA,0,2.20235419642183,2.40271421942542,NA,2.43931175105141,NA,NA
"Canada","cpi",0.2,2024,4,2024,NA,0.5,2.31822755224292,2.89699748511785,NA,2.6060205122928,NA,NA
"Canada","cpi",0.2,2024,4,2023,NA,1,0.514777232550625,2.37268854333372,NA,2.43231375635082,NA,NA
"Canada","cpi",0.2,2024,4,2023,NA,1.5,3.58765722455146,5.44556853533456,NA,2.38514817358868,NA,NA
"Canada","cpi",0.2,2025,4,2024,NA,1,NA,NA,NA,1.87361390656267,NA,NA
"Canada","cpi",0.2,2025,4,2024,NA,1.5,NA,NA,NA,1.85379387622673,NA,NA
"Canada","cpi",0.3,1994,4,1994,NA,0,-5.91771267462756,-5.22285673304405,0.198089708456428,0.186873981074975,FALSE,16.1832743458706
"Canada","cpi",0.3,1994,4,1994,NA,0.5,-7.85021993551897,-4.37559047541368,0.198089708456428,0.522791476131479,FALSE,16.5422871283056
"Canada","cpi",0.3,1995,4,1995,NA,0,2.21807851500676,1.75781717022661,1.91968793597725,2.14305230586886,FALSE,0.854771068877436
"Canada","cpi",0.3,1995,4,1995,NA,0.5,2.15223982281251,1.69197847803235,1.91968793597725,1.99619126700588,FALSE,0.854771068877435
"Canada","cpi",0.3,1995,4,1994,NA,1,7.80630692502499,7.34604558024484,1.91968793597725,1.5978236120703,FALSE,16.3586500524991
"Canada","cpi",0.3,1995,4,1994,NA,1.5,7.87142531301015,9.10187001395116,1.91968793597725,1.71534821064654,FALSE,18.2354086353207
"Canada","cpi",0.3,1996,4,1996,NA,0,1.17167858605257,1.50934955508412,1.6556711728335,1.50166806813312,FALSE,0.755732734029779
"Canada","cpi",0.3,1996,4,1996,NA,0.5,0.432528932886538,1.05456021459381,1.6556711728335,1.32822008967348,FALSE,2.33949116239211
"Canada","cpi",0.3,1996,4,1995,NA,1,-0.0887554738753196,1.3433490952922,1.6556711728335,2.02244327395347,FALSE,2.32445336214266
"Canada","cpi",0.3,1996,4,1995,NA,1.5,-1.69267778229785,-0.26057321313033,1.6556711728335,1.92718935452521,FALSE,6.90708852906418
"Canada","cpi",0.3,1997,4,1997,NA,0,1.26840429535533,1.56486138362016,1.42496507679055,1.54744278954444,TRUE,0.296457088264831
"Canada","cpi",0.3,1997,4,1997,NA,0.5,0.94824787042179,1.64759949301719,1.42496507679055,1.72303237316327,TRUE,0.699351622595404
"Canada","cpi",0.3,1997,4,1996,NA,1,-0.303984827596789,1.16978917040198,1.42496507679055,2.0413885682107,FALSE,2.20284801625182
"Canada","cpi",0.3,1997,4,1996,NA,1.5,0.927515500852252,3.02143644273675,1.42496507679055,1.91986951679499,TRUE,2.09392094188449
"Canada","cpi",0.3,1998,4,1998,NA,0,1.137354472891,1.32617979835228,1.0323682372128,1.32960503394646,FALSE,0.488785998827563
"Canada","cpi",0.3,1998,4,1998,NA,0.5,0.860206157396866,1.29161537291272,1.0323682372128,1.50726100317662,TRUE,0.43140921551585
"Canada","cpi",0.3,1998,4,1997,NA,1,-0.347137463341139,0.682826281878619,1.0323682372128,1.58792609966374,FALSE,2.02865504617456
"Canada","cpi",0.3,1998,4,1997,NA,1.5,1.72592296425262,2.75588670947238,1.0323682372128,1.82722544395564,FALSE,3.01154867961925
"Canada","cpi",0.3,1999,4,1999,NA,0,1.13924589900955,1.24329854804232,1.74454349830908,1.50828275233879,FALSE,1.53618107836636
"Canada","cpi",0.3,1999,4,1999,NA,0.5,0.766975694680416,0.871028343713185,1.74454349830908,1.16115671553538,FALSE,2.59981023359247
"Canada","cpi",0.3,1999,4,1998,NA,1,1.05268642986909,1.15673907890186,1.74454349830908,1.9024836587632,FALSE,1.78349384733912
"Canada","cpi",0.3,1999,4,1998,NA,1.5,3.28210622901652,3.38615887804929,1.74454349830908,1.8746928929805,FALSE,4.4970890224826
"Canada","cpi",0.3,2000,4,2000,NA,0,1.6076332408876,1.96556357666622,2.73434549437299,2.29889507469385,FALSE,2.55445010065512
"Canada","cpi",0.3,2000,4,2000,NA,0.5,1.24193638315798,1.90014506362731,2.73434549437299,2.08273990461669,FALSE,3.04163848259985
"Canada","cpi",0.3,2000,4,1999,NA,1,-0.551699534804978,0.106509145664354,2.73434549437299,1.72008921565576,FALSE,8.16631253392258
"Canada","cpi",0.3,2000,4,1999,NA,1.5,-0.186022069944778,0.472186610524553,2.73434549437299,1.58716870538138,FALSE,7.12151977717915
"Canada","cpi",0.3,2001,4,2001,NA,0,2.17179035593886,2.71028263867646,2.54467897330315,3.10277295629358,TRUE,0.538492282737598
"Canada","cpi",0.3,2001,4,2001,NA,0.5,1.74709071295022,2.86132759626537,2.54467897330315,2.99102328155023,TRUE,1.11423688331515
"Canada","cpi",0.3,2001,4,2000,NA,1,-1.40076139307378,0.653871913486074,2.54467897330315,2.05716779240688,FALSE,7.4569391917515
"Canada","cpi",0.3,2001,4,2000,NA,1.5,0.106210601897676,2.16084390845753,2.54467897330315,1.950224564531,FALSE,3.15130492040448
"Canada","cpi",0.3,2002,4,2002,NA,0,1.41851599812166,1.81860535212212,2.27695832736599,1.75121322657836,FALSE,1.70966928326866
"Canada","cpi",0.3,2002,4,2002,NA,0.5,0.444309915507843,0.986016864679827,2.27695832736599,0.885081053587844,FALSE,4.23011112827531
"Canada","cpi",0.3,2002,4,2001,NA,1,0.161487191737238,2.25838735900959,2.27695832736599,2.30325950597698,FALSE,2.14996007686206
"Canada","cpi",0.3,2002,4,2001,NA,1.5,2.60781700606504,4.70471717333739,2.27695832736599,2.15511557897725,FALSE,3.04221067784107
"Canada","cpi",0.3,2003,4,2003,NA,0,1.97914122109373,2.68212784577987,2.73694526109434,2.83169100406533,FALSE,0.859607811298916
"Canada","cpi",0.3,2003,4,2003,NA,0.5,2.0009110474448,3.39504823084607,2.73694526109434,3.07009215555252,TRUE,1.39413718340128
"Canada","cpi",0.3,2003,4,2002,NA,1,0.0181815389470004,2.2437307896607,2.73694526109434,2.1323009571345,FALSE,3.63473345480982
"Canada","cpi",0.3,2003,4,2002,NA,1.5,2.15297307839752,4.37852232911122,2.73694526109434,1.8128899881162,TRUE,2.2255492507137
"Canada","cpi",0.3,2004,4,2004,NA,0,1.59681613456531,2.0559987030456,1.84630058591067,1.94326335025052,TRUE,0.459182568480283
"Canada","cpi",0.3,2004,4,2004,NA,0.5,0.784043588589437,1.55091192650416,1.84630058591067,1.41202996286323,FALSE,1.61083593621904
"Canada","cpi",0.3,2004,4,2003,NA,1,-1.81909051985816,-0.0178918818699932,1.84630058591067,1.72195310807912,FALSE,7.12746283164721
"Canada","cpi",0.3,2004,4,2003,NA,1.5,3.48371431582866,5.28491295381683,1.84630058591067,2.05203708097148,FALSE,6.479523580611
"Canada","cpi",0.3,2005,4,2005,NA,0,1.65596446057924,2.00102563414981,2.23456211948951,2.2118960782598,FALSE,1.01230827454114
"Canada","cpi",0.3,2005,4,2005,NA,0.5,1.49795950155367,2.48729363313356,2.23456211948951,2.13787262164946,TRUE,0.989334131579882
"Canada","cpi",0.3,2005,4,2004,NA,1,1.64693134566489,3.0713203102353,2.23456211948951,2.16431636867425,TRUE,1.42438896457041
"Canada","cpi",0.3,2005,4,2004,NA,1.5,4.07793869955914,5.50232766412955,2.23456211948951,1.90121867779545,FALSE,6.69117919334077
"Canada","cpi",0.3,2006,4,2006,NA,0,1.73797592631152,2.09485876533939,2.00218136491059,2.21916154315092,TRUE,0.356882839027862
"Canada","cpi",0.3,2006,4,2006,NA,0.5,1.30677299856239,2.13681444724456,2.00218136491059,1.81971630867743,TRUE,0.830041448682176
"Canada","cpi",0.3,2006,4,2005,NA,1,1.15673564442623,3.02718647772143,2.00218136491059,2.47429489273694,TRUE,1.8704508332952
"Canada","cpi",0.3,2006,4,2005,NA,1.5,3.74993512495751,5.62038595825271,2.00218136491059,1.87720365668618,FALSE,6.86403300485784
"Canada","cpi",0.3,2007,4,2007,NA,0,1.67657208160909,1.98953741540393,2.14602107835604,2.18183020638083,FALSE,0.760061513658005
"Canada","cpi",0.3,2007,4,2007,NA,0.5,1.2771665571843,2.01891334565189,2.14602107835604,1.70657479409257,FALSE,1.10491173905088
"Canada","cpi",0.3,2007,4,2006,NA,1,1.06353105688359,2.20190585661232,2.14602107835604,1.88218856041089,TRUE,1.13837479972873
"Canada","cpi",0.3,2007,4,2006,NA,1.5,4.53551060153629,5.67388540126502,2.14602107835604,2.02111311333697,FALSE,7.96548772310088
"Canada","cpi",0.3,2008,4,2008,NA,0,1.8681002177933,2.23363601872013,2.38540342481082,2.5304444255341,FALSE,0.799156961185946
"Canada","cpi",0.3,2008,4,2008,NA,0.5,1.31107359402342,2.02838155316828,2.38540342481082,1.59687536789142,FALSE,1.73737044955211
"Canada","cpi",0.3,2008,4,2007,NA,1,1.12443744867548,2.33858575764966,2.38540342481082,1.90970285875554,FALSE,1.34791307229179
"Canada","cpi",0.3,2008,4,2007,NA,1.5,4.14981012736596,5.36395843634014,2.38540342481082,1.9732512990275,FALSE,6.25531031627458
"Canada","cpi",0.3,2009,4,2009,NA,0,0.75974646995995,0.887059038890995,0.292141396435586,0.146533060789067,FALSE,1.46332706471494
"Canada","cpi",0.3,2009,4,2009,NA,0.5,0.069039781000833,0.6782942704029,0.292141396435586,0.034043559717678,TRUE,0.609254489402067
"Canada","cpi",0.3,2009,4,2008,NA,1,1.50834950912298,2.87951389421592,0.292141396435586,2.12782728451457,FALSE,4.84604470705691
"Canada","cpi",0.3,2009,4,2008,NA,1.5,4.21784904093334,5.58901342602628,0.292141396435586,2.00999852974699,FALSE,12.5874719408008
"Canada","cpi",0.3,2010,4,2010,NA,0,1.18767400262452,1.38168711430769,1.77674215393546,1.77238598089253,FALSE,1.32274179633395
"Canada","cpi",0.3,2010,4,2010,NA,0.5,1.62174524069603,1.99123167825157,1.77674215393546,1.77913637602991,TRUE,0.369486437555547
"Canada","cpi",0.3,2010,4,2009,NA,1,2.62782177589643,2.99730821345198,1.77674215393546,1.25701172011297,FALSE,2.80114250030117
"Canada","cpi",0.3,2010,4,2009,NA,1.5,2.03462580300655,2.40411224056209,1.77674215393546,0.529947261879338,FALSE,1.10629686347294
"Canada","cpi",0.3,2011,4,2011,NA,0,2.00251879538117,2.28046170718735,2.8902561167552,2.90478393121871,FALSE,2.02021265342861
"Canada","cpi",0.3,2011,4,2011,NA,0.5,1.80459383555762,2.54963808973767,2.8902561167552,2.23130448324878,FALSE,1.71823861708727
"Canada","cpi",0.3,2011,4,2010,NA,1,1.96655697119352,3.4590897084287,2.8902561167552,2.01837757685623,TRUE,1.49253273723517
"Canada","cpi",0.3,2011,4,2010,NA,1.5,3.16094766688869,4.65348040412386,2.8902561167552,1.95623721047276,FALSE,2.265937166188
"Canada","cpi",0.3,2012,4,2012,NA,0,1.69423655660702,1.97463964776415,1.5156782312455,1.79054609126241,FALSE,0.790569735047178
"Canada","cpi",0.3,2012,4,2012,NA,0.5,1.85594839373895,2.63320842301394,1.5156782312455,2.15830835181476,FALSE,1.74946049354198
"Canada","cpi",0.3,2012,4,2011,NA,1,0.673445077118025,2.80547144803759,1.5156782312455,2.06841506112034,TRUE,2.13202637091957
"Canada","cpi",0.3,2012,4,2011,NA,1.5,2.28886192963254,4.42088830055211,1.5156782312455,1.90016524544498,FALSE,4.3411226520254
"Canada","cpi",0.3,2013,4,2013,NA,0,1.11901550538886,1.3160901448902,0.958904109588499,1.14597712094762,FALSE,0.654535770359506
"Canada","cpi",0.3,2013,4,2013,NA,0.5,1.33202519097765,1.91867726979354,0.958904109588499,1.48934937362812,FALSE,1.65271231135632
"Canada","cpi",0.3,2013,4,2012,NA,1,1.91623953343685,3.44713723110307,0.958904109588499,1.95908925659181,FALSE,4.26614176580437
"Canada","cpi",0.3,2013,4,2012,NA,1.5,2.99627490731437,4.5271726049806,0.958904109588499,1.95931269932679,FALSE,7.35195711974016
"Canada","cpi",0.3,2014,4,2014,NA,0,1.33973815972995,1.54478417252413,1.89959294436879,1.93595035364857,FALSE,1.21878536092178
"Canada","cpi",0.3,2014,4,2014,NA,0.5,1.19859261177073,1.73811233692103,1.89959294436879,1.46400358003393,FALSE,1.00089288928675
"Canada","cpi",0.3,2014,4,2013,NA,1,2.063895344178,3.17907368938835,1.89959294436879,1.64292796635188,FALSE,1.58461377323667
"Canada","cpi",0.3,2014,4,2013,NA,1.5,3.19618454974452,4.31136289495487,1.89959294436879,1.80659536932475,FALSE,4.81972578914101
"Canada","cpi",0.3,2015,4,2015,NA,0,1.11696896838435,1.30746149852544,1.10526666222837,0.996929389764856,FALSE,0.223927690586748
"Canada","cpi",0.3,2015,4,2015,NA,0.5,0.845763998657123,1.44951518372121,1.10526666222837,0.861748608895607,TRUE,0.603751185064089
"Canada","cpi",0.3,2015,4,2014,NA,1,1.67437511297598,3.10231105488987,1.10526666222837,1.95513831061374,FALSE,3.05396008690706
"Canada","cpi",0.3,2015,4,2014,NA,1.5,2.87990815322536,4.30784409513925,1.10526666222837,1.89794664118146,FALSE,6.49834020190529
"Canada","cpi",0.3,2016,4,2016,NA,0,1.2620142778878,1.42870710069639,1.40891434590795,1.6213393128403,TRUE,0.166692822808589
"Canada","cpi",0.3,2016,4,2016,NA,0.5,1.21632566833616,1.69546437632133,1.40891434590795,1.34742733904194,TRUE,0.479138707985169
"Canada","cpi",0.3,2016,4,2015,NA,1,1.78242798368699,2.94722885907906,1.40891434590795,1.60624886613732,FALSE,2.23198269761791
"Canada","cpi",0.3,2016,4,2015,NA,1.5,3.30447519049749,4.54154399039516,1.40891434590795,1.9555852361093,FALSE,6.65295692729636
"Canada","cpi",0.3,2017,4,2017,NA,0,1.26934171940711,1.46709746523208,1.6100759592282,1.60345984100552,FALSE,0.606265728671026
"Canada","cpi",0.3,2017,4,2017,NA,0.5,1.61552597851666,2.17602874404043,1.6100759592282,1.97179134396859,FALSE,0.576074249205095
"Canada","cpi",0.3,2017,4,2016,NA,1,2.1317914137596,3.42164000339416,1.6100759592282,2.06723461080021,FALSE,2.78046417400999
"Canada","cpi",0.3,2017,4,2016,NA,1.5,2.97066317903026,4.30372421536956,1.6100759592282,1.88056227767026,FALSE,5.22045309291661
"Canada","cpi",0.3,2018,4,2018,NA,0,1.73980162430826,1.98004568849961,2.24252491694275,2.56836987799731,FALSE,0.990184716886028
"Canada","cpi",0.3,2018,4,2018,NA,0.5,1.68411773109099,2.27732537370777,2.24252491694275,2.15070147257197,TRUE,0.593207642616777
"Canada","cpi",0.3,2018,4,2017,NA,1,1.60472891298662,2.90294809238855,2.24252491694275,1.78758120401781,TRUE,1.29821917940193
"Canada","cpi",0.3,2018,4,2017,NA,1.5,3.18663389279552,4.76426893366411,2.24252491694275,2.09839963444063,FALSE,4.27508925759078
"Canada","cpi",0.3,2019,4,2019,NA,0,1.61419857367685,1.87412388890932,1.94926902411596,2.01327426888733,FALSE,0.474625701537149
"Canada","cpi",0.3,2019,4,2019,NA,0.5,1.46907522434429,2.03667934552294,1.94926902411596,1.69254280527951,TRUE,0.567604121178651
"Canada","cpi",0.3,2019,4,2018,NA,1,1.86007721091388,3.42283552444393,1.94926902411596,2.22638738015912,TRUE,1.56275831353006
"Canada","cpi",0.3,2019,4,2018,NA,1.5,2.97482214631819,4.53758045984825,1.94926902411596,2.16219381067517,FALSE,4.49291009125072
"Canada","cpi",0.3,2020,4,2020,NA,0,0.960122931888158,1.14054344952456,0.716999632307869,0.616002459846787,FALSE,0.875058516437224
"Canada","cpi",0.3,2020,4,2020,NA,0.5,0.788929515691691,1.18813183388056,0.716999632307869,0.610467294263994,FALSE,0.604716270714077
"Canada","cpi",0.3,2020,4,2019,NA,1,1.70110451981182,3.30445443570881,0.716999632307869,2.02696644348777,FALSE,4.41507816590828
"Canada","cpi",0.3,2020,4,2019,NA,1.5,2.66104514370402,4.264395059601,0.716999632307869,1.92866243701917,FALSE,7.15776566274312
"Canada","cpi",0.3,2021,4,2021,NA,0,1.82122490843507,1.9966420758606,3.39519318527535,3.15216265299885,FALSE,4.1712774800391
"Canada","cpi",0.3,2021,4,2021,NA,0.5,1.40081689859128,1.75156601594902,3.39519318527535,1.6932278955534,FALSE,5.04682674400439
"Canada","cpi",0.3,2021,4,2020,NA,1,1.53284863413074,2.48754274783973,3.39519318527535,1.26767182443679,FALSE,3.54798107781076
"Canada","cpi",0.3,2021,4,2020,NA,1.5,2.12942793170252,3.12646694610176,3.39519318527535,1.26085388904433,FALSE,1.76482826918092
"Canada","cpi",0.3,2022,4,2022,NA,0,4.00602375226582,4.4441828078994,6.79651641755912,6.89724461197294,FALSE,7.15911222608993
"Canada","cpi",0.3,2022,4,2022,NA,0.5,3.97172828345968,5.40219824368764,6.79651641755912,5.63726787323957,FALSE,5.41423617128934
"Canada","cpi",0.3,2022,4,2021,NA,1,1.97225744480746,4.37969766801459,6.79651641755912,2.63737521674188,FALSE,9.31263665047722
"Canada","cpi",0.3,2022,4,2021,NA,1.5,2.21089256906718,4.61833279227431,6.79651641755912,1.99992665814555,FALSE,8.63082200973516
"Canada","cpi",0.3,2023,4,2023,NA,0,3.2310743033366,3.81796133393178,3.87900159788375,3.62206654600981,FALSE,0.761287784743668
"Canada","cpi",0.3,2023,4,2023,NA,0.5,3.03973030189948,4.24728513921225,3.87900159788375,3.8990209221998,TRUE,1.20755483731277
"Canada","cpi",0.3,2023,4,2022,NA,1,0.721900619375279,4.58291443033271,3.87900159788375,4.1992923554854,TRUE,3.86101381095743
"Canada","cpi",0.3,2023,4,2022,NA,1.5,0.781554920954491,4.64256873191192,3.87900159788375,2.36848892603156,TRUE,3.86101381095743
"Canada","cpi",0.3,2024,4,2024,NA,0,2.11745806242354,2.44072369978651,NA,2.43931175105141,NA,NA
"Canada","cpi",0.3,2024,4,2024,NA,0.5,2.13651132491792,3.03945120945683,NA,2.6060205122928,NA,NA
"Canada","cpi",0.3,2024,4,2023,NA,1,0.182439529234083,2.57025659032212,NA,2.43231375635082,NA,NA
"Canada","cpi",0.3,2024,4,2023,NA,1.5,3.0799581215121,5.58690847859753,NA,2.38514817358868,NA,NA
"Canada","cpi",0.3,2025,4,2024,NA,1,NA,NA,NA,1.87361390656267,NA,NA
"Canada","cpi",0.3,2025,4,2024,NA,1.5,NA,NA,NA,1.85379387622673,NA,NA
"Canada","cpi",0.4,1994,4,1994,NA,0,-10.2748431021768,-6.19010020768993,0.198089708456428,0.186873981074975,FALSE,25.3787092816414
"Canada","cpi",0.4,1994,4,1994,NA,0.5,-7.62402359445985,-3.48438207041503,0.198089708456428,0.522791476131479,FALSE,16.4145474536163
"Canada","cpi",0.4,1995,4,1995,NA,0,1.71168113137768,2.45727292577501,1.91968793597725,2.14305230586886,TRUE,0.745591794397333
"Canada","cpi",0.4,1995,4,1995,NA,0.5,1.16957204634011,2.01717926193603,1.91968793597725,1.99619126700588,TRUE,0.84760721559592
"Canada","cpi",0.4,1995,4,1994,NA,1,6.68165735410239,8.34560530476952,1.91968793597725,1.5978236120703,FALSE,17.5371793444176
"Canada","cpi",0.4,1995,4,1994,NA,1.5,8.62424045691259,11.9076061000347,1.91968793597725,1.71534821064654,FALSE,25.6318740462399
"Canada","cpi",0.4,1996,4,1996,NA,0,1.06365284681561,1.54291386614893,1.6556711728335,1.50166806813312,FALSE,0.855118708281887
"Canada","cpi",0.4,1996,4,1996,NA,0.5,0.450178929060569,1.17687626480177,1.6556711728335,1.32822008967348,FALSE,2.32268036251364
"Canada","cpi",0.4,1996,4,1995,NA,1,-1.36848946201483,1.2685428329776,1.6556711728335,2.02244327395347,FALSE,3.92746009451209
"Canada","cpi",0.4,1996,4,1995,NA,1.5,-2.05093096241726,0.586101332575168,1.6556711728335,1.92718935452521,FALSE,6.20226509585354
"Canada","cpi",0.4,1997,4,1997,NA,0,1.19424445929939,1.58118701568358,1.42496507679055,1.54744278954444,TRUE,0.386942556384192
"Canada","cpi",0.4,1997,4,1997,NA,0.5,0.839030040138803,1.78449962450205,1.42496507679055,1.72303237316327,TRUE,0.945469584363251
"Canada","cpi",0.4,1997,4,1996,NA,1,-0.67070811998582,1.32712054203378,1.42496507679055,2.0413885682107,FALSE,2.32397711120883
"Canada","cpi",0.4,1997,4,1996,NA,1.5,0.790683532389997,3.17920694032783,1.42496507679055,1.91986951679499,TRUE,2.38852340793784
"Canada","cpi",0.4,1998,4,1998,NA,0,1.0853834946522,1.37302510482076,1.0323682372128,1.32960503394646,FALSE,0.464359134966559
"Canada","cpi",0.4,1998,4,1998,NA,0.5,0.82594005301539,1.40288787804865,1.0323682372128,1.50726100317662,TRUE,0.576947825033262
"Canada","cpi",0.4,1998,4,1997,NA,1,-0.58121382573888,0.744966040691082,1.0323682372128,1.58792609966374,FALSE,2.28418718816902
"Canada","cpi",0.4,1998,4,1997,NA,1.5,1.46627477944834,2.79245464587831,1.0323682372128,1.82722544395564,FALSE,2.77253500721511
"Canada","cpi",0.4,1999,4,1999,NA,0,1.04473119689189,1.34607616925624,1.74454349830908,1.50828275233879,FALSE,1.62956940254048
"Canada","cpi",0.4,1999,4,1999,NA,0.5,0.682643614217081,1.00419482446008,1.74454349830908,1.16115671553538,FALSE,2.78938012307299
"Canada","cpi",0.4,1999,4,1998,NA,1,0.989421420913841,1.31097263115685,1.74454349830908,1.9024836587632,FALSE,1.76678743408379
"Canada","cpi",0.4,1999,4,1998,NA,1.5,3.24759934767281,3.56915055791582,1.74454349830908,1.8746928929805,FALSE,5.33173737478879
"Canada","cpi",0.4,2000,4,2000,NA,0,1.51240427000259,2.04575494807816,2.73434549437299,2.29889507469385,FALSE,2.82865249905834
"Canada","cpi",0.4,2000,4,2000,NA,0.5,1.11539192597152,2.03916209944341,2.73434549437299,2.08273990461669,FALSE,3.24104815657048
"Canada","cpi",0.4,2000,4,1999,NA,1,-0.641969536410075,0.281800637061814,2.73434549437299,1.72008921565576,FALSE,9.09891969784248
"Canada","cpi",0.4,2000,4,1999,NA,1.5,-0.358523159313708,0.565247014158181,2.73434549437299,1.58716870538138,FALSE,8.15409844085459
"Canada","cpi",0.4,2001,4,2001,NA,0,2.07899455017941,2.81731968027686,2.54467897330315,3.10277295629358,TRUE,0.738325130097451
"Canada","cpi",0.4,2001,4,2001,NA,0.5,1.52041145907252,3.08416576707528,2.54467897330315,2.99102328155023,TRUE,1.56375430800277
"Canada","cpi",0.4,2001,4,2000,NA,1,-1.53152775416699,1.18027409034123,2.54467897330315,2.05716779240688,FALSE,7.25981812104796
"Canada","cpi",0.4,2001,4,2000,NA,1.5,-0.397847755435929,2.52472291349978,2.54467897330315,1.950224564531,FALSE,2.98909086828027
"Canada","cpi",0.4,2002,4,2002,NA,0,1.34198655349731,1.91746408763733,2.27695832736599,1.75121322657836,FALSE,1.77379166656888
"Canada","cpi",0.4,2002,4,2002,NA,0.5,0.414993719641053,1.1149113429053,2.27695832736599,0.885081053587844,FALSE,4.57340757146654
"Canada","cpi",0.4,2002,4,2001,NA,1,-0.131014293116415,3.17080419730561,2.27695832736599,2.30325950597698,TRUE,3.30181849042202
"Canada","cpi",0.4,2002,4,2001,NA,1.5,2.13225386724014,5.43407235766216,2.27695832736599,2.15511557897725,TRUE,3.30181849042202
"Canada","cpi",0.4,2003,4,2003,NA,0,1.9141820457951,2.7793695790235,2.73694526109434,2.83169100406533,TRUE,0.865187533228395
"Canada","cpi",0.4,2003,4,2003,NA,0.5,1.82818107512945,3.63312187846859,2.73694526109434,3.07009215555252,TRUE,1.80494080333914
"Canada","cpi",0.4,2003,4,2002,NA,1,-0.186764667853374,2.64955757065328,2.73694526109434,2.1323009571345,FALSE,3.12761453997685
"Canada","cpi",0.4,2003,4,2002,NA,1.5,1.94484867023683,4.78117090874349,2.73694526109434,1.8128899881162,TRUE,2.83632223850666
"Canada","cpi",0.4,2004,4,2004,NA,0,1.4954978801679,2.1429271308127,1.84630058591067,1.94326335025052,TRUE,0.6474292506448
"Canada","cpi",0.4,2004,4,2004,NA,0.5,0.730452891418939,1.72750759360745,1.84630058591067,1.41202996286323,FALSE,1.39303134319925
"Canada","cpi",0.4,2004,4,2003,NA,1,-2.06436120596261,0.0914014022263172,1.84630058591067,1.72195310807912,FALSE,8.00542655380344
"Canada","cpi",0.4,2004,4,2003,NA,1.5,3.38149688504004,5.53725949322897,1.84630058591067,2.05203708097148,FALSE,7.27308360528683
"Canada","cpi",0.4,2005,4,2005,NA,0,1.60870171994416,2.12594903527815,2.23456211948951,2.2118960782598,FALSE,0.879290929371849
"Canada","cpi",0.4,2005,4,2005,NA,0.5,1.35400002748818,2.67531165226924,2.23456211948951,2.13787262164946,TRUE,1.32131162478106
"Canada","cpi",0.4,2005,4,2004,NA,1,1.39902175209696,3.09101732763147,2.23456211948951,2.16431636867425,TRUE,1.69199557553451
"Canada","cpi",0.4,2005,4,2004,NA,1.5,3.91244869671573,5.60444427225024,2.23456211948951,1.90121867779545,FALSE,7.28495083295524
"Canada","cpi",0.4,2006,4,2006,NA,0,1.66518756747411,2.19742735121184,2.00218136491059,2.21916154315092,TRUE,0.53223978373773
"Canada","cpi",0.4,2006,4,2006,NA,0.5,1.17244370862537,2.26314159933134,2.00218136491059,1.81971630867743,TRUE,1.09069789070596
"Canada","cpi",0.4,2006,4,2005,NA,1,1.18207671058286,3.38195553314504,2.00218136491059,2.47429489273694,TRUE,2.19987882256218
"Canada","cpi",0.4,2006,4,2005,NA,1.5,3.64362691787306,5.84350574043524,2.00218136491059,1.87720365668618,FALSE,7.67136399910375
"Canada","cpi",0.4,2007,4,2007,NA,0,1.56419716170629,2.05762195607985,2.14602107835604,2.18183020638083,FALSE,0.788088535294201
"Canada","cpi",0.4,2007,4,2007,NA,0.5,1.18639950603469,2.08454072319618,2.14602107835604,1.70657479409257,FALSE,1.10307573436103
"Canada","cpi",0.4,2007,4,2006,NA,1,0.981678072571615,2.45395055614676,2.14602107835604,1.88218856041089,TRUE,1.47227248357514
"Canada","cpi",0.4,2007,4,2006,NA,1.5,4.38945185532757,5.86172433890272,2.14602107835604,2.02111311333697,FALSE,8.95037507348025
"Canada","cpi",0.4,2008,4,2008,NA,0,1.7951889163949,2.27861689635915,2.38540342481082,2.5304444255341,FALSE,0.839383074803136
"Canada","cpi",0.4,2008,4,2008,NA,0.5,1.18625101301621,2.07104461847715,2.38540342481082,1.59687536789142,FALSE,1.93265629323984
"Canada","cpi",0.4,2008,4,2007,NA,1,1.00567187648287,2.55925740923571,2.38540342481082,1.90970285875554,TRUE,1.55358553275283
"Canada","cpi",0.4,2008,4,2007,NA,1.5,4.11767168242141,5.67125721517424,2.38540342481082,1.9732512990275,FALSE,7.32781305812146
"Canada","cpi",0.4,2009,4,2009,NA,0,0.749027261115044,0.938300178761388,0.292141396435586,0.146533060789067,FALSE,1.7122257999112
"Canada","cpi",0.4,2009,4,2009,NA,0.5,0.0993855681827975,0.725217928711364,0.292141396435586,0.034043559717678,TRUE,0.625832360528566
"Canada","cpi",0.4,2009,4,2008,NA,1,1.10293726744703,2.87234030703479,0.292141396435586,2.12782728451457,FALSE,4.47205594295923
"Canada","cpi",0.4,2009,4,2008,NA,1.5,4.17031374965586,5.93971678924362,0.292141396435586,2.00999852974699,FALSE,14.6966442169887
"Canada","cpi",0.4,2010,4,2010,NA,0,1.18041628474532,1.42509517333823,1.77674215393546,1.77238598089253,FALSE,1.41683549058368
"Canada","cpi",0.4,2010,4,2010,NA,0.5,1.436729278581,2.04794175225312,1.77674215393546,1.77913637602991,TRUE,0.611212473672117
"Canada","cpi",0.4,2010,4,2009,NA,1,2.33541702509932,2.94662949877143,1.77674215393546,1.25701172011297,FALSE,2.47346204421831
"Canada","cpi",0.4,2010,4,2009,NA,1.5,1.96841629265086,2.57962876632298,1.77674215393546,0.529947261879338,FALSE,1.25012626939013
"Canada","cpi",0.4,2011,4,2011,NA,0,1.91418243952884,2.35141666224583,2.8902561167552,2.90478393121871,FALSE,2.23336573774822
"Canada","cpi",0.4,2011,4,2011,NA,0.5,1.68368242526539,2.57109795398998,2.8902561167552,2.23130448324878,FALSE,1.95127607127531
"Canada","cpi",0.4,2011,4,2010,NA,1,1.62757017076338,3.65835167324871,2.8902561167552,2.01837757685623,TRUE,2.03078150248533
"Canada","cpi",0.4,2011,4,2010,NA,1.5,2.77073824264449,4.80151974512982,2.8902561167552,1.95623721047276,TRUE,2.03078150248533
"Canada","cpi",0.4,2012,4,2012,NA,0,1.65594979839976,2.00580153967021,1.5156782312455,1.79054609126241,FALSE,0.817423631784649
"Canada","cpi",0.4,2012,4,2012,NA,0.5,1.68253860787249,2.71688379800381,1.5156782312455,2.15830835181476,FALSE,1.59054644555462
"Canada","cpi",0.4,2012,4,2011,NA,1,0.335396040905408,2.98713658471647,1.5156782312455,2.06841506112034,TRUE,2.65174054381106
"Canada","cpi",0.4,2012,4,2011,NA,1.5,1.94896696784554,4.6007075116566,1.5156782312455,1.90016524544498,FALSE,4.09603633247786
"Canada","cpi",0.4,2013,4,2013,NA,0,1.0860678772548,1.35626812510361,0.958904109588499,1.14597712094762,FALSE,0.694079473403154
"Canada","cpi",0.4,2013,4,2013,NA,0.5,1.18141867043995,1.96909450185495,0.958904109588499,1.48934937362812,FALSE,1.52939103425317
"Canada","cpi",0.4,2013,4,2012,NA,1,1.82419246577857,3.65361138427071,0.958904109588499,1.95908925659181,FALSE,4.7137134391257
"Canada","cpi",0.4,2013,4,2012,NA,1.5,2.87329319442099,4.70271211291314,0.958904109588499,1.95931269932679,FALSE,8.21071586793379
"Canada","cpi",0.4,2014,4,2014,NA,0,1.29544518273575,1.58831177766571,1.89959294436879,1.93595035364857,FALSE,1.33047048394022
"Canada","cpi",0.4,2014,4,2014,NA,0.5,1.11124914946582,1.8445238318749,1.89959294436879,1.46400358003393,FALSE,0.916838390722034
"Canada","cpi",0.4,2014,4,2013,NA,1,1.88847038202504,3.40746197096529,1.89959294436879,1.64292796635188,TRUE,1.51899158894024
"Canada","cpi",0.4,2014,4,2013,NA,1.5,2.96344069007989,4.48243227902014,1.89959294436879,1.80659536932475,FALSE,5.06515074131059
"Canada","cpi",0.4,2015,4,2015,NA,0,1.07702894176703,1.33581534481457,1.10526666222837,0.996929389764856,TRUE,0.258786403047539
"Canada","cpi",0.4,2015,4,2015,NA,0.5,0.729228143698186,1.46976764697142,1.10526666222837,0.861748608895607,TRUE,0.740539503273235
"Canada","cpi",0.4,2015,4,2014,NA,1,1.39978115093916,3.22705870485069,1.10526666222837,1.95513831061374,FALSE,2.80899251628083
"Canada","cpi",0.4,2015,4,2014,NA,1.5,2.65906505451957,4.4863426084311,1.10526666222837,1.89794664118146,FALSE,7.00660552821553
"Canada","cpi",0.4,2016,4,2016,NA,0,1.22550953198188,1.45485267778401,1.40891434590795,1.6213393128403,TRUE,0.229343145802128
"Canada","cpi",0.4,2016,4,2016,NA,0.5,1.10210966989255,1.79077013278886,1.40891434590795,1.34742733904194,TRUE,0.688660462896314
"Canada","cpi",0.4,2016,4,2015,NA,1,1.61848808536773,3.10051131737119,1.40891434590795,1.60624886613732,FALSE,2.18060236353606
"Canada","cpi",0.4,2016,4,2015,NA,1.5,3.13896166517822,4.62098489718167,1.40891434590795,1.9555852361093,FALSE,7.24884762957101
"Canada","cpi",0.4,2017,4,2017,NA,0,1.22165615914302,1.51205980497245,1.6100759592282,1.60345984100552,FALSE,0.617124160015268
"Canada","cpi",0.4,2017,4,2017,NA,0.5,1.52490644442202,2.24877732594104,1.6100759592282,1.97179134396859,TRUE,0.723870881519028
"Canada","cpi",0.4,2017,4,2016,NA,1,1.83842362607915,3.6073155579569,1.6100759592282,2.06723461080021,FALSE,2.5300508213809
"Canada","cpi",0.4,2017,4,2016,NA,1.5,2.71671642056225,4.48560835243999,1.6100759592282,1.88056227767026,FALSE,5.4576934696579
"Canada","cpi",0.4,2018,4,2018,NA,0,1.67854681503892,2.00903802340943,2.24252491694275,2.56836987799731,FALSE,1.10878085348159
"Canada","cpi",0.4,2018,4,2018,NA,0.5,1.57019607835433,2.39288721660838,2.24252491694275,2.15070147257197,TRUE,0.822691138254048
"Canada","cpi",0.4,2018,4,2017,NA,1,1.15781799540218,2.99566455889567,2.24252491694275,1.78758120401781,TRUE,1.83784656349349
"Canada","cpi",0.4,2018,4,2017,NA,1.5,2.96720229261025,4.80504885610374,2.24252491694275,2.09839963444063,FALSE,4.2534378157185
"Canada","cpi",0.4,2019,4,2019,NA,0,1.54710340189208,1.90410686691368,1.94926902411596,2.01327426888733,FALSE,0.507543989029189
"Canada","cpi",0.4,2019,4,2019,NA,0.5,1.28122174812645,2.09423931301083,1.94926902411596,1.69254280527951,TRUE,0.81301756488438
"Canada","cpi",0.4,2019,4,2018,NA,1,1.51372267342797,3.61292667544926,1.94926902411596,2.22638738015912,TRUE,2.09920400202129
"Canada","cpi",0.4,2019,4,2018,NA,1.5,2.68814721414238,4.78735121616367,1.94926902411596,2.16219381067517,FALSE,4.56213130210936
"Canada","cpi",0.4,2020,4,2020,NA,0,0.926784174593599,1.16793913144962,0.716999632307869,0.616002459846787,FALSE,0.940436764475124
"Canada","cpi",0.4,2020,4,2020,NA,0.5,0.677268808452202,1.24139614201844,0.716999632307869,0.610467294263994,TRUE,0.564127333566241
"Canada","cpi",0.4,2020,4,2019,NA,1,1.4705442912995,3.37894535733143,0.716999632307869,2.02696644348777,FALSE,4.42021659600403
"Canada","cpi",0.4,2020,4,2019,NA,1.5,2.46503287122116,4.37343393725309,0.716999632307869,1.92866243701917,FALSE,7.73517852907623
"Canada","cpi",0.4,2021,4,2021,NA,0,1.77213220317999,2.01142650712422,3.39519318527535,3.15216265299885,FALSE,4.85184989778134
"Canada","cpi",0.4,2021,4,2021,NA,0.5,1.30343343411781,1.83065521272912,3.39519318527535,1.6932278955534,FALSE,5.74234835376541
"Canada","cpi",0.4,2021,4,2020,NA,1,1.47359085169507,2.64521869465446,3.39519318527535,1.26767182443679,FALSE,3.67154281169569
"Canada","cpi",0.4,2021,4,2020,NA,1.5,1.99767946037783,3.16930730333722,3.39519318527535,1.26085388904433,FALSE,1.92458078275314
"Canada","cpi",0.4,2022,4,2022,NA,0,3.88953889476122,4.55028214416543,6.79651641755912,6.89724461197294,FALSE,8.14819082738317
"Canada","cpi",0.4,2022,4,2022,NA,0.5,3.87421721536125,5.5168237830511,6.79651641755912,5.63726787323957,FALSE,5.90824868271659
"Canada","cpi",0.4,2022,4,2021,NA,1,1.40083987427374,4.77212535967437,6.79651641755912,2.63737521674188,FALSE,10.1192556783498
"Canada","cpi",0.4,2022,4,2021,NA,1.5,1.72483198858569,5.09611747398632,6.79651641755912,1.99992665814555,FALSE,9.03928196397663
"Canada","cpi",0.4,2023,4,2023,NA,0,3.12777460681092,3.87255659062203,3.87900159788375,3.62206654600981,FALSE,0.766265341350179
"Canada","cpi",0.4,2023,4,2023,NA,0.5,2.69792277291177,4.38421223732694,3.87900159788375,3.8990209221998,TRUE,1.68628946441516
"Canada","cpi",0.4,2023,4,2022,NA,1,0.18015798659207,4.70389582066272,3.87900159788375,4.1992923554854,TRUE,4.52373783407065
"Canada","cpi",0.4,2023,4,2022,NA,1.5,0.6370926281352,5.16083046220585,3.87900159788375,2.36848892603156,TRUE,4.52373783407065
"Canada","cpi",0.4,2024,4,2024,NA,0,2.01368056555735,2.4756427137735,NA,2.43931175105141,NA,NA
"Canada","cpi",0.4,2024,4,2024,NA,0.5,1.87695511897493,3.115190142869,NA,2.6060205122928,NA,NA
"Canada","cpi",0.4,2024,4,2023,NA,1,-0.181887458255514,2.76915177135573,NA,2.43231375635082,NA,NA
"Canada","cpi",0.4,2024,4,2023,NA,1.5,2.79988121557583,5.7884690925599,NA,2.38514817358868,NA,NA
"Canada","cpi",0.4,2025,4,2024,NA,1,NA,NA,NA,1.87361390656267,NA,NA
"Canada","cpi",0.4,2025,4,2024,NA,1.5,NA,NA,NA,1.85379387622673,NA,NA
"Canada","cpi",0.5,1994,4,1994,NA,0,-12.2214360059597,-5.51624173298613,0.198089708456428,0.186873981074975,FALSE,29.5625200387438
"Canada","cpi",0.5,1994,4,1994,NA,0.5,-8.62607152314817,-1.9208772501746,0.198089708456428,0.522791476131479,FALSE,15.1810621074977
"Canada","cpi",0.5,1995,4,1995,NA,0,2.0687423738276,2.51942976945723,1.91968793597725,2.14305230586886,FALSE,1.04690514703103
"Canada","cpi",0.5,1995,4,1995,NA,0.5,1.29674266940328,2.24454077250997,1.91968793597725,1.99619126700588,TRUE,0.947798103106693
"Canada","cpi",0.5,1995,4,1994,NA,1,7.75986583387861,9.85759945943388,1.91968793597725,1.5978236120703,FALSE,25.4584452171607
"Canada","cpi",0.5,1995,4,1994,NA,1.5,8.21615196100975,10.313885586565,1.91968793597725,1.71534821064654,FALSE,27.2835897256853
"Canada","cpi",0.5,1996,4,1996,NA,0,0.909408032515216,1.62275811068548,1.6556711728335,1.50166806813312,FALSE,0.845002326762333
"Canada","cpi",0.5,1996,4,1996,NA,0.5,0.342892968760301,1.18836776317373,1.6556711728335,1.32822008967348,FALSE,2.7146884330525
"Canada","cpi",0.5,1996,4,1995,NA,1,-1.29826772476467,1.87433926788358,1.6556711728335,2.02244327395347,TRUE,3.17260699264826
"Canada","cpi",0.5,1996,4,1995,NA,1.5,-3.41800927261301,-0.245402279964748,1.6556711728335,1.92718935452521,FALSE,10.7769008038413
"Canada","cpi",0.5,1997,4,1997,NA,0,1.16880039073134,1.62522651122716,1.42496507679055,1.54744278954444,TRUE,0.456426120495819
"Canada","cpi",0.5,1997,4,1997,NA,0.5,0.745772015108273,1.80782805243757,1.42496507679055,1.72303237316327,TRUE,1.0620560373293
"Canada","cpi",0.5,1997,4,1996,NA,1,-0.86981595558977,1.64983304581356,1.42496507679055,2.0413885682107,TRUE,2.51964900140333
"Canada","cpi",0.5,1997,4,1996,NA,1.5,0.383906372912706,2.90355537431604,1.42496507679055,1.91986951679499,TRUE,2.51964900140333
"Canada","cpi",0.5,1998,4,1998,NA,0,1.07083811698267,1.39383855466997,1.0323682372128,1.32960503394646,FALSE,0.476879956766794
"Canada","cpi",0.5,1998,4,1998,NA,0.5,0.79125796365662,1.48331981540155,1.0323682372128,1.50726100317662,TRUE,0.692061851744931
"Canada","cpi",0.5,1998,4,1997,NA,1,-0.577845604663463,0.927237365155001,1.0323682372128,1.58792609966374,FALSE,1.92560645804966
"Canada","cpi",0.5,1998,4,1997,NA,1.5,1.56929819017811,3.07438115999658,1.0323682372128,1.82722544395564,FALSE,3.65280278167972
"Canada","cpi",0.5,1999,4,1999,NA,0,1.03128243990503,1.36998436599051,1.74454349830908,1.50828275233879,FALSE,1.83693845535976
"Canada","cpi",0.5,1999,4,1999,NA,0.5,0.698182012190141,1.03688393827562,1.74454349830908,1.16115671553538,FALSE,3.16934016621931
"Canada","cpi",0.5,1999,4,1998,NA,1,1.04467901074044,1.38338093682592,1.74454349830908,1.9024836587632,FALSE,1.78335217201813
"Canada","cpi",0.5,1999,4,1998,NA,1.5,3.14993452181616,3.48863644790164,1.74454349830908,1.8746928929805,FALSE,5.96026602011382
"Canada","cpi",0.5,2000,4,2000,NA,0,1.46483069988262,2.08400368383396,2.73434549437299,2.29889507469385,FALSE,3.22054022610745
"Canada","cpi",0.5,2000,4,2000,NA,0.5,1.04992413164034,2.2303996401125,2.73434549437299,2.08273990461669,FALSE,3.1962589255141
"Canada","cpi",0.5,2000,4,1999,NA,1,-0.859371377293495,0.494049499330287,2.73434549437299,1.72008921565576,FALSE,10.3146048567946
"Canada","cpi",0.5,2000,4,1999,NA,1.5,-0.833577042451169,0.848421270182762,2.73434549437299,1.58716870538138,FALSE,9.22569520939484
"Canada","cpi",0.5,2001,4,2001,NA,0,1.97460828764136,2.96770632612181,2.54467897330315,3.10277295629358,TRUE,0.993098038480444
"Canada","cpi",0.5,2001,4,2001,NA,0.5,1.41414575202266,3.3426195514356,2.54467897330315,2.99102328155023,TRUE,1.92847379941294
"Canada","cpi",0.5,2001,4,2000,NA,1,-1.76137786567887,1.60511104678418,2.54467897330315,2.05716779240688,FALSE,7.12476061853891
"Canada","cpi",0.5,2001,4,2000,NA,1.5,-0.581143109549217,3.26059234722047,2.54467897330315,1.950224564531,TRUE,3.84173545676968
"Canada","cpi",0.5,2002,4,2002,NA,0,1.26857381611692,1.98791885242643,2.27695832736599,1.75121322657836,FALSE,1.87550293606777
"Canada","cpi",0.5,2002,4,2002,NA,0.5,0.401511298892627,1.34293287119416,2.27695832736599,0.885081053587844,FALSE,4.67752339698885
"Canada","cpi",0.5,2002,4,2001,NA,1,-0.16833777069549,3.82452747632883,2.27695832736599,2.30325950597698,TRUE,3.99286524702432
"Canada","cpi",0.5,2002,4,2001,NA,1.5,1.86772421396835,5.86058946099267,2.27695832736599,2.15511557897725,TRUE,3.99286524702432
"Canada","cpi",0.5,2003,4,2003,NA,0,1.86191900773341,2.82542827346544,2.73694526109434,2.83169100406533,TRUE,0.96350926573203
"Canada","cpi",0.5,2003,4,2003,NA,0.5,1.67087121012579,3.8095024051409,2.73694526109434,3.07009215555252,TRUE,2.13863119501511
"Canada","cpi",0.5,2003,4,2002,NA,1,-0.609642066569358,3.28320190917447,2.73694526109434,2.1323009571345,TRUE,3.89284397574383
"Canada","cpi",0.5,2003,4,2002,NA,1.5,1.39556084868893,5.28840482443276,2.73694526109434,1.8128899881162,TRUE,3.89284397574383
"Canada","cpi",0.5,2004,4,2004,NA,0,1.42607510544314,2.20418241629298,1.84630058591067,1.94326335025052,TRUE,0.778107310849839
"Canada","cpi",0.5,2004,4,2004,NA,0.5,0.605193270671672,2.13461348400814,1.84630058591067,1.41202996286323,TRUE,1.52942021333647
"Canada","cpi",0.5,2004,4,2003,NA,1,-2.29699720419941,0.174222511885906,1.84630058591067,1.72195310807912,FALSE,9.15953201218437
"Canada","cpi",0.5,2004,4,2003,NA,1.5,3.31789714583096,5.78911686191628,1.84630058591067,2.05203708097148,FALSE,8.35760595576647
"Canada","cpi",0.5,2005,4,2005,NA,0,1.53403767057806,2.24042602471394,2.23456211948951,2.2118960782598,TRUE,0.706388354135876
"Canada","cpi",0.5,2005,4,2005,NA,0.5,1.20991382718412,2.72603434030649,2.23456211948951,2.13787262164946,TRUE,1.51612051312236
"Canada","cpi",0.5,2005,4,2004,NA,1,1.22998825814964,3.70631005497576,2.23456211948951,2.16431636867425,TRUE,2.47632179682613
"Canada","cpi",0.5,2005,4,2004,NA,1.5,3.67262844294012,6.14895023976625,2.23456211948951,1.90121867779545,FALSE,8.22858709062857
"Canada","cpi",0.5,2006,4,2006,NA,0,1.59170564787697,2.22932101401513,2.00218136491059,2.21916154315092,TRUE,0.63761536613816
"Canada","cpi",0.5,2006,4,2006,NA,0.5,1.01576723960112,2.41243769223065,2.00218136491059,1.81971630867743,TRUE,1.39667045262953
"Canada","cpi",0.5,2006,4,2005,NA,1,0.78068558441256,3.74158498008286,2.00218136491059,2.47429489273694,TRUE,2.9608993956703
"Canada","cpi",0.5,2006,4,2005,NA,1.5,3.03777082443409,5.99867022010438,2.00218136491059,1.87720365668618,FALSE,7.10325723376428
"Canada","cpi",0.5,2007,4,2007,NA,0,1.54682412209016,2.14568558701156,2.14602107835604,2.18183020638083,FALSE,0.600203430299333
"Canada","cpi",0.5,2007,4,2007,NA,0.5,1.01318481238588,2.26509124998783,2.14602107835604,1.70657479409257,TRUE,1.25190643760195
"Canada","cpi",0.5,2007,4,2006,NA,1,0.920606950239021,2.69817034740235,2.14602107835604,1.88218856041089,TRUE,1.77756339716333
"Canada","cpi",0.5,2007,4,2006,NA,1.5,4.34485459437686,6.12241799154018,2.14602107835604,2.02111311333697,FALSE,10.5728974612466
"Canada","cpi",0.5,2008,4,2008,NA,0,1.74870824011083,2.38026121616424,2.38540342481082,2.5304444255341,FALSE,0.652121810639731
"Canada","cpi",0.5,2008,4,2008,NA,0.5,1.00243165542598,2.18275805158359,2.38540342481082,1.59687536789142,FALSE,1.99090788906654
"Canada","cpi",0.5,2008,4,2007,NA,1,0.725466670379715,2.68983983349606,2.38540342481082,1.90970285875554,TRUE,1.96437316311634
"Canada","cpi",0.5,2008,4,2007,NA,1.5,3.99044278566723,5.95481594878357,2.38540342481082,1.9732512990275,FALSE,8.38453060654196
"Canada","cpi",0.5,2009,4,2009,NA,0,0.699969661935695,0.943610598225663,0.292141396435586,0.146533060789067,FALSE,1.8749539982904
"Canada","cpi",0.5,2009,4,2009,NA,0.5,0.0978160588953092,0.779157986855898,0.292141396435586,0.034043559717678,TRUE,0.681341927960589
"Canada","cpi",0.5,2009,4,2008,NA,1,1.00090840622586,3.16561352520003,0.292141396435586,2.12782728451457,FALSE,4.99977315813526
"Canada","cpi",0.5,2009,4,2008,NA,1.5,4.08146879384764,6.24617391282182,0.292141396435586,2.00999852974699,FALSE,17.3220147086224
"Canada","cpi",0.5,2010,4,2010,NA,0,1.1464387182287,1.46828555581243,1.77674215393546,1.77238598089253,FALSE,1.55567323007584
"Canada","cpi",0.5,2010,4,2010,NA,0.5,1.2964343511017,2.15115506308406,1.77674215393546,1.77913637602991,TRUE,0.854720711982358
"Canada","cpi",0.5,2010,4,2009,NA,1,2.11729829352942,2.97201900551178,1.77674215393546,1.25701172011297,FALSE,2.21694527035821
"Canada","cpi",0.5,2010,4,2009,NA,1.5,1.76106494260902,2.61578565459138,1.77674215393546,0.529947261879338,TRUE,0.854720711982358
"Canada","cpi",0.5,2011,4,2011,NA,0,1.86810353503092,2.38957232782666,2.8902561167552,2.90478393121871,FALSE,2.52420394850991
"Canada","cpi",0.5,2011,4,2011,NA,0.5,1.5076963637653,2.70830831804118,2.8902561167552,2.23130448324878,FALSE,1.92840314913195
"Canada","cpi",0.5,2011,4,2010,NA,1,1.26465137104229,3.77432442949455,2.8902561167552,2.01837757685623,TRUE,2.50967305845226
"Canada","cpi",0.5,2011,4,2010,NA,1.5,2.44115473567662,4.95082779412888,2.8902561167552,1.95623721047276,TRUE,2.50967305845226
"Canada","cpi",0.5,2012,4,2012,NA,0,1.6036710855653,2.05996143534914,1.5156782312455,1.79054609126241,FALSE,0.808261767063039
"Canada","cpi",0.5,2012,4,2012,NA,0.5,1.47006977278118,2.91523232853348,1.5156782312455,2.15830835181476,TRUE,1.4451625557523
"Canada","cpi",0.5,2012,4,2011,NA,1,-0.0553374718553812,2.95388799466412,1.5156782312455,2.06841506112034,TRUE,3.0092254665195
"Canada","cpi",0.5,2012,4,2011,NA,1.5,1.72940429948284,4.73862976600234,1.5156782312455,1.90016524544498,FALSE,3.86412973946884
"Canada","cpi",0.5,2013,4,2013,NA,0,1.06350350861392,1.37683813659597,0.958904109588499,1.14597712094762,FALSE,0.731732224083735
"Canada","cpi",0.5,2013,4,2013,NA,0.5,1.04731692347219,2.08306182224427,0.958904109588499,1.48934937362812,FALSE,1.38939615430684
"Canada","cpi",0.5,2013,4,2012,NA,1,1.51625174045739,3.72267700855066,0.958904109588499,1.95908925659181,FALSE,4.43581579156883
"Canada","cpi",0.5,2013,4,2012,NA,1.5,2.65264608548522,4.8590713535785,0.958904109588499,1.95931269932679,FALSE,8.98139317168017
"Canada","cpi",0.5,2014,4,2014,NA,0,1.26487602596232,1.63385287136609,1.89959294436879,1.93595035364857,FALSE,1.43193713741456
"Canada","cpi",0.5,2014,4,2014,NA,0.5,0.974660077774386,1.94877664665154,1.89959294436879,1.46400358003393,TRUE,0.974116568877156
"Canada","cpi",0.5,2014,4,2013,NA,1,1.6856003571385,3.53528025521293,1.89959294436879,1.64292796635188,TRUE,1.84967989807443
"Canada","cpi",0.5,2014,4,2013,NA,1.5,2.77405901291774,4.62373891099217,1.89959294436879,1.80659536932475,FALSE,5.34754417227023
"Canada","cpi",0.5,2015,4,2015,NA,0,1.03207816941011,1.36380780333297,1.10526666222837,0.996929389764856,TRUE,0.331729633922856
"Canada","cpi",0.5,2015,4,2015,NA,0.5,0.62495074969461,1.56893921137597,1.10526666222837,0.861748608895607,TRUE,0.943988461681363
"Canada","cpi",0.5,2015,4,2014,NA,1,1.13531277080647,3.46255617760163,1.10526666222837,1.95513831061374,FALSE,2.44742784110756
"Canada","cpi",0.5,2015,4,2014,NA,1.5,2.33164508408518,4.65888849088035,1.10526666222837,1.89794664118146,FALSE,7.23275709422242
"Canada","cpi",0.5,2016,4,2016,NA,0,1.18859852162813,1.48891216833158,1.40891434590795,1.6213393128403,TRUE,0.300313646703448
"Canada","cpi",0.5,2016,4,2016,NA,0.5,0.975874580093116,1.83208869212399,1.40891434590795,1.34742733904194,TRUE,0.85621411203087
"Canada","cpi",0.5,2016,4,2015,NA,1,1.38608614448385,3.23712800630104,1.40891434590795,1.60624886613732,TRUE,1.85104186181719
"Canada","cpi",0.5,2016,4,2015,NA,1.5,2.85117864359871,4.70222050541591,1.40891434590795,1.9555852361093,FALSE,7.62009905258024
"Canada","cpi",0.5,2017,4,2017,NA,0,1.19740246403974,1.54108482102924,1.6100759592282,1.60345984100552,FALSE,0.619646909785351
"Canada","cpi",0.5,2017,4,2017,NA,0.5,1.38426788829804,2.37424086128175,1.6100759592282,1.97179134396859,TRUE,0.989972972983707
"Canada","cpi",0.5,2017,4,2016,NA,1,1.72112069456781,3.79169291139457,1.6100759592282,2.06723461080021,FALSE,2.5147511581852
"Canada","cpi",0.5,2017,4,2016,NA,1.5,2.48714406414879,4.55771628097555,1.6100759592282,1.88056227767026,FALSE,5.57884463650912
"Canada","cpi",0.5,2018,4,2018,NA,0,1.65046681859027,2.06041800853663,2.24252491694275,2.56836987799731,FALSE,1.13837882357084
"Canada","cpi",0.5,2018,4,2018,NA,0.5,1.43153415571059,2.51311901344593,2.24252491694275,2.15070147257197,TRUE,1.08158485773534
"Canada","cpi",0.5,2018,4,2017,NA,1,0.962999945047913,3.1867576489624,2.24252491694275,1.78758120401781,TRUE,2.22375770391449
"Canada","cpi",0.5,2018,4,2017,NA,1.5,2.69468043836889,4.91843814228337,2.24252491694275,2.09839963444063,FALSE,4.03237978961904
"Canada","cpi",0.5,2019,4,2019,NA,0,1.51762487580419,1.93092698533377,1.94926902411596,2.01327426888733,FALSE,0.486670264658336
"Canada","cpi",0.5,2019,4,2019,NA,0.5,1.14776858114934,2.22045296299156,1.94926902411596,1.69254280527951,TRUE,1.07268438184223
"Canada","cpi",0.5,2019,4,2018,NA,1,1.09635588988347,3.71068834017603,1.94926902411596,2.22638738015912,TRUE,2.61433245029256
"Canada","cpi",0.5,2019,4,2018,NA,1.5,2.32112127470436,4.93545372499692,1.94926902411596,2.16219381067517,FALSE,4.10174145264617
"Canada","cpi",0.5,2020,4,2020,NA,0,0.901755436036253,1.18700883269774,0.716999632307869,0.616002459846787,FALSE,1.02427661157503
"Canada","cpi",0.5,2020,4,2020,NA,0.5,0.563133359345147,1.29883146816137,0.716999632307869,0.610467294263994,TRUE,0.735698108816227
"Canada","cpi",0.5,2020,4,2019,NA,1,1.04585360476271,3.62402904680197,0.716999632307869,2.02696644348777,FALSE,3.89359133185861
"Canada","cpi",0.5,2020,4,2019,NA,1.5,2.00106081317648,4.57923625521575,0.716999632307869,1.92866243701917,FALSE,7.71442016551371
"Canada","cpi",0.5,2021,4,2021,NA,0,1.72118861863292,2.05922521382797,3.39519318527535,3.15216265299885,FALSE,5.68190848098458
"Canada","cpi",0.5,2021,4,2021,NA,0.5,1.24032613692587,1.90971827331168,3.39519318527535,1.6932278955534,FALSE,6.61129178424048
"Canada","cpi",0.5,2021,4,2020,NA,1,1.22971429790554,2.72915763070113,3.39519318527535,1.26767182443679,FALSE,4.16358555109247
"Canada","cpi",0.5,2021,4,2020,NA,1.5,1.81966674273209,3.31911007552768,3.39519318527535,1.26085388904433,FALSE,1.80377577178626
"Canada","cpi",0.5,2022,4,2022,NA,0,3.77227797776748,4.67289522320498,6.79651641755912,6.89724461197294,FALSE,9.39510202285405
"Canada","cpi",0.5,2022,4,2022,NA,0.5,3.41101769731257,5.93677927809056,6.79651641755912,5.63726787323957,FALSE,5.96471013865222
"Canada","cpi",0.5,2022,4,2021,NA,1,0.868485376191598,5.27134042975313,6.79651641755912,2.63737521674188,FALSE,10.5035590047855
"Canada","cpi",0.5,2022,4,2021,NA,1.5,1.08671438736041,5.48956944092195,6.79651641755912,1.99992665814555,FALSE,9.63064296011022
"Canada","cpi",0.5,2023,4,2023,NA,0,2.9951558930056,3.99511519810288,3.87900159788375,3.62206654600981,TRUE,0.999959305097281
"Canada","cpi",0.5,2023,4,2023,NA,0.5,2.38841832472129,4.76880908359641,3.87900159788375,3.8990209221998,TRUE,2.38039075887512
"Canada","cpi",0.5,2023,4,2022,NA,1,-1.36642239164323,5.00898418900492,3.87900159788375,4.1992923554854,TRUE,6.37540658064815
"Canada","cpi",0.5,2023,4,2022,NA,1.5,-0.620094538277759,5.75531204237039,3.87900159788375,2.36848892603156,TRUE,6.37540658064815
"Canada","cpi",0.5,2024,4,2024,NA,0,1.94774713998974,2.54387413890799,NA,2.43931175105141,NA,NA
"Canada","cpi",0.5,2024,4,2024,NA,0.5,1.67401031788884,3.40851958568202,NA,2.6060205122928,NA,NA
"Canada","cpi",0.5,2024,4,2023,NA,1,-0.719922317518818,2.77888560035017,NA,2.43231375635082,NA,NA
"Canada","cpi",0.5,2024,4,2023,NA,1.5,2.2883283297383,6.37554561164934,NA,2.38514817358868,NA,NA
"Canada","cpi",0.5,2025,4,2024,NA,1,NA,NA,NA,1.87361390656267,NA,NA
"Canada","cpi",0.5,2025,4,2024,NA,1.5,NA,NA,NA,1.85379387622673,NA,NA
"Canada","cpi",0.6,1994,4,1994,NA,0,-12.6488468664082,-4.67843605227082,0.198089708456428,0.186873981074975,FALSE,32.3530396177737
"Canada","cpi",0.6,1994,4,1994,NA,0.5,-9.14805887995354,-1.17764806581612,0.198089708456428,0.522791476131479,FALSE,14.8490996855002
"Canada","cpi",0.6,1995,4,1995,NA,0,1.74973507537409,2.59395864638112,1.91968793597725,2.14305230586886,TRUE,0.844223571007028
"Canada","cpi",0.6,1995,4,1995,NA,0.5,1.80340868821625,2.64763225922328,1.91968793597725,1.99619126700588,TRUE,0.844223571007028
"Canada","cpi",0.6,1995,4,1994,NA,1,7.33427166528574,9.8875496896717,1.91968793597725,1.5978236120703,FALSE,29.6261966709284
"Canada","cpi",0.6,1995,4,1994,NA,1.5,8.47809252857254,11.0313705529585,1.91968793597725,1.71534821064654,FALSE,35.3453009873624
"Canada","cpi",0.6,1996,4,1996,NA,0,1.00935245864306,1.76638492535088,1.6556711728335,1.50166806813312,TRUE,0.757032466707814
"Canada","cpi",0.6,1996,4,1996,NA,0.5,0.258441445566152,1.30138431061981,1.6556711728335,1.32822008967348,FALSE,2.81437717612212
"Canada","cpi",0.6,1996,4,1995,NA,1,-1.86165176399944,2.11822981818082,1.6556711728335,2.02244327395347,TRUE,3.97988158218026
"Canada","cpi",0.6,1996,4,1995,NA,1.5,-3.39957198083146,0.580309601348792,1.6556711728335,1.92718935452521,FALSE,9.35668943960379
"Canada","cpi",0.6,1997,4,1997,NA,0,0.99375127171614,1.70062467290592,1.42496507679055,1.54744278954444,TRUE,0.706873401189779
"Canada","cpi",0.6,1997,4,1997,NA,0.5,0.67507640787325,2.1651999328595,1.42496507679055,1.72303237316327,TRUE,1.49012352498625
"Canada","cpi",0.6,1997,4,1996,NA,1,-0.851904988309972,1.71489772679649,1.42496507679055,2.0413885682107,TRUE,2.56680271510646
"Canada","cpi",0.6,1997,4,1996,NA,1.5,0.895888981192664,3.5443741536771,1.42496507679055,1.91986951679499,TRUE,2.64848517248444
"Canada","cpi",0.6,1998,4,1998,NA,0,1.03026900456365,1.42615702863623,1.0323682372128,1.32960503394646,TRUE,0.395888024072577
"Canada","cpi",0.6,1998,4,1998,NA,0.5,0.708538715929365,1.71052419154979,1.0323682372128,1.50726100317662,TRUE,1.00198547562043
"Canada","cpi",0.6,1998,4,1997,NA,1,-0.804375854423211,1.1518121492034,1.0323682372128,1.58792609966374,TRUE,1.95618800362661
"Canada","cpi",0.6,1998,4,1997,NA,1.5,1.32394460735649,3.2801326109831,1.0323682372128,1.82722544395564,FALSE,3.41406985434505
"Canada","cpi",0.6,1999,4,1999,NA,0,1.0025698064578,1.37770943584638,1.74454349830908,1.50828275233879,FALSE,2.20930994170209
"Canada","cpi",0.6,1999,4,1999,NA,0.5,0.701841596030005,1.07698122541858,1.74454349830908,1.16115671553538,FALSE,3.71295099384109
"Canada","cpi",0.6,1999,4,1998,NA,1,0.814597604755713,1.18973723414428,1.74454349830908,1.9024836587632,FALSE,3.14917095021255
"Canada","cpi",0.6,1999,4,1998,NA,1.5,3.49375595098566,3.86889558037423,1.74454349830908,1.8746928929805,FALSE,9.12120189277148
"Canada","cpi",0.6,2000,4,2000,NA,0,1.39336755607551,2.15866135730566,2.73434549437299,2.29889507469385,FALSE,3.64371448656681
"Canada","cpi",0.6,2000,4,2000,NA,0.5,0.953822536555607,2.41383193895234,2.73434549437299,2.08273990461669,FALSE,3.06257717949997
"Canada","cpi",0.6,2000,4,1999,NA,1,-1.08420371901134,0.676255833190146,2.73434549437299,1.72008921565576,FALSE,12.0509078581157
"Canada","cpi",0.6,2000,4,1999,NA,1.5,-0.971496118301891,0.788963433899596,2.73434549437299,1.58716870538138,FALSE,11.4873698545685
"Canada","cpi",0.6,2001,4,2001,NA,0,1.89517550482631,3.0933493520298,2.54467897330315,3.10277295629358,TRUE,1.19817384720349
"Canada","cpi",0.6,2001,4,2001,NA,0.5,1.35584876691778,3.63765904734849,2.54467897330315,2.99102328155023,TRUE,2.28181028043071
"Canada","cpi",0.6,2001,4,2000,NA,1,-2.2218614765633,2.7991235427198,2.54467897330315,2.05716779240688,TRUE,5.02098501928311
"Canada","cpi",0.6,2001,4,2000,NA,1.5,-1.35975690766516,3.81409452622447,2.54467897330315,1.950224564531,TRUE,5.17385143388963
"Canada","cpi",0.6,2002,4,2002,NA,0,1.1927260081431,2.10087690030432,2.27695832736599,1.75121322657836,FALSE,1.78855802746958
"Canada","cpi",0.6,2002,4,2002,NA,0.5,0.346667104243134,1.50987896313557,2.27695832736599,0.885081053587844,FALSE,4.99860868004455
"Canada","cpi",0.6,2002,4,2001,NA,1,-0.429934899943506,4.30600579982153,2.27695832736599,2.30325950597698,TRUE,4.73594069976503
"Canada","cpi",0.6,2002,4,2001,NA,1.5,1.3798115333101,6.11575223307513,2.27695832736599,2.15511557897725,TRUE,4.73594069976503
"Canada","cpi",0.6,2003,4,2003,NA,0,1.76813504904637,2.97482838923945,2.73694526109434,2.83169100406533,TRUE,1.20669334019308
"Canada","cpi",0.6,2003,4,2003,NA,0.5,1.47359602582119,4.13395145292357,2.73694526109434,3.07009215555252,TRUE,2.66035542710238
"Canada","cpi",0.6,2003,4,2002,NA,1,-0.449049195566483,3.90078680230449,2.73694526109434,2.1323009571345,TRUE,4.34983599787098
"Canada","cpi",0.6,2003,4,2002,NA,1.5,1.27835253660917,5.62818853448014,2.73694526109434,1.8128899881162,TRUE,4.34983599787098
"Canada","cpi",0.6,2004,4,2004,NA,0,1.37589684206144,2.27802723086596,1.84630058591067,1.94326335025052,TRUE,0.902130388804515
"Canada","cpi",0.6,2004,4,2004,NA,0.5,0.57316407543668,2.29309390132561,1.84630058591067,1.41202996286323,TRUE,1.71992982588893
"Canada","cpi",0.6,2004,4,2003,NA,1,-2.49631018147549,0.937245367723164,1.84630058591067,1.72195310807912,FALSE,7.97883164013618
"Canada","cpi",0.6,2004,4,2003,NA,1.5,2.54389119726312,5.97744674646178,1.84630058591067,2.05203708097148,FALSE,6.92150860596093
"Canada","cpi",0.6,2005,4,2005,NA,0,1.44984981644416,2.35651405850457,2.23456211948951,2.2118960782598,TRUE,0.906664242060406
"Canada","cpi",0.6,2005,4,2005,NA,0.5,1.05756073737009,2.85474976473798,2.23456211948951,2.13787262164946,TRUE,1.79718902736789
"Canada","cpi",0.6,2005,4,2004,NA,1,0.883736992748468,3.34363732315934,2.23456211948951,2.16431636867425,TRUE,2.45990033041087
"Canada","cpi",0.6,2005,4,2004,NA,1.5,3.72751685604431,6.18741718645518,2.23456211948951,1.90121867779545,FALSE,9.92467401318487
"Canada","cpi",0.6,2006,4,2006,NA,0,1.51329320074684,2.393381934286,2.00218136491059,2.21916154315092,TRUE,0.880088733539163
"Canada","cpi",0.6,2006,4,2006,NA,0.5,0.92655675673292,2.60506045868478,2.00218136491059,1.81971630867743,TRUE,1.67850370195186
"Canada","cpi",0.6,2006,4,2005,NA,1,0.574135785921449,3.91279200408938,2.00218136491059,2.47429489273694,TRUE,3.33865621816793
"Canada","cpi",0.6,2006,4,2005,NA,1.5,3.09180115032858,6.43045736849651,2.00218136491059,1.87720365668618,FALSE,8.78675514525789
"Canada","cpi",0.6,2007,4,2007,NA,0,1.48264138968457,2.33444198417049,2.14602107835604,2.18183020638083,TRUE,0.851800594485926
"Canada","cpi",0.6,2007,4,2007,NA,0.5,0.932485915789697,2.42659314693357,2.14602107835604,1.70657479409257,TRUE,1.49410723114388
"Canada","cpi",0.6,2007,4,2006,NA,1,0.585262145368136,2.85706343387641,2.14602107835604,1.88218856041089,TRUE,2.27180128850827
"Canada","cpi",0.6,2007,4,2006,NA,1.5,4.18605394681004,6.45785523531832,2.14602107835604,2.02111311333697,FALSE,12.4719656307783
"Canada","cpi",0.6,2008,4,2008,NA,0,1.6581829435555,2.51450740354741,2.38540342481082,2.5304444255341,TRUE,0.856324459991908
"Canada","cpi",0.6,2008,4,2008,NA,0.5,0.866091849992334,2.30958676150107,2.38540342481082,1.59687536789142,FALSE,1.82257822805749
"Canada","cpi",0.6,2008,4,2007,NA,1,0.598166809016498,2.76242782867911,2.38540342481082,1.90970285875554,TRUE,2.16426101966262
"Canada","cpi",0.6,2008,4,2007,NA,1.5,4.02729567285826,6.19155669252088,2.38540342481082,1.9732512990275,FALSE,10.3737222598998
"Canada","cpi",0.6,2009,4,2009,NA,0,0.663829326446907,0.982224318101746,0.292141396435586,0.146533060789067,FALSE,2.17683464171144
"Canada","cpi",0.6,2009,4,2009,NA,0.5,0.0975809506123205,0.925431681973809,0.292141396435586,0.034043559717678,TRUE,0.827850731361489
"Canada","cpi",0.6,2009,4,2008,NA,1,0.599955469390923,3.24697171099869,0.292141396435586,2.12782728451457,FALSE,4.18608660638445
"Canada","cpi",0.6,2009,4,2008,NA,1.5,3.77527770918012,6.42229395078788,0.292141396435586,2.00999852974699,FALSE,20.0626978053304
"Canada","cpi",0.6,2010,4,2010,NA,0,1.09480443109555,1.56414934574251,1.77674215393546,1.77238598089253,FALSE,1.53230895561172
"Canada","cpi",0.6,2010,4,2010,NA,0.5,1.22950144857384,2.21918279477365,1.77674215393546,1.77913637602991,TRUE,0.989681346199811
"Canada","cpi",0.6,2010,4,2009,NA,1,2.02020425985515,3.00988560605496,1.77674215393546,1.25701172011297,FALSE,2.20699187579828
"Canada","cpi",0.6,2010,4,2009,NA,1.5,1.79602966424123,2.78571101044104,1.77674215393546,0.529947261879338,FALSE,1.08611889772865
"Canada","cpi",0.6,2011,4,2011,NA,0,1.80609335672895,2.52065306122446,2.8902561167552,2.90478393121871,FALSE,2.56257498214923
"Canada","cpi",0.6,2011,4,2011,NA,0.5,1.33761082798144,2.84247006534326,2.8902561167552,2.23130448324878,FALSE,1.74378949442153
"Canada","cpi",0.6,2011,4,2010,NA,1,0.870114952083421,3.98397992711769,2.8902561167552,2.01837757685623,TRUE,3.11386497503427
"Canada","cpi",0.6,2011,4,2010,NA,1.5,1.91495791366991,5.02882288870418,2.8902561167552,1.95623721047276,TRUE,3.11386497503427
"Canada","cpi",0.6,2012,4,2012,NA,0,1.5459746383019,2.12853988781014,1.5156782312455,1.79054609126241,FALSE,0.734047284790222
"Canada","cpi",0.6,2012,4,2012,NA,0.5,1.33571995177257,2.99129010025657,1.5156782312455,2.15830835181476,TRUE,1.655570148484
"Canada","cpi",0.6,2012,4,2011,NA,1,-0.625656167993161,3.26689722127498,1.5156782312455,2.06841506112034,TRUE,3.89255338926814
"Canada","cpi",0.6,2012,4,2011,NA,1.5,0.977554827568875,4.87010821683702,1.5156782312455,1.90016524544498,TRUE,3.89255338926814
"Canada","cpi",0.6,2013,4,2013,NA,0,1.01036698598407,1.43082788807128,0.958904109588499,1.14597712094762,FALSE,0.677775284065062
"Canada","cpi",0.6,2013,4,2013,NA,0.5,0.962205037803511,2.22353946712202,0.958904109588499,1.48934937362812,FALSE,1.27783907039357
"Canada","cpi",0.6,2013,4,2012,NA,1,1.11136974685207,3.8915524033447,0.958904109588499,1.95908925659181,FALSE,3.54251084281046
"Canada","cpi",0.6,2013,4,2012,NA,1.5,2.12344560614908,4.90362826264172,0.958904109588499,1.95931269932679,FALSE,8.60289013929556
"Canada","cpi",0.6,2014,4,2014,NA,0,1.22277297989188,1.70297632257245,1.89959294436879,1.93595035364857,FALSE,1.46328645166228
"Canada","cpi",0.6,2014,4,2014,NA,0.5,0.884887226441612,2.02806007926057,1.89959294436879,1.46400358003393,TRUE,1.14317285281896
"Canada","cpi",0.6,2014,4,2013,NA,1,1.48694123271626,3.67492417423162,1.89959294436879,1.64292796635188,TRUE,2.18798294151536
"Canada","cpi",0.6,2014,4,2013,NA,1.5,2.53610431232531,4.72408725384067,1.89959294436879,1.80659536932475,FALSE,5.37053978129796
"Canada","cpi",0.6,2015,4,2015,NA,0,0.995240164909786,1.39629400977924,1.10526666222837,0.996929389764856,TRUE,0.401053844869457
"Canada","cpi",0.6,2015,4,2015,NA,0.5,0.526373679036405,1.68873918845377,1.10526666222837,0.861748608895607,TRUE,1.16236550941736
"Canada","cpi",0.6,2015,4,2014,NA,1,0.761652455576288,3.72114916545034,1.10526666222837,1.95513831061374,TRUE,2.95949670987405
"Canada","cpi",0.6,2015,4,2014,NA,1.5,1.84439669870591,4.80389340857996,1.10526666222837,1.89794664118146,FALSE,6.65514689226174
"Canada","cpi",0.6,2016,4,2016,NA,0,1.14515902074584,1.53237916752173,1.40891434590795,1.6213393128403,TRUE,0.387220146775888
"Canada","cpi",0.6,2016,4,2016,NA,0.5,0.868777318750576,1.94931842727642,1.40891434590795,1.34742733904194,TRUE,1.08054110852584
"Canada","cpi",0.6,2016,4,2015,NA,1,1.02051666323074,3.39418032070669,1.40891434590795,1.60624886613732,TRUE,2.37366365747595
"Canada","cpi",0.6,2016,4,2015,NA,1.5,2.53475637032579,4.90842002780174,1.40891434590795,1.9555852361093,FALSE,8.00287377956515
"Canada","cpi",0.6,2017,4,2017,NA,0,1.15633573542531,1.57345737359949,1.6100759592282,1.60345984100552,FALSE,0.600214566317716
"Canada","cpi",0.6,2017,4,2017,NA,0.5,1.24041196985016,2.50582332469941,1.6100759592282,1.97179134396859,TRUE,1.26541135484924
"Canada","cpi",0.6,2017,4,2016,NA,1,1.43612193115159,3.9641213951498,1.6100759592282,2.06723461080021,TRUE,2.52799946399821
"Canada","cpi",0.6,2017,4,2016,NA,1.5,2.17681672766137,4.70481619165957,1.6100759592282,1.88056227767026,FALSE,5.36170330616404
"Canada","cpi",0.6,2018,4,2018,NA,0,1.59477054490824,2.09579519761808,2.24252491694275,2.56836987799731,FALSE,1.23467324933318
"Canada","cpi",0.6,2018,4,2018,NA,0.5,1.30100284367918,2.666794325408,2.24252491694275,2.15070147257197,TRUE,1.36579148172882
"Canada","cpi",0.6,2018,4,2017,NA,1,0.628349534054718,3.33089724419423,2.24252491694275,1.78758120401781,TRUE,2.70254771013951
"Canada","cpi",0.6,2018,4,2017,NA,1.5,2.35992271192946,5.06247042206897,2.24252491694275,2.09839963444063,FALSE,3.28953668507307
"Canada","cpi",0.6,2019,4,2019,NA,0,1.46575843326209,1.99069005789275,1.94926902411596,2.01327426888733,TRUE,0.524931624630655
"Canada","cpi",0.6,2019,4,2019,NA,0.5,1.0378768315927,2.31404161636909,1.94926902411596,1.69254280527951,TRUE,1.27616478477639
"Canada","cpi",0.6,2019,4,2018,NA,1,0.634403480331291,3.96569354819903,1.94926902411596,2.22638738015912,TRUE,3.33129006786774
"Canada","cpi",0.6,2019,4,2018,NA,1.5,1.86909791550036,5.2003879833681,1.94926902411596,2.16219381067517,TRUE,3.33129006786774
"Canada","cpi",0.6,2020,4,2020,NA,0,0.860897203991399,1.19538360471145,0.716999632307869,0.616002459846787,FALSE,1.0539742591377
"Canada","cpi",0.6,2020,4,2020,NA,0.5,0.482628829041493,1.38429094284791,0.716999632307869,0.610467294263994,TRUE,0.901662113806421
"Canada","cpi",0.6,2020,4,2019,NA,1,0.740456556848941,3.66818756912054,0.716999632307869,2.02696644348777,FALSE,3.04501563497696
"Canada","cpi",0.6,2020,4,2019,NA,1.5,1.77081097541995,4.69854198769155,0.716999632307869,1.92866243701917,FALSE,8.19678772783201
"Canada","cpi",0.6,2021,4,2021,NA,0,1.67141456894959,2.11372445025904,3.39519318527535,3.15216265299885,FALSE,6.84965355639098
"Canada","cpi",0.6,2021,4,2021,NA,0.5,1.13070107670218,2.04456578282706,3.39519318527535,1.6932278955534,FALSE,7.66700171836632
"Canada","cpi",0.6,2021,4,2020,NA,1,1.09231435919438,2.88925228317043,3.39519318527535,1.26767182443679,FALSE,4.32664243450063
"Canada","cpi",0.6,2021,4,2020,NA,1.5,1.62889737619366,3.42583530016971,3.39519318527535,1.26085388904433,TRUE,1.79693792397605
"Canada","cpi",0.6,2022,4,2022,NA,0,3.64271015485526,4.85497881789044,6.79651641755912,6.89724461197294,FALSE,10.9199566613786
"Canada","cpi",0.6,2022,4,2022,NA,0.5,3.28774561097727,6.27067868062246,6.79651641755912,5.63726787323957,FALSE,5.61212175432849
"Canada","cpi",0.6,2022,4,2021,NA,1,-0.0235433430681424,5.53429307395767,6.79651641755912,2.63737521674188,FALSE,11.868953135033
"Canada","cpi",0.6,2022,4,2021,NA,1.5,0.509618969226311,6.06745538625213,6.79651641755912,1.99992665814555,FALSE,9.20314157356078
"Canada","cpi",0.6,2023,4,2023,NA,0,2.87498739798853,4.16168913494634,3.87900159788375,3.62206654600981,TRUE,1.28670173695781
"Canada","cpi",0.6,2023,4,2023,NA,0.5,2.01807422689467,5.21339951817424,3.87900159788375,3.8990209221998,TRUE,3.19532529127957
"Canada","cpi",0.6,2023,4,2022,NA,1,-2.04442500834334,5.16263357092907,3.87900159788375,4.1992923554854,TRUE,7.2070585792724
"Canada","cpi",0.6,2023,4,2022,NA,1.5,-1.29711045013531,5.90994812913709,3.87900159788375,2.36848892603156,TRUE,7.2070585792724
"Canada","cpi",0.6,2024,4,2024,NA,0,1.88088661329156,2.62836802166553,NA,2.43931175105141,NA,NA
"Canada","cpi",0.6,2024,4,2024,NA,0.5,1.44475677980175,3.51617330829844,NA,2.6060205122928,NA,NA
"Canada","cpi",0.6,2024,4,2023,NA,1,-1.40961743261723,3.01961722648486,NA,2.43231375635082,NA,NA
"Canada","cpi",0.6,2024,4,2023,NA,1.5,1.88656123849473,6.44703293881887,NA,2.38514817358868,NA,NA
"Canada","cpi",0.6,2025,4,2024,NA,1,NA,NA,NA,1.87361390656267,NA,NA
"Canada","cpi",0.6,2025,4,2024,NA,1.5,NA,NA,NA,1.85379387622673,NA,NA
"Canada","cpi",0.7,1994,4,1994,NA,0,-9.21376880077089,-3.95132868319492,0.198089708456428,0.186873981074975,FALSE,32.9252293952516
"Canada","cpi",0.7,1994,4,1994,NA,0.5,-10.0154772964101,-2.42802791693899,0.198089708456428,0.522791476131479,FALSE,25.0949002154406
"Canada","cpi",0.7,1995,4,1995,NA,0,1.4182224116348,3.99884032100676,1.91968793597725,2.14305230586886,TRUE,2.58061790937196
"Canada","cpi",0.7,1995,4,1995,NA,0.5,1.32177504199145,4.18422851951678,1.91968793597725,1.99619126700588,TRUE,2.86245347752533
"Canada","cpi",0.7,1995,4,1994,NA,1,6.81934035083664,9.68179382836197,1.91968793597725,1.5978236120703,FALSE,35.5268029099213
"Canada","cpi",0.7,1995,4,1994,NA,1.5,8.89193155270504,11.7543850302304,1.91968793597725,1.71534821064654,FALSE,49.3440775890439
"Canada","cpi",0.7,1996,4,1996,NA,0,0.972773888671197,1.82516199986768,1.6556711728335,1.50166806813312,TRUE,0.85238811119648
"Canada","cpi",0.7,1996,4,1996,NA,0.5,0.175314647585794,1.51452071248154,1.6556711728335,1.32822008967348,FALSE,2.28020913390884
"Canada","cpi",0.7,1996,4,1995,NA,1,-1.72519044145057,2.68948252033975,1.6556711728335,2.02244327395347,TRUE,4.41467296179032
"Canada","cpi",0.7,1996,4,1995,NA,1.5,-3.31899147312155,1.09568148866877,1.6556711728335,1.92718935452521,FALSE,8.1479375228885
"Canada","cpi",0.7,1997,4,1997,NA,0,1.03555812976347,1.69472941349911,1.42496507679055,1.54744278954444,TRUE,0.659171283735639
"Canada","cpi",0.7,1997,4,1997,NA,0.5,0.623385509012695,2.31103373533637,1.42496507679055,1.72303237316327,TRUE,1.68764822632367
"Canada","cpi",0.7,1997,4,1996,NA,1,-1.17738473683971,1.97943103412265,1.42496507679055,2.0413885682107,TRUE,3.15681577096236
"Canada","cpi",0.7,1997,4,1996,NA,1.5,0.0301380614727016,3.65605890370051,1.42496507679055,1.91986951679499,TRUE,3.62592084222781
"Canada","cpi",0.7,1998,4,1998,NA,0,0.999482994767389,1.43826893773718,1.0323682372128,1.32960503394646,TRUE,0.438785942969793
"Canada","cpi",0.7,1998,4,1998,NA,0.5,0.694159390946052,1.80069268806469,1.0323682372128,1.50726100317662,TRUE,1.10653329711864
"Canada","cpi",0.7,1998,4,1997,NA,1,-0.897834330110647,0.86733926392861,1.0323682372128,1.58792609966374,FALSE,2.86536674926719
"Canada","cpi",0.7,1998,4,1997,NA,1.5,1.57183658407278,3.33701017811204,1.0323682372128,1.82722544395564,FALSE,5.36162923977246
"Canada","cpi",0.7,1999,4,1999,NA,0,0.921314549452168,1.45507089316935,1.74454349830908,1.50828275233879,FALSE,2.4635737113154
"Canada","cpi",0.7,1999,4,1999,NA,0.5,0.621525272066149,1.2332450648571,1.74454349830908,1.16115671553538,FALSE,4.02037601580415
"Canada","cpi",0.7,1999,4,1998,NA,1,0.719685624722948,1.3314054175139,1.74454349830908,1.9024836587632,FALSE,3.36597366475883
"Canada","cpi",0.7,1999,4,1998,NA,1.5,3.52981205901472,4.14153185180567,1.74454349830908,1.8746928929805,FALSE,12.5135101974952
"Canada","cpi",0.7,2000,4,2000,NA,0,1.35268909186291,2.18900942102136,2.73434549437299,2.29889507469385,FALSE,4.47189415150264
"Canada","cpi",0.7,2000,4,2000,NA,0.5,0.860583114850089,2.52861104864152,2.73434549437299,2.08273990461669,FALSE,3.03959090533454
"Canada","cpi",0.7,2000,4,1999,NA,1,-1.16931616049532,0.769435297424959,2.73434549437299,1.72008921565576,FALSE,15.0381527709072
"Canada","cpi",0.7,2000,4,1999,NA,1.5,-0.985046858614024,1.03996541033128,2.73434549437299,1.58716870538138,FALSE,13.3208794958901
"Canada","cpi",0.7,2001,4,2001,NA,0,1.81326298659975,3.16745676942069,2.54467897330315,3.10277295629358,TRUE,1.35419378282094
"Canada","cpi",0.7,2001,4,2001,NA,0.5,1.24776575405401,3.8088400712662,2.54467897330315,2.99102328155023,TRUE,2.56107431721219
"Canada","cpi",0.7,2001,4,2000,NA,1,-2.11256549942169,3.87378384575757,2.54467897330315,2.05716779240688,TRUE,5.98634934517926
"Canada","cpi",0.7,2001,4,2000,NA,1.5,-1.42078820186952,4.56556114330974,2.54467897330315,1.950224564531,TRUE,5.98634934517926
"Canada","cpi",0.7,2002,4,2002,NA,0,1.11597154003945,2.19319192032457,2.27695832736599,1.75121322657836,FALSE,1.6356630938946
"Canada","cpi",0.7,2002,4,2002,NA,0.5,0.235627751103418,1.74526444745775,2.27695832736599,0.885081053587844,FALSE,5.05426256240927
"Canada","cpi",0.7,2002,4,2001,NA,1,-0.865706306438391,4.91787534781627,2.27695832736599,2.30325950597698,TRUE,5.78358165425466
"Canada","cpi",0.7,2002,4,2001,NA,1.5,0.720297733784839,6.5038793880395,2.27695832736599,2.15511557897725,TRUE,5.78358165425466
"Canada","cpi",0.7,2003,4,2003,NA,0,1.64291728222976,3.07423978880395,2.73694526109434,2.83169100406533,TRUE,1.43132250657419
"Canada","cpi",0.7,2003,4,2003,NA,0.5,1.37740977990595,4.25712797071411,2.73694526109434,3.07009215555252,TRUE,2.87971819080816
"Canada","cpi",0.7,2003,4,2002,NA,1,-0.770408342741991,4.19903480751973,2.73694526109434,2.1323009571345,TRUE,4.96944315026172
"Canada","cpi",0.7,2003,4,2002,NA,1.5,0.838862644778029,5.80830579503975,2.73694526109434,1.8128899881162,TRUE,4.96944315026172
"Canada","cpi",0.7,2004,4,2004,NA,0,1.28367781863713,2.46155933140452,1.84630058591067,1.94326335025052,TRUE,1.17788151276739
"Canada","cpi",0.7,2004,4,2004,NA,0.5,0.530304611240839,2.4402580531548,1.84630058591067,1.41202996286323,TRUE,1.90995344191396
"Canada","cpi",0.7,2004,4,2003,NA,1,-2.52475758667704,1.41572306340108,1.84630058591067,1.72195310807912,FALSE,6.81099746680871
"Canada","cpi",0.7,2004,4,2003,NA,1.5,2.20722426724595,6.14770491732408,1.84630058591067,2.05203708097148,FALSE,6.34663852564669
"Canada","cpi",0.7,2005,4,2005,NA,0,1.36948777601391,2.5059263223408,2.23456211948951,2.2118960782598,TRUE,1.13643854632689
"Canada","cpi",0.7,2005,4,2005,NA,0.5,0.96859443297849,3.11185472612244,2.23456211948951,2.13787262164946,TRUE,2.14326029314395
"Canada","cpi",0.7,2005,4,2004,NA,1,0.817874229185175,3.66379557536331,2.23456211948951,2.16431636867425,TRUE,2.84592134617814
"Canada","cpi",0.7,2005,4,2004,NA,1.5,3.63014489476864,6.47606624094678,2.23456211948951,1.90121867779545,FALSE,12.1498065147057
"Canada","cpi",0.7,2006,4,2006,NA,0,1.4379407557782,2.50108106254914,2.00218136491059,2.21916154315092,TRUE,1.06314030677094
