isdrw/probabilistic-benchmark-forecasts/results/bayesian_quantile_regression/bqr_prediction_ar1_2026-02-20_11-40-32.csv
"country","target","tau","target_year","target_quarter","forecast_year","forecast_quarter","horizon","lower_bound","upper_bound","truth_value","prediction","covered","IS"
"CAN","cpi",0.1,1952,3,1952,NA,0,-25.6546985281466,-25.5547769146846,2.55562336095485,2.65771800091113,FALSE,62.5674777815497
"CAN","cpi",0.1,1952,3,1952,NA,0.5,-10.9639580439272,-8.01840565066188,2.55562336095485,5.20333179389047,FALSE,26.4433946413025
"CAN","cpi",0.1,1952,3,1951,NA,1,-22.2986617316446,-19.3531093383792,2.55562336095485,8.18998200969936,FALSE,51.6316250584521
"CAN","cpi",0.1,1952,3,1951,NA,1.5,18.339923586858,21.2854759801233,2.55562336095485,7.55460015368862,FALSE,38.0217751174945
"CAN","cpi",0.1,1953,3,1953,NA,0,-0.733853619861136,-1.66492366972453,-1.01492775838436,-0.921435878605124,FALSE,1.13797450538859
"CAN","cpi",0.1,1953,3,1953,NA,0.5,-10.2405826066822,-8.95599441698571,-1.01492775838436,-0.76897284692861,FALSE,18.9314029865884
"CAN","cpi",0.1,1953,3,1952,NA,1,-14.3934956174682,-10.8715262517044,-1.01492775838436,2.43113434957527,FALSE,25.4255215731417
"CAN","cpi",0.1,1953,3,1952,NA,1.5,38.0522422636685,42.4242906504995,-1.01492775838436,5.93557635631702,FALSE,91.1879817691706
"CAN","cpi",0.1,1954,3,1954,NA,0,0.944106187654244,0.917250577257029,0.644425455961438,0.902670593188762,FALSE,0.639101571142353
"CAN","cpi",0.1,1954,3,1954,NA,0.5,3.56190273026876,3.86233227266067,0.644425455961438,0.795164313951574,FALSE,6.78371237418596
"CAN","cpi",0.1,1954,3,1953,NA,1,8.20822658073287,9.7860922961934,0.644425455961438,4.14534384936852,FALSE,18.386312659397
"CAN","cpi",0.1,1954,3,1953,NA,1.5,33.4975528447048,35.0754185601653,0.644425455961438,3.28639485866967,FALSE,74.5848154682235
"CAN","cpi",0.1,1955,3,1955,NA,0,0.458762194425412,0.507448776966669,0.173649026558865,0.179965740558204,FALSE,0.682271400022472
"CAN","cpi",0.1,1955,3,1955,NA,0.5,0.242187136114594,0.576506990561714,0.173649026558865,0.271639815719239,FALSE,0.486626764570962
"CAN","cpi",0.1,1955,3,1954,NA,1,8.47758111345487,11.0118959779629,0.173649026558865,4.00726070064464,FALSE,20.9874972798325
"CAN","cpi",0.1,1955,3,1954,NA,1.5,16.5627883995458,20.7850032237875,0.173649026558865,3.09849569962328,FALSE,40.6425245419905
"CAN","cpi",0.1,1956,3,1956,NA,0,0.946612191953598,1.05985739617627,1.32752769429961,1.49944483483663,FALSE,0.708068088941199
"CAN","cpi",0.1,1956,3,1956,NA,0.5,0.50176919034599,0.669067874437818,1.32752769429961,0.239658941687119,FALSE,1.63054272822914
"CAN","cpi",0.1,1956,3,1955,NA,1,4.03044619533106,4.93390871045537,1.32752769429961,2.42699902405841,FALSE,6.90994807297198
"CAN","cpi",0.1,1956,3,1955,NA,1.5,10.9940115316878,13.3402634597692,1.32752769429961,2.6723883730094,FALSE,23.8273271222774
"CAN","cpi",0.1,1957,3,1957,NA,0,1.87154652916251,2.03049400018526,3.24684755852518,3.40805864327458,FALSE,2.86195537844478
"CAN","cpi",0.1,1957,3,1957,NA,0.5,2.7115103082281,3.34333515965123,3.24684755852518,2.77134230956367,TRUE,0.63182485142313
"CAN","cpi",0.1,1957,3,1956,NA,1,6.30588889049869,6.93771374192182,3.24684755852518,5.53767573267731,FALSE,7.42969447803095
"CAN","cpi",0.1,1957,3,1956,NA,1.5,5.05422056875192,5.78421039721038,3.24684755852518,2.3159105314434,FALSE,4.746374295629
"CAN","cpi",0.1,1958,3,1958,NA,0,1.80201736830246,1.88592262918662,2.33186388641149,2.2666416787086,FALSE,1.07488583249498
"CAN","cpi",0.1,1958,3,1958,NA,0.5,2.48944890155228,3.10984661135078,2.33186388641149,2.6047181946108,FALSE,0.970586632333598
"CAN","cpi",0.1,1958,3,1957,NA,1,-3.61222414134409,-2.25503909506811,2.33186388641149,4.25451187896576,FALSE,11.5503027828973
"CAN","cpi",0.1,1958,3,1957,NA,1.5,4.77646898485634,6.13365403113232,2.33186388641149,3.21878619474396,FALSE,6.78964082059786
"CAN","cpi",0.1,1959,3,1959,NA,0,1.26716975759941,1.32676944838412,1.19382698397654,1.23804892137791,FALSE,0.222583632168874
"CAN","cpi",0.1,1959,3,1959,NA,0.5,1.26153912640047,1.64363499430757,1.19382698397654,1.22423653017582,FALSE,0.532567295515831
"CAN","cpi",0.1,1959,3,1958,NA,1,-2.03454755079402,-1.65245168288692,1.19382698397654,2.76661875727304,FALSE,6.70715957204812
"CAN","cpi",0.1,1959,3,1958,NA,1.5,6.87152960073864,7.4885733642491,1.19382698397654,3.40313655953963,FALSE,13.2341606896485
"CAN","cpi",0.1,1960,3,1960,NA,0,0.976683697597416,1.02676597550024,1.34209404870695,1.09496250556158,FALSE,0.750811329473291
"CAN","cpi",0.1,1960,3,1960,NA,0.5,1.4191060058369,1.60286138447203,1.34209404870695,1.31117730754252,FALSE,0.354893061146129
"CAN","cpi",0.1,1960,3,1959,NA,1,2.45444476232282,2.72482443028685,1.34209404870695,3.67993081372331,FALSE,2.74227014266596
"CAN","cpi",0.1,1960,3,1959,NA,1.5,5.08063494188784,5.35101460985187,1.34209404870695,2.53752597259669,FALSE,8.57824831947711
"CAN","cpi",0.1,1961,3,1961,NA,0,1.02853860237341,1.0929721449474,1.00921348094007,1.07956241593662,FALSE,0.107378256870292
"CAN","cpi",0.1,1961,3,1961,NA,0.5,1.67392733076365,1.77335917409666,1.00921348094007,1.62810563897838,FALSE,1.57657373182984
"CAN","cpi",0.1,1961,3,1960,NA,1,-0.468687304788164,-0.369255461455154,1.00921348094007,1.72683407115431,FALSE,3.16269615976684
"CAN","cpi",0.1,1961,3,1960,NA,1.5,4.57831087602305,4.82413753235376,1.00921348094007,2.46209267036318,FALSE,8.17715420095956
"CAN","cpi",0.1,1962,3,1962,NA,0,0.961847610889462,1.00570241373494,1.04957947883042,1.11859419449202,FALSE,0.141359391946531
"CAN","cpi",0.1,1962,3,1962,NA,0.5,0.814790007654886,0.858644810500367,1.04957947883042,0.567427238599509,FALSE,0.468154065801145
"CAN","cpi",0.1,1962,3,1961,NA,1,0.433456134449259,0.47731093729474,1.04957947883042,1.63689072516514,FALSE,1.31556267292476
"CAN","cpi",0.1,1962,3,1961,NA,1.5,4.56011365936761,4.89742070888576,1.04957947883042,2.63635903501327,FALSE,8.13849411737858
"CAN","cpi",0.1,1963,3,1963,NA,0,1.241797990604,1.29259399423385,1.60677118395228,1.86240003699012,FALSE,0.748967536337478
"CAN","cpi",0.1,1963,3,1963,NA,0.5,1.3997454133046,1.53879733491701,1.60677118395228,1.39337130813056,FALSE,0.290104919468564
"CAN","cpi",0.1,1963,3,1962,NA,1,1.94827888673267,2.21290814964459,1.60677118395228,2.94326130570012,FALSE,1.02353526909055
"CAN","cpi",0.1,1963,3,1962,NA,1.5,3.80026003440432,4.06488929731624,1.60677118395228,2.44281938697022,FALSE,5.1390489305831
"CAN","cpi",0.1,1964,3,1964,NA,0,1.41285403454682,1.45313345296022,1.88764670034376,2.0039339947047,FALSE,1.00586441259903
"CAN","cpi",0.1,1964,3,1964,NA,0.5,1.7643080812242,1.8045874996376,1.88764670034376,1.7991677011144,FALSE,0.224855419982649
"CAN","cpi",0.1,1964,3,1963,NA,1,2.57399829449872,2.61427771291212,1.88764670034376,4.16988253093083,FALSE,1.5655051832022
"CAN","cpi",0.1,1964,3,1963,NA,1.5,3.36945616310415,3.40973558151755,1.88764670034376,2.39235828979053,FALSE,3.33318933565871
"CAN","cpi",0.1,1965,3,1965,NA,0,1.58335803710858,1.64347294357586,2.29538304394236,2.3444020011952,FALSE,1.50880401839283
"CAN","cpi",0.1,1965,3,1965,NA,0.5,1.80589122278381,1.93881951946683,2.29538304394236,1.87416183614195,FALSE,0.925291684406406
"CAN","cpi",0.1,1965,3,1964,NA,1,1.05195861953333,1.19839154423742,2.29538304394236,2.77513442256292,FALSE,2.58419181293729
"CAN","cpi",0.1,1965,3,1964,NA,1.5,3.68030403282303,3.89035352210558,2.29538304394236,2.58300862182973,FALSE,3.28765168679515
"CAN","cpi",0.1,1966,3,1966,NA,0,2.2238951193819,2.27835229024759,3.72486065470629,3.82226531435883,FALSE,3.26892020299614
"CAN","cpi",0.1,1966,3,1966,NA,0.5,3.12628531299151,3.25746854022649,3.72486065470629,3.71609253757358,FALSE,1.16983237052343
"CAN","cpi",0.1,1966,3,1965,NA,1,1.68992330349311,1.82110653072809,3.72486065470629,3.18026314560651,FALSE,4.36174794718654
"CAN","cpi",0.1,1966,3,1965,NA,1.5,3.9898843715719,4.12106759880688,3.72486065470629,2.72588429168219,FALSE,0.720124820269664
"CAN","cpi",0.1,1967,3,1967,NA,0,2.54573321494301,2.60902093776587,3.49360316391996,3.71060899730274,FALSE,2.02902600316528
"CAN","cpi",0.1,1967,3,1967,NA,0.5,2.56625825681552,2.73946017648606,3.49360316391996,2.56028521952089,FALSE,1.84907522507921
"CAN","cpi",0.1,1967,3,1966,NA,1,1.175368266557,1.34857018622754,3.49360316391996,3.23068289349593,FALSE,4.93994187009813
"CAN","cpi",0.1,1967,3,1966,NA,1.5,5.13928201424706,5.3124839339176,3.49360316391996,3.48379255951164,FALSE,3.83026603150854
"CAN","cpi",0.1,1968,3,1968,NA,0,2.59695833408949,2.67550491926923,3.95128347779386,4.08812321751386,FALSE,2.91361004856781
"CAN","cpi",0.1,1968,3,1968,NA,0.5,3.36841530864353,3.64706009521579,3.95128347779386,3.86057245484849,FALSE,0.95469674785685
"CAN","cpi",0.1,1968,3,1967,NA,1,3.19464013063224,3.83608445681698,3.95128347779386,4.52914843962159,FALSE,0.897442150577807
"CAN","cpi",0.1,1968,3,1967,NA,1.5,4.50457130180529,5.14601562799003,3.95128347779386,2.90317969156253,FALSE,1.87097282398793
"CAN","cpi",0.1,1969,3,1969,NA,0,2.8678571481275,2.94792963821082,4.42679496126681,4.56202018095233,FALSE,3.3664398746522
"CAN","cpi",0.1,1969,3,1969,NA,0.5,3.04036210809946,3.33943760839094,4.42679496126681,3.1731721410374,FALSE,2.71542517334898
"CAN","cpi",0.1,1969,3,1968,NA,1,3.43615705392827,3.97226316034659,4.42679496126681,4.79164269130369,FALSE,1.54617677512994
"CAN","cpi",0.1,1969,3,1968,NA,1.5,6.01485838486337,6.55096449128169,4.42679496126681,3.43166930802121,FALSE,4.0651359366329
"CAN","cpi",0.1,1970,3,1970,NA,0,2.64612502921876,2.74530804721166,3.28128405769805,3.60731179706845,FALSE,1.29024081907376
"CAN","cpi",0.1,1970,3,1970,NA,0.5,3.73321869202486,4.04733943689355,3.28128405769805,4.09876840974541,FALSE,1.31841993226161
"CAN","cpi",0.1,1970,3,1969,NA,1,2.84559429133884,3.23279902847342,3.28128405769805,4.16731408225431,FALSE,0.494949246522649
"CAN","cpi",0.1,1970,3,1969,NA,1.5,5.75810216486412,6.1453069019987,3.28128405769805,2.94225383025522,FALSE,5.89124497528141
"CAN","cpi",0.1,1971,3,1971,NA,0,2.08953264647155,2.16774671443195,2.64123406634756,2.83090781749212,FALSE,1.13040818332842
"CAN","cpi",0.1,1971,3,1971,NA,0.5,1.96819752271412,2.16733710959862,2.64123406634756,1.62320660035324,FALSE,1.25224393521548
"CAN","cpi",0.1,1971,3,1970,NA,1,2.59586867808714,2.98187899656627,2.64123406634756,3.17007770946556,TRUE,0.386010318479133
"CAN","cpi",0.1,1971,3,1970,NA,1.5,6.81071148983701,7.19672180831614,2.64123406634756,3.54353814347809,FALSE,9.65151570401124
"CAN","cpi",0.1,1972,3,1972,NA,0,2.68602386212086,2.77009056367844,4.83230569625923,5.0489634093373,FALSE,4.66676699618156
"CAN","cpi",0.1,1972,3,1972,NA,0.5,3.6475811317691,3.96263711649475,4.83230569625923,4.42305209693724,FALSE,2.24765282864671
"CAN","cpi",0.1,1972,3,1971,NA,1,5.52680212916828,5.84185811389393,4.83230569625923,4.88112932259212,FALSE,1.85838139119021
"CAN","cpi",0.1,1972,3,1971,NA,1.5,5.81341243463499,6.12846841936065,4.83230569625923,2.93340690449956,FALSE,2.49529318111624
"CAN","cpi",0.1,1973,3,1973,NA,0,3.96149147154681,4.08855920935229,7.12388603531779,7.21795256722813,FALSE,6.87223846217326
"CAN","cpi",0.1,1973,3,1973,NA,0.5,4.7810364555158,5.25300223364614,7.12388603531779,5.49391172870491,FALSE,4.62948533740068
"CAN","cpi",0.1,1973,3,1972,NA,1,4.35467706162817,4.93989912751575,7.12388603531779,5.39692894021178,FALSE,5.43852630544766
"CAN","cpi",0.1,1973,3,1972,NA,1.5,7.36155614396848,7.94677820985605,7.12388603531779,3.58263496028301,FALSE,1.1133778628891
"CAN","cpi",0.1,1974,3,1974,NA,0,5.48803934842239,5.63781793503033,10.2717243737774,10.1210179328964,FALSE,10.4473484504904
"CAN","cpi",0.1,1974,3,1974,NA,0.5,6.81548479094781,7.24864456802961,10.2717243737774,7.94351867110281,FALSE,7.15111490096582
"CAN","cpi",0.1,1974,3,1973,NA,1,5.57877279284866,6.01193256993047,10.2717243737774,7.1912022670208,FALSE,9.89936378563059
"CAN","cpi",0.1,1974,3,1973,NA,1.5,8.5878237559608,9.02098353304261,10.2717243737774,4.0254660999559,FALSE,3.21258386760361
"CAN","cpi",0.1,1975,3,1975,NA,0,6.34301960870358,6.20222929651677,10.0232981493341,10.1376483081154,FALSE,8.35047380518508
"CAN","cpi",0.1,1975,3,1975,NA,0.5,7.74814315674552,7.60735284455872,10.0232981493341,8.26308676293858,FALSE,5.22797703175853
"CAN","cpi",0.1,1975,3,1974,NA,1,2.30727308737402,2.16648277518722,10.0232981493341,7.73583614861028,FALSE,17.3187994081397
"CAN","cpi",0.1,1975,3,1974,NA,1.5,10.5224328199846,10.8499972471619,10.0232981493341,4.67814014273702,FALSE,1.43675258417838
"CAN","cpi",0.1,1976,3,1976,NA,0,5.44694755251359,5.13358498443813,7.22784311401172,7.2178166349125,FALSE,4.34054438653251
"CAN","cpi",0.1,1976,3,1976,NA,0.5,6.45577000354073,6.14240743546526,7.22784311401172,6.91786916440093,FALSE,2.09871671758332
"CAN","cpi",0.1,1976,3,1975,NA,1,1.17126418361182,0.857901615536348,7.22784311401172,8.273619332389,FALSE,13.842062984092
"CAN","cpi",0.1,1976,3,1975,NA,1.5,11.1082762352888,10.7949136672134,7.22784311401172,4.5816570194731,FALSE,8.30982214587368
"CAN","cpi",0.1,1977,3,1977,NA,0,4.60541497907138,4.67537449950035,7.58101410153764,7.50701198703803,FALSE,6.52693641384518
"CAN","cpi",0.1,1977,3,1977,NA,0.5,5.58066547103962,5.65062499146859,7.58101410153764,6.51617593246189,FALSE,4.3597130983602
"CAN","cpi",0.1,1977,3,1976,NA,1,0.135278793510672,0.205238313939642,7.58101410153764,4.96992569410004,FALSE,16.4605723817579
"CAN","cpi",0.1,1977,3,1976,NA,1.5,10.8028302547642,10.8727897751932,7.58101410153764,4.37719420243736,FALSE,7.22955097204351
"CAN","cpi",0.1,1978,3,1978,NA,0,5.05568781582166,5.12481859463255,8.50208927062595,8.58158523467168,FALSE,7.57417672546287
"CAN","cpi",0.1,1978,3,1978,NA,0.5,6.17275088151143,6.24188166032232,8.50208927062595,7.4716201567401,FALSE,5.0918143572634
"CAN","cpi",0.1,1978,3,1977,NA,1,1.66584025624879,1.73497103505968,8.50208927062595,6.36749774462425,FALSE,15.1071713022915
"CAN","cpi",0.1,1978,3,1977,NA,1.5,12.2122372847,12.2813680635109,8.50208927062595,5.06410799386515,FALSE,8.31390414341985
"CAN","cpi",0.1,1979,3,1979,NA,0,5.40362716390223,5.19448736675348,8.65147652410481,8.49829924825941,FALSE,7.47305833029865
"CAN","cpi",0.1,1979,3,1979,NA,0.5,6.46991001201792,6.26077021486916,8.65147652410481,7.55954787357905,FALSE,5.10354089004158
"CAN","cpi",0.1,1979,3,1978,NA,1,1.83795160611453,1.62881180896578,8.65147652410481,7.11843292779768,FALSE,15.3967817920491
"CAN","cpi",0.1,1979,3,1978,NA,1.5,12.2841282800211,12.0749884828723,8.65147652410481,5.13416174624329,FALSE,7.86341966044291
"CAN","cpi",0.1,1980,3,1980,NA,0,5.63124021934614,5.57207531834147,9.5171912664748,9.41458421512922,FALSE,8.7077594281805
"CAN","cpi",0.1,1980,3,1980,NA,0.5,6.48501127936677,6.4258463783621,9.5171912664748,7.9706129876785,FALSE,6.81049040591243
"CAN","cpi",0.1,1980,3,1979,NA,1,-0.0568348011303621,-0.115999702135026,9.5171912664748,6.28953001008885,FALSE,21.3479261403505
"CAN","cpi",0.1,1980,3,1979,NA,1.5,12.3270667888978,12.2679018878931,9.5171912664748,5.364173973799,FALSE,6.18500292660191
"CAN","cpi",0.1,1981,3,1981,NA,0,6.47102070179427,6.57400224996954,11.5813425032741,11.5923033542996,FALSE,11.2304043332966
"CAN","cpi",0.1,1981,3,1981,NA,0.5,8.51333130673403,8.61631285490931,11.5813425032741,11.0172481296202,FALSE,6.69193632231935
"CAN","cpi",0.1,1981,3,1980,NA,1,1.29613773413679,1.39911928231207,11.5813425032741,8.10476531012298,FALSE,22.7301442614243
"CAN","cpi",0.1,1981,3,1980,NA,1.5,11.2653329959545,11.3683145441298,11.5813425032741,5.56064493450504,FALSE,0.576377012940588
"CAN","cpi",0.1,1982,3,1982,NA,0,6.45517342380382,6.69934595817732,10.1124203763629,10.1931679525338,FALSE,7.82878235256379
"CAN","cpi",0.1,1982,3,1982,NA,0.5,7.83880531164913,8.08297784602263,10.1124203763629,9.37004969245236,FALSE,4.75404482401864
"CAN","cpi",0.1,1982,3,1981,NA,1,-0.853098707823301,-0.608926173449801,10.1124203763629,8.69554175936175,FALSE,24.0693870895129
"CAN","cpi",0.1,1982,3,1981,NA,1.5,14.6217646881575,14.865937222531,10.1124203763629,7.27062596384307,FALSE,10.2649376716947
"CAN","cpi",0.1,1983,3,1983,NA,0,4.77547718251374,4.8663777683221,5.67091787896303,5.81768735292628,FALSE,1.87876749834377
"CAN","cpi",0.1,1983,3,1983,NA,0.5,5.06368826807378,5.15458885388215,5.67091787896303,5.01354605702602,FALSE,1.23829841932144
"CAN","cpi",0.1,1983,3,1982,NA,1,-0.352992747090507,-0.262092161282144,5.67091787896303,7.12656393494862,FALSE,13.2753673419088
"CAN","cpi",0.1,1983,3,1982,NA,1.5,12.8289926298545,12.9198932156629,5.67091787896303,6.40641718255638,FALSE,15.9977333655672
"CAN","cpi",0.1,1984,3,1984,NA,0,3.11793724751774,3.19172043743041,4.19799576814029,4.24028901012313,FALSE,2.30995059149018
"CAN","cpi",0.1,1984,3,1984,NA,0.5,4.14179182087331,4.21557501078597,4.19799576814029,4.75786855948752,TRUE,0.0737831899126604
"CAN","cpi",0.1,1984,3,1983,NA,1,1.60575705136912,1.67954024128178,4.19799576814029,5.66557758519989,FALSE,5.67035102737602
"CAN","cpi",0.1,1984,3,1983,NA,1.5,9.59019039600599,9.66397358591865,4.19799576814029,4.21132796972244,FALSE,12.0564379185031
"CAN","cpi",0.1,1985,3,1985,NA,0,2.61606626358798,2.72151459732427,3.86444262005169,3.92349089738505,FALSE,2.64528838424168
"CAN","cpi",0.1,1985,3,1985,NA,0.5,3.41260230138293,3.60405797249534,3.86444262005169,4.05923277954066,FALSE,0.770088221237634
"CAN","cpi",0.1,1985,3,1984,NA,1,0.819967444897042,1.01142311600945,3.86444262005169,3.95710775307987,FALSE,6.5314990134285
"CAN","cpi",0.1,1985,3,1984,NA,1.5,10.5499705014993,10.7414261726117,3.86444262005169,4.80620472271859,FALSE,15.0481842965515
"CAN","cpi",0.1,1986,3,1986,NA,0,2.68767446678311,2.64508916392515,4.08685396749431,4.13000198176505,FALSE,3.16133648285129
"CAN","cpi",0.1,1986,3,1986,NA,0.5,3.65773702121176,3.61515171835381,4.08685396749431,4.52376153022901,FALSE,1.00564191745427
"CAN","cpi",0.1,1986,3,1985,NA,1,1.59406569844627,1.55148039558832,4.08685396749431,4.28856700742326,FALSE,5.59157819026648
"CAN","cpi",0.1,1986,3,1985,NA,1.5,10.3485606831106,10.3059753802526,4.08685396749431,4.73207334351572,FALSE,13.8723185096226
"CAN","cpi",0.1,1987,3,1987,NA,0,2.80209687340005,2.82367013390099,4.23980729277887,4.34713339619661,FALSE,3.16854472467401
"CAN","cpi",0.1,1987,3,1987,NA,0.5,3.35602381376263,3.37759707426357,4.23980729277887,4.04554574241257,FALSE,1.93759596831272
"CAN","cpi",0.1,1987,3,1986,NA,1,1.80541495616118,1.82698821666212,4.23980729277887,4.62985152306341,FALSE,5.38339342964927
"CAN","cpi",0.1,1987,3,1986,NA,1.5,10.2775573300607,10.2991305905616,4.23980729277887,4.92117197950912,FALSE,13.4387955655716
"CAN","cpi",0.1,1988,3,1988,NA,0,2.70909217505845,2.76524717824864,3.92899537638065,4.00901931174773,FALSE,2.64226211015022
"CAN","cpi",0.1,1988,3,1988,NA,0.5,3.1027355283318,3.158890531522,3.92899537638065,3.73662637763501,FALSE,1.76749910287609
"CAN","cpi",0.1,1988,3,1987,NA,1,1.44439590865953,1.50055091184973,3.92899537638065,4.57559871410537,FALSE,5.45269825770337
"CAN","cpi",0.1,1988,3,1987,NA,1.5,8.69794585832759,8.75410086151779,3.92899537638065,4.47333468954476,FALSE,10.6538227408501
"CAN","cpi",0.1,1989,3,1989,NA,0,2.9721667445866,2.97662719579388,4.82821664544208,4.99076681888079,FALSE,4.11910367264773
"CAN","cpi",0.1,1989,3,1989,NA,0.5,3.4466690627787,3.45112951398597,4.82821664544208,4.4916513034202,FALSE,3.06465407666528
"CAN","cpi",0.1,1989,3,1988,NA,1,1.71823631834505,1.72269676955233,4.82821664544208,4.54165447743213,FALSE,6.90561573096228
"CAN","cpi",0.1,1989,3,1988,NA,1.5,8.40809889037894,8.47488290153918,4.82821664544208,4.35655767104226,FALSE,8.02207788879771
"CAN","cpi",0.1,1990,3,1990,NA,0,3.01263908705876,3.09353791267264,4.64347549432717,4.53713653171057,FALSE,3.52520456262395
"CAN","cpi",0.1,1990,3,1990,NA,0.5,3.74822033624465,4.0092256265832,4.64347549432717,5.08101061108308,FALSE,1.67044944088071
"CAN","cpi",0.1,1990,3,1989,NA,1,2.15343054370402,2.41443583404257,4.64347549432717,5.34783125013627,FALSE,5.21442675763766
"CAN","cpi",0.1,1990,3,1989,NA,1.5,9.01454591436595,9.52672934274791,4.64347549432717,4.81353563225505,FALSE,10.2256732506904
"CAN","cpi",0.1,1991,3,1991,NA,0,3.32361930031638,3.43123910954948,5.4258100696218,5.66037042635664,FALSE,4.53999972050491
"CAN","cpi",0.1,1991,3,1991,NA,0.5,5.17554881302439,5.53245559662271,5.4258100696218,7.84858621299389,TRUE,0.356906783598323
"CAN","cpi",0.1,1991,3,1990,NA,1,0.915578612627847,1.27248539622617,5.4258100696218,4.26930339967321,FALSE,9.58651716892193
"CAN","cpi",0.1,1991,3,1990,NA,1.5,9.18381684183506,9.91164981022576,5.4258100696218,5.0605414207232,FALSE,9.07895912886461
"CAN","cpi",0.1,1992,3,1992,NA,0,2.19440422998486,2.27454107760123,1.47496888572843,1.52994687025859,FALSE,1.6788820570751
"CAN","cpi",0.1,1992,3,1992,NA,0.5,2.12717743089599,2.31707505553274,1.47496888572843,1.85875773502133,FALSE,1.63924994723132
"CAN","cpi",0.1,1992,3,1991,NA,1,0.102004551948492,0.29190217658525,1.47496888572843,3.50386131646851,FALSE,2.81893475606605
"CAN","cpi",0.1,1992,3,1991,NA,1.5,11.7824358713587,12.5110045718631,1.47496888572843,6.78035435046663,FALSE,23.6340508907939
"CAN","cpi",0.1,1993,3,1993,NA,0,1.3508948857957,1.25305222581686,1.84351085411351,1.87124044779021,FALSE,1.21428762512483
"CAN","cpi",0.1,1993,3,1993,NA,0.5,2.10381728532161,2.00597462534277,1.84351085411351,2.72734178597627,FALSE,0.480616076039157
"CAN","cpi",0.1,1993,3,1992,NA,1,2.00189289582307,1.90405023584424,1.84351085411351,3.08451104384819,FALSE,0.254117432709073
"CAN","cpi",0.1,1993,3,1992,NA,1.5,7.97371333209864,7.8758706721198,1.84351085411351,3.82501351795864,FALSE,13.5248295133214
"CAN","cpi",0.1,1994,3,1994,NA,0,0.908287359898803,0.863288959260282,0.161630694655448,0.262954827743209,FALSE,1.6142386332356
"CAN","cpi",0.1,1994,3,1994,NA,0.5,0.793999207531029,0.749000806892508,0.161630694655448,0.310066271274909,FALSE,1.36026496130722
"CAN","cpi",0.1,1994,3,1993,NA,1,1.415353028777,1.37035462813848,0.161630694655448,2.87682482634461,FALSE,2.74105123074271
"CAN","cpi",0.1,1994,3,1993,NA,1.5,8.19517521217334,8.15017681153482,0.161630694655448,4.13541986765475,FALSE,17.8073227494012
"CAN","cpi",0.1,1995,3,1995,NA,0,1.07873703616914,1.06373895057408,2.11688403676572,2.22224044651209,FALSE,2.32532432816413
"CAN","cpi",0.1,1995,3,1995,NA,0.5,1.91734338735229,1.90234530175724,2.11688403676572,2.99405804315788,FALSE,0.461754658868226
"CAN","cpi",0.1,1995,3,1994,NA,1,2.55185340213693,2.53685531654188,2.11688403676572,2.99684369657241,FALSE,0.951600504118761
"CAN","cpi",0.1,1995,3,1994,NA,1.5,5.59479969844069,5.57980161284564,2.11688403676572,2.55761383507254,FALSE,7.71370338479378
"CAN","cpi",0.1,1996,3,1996,NA,0,1.35541410666458,1.39145737437747,1.55309584667184,1.51034526106652,FALSE,0.3952398728115
"CAN","cpi",0.1,1996,3,1996,NA,0.5,1.47906813755507,1.56547281375952,1.55309584667184,1.79601314583588,TRUE,0.086404676204455
"CAN","cpi",0.1,1996,3,1995,NA,1,0.760619853660329,0.847024529864784,1.55309584667184,2.55715877011559,FALSE,1.65545204688681
"CAN","cpi",0.1,1996,3,1995,NA,1.5,9.22148053085794,9.33956789051412,1.55309584667184,4.37195408299294,FALSE,17.1589422134031
"CAN","cpi",0.1,1997,3,1997,NA,0,1.2820973533639,1.3169506645068,1.60528783555959,1.74775979926451,FALSE,0.675602580149104
"CAN","cpi",0.1,1997,3,1997,NA,0.5,1.71481500501118,1.76411140752784,1.60528783555959,2.44638235868142,FALSE,0.292690112409077
"CAN","cpi",0.1,1997,3,1996,NA,1,1.02461602162494,1.07391242414161,1.60528783555959,2.43903366578812,FALSE,1.23013065011219
"CAN","cpi",0.1,1997,3,1996,NA,1.5,7.77403546284812,7.83287830693466,1.60528783555959,3.62198739789796,FALSE,13.7671709047277
"CAN","cpi",0.1,1998,3,1998,NA,0,1.09663130062382,1.06252370924527,0.988908029337191,1.03895035119065,FALSE,0.205277455925074
"CAN","cpi",0.1,1998,3,1998,NA,0.5,1.4559866600886,1.42187906871004,0.988908029337191,1.85198354845497,FALSE,1.00384492140235
"CAN","cpi",0.1,1998,3,1997,NA,1,1.08341475322424,1.04930716184568,0.988908029337191,2.50242700061489,FALSE,0.175907350592663
"CAN","cpi",0.1,1998,3,1997,NA,1.5,7.91837763329023,7.88427004191167,0.988908029337191,3.75826952211307,FALSE,15.3647137507393
"CAN","cpi",0.1,1999,3,1999,NA,0,1.15209805562887,1.18135016657686,1.7107350135213,1.81904689636282,FALSE,1.20566288193562
"CAN","cpi",0.1,1999,3,1999,NA,0.5,1.01493862687504,1.0989384840733,1.7107350135213,1.31729339512256,FALSE,1.44354770041603
"CAN","cpi",0.1,1999,3,1998,NA,1,0.997152377811737,1.08115223500999,1.7107350135213,2.15211490322884,FALSE,1.48307269833449
"CAN","cpi",0.1,1999,3,1998,NA,1.5,7.76806507349242,7.85554046043249,1.7107350135213,3.69857126490312,FALSE,13.5482088535426
"CAN","cpi",0.1,2000,3,2000,NA,0,1.64564155458693,1.68156244068334,2.6718361971244,2.74274050503735,FALSE,2.23652923374321
"CAN","cpi",0.1,2000,3,2000,NA,0.5,1.73247583227153,1.76839671836795,2.6718361971244,2.46113990926174,FALSE,2.04356417222186
"CAN","cpi",0.1,2000,3,1999,NA,1,1.73569315597927,1.77161404207568,2.6718361971244,3.49419557264756,FALSE,2.03641456398245
"CAN","cpi",0.1,2000,3,1999,NA,1.5,6.93839633427892,6.97431722037533,2.6718361971244,3.22544865557399,FALSE,9.51716563532868
"CAN","cpi",0.1,2001,3,2001,NA,0,1.95680217943044,1.9582872732209,2.47906219852806,2.80396337772557,FALSE,1.15876270558416
"CAN","cpi",0.1,2001,3,2001,NA,0.5,1.764087679567,1.76557277335746,2.47906219852806,2.23984277042869,FALSE,1.58701714972514
"CAN","cpi",0.1,2001,3,2000,NA,1,1.62018102590452,1.62166611969498,2.47906219852806,3.95792003209951,FALSE,1.90680971341953
"CAN","cpi",0.1,2001,3,2000,NA,1.5,8.00761092216078,8.00909601595124,2.47906219852806,3.55622040628749,FALSE,12.2871489240854
"CAN","cpi",0.1,2002,3,2002,NA,0,1.73054395870563,1.77281090948946,2.20880570551249,2.34939305392984,FALSE,1.01114427527945
"CAN","cpi",0.1,2002,3,2002,NA,0.5,1.50437876768333,1.55266146303431,2.20880570551249,1.70224895292675,FALSE,1.50638101196915
"CAN","cpi",0.1,2002,3,2001,NA,1,0.446628442966106,0.494911138317083,2.20880570551249,2.47791561910008,FALSE,3.85693728911854
"CAN","cpi",0.1,2002,3,2001,NA,1.5,6.93163380265578,6.97991649800675,2.20880570551249,3.17564245091106,FALSE,10.5434562445583
"CAN","cpi",0.1,2003,3,2003,NA,0,1.83740848580148,1.79739483532693,2.71189071546809,2.81714587005806,FALSE,1.9921994165058
"CAN","cpi",0.1,2003,3,2003,NA,0.5,2.87339201830014,2.83337836782559,2.71189071546809,4.41787786293317,FALSE,0.31887813359668
"CAN","cpi",0.1,2003,3,2002,NA,1,2.17552968121405,2.1355160307395,2.71189071546809,4.32236105253803,FALSE,1.24081898225565
"CAN","cpi",0.1,2003,3,2002,NA,1.5,7.91800808839868,7.87799443792413,2.71189071546809,3.7551535685832,FALSE,11.529136067149
"CAN","cpi",0.1,2004,3,2004,NA,0,1.62185241627111,1.65820606794088,1.83151661303942,1.83115885083991,FALSE,0.421488196333187
"CAN","cpi",0.1,2004,3,2004,NA,0.5,1.60851180570307,1.69112187529391,1.83151661303942,1.89356075843229,FALSE,0.394598375691978
"CAN","cpi",0.1,2004,3,2003,NA,1,0.59228471290307,0.67489478249391,1.83151661303942,2.5903955121087,FALSE,2.65288080413642
"CAN","cpi",0.1,2004,3,2003,NA,1.5,9.22027902605822,9.45898354136714,1.83151661303942,4.52605057310407,FALSE,16.6581765442396
"CAN","cpi",0.1,2005,3,2005,NA,0,1.56544530596415,1.59967622001225,2.18071628336509,2.39375726304695,FALSE,1.32543105483218
"CAN","cpi",0.1,2005,3,2005,NA,0.5,1.54688882505122,1.5930121617026,2.18071628336509,2.00628617924563,FALSE,1.35213249590135
"CAN","cpi",0.1,2005,3,2004,NA,1,0.929939848359589,0.976063185010975,2.18071628336509,2.50853787240411,FALSE,2.72313022188275
"CAN","cpi",0.1,2005,3,2004,NA,1.5,7.27259010523806,7.62654943598213,2.18071628336509,3.53910826966273,FALSE,11.6692344904618
"CAN","cpi",0.1,2006,3,2006,NA,0,1.58443439147685,1.59547728720517,1.97519342012289,2.13830460574546,FALSE,0.854856524434351
"CAN","cpi",0.1,2006,3,2006,NA,0.5,1.75866660485255,1.76970950058087,1.97519342012289,2.27462572570213,FALSE,0.467673828043913
"CAN","cpi",0.1,2006,3,2005,NA,1,1.74633774532622,1.75738064105454,1.97519342012289,3.7624469653382,FALSE,0.49507129365798
"CAN","cpi",0.1,2006,3,2005,NA,1.5,7.06553446904486,7.07657736477318,1.97519342012289,3.32314929235963,FALSE,11.3229118933327
"CAN","cpi",0.1,2007,3,2007,NA,0,1.52696341980354,1.5628578238325,2.10062087284572,2.1848630325127,FALSE,1.23092340183613
"CAN","cpi",0.1,2007,3,2007,NA,0.5,1.76488595891425,1.85069946793331,2.10062087284572,2.4659174627357,FALSE,0.641194408824424
"CAN","cpi",0.1,2007,3,2006,NA,1,0.75296892545469,0.838782434473746,2.10062087284572,2.22963612092819,FALSE,2.88989892762345
"CAN","cpi",0.1,2007,3,2006,NA,1.5,7.13172435150964,7.2175378605287,2.10062087284572,3.47295078658589,FALSE,11.2660434616055
"CAN","cpi",0.1,2008,3,2008,NA,0,1.80846177392067,1.84227531138125,2.31447335265955,2.95153528130006,FALSE,1.08314251807903
"CAN","cpi",0.1,2008,3,2008,NA,0.5,1.33676220414155,1.38905230927161,2.31447335265955,1.59715335325429,FALSE,2.10878131265882
"CAN","cpi",0.1,2008,3,2007,NA,1,0.765636111275833,0.817926216405896,2.31447335265955,2.20911886965343,FALSE,3.37795040791596
"CAN","cpi",0.1,2008,3,2007,NA,1.5,7.94475957333403,7.99704967846409,2.31447335265955,3.9578182731907,FALSE,12.5640372621845
"CAN","cpi",0.1,2009,3,2009,NA,0,1.03915503714994,1.05304416580755,0.284533874408197,0.346622519867227,FALSE,1.69082504586148
"CAN","cpi",0.1,2009,3,2009,NA,0.5,0.636811466100534,0.650700594758144,0.284533874408197,-0.0457515238861102,FALSE,0.796728221307247
"CAN","cpi",0.1,2009,3,2008,NA,1,2.4969750649995,2.51086419365711,0.284533874408197,4.33236618581201,FALSE,4.9304251077494
"CAN","cpi",0.1,2009,3,2008,NA,1.5,6.7512049275327,6.76509405619031,0.284533874408197,3.24825712451693,FALSE,14.3842692467121
"CAN","cpi",0.1,2010,3,2010,NA,0,0.950368208500177,0.947952218866805,1.75525687020327,1.78349521203817,FALSE,1.79159434666989
"CAN","cpi",0.1,2010,3,2010,NA,0.5,1.31619962339937,1.313783633766,1.75525687020327,1.93597561685668,FALSE,0.978635646893907
"CAN","cpi",0.1,2010,3,2009,NA,1,1.73135021121161,1.72893422157823,1.75525687020327,2.28870864882185,FALSE,0.0560787850889347
"CAN","cpi",0.1,2010,3,2009,NA,1.5,5.17436908418815,5.17195309455478,1.75525687020327,2.56709646677203,FALSE,7.59561115255524
"CAN","cpi",0.1,2011,3,2011,NA,0,1.70554006098161,1.73956596993085,2.85717434028225,2.89893270710837,FALSE,2.51760006528568
"CAN","cpi",0.1,2011,3,2011,NA,0.5,1.97834149527859,2.08954390572827,2.85717434028225,3.00273872882262,FALSE,1.81704782056962
"CAN","cpi",0.1,2011,3,2010,NA,1,1.73804013863051,1.84924254908019,2.85717434028225,3.01142322899407,FALSE,2.35105083534314
"CAN","cpi",0.1,2011,3,2010,NA,1.5,7.00931076371517,7.12051317416486,2.85717434028225,3.40953331447502,FALSE,9.33817224030064
"CAN","cpi",0.1,2012,3,2012,NA,0,1.58121559233214,1.6187643523284,1.50118536134935,1.54988369950135,FALSE,0.215393717735801
"CAN","cpi",0.1,2012,3,2012,NA,0.5,1.69364147331125,1.82538899501721,1.50118536134935,2.15316548342416,FALSE,0.559427770510186
"CAN","cpi",0.1,2012,3,2011,NA,1,1.09730871269778,1.22905623440374,1.50118536134935,2.54342291649057,FALSE,0.736478914918417
"CAN","cpi",0.1,2012,3,2011,NA,1.5,7.56648683526517,8.14641550226422,1.50118536134935,3.73545377968611,FALSE,14.058376386812
"CAN","cpi",0.1,2013,3,2013,NA,0,1.08020825845979,1.07222706894443,0.931270594714462,1.09800048224073,FALSE,0.322991396585362
"CAN","cpi",0.1,2013,3,2013,NA,0.5,1.25553678134075,1.24755559182539,0.931270594714462,1.51761743040875,FALSE,0.712610336320835
"CAN","cpi",0.1,2013,3,2012,NA,1,0.850200444627585,0.842219255112225,0.931270594714462,1.66882566360164,FALSE,0.189910676267389
"CAN","cpi",0.1,2013,3,2012,NA,1.5,6.90938308430076,6.9014018947854,0.931270594714462,3.3545832452448,FALSE,13.2767132317875
"CAN","cpi",0.1,2014,3,2014,NA,0,1.21089221636025,1.23713852739252,1.87639912240215,2.0588007866019,FALSE,1.44682541105367
"CAN","cpi",0.1,2014,3,2014,NA,0.5,1.46447482471974,1.60083861373467,1.87639912240215,2.32770811661281,FALSE,0.748720474942672
"CAN","cpi",0.1,2014,3,2013,NA,1,1.36997195512412,1.50633574413905,1.87639912240215,2.31995786180362,FALSE,0.958726851821815
"CAN","cpi",0.1,2014,3,2013,NA,1.5,6.41024535216969,6.63610712398263,1.87639912240215,3.28547165350463,FALSE,10.3010756157408
"CAN","cpi",0.1,2015,3,2015,NA,0,1.2233712777163,1.25604953630207,1.11090953952792,1.30745939376918,FALSE,0.282593232337727
"CAN","cpi",0.1,2015,3,2015,NA,0.5,0.904230315523583,0.944013597414687,1.11090953952792,0.816310503641023,FALSE,0.410663153253837
"CAN","cpi",0.1,2015,3,2014,NA,1,1.12809083248307,1.16787411437417,1.11090953952792,2.265930123798,FALSE,0.0779639329025462
"CAN","cpi",0.1,2015,3,2014,NA,1.5,7.58345834189511,7.62324162378621,1.11090953952792,3.7337371203939,FALSE,14.4232250649293
"CAN","cpi",0.1,2016,3,2016,NA,0,1.07687166807784,1.10471572817481,1.41168586698797,1.51468621085982,FALSE,0.709999924126205
"CAN","cpi",0.1,2016,3,2016,NA,0.5,1.05835748738746,1.16517968983754,1.41168586698797,1.39785588750173,FALSE,0.654613707228801
"CAN","cpi",0.1,2016,3,2015,NA,1,1.62146410380801,1.72828630625809,1.41168586698797,2.74144943136963,FALSE,0.572996062050175
"CAN","cpi",0.1,2016,3,2015,NA,1.5,5.92950033462018,6.03632253707026,1.41168586698797,2.82752633095574,FALSE,10.1464099082995
"CAN","cpi",0.1,2017,3,2017,NA,0,1.18792142289224,1.20745231792524,1.57888581671161,1.58758621872303,FALSE,0.844938670113822
"CAN","cpi",0.1,2017,3,2017,NA,0.5,1.5722620631042,1.5917929581372,1.57888581671161,2.28560926705846,TRUE,0.0195308950330064
"CAN","cpi",0.1,2017,3,2016,NA,1,1.13902585733836,1.15855675237137,1.57888581671161,2.1477774879281,FALSE,0.95359548245577
"CAN","cpi",0.1,2017,3,2016,NA,1.5,6.1362810058212,6.15581190085421,1.57888581671161,3.03010691132674,FALSE,10.147075759721
"CAN","cpi",0.1,2018,3,2018,NA,0,1.51249957425013,1.54199674527648,2.23316270166586,2.46195010316238,FALSE,1.56542151855831
"CAN","cpi",0.1,2018,3,2018,NA,0.5,1.86985136357904,1.89934853460539,2.23316270166586,2.94436972801409,FALSE,0.771306431160733
"CAN","cpi",0.1,2018,3,2017,NA,1,1.07359653910946,1.10309371013581,2.23316270166586,2.08021290652945,FALSE,2.54076159664869
"CAN","cpi",0.1,2018,3,2017,NA,1.5,6.81413232484103,6.84362949586738,2.23316270166586,3.54405552837179,FALSE,10.2094296669712
"CAN","cpi",0.1,2019,3,2019,NA,0,1.56184869588615,1.59941147459748,1.91921619871868,2.07527494378271,FALSE,0.748239943425114
"CAN","cpi",0.1,2019,3,2019,NA,0.5,1.44239230294609,1.58209756450378,1.91921619871868,1.96131710374494,FALSE,0.888857782035248
"CAN","cpi",0.1,2019,3,2018,NA,1,1.37936249797266,1.51906775953036,1.91921619871868,2.81909694573415,FALSE,1.02892401530953
"CAN","cpi",0.1,2019,3,2018,NA,1.5,7.30492220305869,7.44462746461639,1.91921619871868,3.79624170159109,FALSE,12.1079408267577
"CAN","cpi",0.1,2020,3,2020,NA,0,1.06253571959096,1.09079477841907,0.71139989671781,0.779891991607007,FALSE,0.808560887435108
"CAN","cpi",0.1,2020,3,2020,NA,0.5,1.25751350592275,1.3019715468614,0.71139989671781,1.59504539616918,FALSE,1.25804383917185
"CAN","cpi",0.1,2020,3,2019,NA,1,1.31911989620059,1.36357793713925,0.71139989671781,2.56912406193859,FALSE,1.39494692867818
"CAN","cpi",0.1,2020,3,2019,NA,1.5,6.70040136106785,6.74485940200651,0.71139989671781,3.3514298226716,FALSE,13.3533501839388
"CAN","cpi",0.1,2021,3,2021,NA,0,1.55674844551522,1.57028244025466,3.31148121717802,3.33723348286849,FALSE,3.8828646101247
"CAN","cpi",0.1,2021,3,2021,NA,0.5,1.64517686919469,1.65871086393413,3.31148121717802,2.81986273764272,FALSE,3.6863570019481
"CAN","cpi",0.1,2021,3,2020,NA,1,1.57981768934945,1.59335168408888,3.31148121717802,2.55173313104187,FALSE,3.83159962382642
"CAN","cpi",0.1,2021,3,2020,NA,1.5,5.77342183951192,5.78695583425136,3.31148121717802,3.05083641297579,FALSE,5.48451315548144
"CAN","cpi",0.1,2022,3,2022,NA,0,3.28360215528898,3.36014249386564,6.50977236228281,6.58834368873213,FALSE,7.07571782394815
"CAN","cpi",0.1,2022,3,2022,NA,0.5,3.33925443311436,3.58599997025521,6.50977236228281,5.98101887959915,FALSE,6.74401751942441
"CAN","cpi",0.1,2022,3,2021,NA,1,1.86432701872185,2.1110725558627,6.50977236228281,4.27132466765734,FALSE,10.0216339958522
"CAN","cpi",0.1,2022,3,2021,NA,1.5,7.20937242425711,7.45611796139796,6.50977236228281,3.68392050970238,FALSE,1.80141234152818
"CAN","cpi",0.1,2023,3,2023,NA,0,3.35576369768332,3.44434964660464,3.78831288758619,4.00821358342971,FALSE,0.8529487066581
"CAN","cpi",0.1,2023,3,2023,NA,0.5,2.54914830724965,2.92398156285044,3.78831288758619,3.29302587175885,FALSE,2.29556953279135
"CAN","cpi",0.1,2023,3,2022,NA,1,0.68594024722344,1.06077350282423,3.78831288758619,4.01905628942603,FALSE,6.43603188840515
"CAN","cpi",0.1,2023,3,2022,NA,1.5,9.47211655168795,10.109546891277,3.78831288758619,4.75925635675837,FALSE,13.2681051487041
"CAN","cpi",0.1,2024,3,2023,NA,1,1.5793861499755,1.62477420651183,NA,3.92709419556525,NA,NA
"CAN","cpi",0.1,2024,3,2023,NA,1.5,7.0321583573678,7.07754641390413,NA,3.33916254361279,NA,NA
"CAN","cpi",0.2,1952,3,1952,NA,0,-21.5852416488765,-10.9251144717765,2.55562336095485,2.65771800091113,FALSE,44.3619717589284
"CAN","cpi",0.2,1952,3,1952,NA,0.5,-15.4234532410425,-4.76332606394255,2.55562336095485,5.20333179389047,FALSE,28.9575007393435
"CAN","cpi",0.2,1952,3,1951,NA,1,-33.6274121150155,-22.9672849379156,2.55562336095485,8.18998200969936,FALSE,74.467397924276
"CAN","cpi",0.2,1952,3,1951,NA,1.5,8.87052563022152,19.5306528073215,2.55562336095485,7.55460015368862,FALSE,26.4473828502667
"CAN","cpi",0.2,1953,3,1953,NA,0,-1.69212594497424,-1.865013810167,-1.01492775838436,-0.921435878605124,FALSE,1.95232726426384
"CAN","cpi",0.2,1953,3,1953,NA,0.5,-9.46506700767669,-9.00411771144661,-1.01492775838436,-0.76897284692861,FALSE,20.4339241788857
"CAN","cpi",0.2,1953,3,1952,NA,1,-12.8346596756814,-9.92548940679636,-1.01492775838436,2.43113434957527,FALSE,25.185574389915
"CAN","cpi",0.2,1953,3,1952,NA,1.5,37.8701190415721,44.5963983526213,-1.01492775838436,5.93557635631702,FALSE,103.93889631094
"CAN","cpi",0.2,1954,3,1954,NA,0,0.900780140417838,0.945937815035771,0.644425455961438,0.902670593188762,FALSE,0.686044385758934
"CAN","cpi",0.2,1954,3,1954,NA,0.5,3.58507633144853,3.63023400606646,0.644425455961438,0.795164313951574,FALSE,7.39678486333566
"CAN","cpi",0.2,1954,3,1953,NA,1,7.88843581343523,10.3089423727991,0.644425455961438,4.14534384936852,FALSE,20.5305324530483
"CAN","cpi",0.2,1954,3,1953,NA,1.5,32.5418864653556,34.9623930247194,0.644425455961438,3.28639485866967,FALSE,82.1641590828492
"CAN","cpi",0.2,1955,3,1955,NA,0,0.430236310912328,0.519809532423194,0.173649026558865,0.179965740558204,FALSE,0.731041432394523
"CAN","cpi",0.2,1955,3,1955,NA,0.5,0.113531831125839,0.809893512375338,0.173649026558865,0.271639815719239,TRUE,0.696361681249499
"CAN","cpi",0.2,1955,3,1954,NA,1,7.02111267910055,8.98383054769945,0.173649026558865,4.00726070064464,FALSE,19.0813769999531
"CAN","cpi",0.2,1955,3,1954,NA,1.5,15.4397712780326,21.1265246985782,0.173649026558865,3.09849569962328,FALSE,43.8520590492299
"CAN","cpi",0.2,1956,3,1956,NA,0,0.926051383479197,1.06628637739198,1.32752769429961,1.49944483483663,FALSE,0.793338286181857
"CAN","cpi",0.2,1956,3,1956,NA,0.5,0.43977560694137,0.793869078750309,1.32752769429961,0.239658941687119,FALSE,1.68824001068219
"CAN","cpi",0.2,1956,3,1955,NA,1,4.04220199233487,4.39629546414381,1.32752769429961,2.42699902405841,FALSE,7.14077921689709
"CAN","cpi",0.2,1956,3,1955,NA,1.5,10.6623835370516,14.5516519124136,1.32752769429961,2.6723883730094,FALSE,27.2264079822419
"CAN","cpi",0.2,1957,3,1957,NA,0,1.79093380375732,2.06082629058138,3.24684755852518,3.40805864327458,FALSE,3.23494565668354
"CAN","cpi",0.2,1957,3,1957,NA,0.5,2.30945344404289,3.79161704759544,3.24684755852518,2.77134230956367,TRUE,1.48216360355255
"CAN","cpi",0.2,1957,3,1956,NA,1,5.83697925806891,7.34630247158331,3.24684755852518,5.53767573267731,FALSE,7.98465246237373
"CAN","cpi",0.2,1957,3,1956,NA,1.5,4.37963743500817,6.30336320459647,3.24684755852518,2.3159105314434,FALSE,4.75570046079578
"CAN","cpi",0.2,1958,3,1958,NA,0,1.76583490139011,1.94663848954232,2.33186388641149,2.2666416787086,FALSE,1.14386708032514
"CAN","cpi",0.2,1958,3,1958,NA,0.5,1.99905968274749,3.45398911340671,2.33186388641149,2.6047181946108,TRUE,1.45492943065922
"CAN","cpi",0.2,1958,3,1957,NA,1,-4.83667638446331,-2.68179869571133,2.33186388641149,4.25451187896576,FALSE,14.689034144059
"CAN","cpi",0.2,1958,3,1957,NA,1.5,4.14308739204991,6.85519495416806,2.33186388641149,3.21878619474396,FALSE,7.2401663262142
"CAN","cpi",0.2,1959,3,1959,NA,0,1.24042230146263,1.37765543651836,1.19382698397654,1.23804892137791,FALSE,0.253721428770955
"CAN","cpi",0.2,1959,3,1959,NA,0.5,1.10912161352708,1.78316612228276,1.19382698397654,1.22423653017582,TRUE,0.674044508755681
"CAN","cpi",0.2,1959,3,1958,NA,1,-2.76134918224126,-1.86209457786012,1.19382698397654,2.76661875727304,FALSE,8.53905850897278
"CAN","cpi",0.2,1959,3,1958,NA,1.5,6.19348333850861,7.60389649251912,1.19382698397654,3.40313655953963,FALSE,13.9095540403407
"CAN","cpi",0.2,1960,3,1960,NA,0,0.945874297560825,1.05041269660581,1.34209404870695,1.09496250556158,FALSE,0.833741779297835
"CAN","cpi",0.2,1960,3,1960,NA,0.5,1.35343503643029,1.73857844615983,1.34209404870695,1.31117730754252,FALSE,0.413495879037892
"CAN","cpi",0.2,1960,3,1959,NA,1,2.05648184934298,2.78156594793444,1.34209404870695,3.67993081372331,FALSE,2.51105360018154
"CAN","cpi",0.2,1960,3,1959,NA,1.5,5.12586040320134,5.8509445017928,1.34209404870695,2.53752597259669,FALSE,10.1844999848274
"CAN","cpi",0.2,1961,3,1961,NA,0,0.999090271430214,1.12421414846745,1.00921348094007,1.07956241593662,TRUE,0.125123877037238
"CAN","cpi",0.2,1961,3,1961,NA,0.5,1.61231267037451,1.79315342527245,1.00921348094007,1.62810563897838,FALSE,1.68858872848405
"CAN","cpi",0.2,1961,3,1960,NA,1,-0.527719834775924,-0.346879079877985,1.00921348094007,1.72683407115431,FALSE,3.57107215694308
"CAN","cpi",0.2,1961,3,1960,NA,1.5,4.25657161437136,4.90267646653322,1.00921348094007,2.46209267036318,FALSE,8.76450018574008
"CAN","cpi",0.2,1962,3,1962,NA,0,0.937292869552482,1.04789947335464,1.04957947883042,1.11859419449202,FALSE,0.114806617491594
"CAN","cpi",0.2,1962,3,1962,NA,0.5,0.684864742657072,0.959651635268749,1.04957947883042,0.567427238599509,FALSE,0.499606501515843
"CAN","cpi",0.2,1962,3,1961,NA,1,0.262891801132452,0.620425247256938,1.04957947883042,1.63689072516514,FALSE,1.43041902505818
"CAN","cpi",0.2,1962,3,1961,NA,1.5,4.40483578530765,5.05117934838769,1.04957947883042,2.63635903501327,FALSE,9.03448432927313
"CAN","cpi",0.2,1963,3,1963,NA,0,1.21377013039326,1.33190721761312,1.60677118395228,1.86240003699012,FALSE,0.805297003067775
"CAN","cpi",0.2,1963,3,1963,NA,0.5,1.29677888159768,1.57159110971368,1.60677118395228,1.39337130813056,FALSE,0.362762413712509
"CAN","cpi",0.2,1963,3,1962,NA,1,1.7484863318601,2.02329855997609,1.60677118395228,2.94326130570012,FALSE,0.629100097885526
"CAN","cpi",0.2,1963,3,1962,NA,1.5,3.91586846885457,4.2821292747107,1.60677118395228,2.44281938697022,FALSE,6.13900401811185
"CAN","cpi",0.2,1964,3,1964,NA,0,1.37539489397213,1.52354482192784,1.88764670034376,2.0039339947047,FALSE,1.05840462399552
"CAN","cpi",0.2,1964,3,1964,NA,0.5,1.65242200836323,1.89540186228579,1.88764670034376,1.7991677011144,TRUE,0.242979853922554
"CAN","cpi",0.2,1964,3,1963,NA,1,2.71969531812708,2.96267517204964,1.88764670034376,4.16988253093083,FALSE,2.32310139838086
"CAN","cpi",0.2,1964,3,1963,NA,1.5,3.55644584792987,3.79942570185242,1.88764670034376,2.39235828979053,FALSE,4.41497772288783
"CAN","cpi",0.2,1965,3,1965,NA,0,1.56322412958369,1.68833548007624,2.29538304394236,2.3444020011952,FALSE,1.64273026015783
"CAN","cpi",0.2,1965,3,1965,NA,0.5,1.77013091285809,1.95483426129949,2.29538304394236,1.87416183614195,FALSE,1.03607530504857
"CAN","cpi",0.2,1965,3,1964,NA,1,0.949748602874507,1.1344519513159,2.29538304394236,2.77513442256292,FALSE,3.08703108000753
"CAN","cpi",0.2,1965,3,1964,NA,1.5,3.71593975842699,3.90064310686839,2.29538304394236,2.58300862182973,FALSE,3.73609513465298
"CAN","cpi",0.2,1966,3,1966,NA,0,2.18156616105664,2.33409063619779,3.72486065470629,3.82226531435883,FALSE,3.6294495214124
"CAN","cpi",0.2,1966,3,1966,NA,0.5,2.93831659362586,3.34565034864611,3.72486065470629,3.71609253757358,FALSE,1.3553595201707
"CAN","cpi",0.2,1966,3,1965,NA,1,1.32850102081806,1.73583477583831,3.72486065470629,3.18026314560651,FALSE,5.3798984521902
"CAN","cpi",0.2,1966,3,1965,NA,1.5,3.93207331164754,4.33940706666779,3.72486065470629,2.72588429168219,FALSE,0.92536539737338
"CAN","cpi",0.2,1967,3,1967,NA,0,2.49935927129116,2.66139994630884,3.49360316391996,3.71060899730274,FALSE,2.24254871904548
"CAN","cpi",0.2,1967,3,1967,NA,0.5,2.46744908352439,2.86574471758947,3.49360316391996,2.56028521952089,FALSE,1.9679417498913
"CAN","cpi",0.2,1967,3,1966,NA,1,0.843446152110919,1.241741786176,3.49360316391996,3.23068289349593,FALSE,6.02794907842499
"CAN","cpi",0.2,1967,3,1966,NA,1.5,5.1631693905287,5.56146502459378,3.49360316391996,3.48379255951164,FALSE,4.57221120058693
"CAN","cpi",0.2,1968,3,1968,NA,0,2.53397788706351,2.71537266584134,3.95128347779386,4.08812321751386,FALSE,3.27117180865912
"CAN","cpi",0.2,1968,3,1968,NA,0.5,3.18574864418276,3.75951469121212,3.95128347779386,3.86057245484849,FALSE,1.05318801348371
"CAN","cpi",0.2,1968,3,1967,NA,1,3.15912659302724,3.83604070970172,3.95128347779386,4.52914843962159,FALSE,0.965021036904822
"CAN","cpi",0.2,1968,3,1967,NA,1.5,4.58485147074607,5.26176558742056,3.95128347779386,2.90317969156253,FALSE,2.26083409905502
"CAN","cpi",0.2,1969,3,1969,NA,0,2.81931443637227,2.9982169252183,4.42679496126681,4.56202018095233,FALSE,3.75034757896732
"CAN","cpi",0.2,1969,3,1969,NA,0.5,2.92648594734005,3.46517633921287,4.42679496126681,3.1731721410374,FALSE,2.94273694700768
"CAN","cpi",0.2,1969,3,1968,NA,1,3.21885415266358,4.22919765404696,4.42679496126681,4.79164269130369,FALSE,1.50433676943302
"CAN","cpi",0.2,1969,3,1968,NA,1.5,6.04889354030385,7.05923704168723,4.42679496126681,3.43166930802121,FALSE,5.06558994897596
"CAN","cpi",0.2,1970,3,1970,NA,0,2.61348311227564,2.78028397545596,3.28128405769805,3.60731179706845,FALSE,1.41930106878554
"CAN","cpi",0.2,1970,3,1970,NA,0.5,3.51696514819896,4.27720509151493,3.28128405769805,4.09876840974541,FALSE,1.34944266956826
"CAN","cpi",0.2,1970,3,1969,NA,1,2.50925600333197,3.56964829444494,3.28128405769805,4.16731408225431,TRUE,1.06039229111297
"CAN","cpi",0.2,1970,3,1969,NA,1.5,5.43650474036745,6.49689703148042,3.28128405769805,2.94225383025522,FALSE,6.44844399778648
"CAN","cpi",0.2,1971,3,1971,NA,0,2.05339643072697,2.19488051779742,2.64123406634756,2.83090781749212,FALSE,1.2573679584458
"CAN","cpi",0.2,1971,3,1971,NA,0.5,1.84397736044273,2.25202298923672,2.64123406634756,1.62320660035324,FALSE,1.38107332157109
"CAN","cpi",0.2,1971,3,1970,NA,1,2.33191133119947,2.96420340561482,2.64123406634756,3.17007770946556,TRUE,0.632292074415346
"CAN","cpi",0.2,1971,3,1970,NA,1.5,6.70259317655866,7.33488525097401,2.64123406634756,3.54353814347809,FALSE,10.7856898499431
"CAN","cpi",0.2,1972,3,1972,NA,0,2.63238727648153,2.78831801853486,4.83230569625923,5.0489634093373,FALSE,5.26589993636425
"CAN","cpi",0.2,1972,3,1972,NA,0.5,3.51618476121613,4.19528076007411,4.83230569625923,4.42305209693724,FALSE,2.27165833932078
"CAN","cpi",0.2,1972,3,1971,NA,1,5.30255483359208,5.98165083245005,4.83230569625923,4.88112932259212,FALSE,1.85471884219009
"CAN","cpi",0.2,1972,3,1971,NA,1.5,5.73879092489977,6.41788692375774,4.83230569625923,2.93340690449956,FALSE,2.94530907045932
"CAN","cpi",0.2,1973,3,1973,NA,0,3.9149803827733,4.12576920455722,7.12388603531779,7.21795256722813,FALSE,7.70608089868535
"CAN","cpi",0.2,1973,3,1973,NA,0.5,4.57109174992834,5.3874120663634,7.12388603531779,5.49391172870491,FALSE,5.15750523882103
"CAN","cpi",0.2,1973,3,1972,NA,1,4.59859780703701,5.41491812347207,7.12388603531779,5.39692894021178,FALSE,5.08874009604936
"CAN","cpi",0.2,1973,3,1972,NA,1.5,7.28598295484654,8.1023032712816,7.12388603531779,3.58263496028301,FALSE,1.22156261525694
"CAN","cpi",0.2,1974,3,1974,NA,0,5.41014993648421,5.72522987599385,10.2717243737774,10.1210179328964,FALSE,11.6813161839686
"CAN","cpi",0.2,1974,3,1974,NA,0.5,6.94341838869784,7.25849832820748,10.2717243737774,7.94351867110281,FALSE,7.84814505343449
"CAN","cpi",0.2,1974,3,1973,NA,1,5.11381766785737,5.428897607367,10.2717243737774,7.1912022670208,FALSE,12.4221468555357
"CAN","cpi",0.2,1974,3,1973,NA,1.5,8.64403158694865,8.95911152645828,10.2717243737774,4.0254660999559,FALSE,3.59661205780747
"CAN","cpi",0.2,1975,3,1975,NA,0,6.58871727737196,5.98798681636884,10.0232981493341,10.1376483081154,FALSE,9.48754787141008
"CAN","cpi",0.2,1975,3,1975,NA,0.5,7.88846022077158,7.28772975976845,10.0232981493341,8.26308676293858,FALSE,6.23819051291105
"CAN","cpi",0.2,1975,3,1974,NA,1,1.87867948586102,1.27794902485789,10.0232981493341,7.73583614861028,FALSE,21.2626423501874
"CAN","cpi",0.2,1975,3,1974,NA,1.5,11.0208739820618,10.4201435210587,10.0232981493341,4.67814014273702,FALSE,1.89320912081611
"CAN","cpi",0.2,1976,3,1976,NA,0,5.58304912307446,4.97766095984701,7.22784311401172,7.2178166349125,FALSE,5.02006722218432
"CAN","cpi",0.2,1976,3,1976,NA,0.5,6.61114440290826,6.00575623968081,7.22784311401172,6.91786916440093,FALSE,2.44982902259982
"CAN","cpi",0.2,1976,3,1975,NA,1,1.62155764526874,1.01616948204129,7.22784311401172,8.273619332389,FALSE,14.9237959166986
"CAN","cpi",0.2,1976,3,1975,NA,1.5,11.5638527474663,10.9584645842388,7.22784311401172,4.5816570194731,FALSE,10.2346359204089
"CAN","cpi",0.2,1977,3,1977,NA,0,4.53937533738058,4.73808144754033,7.58101410153764,7.50701198703803,FALSE,7.30603774515304
"CAN","cpi",0.2,1977,3,1977,NA,0.5,5.47231773634032,5.67102384650007,7.58101410153764,6.51617593246189,FALSE,4.97368174775368
"CAN","cpi",0.2,1977,3,1976,NA,1,0.0480965604544461,0.246802670614196,7.58101410153764,4.96992569410004,FALSE,18.5342346874684
"CAN","cpi",0.2,1977,3,1976,NA,1.5,10.911940788315,11.1106468984747,7.58101410153764,4.37719420243736,FALSE,8.52602282710309
"CAN","cpi",0.2,1978,3,1978,NA,0,5.06989353731279,5.08843464902795,8.50208927062595,8.58158523467168,FALSE,8.55267766571015
"CAN","cpi",0.2,1978,3,1978,NA,0.5,6.27651998893686,6.29506110065201,8.50208927062595,7.4716201567401,FALSE,5.53611153664998
"CAN","cpi",0.2,1978,3,1977,NA,1,1.81360638115017,1.83214749286533,8.50208927062595,6.36749774462425,FALSE,16.6933955561167
"CAN","cpi",0.2,1978,3,1977,NA,1.5,12.4704413677474,12.4889824794626,8.50208927062595,5.06410799386515,FALSE,9.93942135451887
"CAN","cpi",0.2,1979,3,1979,NA,0,5.18588693195812,5.39481364611568,8.65147652410481,8.49829924825941,FALSE,8.35058390913038
"CAN","cpi",0.2,1979,3,1979,NA,0.5,6.38785891579577,6.59678562995333,8.65147652410481,7.55954787357905,FALSE,5.34565394953626
"CAN","cpi",0.2,1979,3,1978,NA,1,1.88722449139035,2.09615120554792,8.65147652410481,7.11843292779768,FALSE,16.5972400105498
"CAN","cpi",0.2,1979,3,1978,NA,1.5,11.862762071254,12.0716887854116,8.65147652410481,5.13416174624329,FALSE,8.23714058203054
"CAN","cpi",0.2,1980,3,1980,NA,0,5.4651129339009,5.74885980802165,9.5171912664748,9.41458421512922,FALSE,9.70457552025361
"CAN","cpi",0.2,1980,3,1980,NA,0.5,6.37493120692857,6.65867808104932,9.5171912664748,7.9706129876785,FALSE,7.43002983768444
"CAN","cpi",0.2,1980,3,1979,NA,1,0.11280578037818,0.39655265449893,9.5171912664748,6.28953001008885,FALSE,23.0853434040604
"CAN","cpi",0.2,1980,3,1979,NA,1.5,12.3901006275808,12.6738475017016,9.5171912664748,5.364173973799,FALSE,7.46602027688582
"CAN","cpi",0.2,1981,3,1981,NA,0,6.25475928612952,6.78169682195998,11.5813425032741,11.5923033542996,FALSE,12.5260517391159
"CAN","cpi",0.2,1981,3,1981,NA,0.5,8.30865251669362,8.84628728928663,11.5813425032741,11.0172481296202,FALSE,7.37527280756179
"CAN","cpi",0.2,1981,3,1980,NA,1,1.25425016342383,1.79188493601683,11.5813425032741,8.10476531012298,FALSE,25.0112786907363
"CAN","cpi",0.2,1981,3,1980,NA,1.5,11.6711878618752,12.2088226344682,11.5813425032741,5.56064493450504,FALSE,0.762248169095666
"CAN","cpi",0.2,1982,3,1982,NA,0,6.60196711818819,6.63416316372535,10.1124203763629,10.1931679525338,FALSE,8.72783907713115
"CAN","cpi",0.2,1982,3,1982,NA,0.5,7.90229853565685,7.93449458119401,10.1124203763629,9.37004969245236,FALSE,5.47701053345951
"CAN","cpi",0.2,1982,3,1981,NA,1,-0.889232090048856,-0.857036044511695,10.1124203763629,8.69554175936175,FALSE,27.4558370977238
"CAN","cpi",0.2,1982,3,1981,NA,1.5,14.8472159831416,14.8794120286788,10.1124203763629,7.27062596384307,FALSE,11.8691850624839
"CAN","cpi",0.2,1983,3,1983,NA,0,4.65544258266741,4.93994522882463,5.67091787896303,5.81768735292628,FALSE,2.11193427150322
"CAN","cpi",0.2,1983,3,1983,NA,0.5,4.93085041702485,5.21535306318208,5.67091787896303,5.01354605702602,FALSE,1.42341468560962
"CAN","cpi",0.2,1983,3,1982,NA,1,-0.866112356703014,-0.58160971054579,5.67091787896303,7.12656393494862,FALSE,15.9158216199293
"CAN","cpi",0.2,1983,3,1982,NA,1.5,13.1213620635119,13.4058647096692,5.67091787896303,6.40641718255638,FALSE,18.9106131075295
"CAN","cpi",0.2,1984,3,1984,NA,0,3.10680934752368,3.16974011052592,4.19799576814029,4.24028901012313,FALSE,2.63356990703816
"CAN","cpi",0.2,1984,3,1984,NA,0.5,4.23532863068318,4.29825939368541,4.19799576814029,4.75786855948752,FALSE,0.15626291935946
"CAN","cpi",0.2,1984,3,1983,NA,1,1.50251662854648,1.56544739154871,4.19799576814029,5.66557758519989,FALSE,6.64430170448118
"CAN","cpi",0.2,1984,3,1983,NA,1.5,9.51125118887515,9.57418195187738,4.19799576814029,4.21132796972244,FALSE,13.3460693148394
"CAN","cpi",0.2,1985,3,1985,NA,0,2.75430980097438,2.61291241410257,3.86444262005169,3.92349089738505,FALSE,2.987428128001
"CAN","cpi",0.2,1985,3,1985,NA,0.5,3.57805933174081,3.43666194486899,3.86444262005169,4.05923277954066,FALSE,0.928054301084928
"CAN","cpi",0.2,1985,3,1984,NA,1,1.03835046887237,0.896953082000556,3.86444262005169,3.95710775307987,FALSE,7.27732645825602
"CAN","cpi",0.2,1985,3,1984,NA,1.5,10.6496526585859,10.5082552717141,3.86444262005169,4.80620472271859,FALSE,16.8216277094637
"CAN","cpi",0.2,1986,3,1986,NA,0,2.57903486431632,2.73494365925411,4.08685396749431,4.13000198176505,FALSE,3.53568456553829
"CAN","cpi",0.2,1986,3,1986,NA,0.5,3.59242636449282,3.7483351594306,4.08685396749431,4.52376153022901,FALSE,1.00220581509705
"CAN","cpi",0.2,1986,3,1985,NA,1,1.4705453895521,1.62645418448988,4.08685396749431,4.28856700742326,FALSE,6.30690825244886
"CAN","cpi",0.2,1986,3,1985,NA,1.5,10.1904070850774,10.3463158800152,4.08685396749431,4.73207334351572,FALSE,15.4147915888956
"CAN","cpi",0.2,1987,3,1987,NA,0,2.83619060834447,2.75567800198197,4.23980729277887,4.34713339619661,FALSE,3.62981062062975
"CAN","cpi",0.2,1987,3,1987,NA,0.5,3.31983046664175,3.23931786027925,4.23980729277887,4.04554574241257,FALSE,2.42071097488655
"CAN","cpi",0.2,1987,3,1986,NA,1,1.82344598709639,1.74293338073389,4.23980729277887,4.62985152306341,FALSE,6.16167217374996
"CAN","cpi",0.2,1987,3,1986,NA,1.5,10.5306754573161,10.4501628509536,4.23980729277887,4.92117197950912,FALSE,15.6466578049805
"CAN","cpi",0.2,1988,3,1988,NA,0,2.66208165068018,2.8055289476307,3.92899537638065,4.00901931174773,FALSE,2.95211336882541
"CAN","cpi",0.2,1988,3,1988,NA,0.5,3.07726823712059,3.22071553407112,3.92899537638065,3.73662637763501,FALSE,1.91414690272436
"CAN","cpi",0.2,1988,3,1987,NA,1,1.56537514660994,1.70882244356047,3.92899537638065,4.57559871410537,FALSE,5.69387962900099
"CAN","cpi",0.2,1988,3,1987,NA,1.5,9.28030692545038,9.42375422240091,3.92899537638065,4.47333468954476,FALSE,13.5217261696249
"CAN","cpi",0.2,1989,3,1989,NA,0,2.96129104456539,2.96644409585792,4.82821664544208,4.99076681888079,FALSE,4.65958442525292
"CAN","cpi",0.2,1989,3,1989,NA,0.5,3.48265659769974,3.48780964899226,4.82821664544208,4.4916513034202,FALSE,3.35617054241706
"CAN","cpi",0.2,1989,3,1988,NA,1,1.65233442410026,1.65748747539279,4.82821664544208,4.54165447743213,FALSE,7.93197597641575
"CAN","cpi",0.2,1989,3,1988,NA,1.5,8.80645835648416,8.81161140777668,4.82821664544208,4.35655767104226,FALSE,9.95075732889772
"CAN","cpi",0.2,1990,3,1990,NA,0,2.97326684701201,3.14777152845797,4.64347549432717,4.53713653171057,FALSE,3.91376459611896
"CAN","cpi",0.2,1990,3,1990,NA,0.5,3.7936637512614,4.04719586583018,4.64347549432717,5.08101061108308,FALSE,1.74423118581126
"CAN","cpi",0.2,1990,3,1989,NA,1,1.63008111097949,1.88361322554827,4.64347549432717,5.34783125013627,FALSE,7.15318778651604
"CAN","cpi",0.2,1990,3,1989,NA,1.5,9.44545411537749,9.72697920370493,4.64347549432717,4.81353563225505,FALSE,12.2864716409532
"CAN","cpi",0.2,1991,3,1991,NA,0,3.27118494092959,3.47610821797787,5.4258100696218,5.66037042635664,FALSE,5.07917790615809
"CAN","cpi",0.2,1991,3,1991,NA,0.5,5.22623172643528,5.48027349052839,5.4258100696218,7.84858621299389,TRUE,0.254041764093111
"CAN","cpi",0.2,1991,3,1990,NA,1,1.05462489775379,1.30866666184691,5.4258100696218,4.26930339967321,FALSE,10.5469002835303
"CAN","cpi",0.2,1991,3,1990,NA,1.5,10.1840466496906,10.4380884137837,5.4258100696218,5.0605414207232,FALSE,12.1496332142652
"CAN","cpi",0.2,1992,3,1992,NA,0,2.20581063407967,2.23796146546583,1.47496888572843,1.52994687025859,FALSE,1.85925520226425
"CAN","cpi",0.2,1992,3,1992,NA,0.5,2.19132728256214,2.22347811394829,1.47496888572843,1.85875773502133,FALSE,1.82304682347041
"CAN","cpi",0.2,1992,3,1991,NA,1,0.0896272250241766,0.121778056410331,1.47496888572843,3.50386131646851,FALSE,3.41512790468141
"CAN","cpi",0.2,1992,3,1991,NA,1.5,12.8784061508585,12.9105569822447,1.47496888572843,6.78035435046663,FALSE,28.5407439942113
"CAN","cpi",0.2,1993,3,1993,NA,0,1.27793515967677,1.32442653595109,1.84351085411351,1.87124044779021,FALSE,1.34420217168038
"CAN","cpi",0.2,1993,3,1993,NA,0.5,2.05161675258419,2.09810812885851,1.84351085411351,2.72734178597627,FALSE,0.56675612245102
"CAN","cpi",0.2,1993,3,1992,NA,1,1.91011357827868,1.95660495455301,1.84351085411351,3.08451104384819,FALSE,0.212998186687254
"CAN","cpi",0.2,1993,3,1992,NA,1.5,8.03962749784635,8.08611887412068,1.84351085411351,3.82501351795864,FALSE,15.5367829856064
"CAN","cpi",0.2,1994,3,1994,NA,0,0.950953236788198,0.809037461377713,0.161630694655448,0.262954827743209,FALSE,1.83139057992139
"CAN","cpi",0.2,1994,3,1994,NA,0.5,0.831150410146354,0.689234634735869,0.161630694655448,0.310066271274909,FALSE,1.53188351331678
"CAN","cpi",0.2,1994,3,1993,NA,1,1.48545653028983,1.34354075487935,0.161630694655448,2.87682482634461,FALSE,3.16764881367548
"CAN","cpi",0.2,1994,3,1993,NA,1.5,8.5694347990724,8.42751902366191,0.161630694655448,4.13541986765475,FALSE,20.8775944856319
"CAN","cpi",0.2,1995,3,1995,NA,0,1.10401523420111,1.03589575250521,2.11688403676572,2.22224044651209,FALSE,2.63435122895536
"CAN","cpi",0.2,1995,3,1995,NA,0.5,1.98781993321382,1.91970045151793,2.11688403676572,2.99405804315788,FALSE,0.424839481423572
"CAN","cpi",0.2,1995,3,1994,NA,1,2.61631629282828,2.54819681113239,2.11688403676572,2.99684369657241,FALSE,1.18046115846053
"CAN","cpi",0.2,1995,3,1994,NA,1.5,5.63224381580607,5.56412433411017,2.11688403676572,2.55761383507254,FALSE,8.72027996590499
"CAN","cpi",0.2,1996,3,1996,NA,0,1.34002852225825,1.39789645622534,1.55309584667184,1.51034526106652,FALSE,0.445866410083356
"CAN","cpi",0.2,1996,3,1996,NA,0.5,1.51212532977962,1.56999326374672,1.55309584667184,1.79601314583588,TRUE,0.0578679339670911
"CAN","cpi",0.2,1996,3,1995,NA,1,0.838852900554096,0.896720834521187,1.55309584667184,2.55715877011559,FALSE,1.69880546434373
"CAN","cpi",0.2,1996,3,1995,NA,1.5,9.47985938363093,9.53772731759802,1.55309584667184,4.37195408299294,FALSE,19.8747767763648
"CAN","cpi",0.2,1997,3,1997,NA,0,1.26633711906585,1.33163855358217,1.60528783555959,1.74775979926451,FALSE,0.749424639459864
"CAN","cpi",0.2,1997,3,1997,NA,0.5,1.70338752763964,1.84295116445564,1.60528783555959,2.44638235868142,FALSE,0.384812867016127
"CAN","cpi",0.2,1997,3,1996,NA,1,1.01095925590665,1.15052289272265,1.60528783555959,2.43903366578812,FALSE,1.27647599390835
"CAN","cpi",0.2,1997,3,1996,NA,1.5,7.8834086330623,8.0229722698783,1.60528783555959,3.62198739789796,FALSE,15.8348656305728
"CAN","cpi",0.2,1998,3,1998,NA,0,1.04995880832916,1.10357949183759,0.988908029337191,1.03895035119065,FALSE,0.206247630988361
"CAN","cpi",0.2,1998,3,1998,NA,0.5,1.41139097660894,1.49682868273595,0.988908029337191,1.85198354845497,FALSE,1.14164507430638
"CAN","cpi",0.2,1998,3,1997,NA,1,1.00968497319851,1.09512267932552,0.988908029337191,2.50242700061489,FALSE,0.137380065780314
"CAN","cpi",0.2,1998,3,1997,NA,1.5,8.13696447309343,8.22240217922044,0.988908029337191,3.75826952211307,FALSE,17.9555788155176
"CAN","cpi",0.2,1999,3,1999,NA,0,1.15459833320684,1.17682106199905,1.7107350135213,1.81904689636282,FALSE,1.35700760759782
"CAN","cpi",0.2,1999,3,1999,NA,0.5,1.05792040782577,1.08014313661797,1.7107350135213,1.31729339512256,FALSE,1.59870242105051
"CAN","cpi",0.2,1999,3,1998,NA,1,1.07349140730671,1.09571413609892,1.7107350135213,2.15211490322884,FALSE,1.55977492234816
"CAN","cpi",0.2,1999,3,1998,NA,1.5,7.94200466989671,7.96422739868891,1.7107350135213,3.69857126490312,FALSE,15.6003968697307
"CAN","cpi",0.2,2000,3,2000,NA,0,1.62463937773287,1.70245821088218,2.6718361971244,2.74274050503735,FALSE,2.50126379875486
"CAN","cpi",0.2,2000,3,2000,NA,0.5,1.68450495995078,1.82607891827408,2.6718361971244,2.46113990926174,FALSE,2.2559671554491
"CAN","cpi",0.2,2000,3,1999,NA,1,1.71414444068061,1.85571839900391,2.6718361971244,3.49419557264756,FALSE,2.18186845362453
"CAN","cpi",0.2,2000,3,1999,NA,1.5,7.14349314299086,7.28506710131416,2.6718361971244,3.22544865557399,FALSE,11.3207163229895
"CAN","cpi",0.2,2001,3,2001,NA,0,1.90877891723678,1.99347070188966,2.47906219852806,2.80396337772557,FALSE,1.2986705262489
"CAN","cpi",0.2,2001,3,2001,NA,0.5,1.71093048376761,1.8876695486614,2.47906219852806,2.23984277042869,FALSE,1.65522068956044
"CAN","cpi",0.2,2001,3,2000,NA,1,1.33941240349722,1.51615146839101,2.47906219852806,3.95792003209951,FALSE,2.58401589023643
"CAN","cpi",0.2,2001,3,2000,NA,1.5,7.87725760468513,8.05399666957892,2.47906219852806,3.55622040628749,FALSE,13.6722275802865
"CAN","cpi",0.2,2002,3,2002,NA,0,1.70636029829253,1.78513557266076,2.20880570551249,2.34939305392984,FALSE,1.13795060649756
"CAN","cpi",0.2,2002,3,2002,NA,0.5,1.45170066897182,1.55478056919365,2.20880570551249,1.70224895292675,FALSE,1.73814274101892
"CAN","cpi",0.2,2002,3,2001,NA,1,0.513743289812614,0.616823190034438,2.20880570551249,2.47791561910008,FALSE,4.08303618891694
"CAN","cpi",0.2,2002,3,2001,NA,1.5,7.05351387567448,7.15659377589631,2.20880570551249,3.17564245091106,FALSE,12.2148503256268
"CAN","cpi",0.2,2003,3,2003,NA,0,1.77218334298357,1.86165397501786,2.71189071546809,2.81714587005806,FALSE,2.21506248315986
"CAN","cpi",0.2,2003,3,2003,NA,0.5,2.81580199080385,2.96702923768172,2.71189071546809,4.41787786293317,FALSE,0.411005435217274
"CAN","cpi",0.2,2003,3,2002,NA,1,1.95361116569188,2.10483841256975,2.71189071546809,4.32236105253803,FALSE,1.66885800412373
"CAN","cpi",0.2,2003,3,2002,NA,1.5,7.99341898248324,8.14464622936111,2.71189071546809,3.7551535685832,FALSE,13.3550479144158
"CAN","cpi",0.2,2004,3,2004,NA,0,1.59457873083859,1.67129720503661,1.83151661303942,1.83115885083991,FALSE,0.477266994205058
"CAN","cpi",0.2,2004,3,2004,NA,0.5,1.59632416879384,1.68903185753765,1.83151661303942,1.89356075843229,FALSE,0.448919577498234
"CAN","cpi",0.2,2004,3,2003,NA,1,0.629134550957644,0.721842239701458,1.83151661303942,2.5903955121087,FALSE,2.86689362208873
"CAN","cpi",0.2,2004,3,2003,NA,1.5,9.48832257400273,9.58103026274655,1.83151661303942,4.52605057310407,FALSE,19.2347225911521
"CAN","cpi",0.2,2005,3,2005,NA,0,1.54290651910077,1.61681261909486,2.18071628336509,2.39375726304695,FALSE,1.48366526066966
"CAN","cpi",0.2,2005,3,2005,NA,0.5,1.54268436148657,1.61659046148067,2.18071628336509,2.00628617924563,FALSE,1.48422065470516
"CAN","cpi",0.2,2005,3,2004,NA,1,0.918348833121257,0.992254933115349,2.18071628336509,2.50853787240411,FALSE,3.04505947561845
"CAN","cpi",0.2,2005,3,2004,NA,1.5,7.46856536564525,7.54247146563934,2.18071628336509,3.53910826966273,FALSE,13.2935288056945
"CAN","cpi",0.2,2006,3,2006,NA,0,1.54898777014762,1.61964158946975,1.97519342012289,2.13830460574546,FALSE,0.959533395954968
"CAN","cpi",0.2,2006,3,2006,NA,0.5,1.71549895151713,1.84176567358316,1.97519342012289,2.27462572570213,FALSE,0.459836088415349
"CAN","cpi",0.2,2006,3,2005,NA,1,1.75510766140343,1.88137438346946,1.97519342012289,3.7624469653382,FALSE,0.360814313699601
"CAN","cpi",0.2,2006,3,2005,NA,1.5,7.09460795748437,7.27593065827219,1.97519342012289,3.32314929235963,FALSE,12.9798590441915
"CAN","cpi",0.2,2007,3,2007,NA,0,1.50760617135138,1.57287234642478,2.10062087284572,2.1848630325127,FALSE,1.38463749112576
"CAN","cpi",0.2,2007,3,2007,NA,0.5,1.77220380878741,1.83746998386081,2.10062087284572,2.4659174627357,FALSE,0.72314339753569
"CAN","cpi",0.2,2007,3,2006,NA,1,0.751493956836963,0.816760131910363,2.10062087284572,2.22963612092819,FALSE,3.2749180274118
"CAN","cpi",0.2,2007,3,2006,NA,1.5,7.31144526150838,7.37671143658178,2.10062087284572,3.47295078658589,FALSE,13.09232714673
"CAN","cpi",0.2,2008,3,2008,NA,0,1.78381666290675,1.86417215650055,2.31447335265955,2.95153528130006,FALSE,1.20610848399131
"CAN","cpi",0.2,2008,3,2008,NA,0.5,1.2711793189182,1.45245707339377,2.31447335265955,1.59715335325429,FALSE,2.33631845264002
"CAN","cpi",0.2,2008,3,2007,NA,1,0.757544585358547,0.938822339834122,2.31447335265955,2.20911886965343,FALSE,3.62040528653915
"CAN","cpi",0.2,2008,3,2007,NA,1.5,8.09950094035395,8.28077869482952,2.31447335265955,3.9578182731907,FALSE,14.6438467237116
"CAN","cpi",0.2,2009,3,2009,NA,0,1.01157689900721,1.06753347001096,0.284533874408197,0.346622519867227,FALSE,1.87356413250129
"CAN","cpi",0.2,2009,3,2009,NA,0.5,0.580433962784015,0.655234938598439,0.284533874408197,-0.0457515238861102,FALSE,0.814551196753968
"CAN","cpi",0.2,2009,3,2008,NA,1,2.42084907155822,2.49565004737264,0.284533874408197,4.33236618581201,FALSE,5.41558896868948
"CAN","cpi",0.2,2009,3,2008,NA,1.5,6.94526352712114,7.02006450293556,0.284533874408197,3.24825712451693,FALSE,16.7266251075968
"CAN","cpi",0.2,2010,3,2010,NA,0,0.935910073153436,0.962158336498535,1.75525687020327,1.78349521203817,FALSE,2.00899459760694
"CAN","cpi",0.2,2010,3,2010,NA,0.5,1.32589643763072,1.35214470097582,1.75525687020327,1.93597561685668,FALSE,1.03402868641374
"CAN","cpi",0.2,2010,3,2009,NA,1,1.76176526403821,1.78801352738331,1.75525687020327,2.28870864882185,FALSE,0.0425192479324422
"CAN","cpi",0.2,2010,3,2009,NA,1.5,5.26380329417633,5.29005155752143,1.75525687020327,2.56709646677203,FALSE,8.79761432327775
"CAN","cpi",0.2,2011,3,2011,NA,0,1.6788487791616,1.76078145361653,2.85717434028225,2.89893270710837,FALSE,2.82291489111921
"CAN","cpi",0.2,2011,3,2011,NA,0.5,1.97556835965678,2.09859988186181,2.85717434028225,3.00273872882262,FALSE,2.01946766825613
"CAN","cpi",0.2,2011,3,2010,NA,1,1.8175455514174,1.94057707362244,2.85717434028225,3.01142322899407,FALSE,2.41452468885456
"CAN","cpi",0.2,2011,3,2010,NA,1.5,7.21563083108152,7.33866235328655,2.85717434028225,3.40953331447502,FALSE,11.0191727492032
"CAN","cpi",0.2,2012,3,2012,NA,0,1.55395494364278,1.63274578862439,1.50118536134935,1.54988369950135,FALSE,0.210714800715197
"CAN","cpi",0.2,2012,3,2012,NA,0.5,1.67274530278326,1.86405223744489,1.50118536134935,2.15316548342416,FALSE,0.62020678824642
"CAN","cpi",0.2,2012,3,2011,NA,1,1.03888925874993,1.23019619341156,1.50118536134935,2.54342291649057,FALSE,0.868779854506102
"CAN","cpi",0.2,2012,3,2011,NA,1.5,7.80528367578371,7.99659061044534,1.50118536134935,3.73545377968611,FALSE,15.9515527207475
"CAN","cpi",0.2,2013,3,2013,NA,0,1.04601646407143,1.10078230298416,0.931270594714462,1.09800048224073,FALSE,0.341630512305149
"CAN","cpi",0.2,2013,3,2013,NA,0.5,1.15526974573992,1.31845871131663,0.931270594714462,1.51761743040875,FALSE,0.723186843140357
"CAN","cpi",0.2,2013,3,2012,NA,1,0.797721198876785,0.960910164453495,0.931270594714462,1.66882566360164,TRUE,0.16318896557671
"CAN","cpi",0.2,2013,3,2012,NA,1.5,7.0250303491335,7.18821931471021,0.931270594714462,3.3545832452448,FALSE,15.3975883516243
"CAN","cpi",0.2,2014,3,2014,NA,0,1.20856972524728,1.22950206787618,1.87639912240215,2.0588007866019,FALSE,1.63817497894383
"CAN","cpi",0.2,2014,3,2014,NA,0.5,1.52339198998252,1.54432433261143,1.87639912240215,2.32770811661281,FALSE,0.851119317105712
"CAN","cpi",0.2,2014,3,2013,NA,1,1.42094893637346,1.44188127900236,1.87639912240215,2.31995786180362,FALSE,1.10722695112837
"CAN","cpi",0.2,2014,3,2013,NA,1.5,6.79896874409795,6.81990108672686,1.87639912240215,3.28547165350463,FALSE,12.3273563968684
"CAN","cpi",0.2,2015,3,2015,NA,0,1.20562743176159,1.26989182668035,1.11090953952792,1.30745939376918,FALSE,0.301059125502954
"CAN","cpi",0.2,2015,3,2015,NA,0.5,0.831101949803357,0.986201465377788,1.11090953952792,0.816310503641023,FALSE,0.466869700949754
"CAN","cpi",0.2,2015,3,2014,NA,1,1.07092977627508,1.22602929184951,1.11090953952792,2.265930123798,TRUE,0.155099515574431
"CAN","cpi",0.2,2015,3,2014,NA,1.5,7.71794714438367,7.8730466599581,1.11090953952792,3.7337371203939,FALSE,16.6726935277138
"CAN","cpi",0.2,2016,3,2016,NA,0,1.05830973603302,1.11529239655178,1.41168586698797,1.51468621085982,FALSE,0.797966336609219
"CAN","cpi",0.2,2016,3,2016,NA,0.5,1.07468492126901,1.15380959021133,1.41168586698797,1.39785588750173,FALSE,0.7238153608839
"CAN","cpi",0.2,2016,3,2015,NA,1,1.53811804852337,1.61724271746569,1.41168586698797,2.74144943136963,FALSE,0.395205122780837
"CAN","cpi",0.2,2016,3,2015,NA,1.5,5.88000118371669,5.95912585265901,1.41168586698797,2.82752633095574,FALSE,11.2499129607641
"CAN","cpi",0.2,2017,3,2017,NA,0,1.16278405343167,1.22378848378888,1.57888581671161,1.58758621872303,FALSE,0.948747762664039
"CAN","cpi",0.2,2017,3,2017,NA,0.5,1.47560924435542,1.69966793265788,1.57888581671161,2.28560926705846,TRUE,0.224058688302462
"CAN","cpi",0.2,2017,3,2016,NA,1,1.00031445501561,1.22437314331807,1.57888581671161,2.1477774879281,FALSE,1.11034037178631
"CAN","cpi",0.2,2017,3,2016,NA,1.5,6.21914576990894,6.51699963962705,1.57888581671161,3.03010691132674,FALSE,11.8985037527114
"CAN","cpi",0.2,2018,3,2018,NA,0,1.48778934654509,1.56354985572387,2.23316270166586,2.46195010316238,FALSE,1.74979262403375
"CAN","cpi",0.2,2018,3,2018,NA,0.5,1.81937244857498,1.99097404264361,2.23316270166586,2.94436972801409,FALSE,0.777073241624253
"CAN","cpi",0.2,2018,3,2017,NA,1,0.988172903732224,1.15977449780086,2.23316270166586,2.08021290652945,FALSE,2.85507210373113
"CAN","cpi",0.2,2018,3,2017,NA,1.5,7.08114630364222,7.25274789771085,2.23316270166586,3.54405552837179,FALSE,12.2915605990095
"CAN","cpi",0.2,2019,3,2019,NA,0,1.53503108673943,1.62018502265816,1.91921619871868,2.07527494378271,FALSE,0.832731876070027
"CAN","cpi",0.2,2019,3,2019,NA,0.5,1.3839310667869,1.57801888403839,1.91921619871868,1.96131710374494,FALSE,1.04708110395222
"CAN","cpi",0.2,2019,3,2018,NA,1,1.39137736601489,1.58546518326638,1.91921619871868,2.81909694573415,FALSE,1.02846535588225
"CAN","cpi",0.2,2019,3,2018,NA,1.5,7.61793832427345,7.81202614152494,1.91921619871868,3.79624170159109,FALSE,14.4408931311384
"CAN","cpi",0.2,2020,3,2020,NA,0,1.03951191035131,1.10501200825784,0.71139989671781,0.779891991607007,FALSE,0.885780131990275
"CAN","cpi",0.2,2020,3,2020,NA,0.5,1.20392159088759,1.36117764669941,0.71139989671781,1.59504539616918,FALSE,1.38856029123628
"CAN","cpi",0.2,2020,3,2019,NA,1,1.26959162239264,1.42684767820446,0.71139989671781,2.56912406193859,FALSE,1.5527353699989
"CAN","cpi",0.2,2020,3,2019,NA,1.5,6.71647837940197,6.87373443521378,0.71139989671781,3.3514298226716,FALSE,15.1699522625222
"CAN","cpi",0.2,2021,3,2021,NA,0,1.52881011659663,1.5967214060556,3.31148121717802,3.33723348286849,FALSE,4.35481081726502
"CAN","cpi",0.2,2021,3,2021,NA,0.5,1.61316268996077,1.74351935836388,3.31148121717802,2.81986273764272,FALSE,4.05026131543846
"CAN","cpi",0.2,2021,3,2020,NA,1,1.53823223621312,1.66858890461624,3.31148121717802,2.55173313104187,FALSE,4.23758744980758
"CAN","cpi",0.2,2021,3,2020,NA,1.5,5.95856459674785,6.08892126515096,3.31148121717802,3.05083641297579,FALSE,6.74806511732767
"CAN","cpi",0.2,2022,3,2022,NA,0,3.23114338793125,3.40318778363559,6.50977236228281,6.58834368873213,FALSE,7.93850584232238
"CAN","cpi",0.2,2022,3,2022,NA,0.5,3.21369102484918,3.7593919711348,6.50977236228281,5.98101887959915,FALSE,7.42165192415564
"CAN","cpi",0.2,2022,3,2021,NA,1,1.80334596786373,2.34904691414936,6.50977236228281,4.27132466765734,FALSE,10.9475145666193
"CAN","cpi",0.2,2022,3,2021,NA,1.5,7.48047955830289,8.02618050458851,6.50977236228281,3.68392050970238,FALSE,2.97246893633582
"CAN","cpi",0.2,2023,3,2023,NA,0,3.28330549999132,3.47437168112068,3.78831288758619,4.00821358342971,FALSE,0.975919197293131
"CAN","cpi",0.2,2023,3,2023,NA,0.5,2.41209082899239,2.93406331878689,3.78831288758619,3.29302587175885,FALSE,2.65759641179275
"CAN","cpi",0.2,2023,3,2022,NA,1,0.574763679638806,1.0967361694333,3.78831288758619,4.01905628942603,FALSE,7.25091428517672
"CAN","cpi",0.2,2023,3,2022,NA,1.5,9.91542831219446,10.437400801989,3.78831288758619,4.75925635675837,FALSE,15.8397610513152
"CAN","cpi",0.2,2024,3,2023,NA,1,1.37285112775492,1.52726667070666,NA,3.92709419556525,NA,NA
"CAN","cpi",0.2,2024,3,2023,NA,1.5,7.05496526189283,7.58474958327255,NA,3.33916254361279,NA,NA
"CAN","cpi",0.3,1952,3,1952,NA,0,-30.4408287963085,-18.9183648538836,2.55562336095485,2.65771800091113,FALSE,72.8767159848205
"CAN","cpi",0.3,1952,3,1952,NA,0.5,-14.7012398462562,-3.17877590383129,2.55562336095485,5.20333179389047,FALSE,27.9064618418138
"CAN","cpi",0.3,1952,3,1951,NA,1,-31.755915421898,-20.2334514794731,2.55562336095485,8.18998200969936,FALSE,76.6341063436476
"CAN","cpi",0.3,1952,3,1951,NA,1.5,7.83683064223952,19.3592945846644,2.55562336095485,7.55460015368862,FALSE,26.6116276032382
"CAN","cpi",0.3,1953,3,1953,NA,0,-2.58492022302219,-1.22016342677379,-1.01492775838436,-0.921435878605124,FALSE,1.95114442021819
"CAN","cpi",0.3,1953,3,1953,NA,0.5,-11.0490901891763,-8.43988694924345,-1.01492775838436,-0.76897284692861,FALSE,23.8233723566731
"CAN","cpi",0.3,1953,3,1952,NA,1,-13.7562509330806,-11.1470476931477,-1.01492775838436,2.43113434957527,FALSE,31.5581173392568
"CAN","cpi",0.3,1953,3,1952,NA,1.5,39.2873638063863,44.5293244531032,-1.01492775838436,5.93557635631702,FALSE,120.39136511749
"CAN","cpi",0.3,1954,3,1954,NA,0,1.09556167443289,0.704358543400683,0.644425455961438,0.902670593188762,FALSE,0.897757493171944
"CAN","cpi",0.3,1954,3,1954,NA,0.5,3.8590296452322,3.46782651419999,0.644425455961438,0.795164313951574,FALSE,8.79338026688426
"CAN","cpi",0.3,1954,3,1953,NA,1,10.0586574553371,11.4539248235223,0.644425455961438,4.14534384936852,FALSE,28.2930730806872
"CAN","cpi",0.3,1954,3,1953,NA,1.5,32.2775985666471,36.6540835480181,0.644425455961438,3.28639485866967,FALSE,94.7569795833301
"CAN","cpi",0.3,1955,3,1955,NA,0,0.419895344664381,0.56191897802339,0.173649026558865,0.179965740558204,FALSE,0.845584542231913
"CAN","cpi",0.3,1955,3,1955,NA,0.5,-0.0724648913807096,1.01736033739565,0.173649026558865,0.271639815719239,TRUE,1.08982522877636
"CAN","cpi",0.3,1955,3,1954,NA,1,7.1199422807385,9.77354699199153,0.173649026558865,4.00726070064464,FALSE,22.500156866052
"CAN","cpi",0.3,1955,3,1954,NA,1.5,13.9949262104572,22.3822370271279,0.173649026558865,3.09849569962328,FALSE,47.8766741992374
"CAN","cpi",0.3,1956,3,1956,NA,0,0.886451561587814,1.13581057474227,1.32752769429961,1.49944483483663,FALSE,0.797122211889704
"CAN","cpi",0.3,1956,3,1956,NA,0.5,0.347621717869905,0.884414774925074,1.32752769429961,0.239658941687119,FALSE,1.80282996955384
"CAN","cpi",0.3,1956,3,1955,NA,1,2.84439624493946,4.85882292269084,1.32752769429961,2.42699902405841,FALSE,6.34833682243666
"CAN","cpi",0.3,1956,3,1955,NA,1.5,10.1279918766458,16.6938547903995,1.32752769429961,2.6723883730094,FALSE,31.7100462918856
"CAN","cpi",0.3,1957,3,1957,NA,0,1.74765100325992,2.18855226336164,3.24684755852518,3.40805864327458,FALSE,3.46460210342611
"CAN","cpi",0.3,1957,3,1957,NA,0.5,2.19388204293528,4.0183818746478,3.24684755852518,2.77134230956367,TRUE,1.82449983171252
"CAN","cpi",0.3,1957,3,1956,NA,1,4.57958985956501,7.31256157129823,3.24684755852518,5.53767573267731,FALSE,6.54080685756132
"CAN","cpi",0.3,1957,3,1956,NA,1.5,4.19912505763286,7.51260204658352,3.24684755852518,2.3159105314434,FALSE,6.03426984354405
"CAN","cpi",0.3,1958,3,1958,NA,0,1.72511980682022,2.04011547666529,2.33186388641149,2.2666416787086,FALSE,1.14856255483421
"CAN","cpi",0.3,1958,3,1958,NA,0.5,1.78326173734404,4.01465356781568,2.33186388641149,2.6047181946108,TRUE,2.23139183047164
"CAN","cpi",0.3,1958,3,1957,NA,1,-5.61118773768692,-2.87539523519179,2.33186388641149,4.25451187896576,FALSE,17.6136757070759
"CAN","cpi",0.3,1958,3,1957,NA,1.5,4.00258635440915,8.48759605455093,2.33186388641149,3.21878619474396,FALSE,9.25850246584938
"CAN","cpi",0.3,1959,3,1959,NA,0,1.20717954383805,1.41217218294639,1.19382698397654,1.23804892137791,FALSE,0.243142810141229
"CAN","cpi",0.3,1959,3,1959,NA,0.5,1.00317263348263,1.95011909907249,1.19382698397654,1.22423653017582,TRUE,0.946946465589861
"CAN","cpi",0.3,1959,3,1958,NA,1,-2.84210249016568,-1.89515602457582,1.19382698397654,2.76661875727304,FALSE,9.7726122043109
"CAN","cpi",0.3,1959,3,1958,NA,1.5,5.99153139031607,8.98577173160007,1.19382698397654,3.40313655953963,FALSE,16.7019672165398
"CAN","cpi",0.3,1960,3,1960,NA,0,0.9269507791407,1.06941599574184,1.34209404870695,1.09496250556158,FALSE,0.921545367930038
"CAN","cpi",0.3,1960,3,1960,NA,0.5,1.26293605774456,1.86730156180954,1.34209404870695,1.31117730754252,TRUE,0.60436550406498
"CAN","cpi",0.3,1960,3,1959,NA,1,1.50633921420907,3.08095252826315,1.34209404870695,3.67993081372331,FALSE,2.0438852154887
"CAN","cpi",0.3,1960,3,1959,NA,1.5,4.71436170765863,6.28897502171271,1.34209404870695,2.53752597259669,FALSE,11.2096637682017
"CAN","cpi",0.3,1961,3,1961,NA,0,0.974211400002769,1.18720663776021,1.00921348094007,1.07956241593662,TRUE,0.212995237757442
"CAN","cpi",0.3,1961,3,1961,NA,0.5,1.44279559765732,1.97585724701378,1.00921348094007,1.62810563897838,FALSE,1.77186769712003
"CAN","cpi",0.3,1961,3,1960,NA,1,-0.852566018070768,-0.319504368714312,1.00921348094007,1.72683407115431,FALSE,4.3293983626547
"CAN","cpi",0.3,1961,3,1960,NA,1.5,4.24843037863085,5.25449115173397,1.00921348094007,2.46209267036318,FALSE,10.2609661950768
"CAN","cpi",0.3,1962,3,1962,NA,0,0.919777633242202,1.07006068931516,1.04957947883042,1.11859419449202,TRUE,0.150283056072956
"CAN","cpi",0.3,1962,3,1962,NA,0.5,0.580365281209701,1.0428569709125,1.04957947883042,0.567427238599509,FALSE,0.481698855182554
"CAN","cpi",0.3,1962,3,1961,NA,1,0.0889007077985924,0.681678801494415,1.04957947883042,1.63689072516514,FALSE,1.6439228860844
"CAN","cpi",0.3,1962,3,1961,NA,1.5,4.32477327981249,5.41001777915437,1.04957947883042,2.63635903501327,FALSE,10.4429410735764
"CAN","cpi",0.3,1963,3,1963,NA,0,1.19315020334555,1.37050934496932,1.60677118395228,1.86240003699012,FALSE,0.852392967289385
"CAN","cpi",0.3,1963,3,1963,NA,0.5,1.20570986218615,1.73077655266664,1.60677118395228,1.39337130813056,TRUE,0.525066690480492
"CAN","cpi",0.3,1963,3,1962,NA,1,1.58149959615079,2.22147104564315,1.60677118395228,2.94326130570012,TRUE,0.639971449492363
"CAN","cpi",0.3,1963,3,1962,NA,1.5,3.77762292511219,4.41759437460455,1.60677118395228,2.44281938697022,FALSE,6.84240499566353
"CAN","cpi",0.3,1964,3,1964,NA,0,1.3449464844003,1.54356434839878,1.88764670034376,2.0039339947047,FALSE,1.18171029812699
"CAN","cpi",0.3,1964,3,1964,NA,0.5,1.52634461255099,2.07340714012409,1.88764670034376,1.7991677011144,TRUE,0.547062527573104
"CAN","cpi",0.3,1964,3,1963,NA,1,2.37917479730507,2.92623732487817,1.88764670034376,4.16988253093083,FALSE,1.95142851889112
"CAN","cpi",0.3,1964,3,1963,NA,1.5,3.32677858616968,3.87384111374278,1.88764670034376,2.39235828979053,FALSE,4.65886791564716
"CAN","cpi",0.3,1965,3,1965,NA,0,1.52756225514664,1.73904464466068,2.29538304394236,2.3444020011952,FALSE,1.80102067317598
"CAN","cpi",0.3,1965,3,1965,NA,0.5,1.63518541064767,2.04608586393835,2.29538304394236,1.87416183614195,FALSE,1.12317811044498
"CAN","cpi",0.3,1965,3,1964,NA,1,0.819499042342975,1.23039949563365,2.29538304394236,2.77513442256292,FALSE,3.45371059131554
"CAN","cpi",0.3,1965,3,1964,NA,1.5,3.69844005527232,4.109340508563,2.29538304394236,2.58300862182973,FALSE,4.41963477137628
"CAN","cpi",0.3,1966,3,1966,NA,0,2.14258015460007,2.37216142546156,3.72486065470629,3.82226531435883,FALSE,4.09443621156073
"CAN","cpi",0.3,1966,3,1966,NA,0.5,2.89714228428168,3.45516686779249,3.72486065470629,3.71609253757358,FALSE,1.32857826040738
"CAN","cpi",0.3,1966,3,1965,NA,1,1.26656522720428,1.82458981071509,3.72486065470629,3.18026314560651,FALSE,5.9873698520571
"CAN","cpi",0.3,1966,3,1965,NA,1.5,3.87336755429987,4.43139213781068,3.72486065470629,2.72588429168219,FALSE,0.982330010921035
"CAN","cpi",0.3,1967,3,1967,NA,0,2.45219649978293,2.6945249087774,3.49360316391996,3.71060899730274,FALSE,2.52540913797321
"CAN","cpi",0.3,1967,3,1967,NA,0.5,2.33172486519913,3.02277486446101,3.49360316391996,2.56028521952089,FALSE,2.03627371200174
"CAN","cpi",0.3,1967,3,1966,NA,1,0.698780580161626,1.3898305794235,3.49360316391996,3.23068289349593,FALSE,6.7018288121089
"CAN","cpi",0.3,1967,3,1966,NA,1.5,5.08323944896736,5.77428944822924,3.49360316391996,3.48379255951164,FALSE,5.23286795654017
"CAN","cpi",0.3,1968,3,1968,NA,0,2.50508489162194,2.78324180330583,3.95128347779386,4.08812321751386,FALSE,3.61541883879254
"CAN","cpi",0.3,1968,3,1968,NA,0.5,3.00058425825905,4.05102315263656,3.95128347779386,3.86057245484849,TRUE,1.05043889437751
"CAN","cpi",0.3,1968,3,1967,NA,1,2.74791253186125,4.26065933850121,3.95128347779386,4.52914843962159,TRUE,1.51274680663996
"CAN","cpi",0.3,1968,3,1967,NA,1.5,4.22562173142077,5.73836853806074,3.95128347779386,2.90317969156253,FALSE,2.29657038843115
"CAN","cpi",0.3,1969,3,1969,NA,0,2.76263929438018,3.03687398237873,4.42679496126681,4.56202018095233,FALSE,4.24543748482165
"CAN","cpi",0.3,1969,3,1969,NA,0.5,2.6847136938707,3.6519331219353,4.42679496126681,3.1731721410374,FALSE,3.18111039758322
"CAN","cpi",0.3,1969,3,1968,NA,1,2.87700210186672,4.19894164567285,4.42679496126681,4.79164269130369,FALSE,1.97294901693173
"CAN","cpi",0.3,1969,3,1968,NA,1.5,5.87354533634488,7.19548488015101,4.42679496126681,3.43166930802121,FALSE,5.45551204402916
"CAN","cpi",0.3,1970,3,1970,NA,0,2.56685925229289,2.80282647505173,3.28128405769805,3.60731179706845,FALSE,1.6029888874626
"CAN","cpi",0.3,1970,3,1970,NA,0.5,3.40862381698088,4.55975532945104,3.28128405769805,4.09876840974541,FALSE,1.5149593961354
"CAN","cpi",0.3,1970,3,1969,NA,1,2.13566820951971,3.35338177766118,3.28128405769805,4.16731408225431,TRUE,1.21771356814147
"CAN","cpi",0.3,1970,3,1969,NA,1.5,5.40755946055057,6.62527302869203,3.28128405769805,2.94225383025522,FALSE,7.2927861477201
"CAN","cpi",0.3,1971,3,1971,NA,0,2.02052415261719,2.22801711676301,2.64123406634756,2.83090781749212,FALSE,1.38811282010167
"CAN","cpi",0.3,1971,3,1971,NA,0.5,1.75338695078359,2.39463551050719,2.64123406634756,1.62320660035324,FALSE,1.34581586212466
"CAN","cpi",0.3,1971,3,1970,NA,1,2.00949052093512,3.05332883465021,2.64123406634756,3.17007770946556,TRUE,1.0438383137151
"CAN","cpi",0.3,1971,3,1970,NA,1.5,6.61057484481968,7.65441315853478,2.64123406634756,3.54353814347809,FALSE,12.3848119664926
"CAN","cpi",0.3,1972,3,1972,NA,0,2.58353828094612,2.83601122528363,4.83230569625923,5.0489634093373,FALSE,5.95617143283923
"CAN","cpi",0.3,1972,3,1972,NA,0.5,3.4608222531189,4.45696376340381,4.83230569625923,4.42305209693724,FALSE,2.06854703272897
"CAN","cpi",0.3,1972,3,1971,NA,1,5.0030792181948,5.99922072847971,4.83230569625923,4.88112932259212,FALSE,1.48406585867225
"CAN","cpi",0.3,1972,3,1971,NA,1.5,5.70376655793916,6.69990806822408,4.83230569625923,2.93340690449956,FALSE,3.48602968651329
"CAN","cpi",0.3,1973,3,1973,NA,0,3.8116471618078,4.21376872644954,7.12388603531779,7.21795256722813,FALSE,8.71674244712246
"CAN","cpi",0.3,1973,3,1973,NA,0.5,4.50559889782207,5.7410706291709,7.12388603531779,5.49391172870491,FALSE,5.18637289176851
"CAN","cpi",0.3,1973,3,1972,NA,1,3.95912143031256,5.19459316166138,7.12388603531779,5.39692894021178,FALSE,6.74773708465285
"CAN","cpi",0.3,1973,3,1972,NA,1.5,7.07692601547822,8.31239774682705,7.12388603531779,3.58263496028301,TRUE,1.23547173134883
"CAN","cpi",0.3,1974,3,1974,NA,0,5.33102684221769,5.81409773063682,10.2717243737774,10.1210179328964,FALSE,13.219147011678
"CAN","cpi",0.3,1974,3,1974,NA,0.5,6.61352906499514,7.80111941348097,10.2717243737774,7.94351867110281,FALSE,8.24646166361854
"CAN","cpi",0.3,1974,3,1973,NA,1,4.74736240202947,5.93495275051531,10.2717243737774,7.1912022670208,FALSE,13.578366414949
"CAN","cpi",0.3,1974,3,1973,NA,1.5,8.5133576407544,9.70094798924023,10.2717243737774,4.0254660999559,FALSE,2.81838001859209
"CAN","cpi",0.3,1975,3,1975,NA,0,6.40511178479063,6.17318444983293,10.0232981493341,10.1376483081154,FALSE,10.76839752076
"CAN","cpi",0.3,1975,3,1975,NA,0.5,7.70738428301164,7.47545694805393,10.0232981493341,8.26308676293858,FALSE,7.04761895441427
"CAN","cpi",0.3,1975,3,1974,NA,1,1.90215537760098,1.67022804264327,10.0232981493341,7.73583614861028,FALSE,23.6339872555876
"CAN","cpi",0.3,1975,3,1974,NA,1.5,10.640324139101,10.6834769638571,10.0232981493341,4.67814014273702,FALSE,1.80608422409001
"CAN","cpi",0.3,1976,3,1976,NA,0,5.61387392513644,4.92355178301054,7.22784311401172,7.2178166349125,FALSE,5.89336737502032
"CAN","cpi",0.3,1976,3,1976,NA,0.5,6.70331990757114,6.01299776544524,7.22784311401172,6.91786916440093,FALSE,2.78066456806403
"CAN","cpi",0.3,1976,3,1975,NA,1,1.41286734854215,0.722545206416258,7.22784311401172,8.273619332389,FALSE,17.8962433081468
"CAN","cpi",0.3,1976,3,1975,NA,1.5,11.8333601779598,11.1430380358339,7.22784311401172,4.5816570194731,FALSE,12.468298040583
"CAN","cpi",0.3,1977,3,1977,NA,0,4.55492840954174,4.73848803335753,7.58101410153764,7.50701198703803,FALSE,8.30506267575897
"CAN","cpi",0.3,1977,3,1977,NA,0.5,5.70081586790125,5.88437549171704,7.58101410153764,6.51617593246189,FALSE,5.03109850901752
"CAN","cpi",0.3,1977,3,1976,NA,1,-0.532893108317504,-0.349333484501717,7.58101410153764,4.96992569410004,FALSE,22.8416955839282
"CAN","cpi",0.3,1977,3,1976,NA,1.5,10.5585846887226,10.7421443125384,7.58101410153764,4.37719420243736,FALSE,8.69090415863003
"CAN","cpi",0.3,1978,3,1978,NA,0,4.78642795980567,5.3621536027272,8.50208927062595,8.58158523467168,FALSE,9.54697040834652
"CAN","cpi",0.3,1978,3,1978,NA,0.5,6.12212473217492,6.81451580102914,8.50208927062595,7.4716201567401,FALSE,5.51402955341652
"CAN","cpi",0.3,1978,3,1977,NA,1,1.35444347908137,2.04683454793559,8.50208927062595,6.36749774462425,FALSE,19.1359759908267
"CAN","cpi",0.3,1978,3,1977,NA,1.5,12.0412683077496,12.7336593766039,8.50208927062595,5.06410799386515,FALSE,10.8043311749219
"CAN","cpi",0.3,1979,3,1979,NA,0,5.34629040760094,5.23688757860472,8.65147652410481,8.49829924825941,FALSE,9.64656558671833
"CAN","cpi",0.3,1979,3,1979,NA,0.5,6.53163679077304,6.42223396177681,8.65147652410481,7.55954787357905,FALSE,6.25986163479805
"CAN","cpi",0.3,1979,3,1978,NA,1,1.44216045055287,1.33275762155664,8.65147652410481,7.11843292779768,FALSE,20.8012226068557
"CAN","cpi",0.3,1979,3,1978,NA,1.5,11.8646582014005,11.7552553724043,8.65147652410481,5.13416174624329,FALSE,9.07111624899143
"CAN","cpi",0.3,1980,3,1980,NA,0,5.40057050721708,5.84001941221489,9.5171912664748,9.41458421512922,FALSE,10.9456542028833
"CAN","cpi",0.3,1980,3,1980,NA,0.5,6.44958226966405,6.88903117466186,9.5171912664748,7.9706129876785,FALSE,7.94847773874905
"CAN","cpi",0.3,1980,3,1979,NA,1,-0.055120498953333,0.384328406044484,9.5171912664748,6.28953001008885,FALSE,26.5333427919416
"CAN","cpi",0.3,1980,3,1979,NA,1.5,12.0500345453048,12.4894834503026,9.5171912664748,5.364173973799,FALSE,7.67614398736923
"CAN","cpi",0.3,1981,3,1981,NA,0,6.30262383296403,6.77692926284725,11.5813425032741,11.5923033542996,FALSE,14.2012004025315
"CAN","cpi",0.3,1981,3,1981,NA,0.5,8.26363857687327,8.73794400675649,11.5813425032741,11.0172481296202,FALSE,8.59830113421937
"CAN","cpi",0.3,1981,3,1980,NA,1,1.13549696722431,1.60980239710753,11.5813425032741,8.10476531012298,FALSE,28.9644200189307
"CAN","cpi",0.3,1981,3,1980,NA,1.5,11.955435449191,12.4297408790742,11.5813425032741,5.56064493450504,FALSE,1.54314241821717
"CAN","cpi",0.3,1982,3,1982,NA,0,6.37733050722005,6.82642282270147,10.1124203763629,10.1931679525338,FALSE,9.83765675451422
"CAN","cpi",0.3,1982,3,1982,NA,0.5,7.80729918034915,8.25639149583056,10.1124203763629,9.37004969245236,FALSE,5.75203197414537
"CAN","cpi",0.3,1982,3,1981,NA,1,-1.35999292171015,-0.910900606228738,10.1124203763629,8.69554175936175,FALSE,31.9442951228862
"CAN","cpi",0.3,1982,3,1981,NA,1.5,14.9364485376558,15.3855408531372,10.1124203763629,7.27062596384307,FALSE,14.2320299191752
"CAN","cpi",0.3,1983,3,1983,NA,0,4.55527956912606,5.12028013603698,5.67091787896303,5.81768735292628,FALSE,2.13825126098537
"CAN","cpi",0.3,1983,3,1983,NA,0.5,4.66784399389898,5.42056119609743,5.67091787896303,5.01354605702602,FALSE,1.46802201038589
"CAN","cpi",0.3,1983,3,1982,NA,1,-1.22503625650274,-0.472319054304286,5.67091787896303,7.12656393494862,FALSE,18.3048227258194
"CAN","cpi",0.3,1983,3,1982,NA,1.5,12.4933567950007,13.2460739971992,5.67091787896303,6.40641718255638,FALSE,20.2453998194489
"CAN","cpi",0.3,1984,3,1984,NA,0,2.97815705472176,3.32355925252126,4.19799576814029,4.24028901012313,FALSE,2.84379224242529
"CAN","cpi",0.3,1984,3,1984,NA,0.5,4.10418273176616,4.44958492956566,4.19799576814029,4.75786855948752,TRUE,0.345402197799498
"CAN","cpi",0.3,1984,3,1983,NA,1,1.27376125916243,1.61916345696192,4.19799576814029,5.66557758519989,FALSE,7.71349451545196
"CAN","cpi",0.3,1984,3,1983,NA,1.5,9.74041278022358,10.0858149780231,4.19799576814029,4.21132796972244,FALSE,16.1808793751803
"CAN","cpi",0.3,1985,3,1985,NA,0,2.53164871103009,2.82376684195381,3.86444262005169,3.92349089738505,FALSE,3.26547749691767
"CAN","cpi",0.3,1985,3,1985,NA,0.5,3.4609936135238,3.75762119863805,3.86444262005169,4.05923277954066,FALSE,0.601831646296084
"CAN","cpi",0.3,1985,3,1984,NA,1,0.856588754555552,1.15321633966981,3.86444262005169,3.95710775307987,FALSE,8.04298838620536
"CAN","cpi",0.3,1985,3,1984,NA,1.5,10.9285067547465,11.2251343398607,3.86444262005169,4.80620472271859,FALSE,20.4796679699565
"CAN","cpi",0.3,1986,3,1986,NA,0,2.6039366037676,2.71835876916333,4.08685396749431,4.13000198176505,FALSE,4.02440844634139
"CAN","cpi",0.3,1986,3,1986,NA,0.5,3.6263222909409,3.74074445633663,4.08685396749431,4.52376153022901,FALSE,1.10330648298911
"CAN","cpi",0.3,1986,3,1985,NA,1,1.42668492369652,1.54110708909226,4.08685396749431,4.28856700742326,FALSE,7.38798467511589
"CAN","cpi",0.3,1986,3,1985,NA,1.5,10.6028771589987,10.7172993243944,4.08685396749431,4.73207334351572,FALSE,18.7316312839796
"CAN","cpi",0.3,1987,3,1987,NA,0,2.70884135003784,2.88332489204858,4.23980729277887,4.34713339619661,FALSE,4.05014754409729
"CAN","cpi",0.3,1987,3,1987,NA,0.5,3.28146047278799,3.45594401479872,4.23980729277887,4.04554574241257,FALSE,2.41409290766831
"CAN","cpi",0.3,1987,3,1986,NA,1,1.73441406928598,1.90889761129672,4.23980729277887,4.62985152306341,FALSE,6.8342254891026
"CAN","cpi",0.3,1987,3,1986,NA,1.5,10.6716991915027,10.8461827335135,4.23980729277887,4.92117197950912,FALSE,18.5513175383646
"CAN","cpi",0.3,1988,3,1988,NA,0,2.64496320746794,2.79398028494704,3.92899537638065,4.00901931174773,FALSE,3.391917338718
"CAN","cpi",0.3,1988,3,1988,NA,0.5,3.12194947051493,3.27096654799403,3.92899537638065,3.73662637763501,FALSE,2.02909944429802
"CAN","cpi",0.3,1988,3,1987,NA,1,1.39079999178401,1.53981706926311,3.92899537638065,4.57559871410537,FALSE,6.97524081210067
"CAN","cpi",0.3,1988,3,1987,NA,1.5,9.67629421359496,9.82531129107406,3.92899537638065,4.47333468954476,FALSE,16.5698708980914
"CAN","cpi",0.3,1989,3,1989,NA,0,2.86604029411114,3.03674907534289,4.82821664544208,4.99076681888079,FALSE,5.28918755294371
"CAN","cpi",0.3,1989,3,1989,NA,0.5,3.50986703749708,3.68057581872882,4.82821664544208,4.4916513034202,FALSE,3.44968257184104
"CAN","cpi",0.3,1989,3,1988,NA,1,1.58643221938645,1.7571410006182,4.82821664544208,4.54165447743213,FALSE,8.94521062358568
"CAN","cpi",0.3,1989,3,1988,NA,1.5,9.30258168322764,9.47329046445939,4.82821664544208,4.35655767104226,FALSE,12.9546088891905
"CAN","cpi",0.3,1990,3,1990,NA,0,2.9118794086962,3.17428573123411,4.64347549432717,4.53713653171057,FALSE,4.46009135994666
"CAN","cpi",0.3,1990,3,1990,NA,0.5,3.92012541045023,4.18253173298814,4.64347549432717,5.08101061108308,FALSE,1.57938849779228
"CAN","cpi",0.3,1990,3,1989,NA,1,1.89061544203953,2.15302176457744,4.64347549432717,5.34783125013627,FALSE,7.37798840753714
"CAN","cpi",0.3,1990,3,1989,NA,1.5,9.97383612464315,10.2362424471811,4.64347549432717,4.81353563225505,FALSE,15.4920081234407
"CAN","cpi",0.3,1991,3,1991,NA,0,3.21834118362416,3.52962775176538,5.4258100696218,5.66037042635664,FALSE,5.72895033344526
"CAN","cpi",0.3,1991,3,1991,NA,0.5,5.21567820644952,5.88386574713837,5.4258100696218,7.84858621299389,TRUE,0.66818754068885
"CAN","cpi",0.3,1991,3,1990,NA,1,0.831631026587928,1.49981856727678,5.4258100696218,4.26930339967321,FALSE,11.8853061188175
"CAN","cpi",0.3,1991,3,1990,NA,1.5,10.0617278593367,10.7299154000256,5.4258100696218,5.0605414207232,FALSE,13.9136669398743
"CAN","cpi",0.3,1992,3,1992,NA,0,2.10986492769799,2.32530330656883,1.47496888572843,1.52994687025859,FALSE,2.02942707021244
"CAN","cpi",0.3,1992,3,1992,NA,0.5,1.93844528560694,2.49718572880903,1.47496888572843,1.85875773502133,FALSE,1.88295872856925
"CAN","cpi",0.3,1992,3,1991,NA,1,0.020134771349456,0.578875214551543,1.47496888572843,3.50386131646851,FALSE,3.11900807513606
"CAN","cpi",0.3,1992,3,1991,NA,1.5,12.9029826036886,13.6522026380282,1.47496888572843,6.78035435046663,FALSE,33.4006877999401
"CAN","cpi",0.3,1993,3,1993,NA,0,1.23663675072582,1.35536082086451,1.84351085411351,1.87124044779021,FALSE,1.51343845085012
"CAN","cpi",0.3,1993,3,1993,NA,0.5,1.99096302743473,2.25283753372316,1.84351085411351,2.72734178597627,FALSE,0.683166430063339
"CAN","cpi",0.3,1993,3,1992,NA,1,1.81827879893425,2.08015330522269,1.84351085411351,3.08451104384819,TRUE,0.261874506288435
"CAN","cpi",0.3,1993,3,1992,NA,1.5,8.2078914410398,8.46976594732824,1.84351085411351,3.82501351795864,FALSE,18.4458190403636
"CAN","cpi",0.3,1994,3,1994,NA,0,0.862441301876753,0.899555314197464,0.161630694655448,0.262954827743209,FALSE,2.03943003295301
"CAN","cpi",0.3,1994,3,1994,NA,0.5,0.729109714322387,0.766223726643097,0.161630694655448,0.310066271274909,FALSE,1.65848263994054
"CAN","cpi",0.3,1994,3,1993,NA,1,1.4906320630123,1.52774607533301,0.161630694655448,2.87682482634461,FALSE,3.83426077905456
"CAN","cpi",0.3,1994,3,1993,NA,1.5,8.74545868236437,8.78257269468508,0.161630694655448,4.13541986765475,FALSE,24.5623368343462
"CAN","cpi",0.3,1995,3,1995,NA,0,1.02450833435783,1.10528441980359,2.11688403676572,2.22224044651209,FALSE,2.97106070533754
"CAN","cpi",0.3,1995,3,1995,NA,0.5,1.94532871604808,2.04464476704464,2.11688403676572,2.99405804315788,FALSE,0.30571396448534
"CAN","cpi",0.3,1995,3,1994,NA,1,2.54446170969542,2.64377776069198,2.11688403676572,2.99684369657241,FALSE,1.32096654508142
"CAN","cpi",0.3,1995,3,1994,NA,1.5,5.7803053874974,5.87962143849396,2.11688403676572,2.55761383507254,FALSE,10.5662341959442
"CAN","cpi",0.3,1996,3,1996,NA,0,1.30894838077423,1.4188010594516,1.55309584667184,1.51034526106652,FALSE,0.493552070735198
"CAN","cpi",0.3,1996,3,1996,NA,0.5,1.38818388092801,1.67153312002259,1.55309584667184,1.79601314583588,TRUE,0.283349239094581
"CAN","cpi",0.3,1996,3,1995,NA,1,0.623286312676214,0.906635551770796,1.55309584667184,2.55715877011559,FALSE,2.13037865309757
"CAN","cpi",0.3,1996,3,1995,NA,1.5,9.31280231924378,9.59615155833836,1.55309584667184,4.37195408299294,FALSE,22.4539391607287
"CAN","cpi",0.3,1997,3,1997,NA,0,1.2454155260142,1.34519263421937,1.60528783555959,1.74775979926451,FALSE,0.842906254891525
"CAN","cpi",0.3,1997,3,1997,NA,0.5,1.64330876476318,1.9209773538754,1.60528783555959,2.44638235868142,FALSE,0.386299815408193
"CAN","cpi",0.3,1997,3,1996,NA,1,0.792734207116569,1.07040279622878,1.60528783555959,2.43903366578812,FALSE,1.80591155862881
"CAN","cpi",0.3,1997,3,1996,NA,1.5,7.80423836541129,8.08190695452351,1.60528783555959,3.62198739789796,FALSE,17.9889558172599
"CAN","cpi",0.3,1998,3,1998,NA,0,1.03356899132242,1.1163713734268,0.988908029337191,1.03895035119065,FALSE,0.210405130633602
"CAN","cpi",0.3,1998,3,1998,NA,0.5,1.37650862882422,1.52253950576518,0.988908029337191,1.85198354845497,FALSE,1.25346116118961
"CAN","cpi",0.3,1998,3,1997,NA,1,0.955750846089971,1.10178172303094,0.988908029337191,2.50242700061489,TRUE,0.146030876940965
"CAN","cpi",0.3,1998,3,1997,NA,1.5,8.3743573785227,8.65510458124472,0.988908029337191,3.75826952211307,FALSE,21.3820310575378
"CAN","cpi",0.3,1999,3,1999,NA,0,1.12264022287291,1.20162972763014,1.7107350135213,1.81904689636282,FALSE,1.53357603587482
"CAN","cpi",0.3,1999,3,1999,NA,0.5,0.974525988913394,1.17305853213273,1.7107350135213,1.31729339512256,FALSE,1.73475106147237
"CAN","cpi",0.3,1999,3,1998,NA,1,0.929619679955227,1.12815222317457,1.7107350135213,2.15211490322884,FALSE,1.86305480135285
"CAN","cpi",0.3,1999,3,1998,NA,1.5,7.92806360877848,8.19560262421169,1.7107350135213,3.69857126490312,FALSE,18.0313350018823
"CAN","cpi",0.3,2000,3,2000,NA,0,1.60117062348861,1.71863067973566,2.6718361971244,2.74274050503735,FALSE,2.84090439164346
"CAN","cpi",0.3,2000,3,2000,NA,0.5,1.66232796753943,1.8694185672644,2.6718361971244,2.46113990926174,FALSE,2.49971239932498
"CAN","cpi",0.3,2000,3,1999,NA,1,1.67078496253168,1.87787556225665,2.6718361971244,3.49419557264756,FALSE,2.47554955648997
"CAN","cpi",0.3,2000,3,1999,NA,1.5,7.06102961816872,7.26812021789369,2.6718361971244,3.22544865557399,FALSE,12.7476432312802
"CAN","cpi",0.3,2001,3,2001,NA,0,1.87545360436464,2.01445762839633,2.47906219852806,2.80396337772557,FALSE,1.4664456529795
"CAN","cpi",0.3,2001,3,2001,NA,0.5,1.61522335542666,1.96062868957256,2.47906219852806,2.23984277042869,FALSE,1.82664393116162
"CAN","cpi",0.3,2001,3,2000,NA,1,1.41158750121519,1.75699283536108,2.47906219852806,3.95792003209951,FALSE,2.40846065748013
"CAN","cpi",0.3,2001,3,2000,NA,1.5,8.07162503993988,8.42137076835953,2.47906219852806,3.55622040628749,FALSE,16.328496703882
"CAN","cpi",0.3,2002,3,2002,NA,0,1.67618760568759,1.80092220192855,2.20880570551249,2.34939305392984,FALSE,1.29011603505221
"CAN","cpi",0.3,2002,3,2002,NA,0.5,1.42574269499623,1.55212007505656,2.20880570551249,1.70224895292675,FALSE,2.00262203850584
"CAN","cpi",0.3,2002,3,2001,NA,1,0.408505190488473,0.534882570548807,2.20880570551249,2.47791561910008,FALSE,4.90901490852799
"CAN","cpi",0.3,2002,3,2001,NA,1.5,7.38496354978232,7.51134092984266,2.20880570551249,3.17564245091106,FALSE,14.9153997922599
"CAN","cpi",0.3,2003,3,2003,NA,0,1.74638846565314,1.87736745610227,2.71189071546809,2.81714587005806,FALSE,2.51533116006576
"CAN","cpi",0.3,2003,3,2003,NA,0.5,2.84973880171157,3.03097575435673,2.71189071546809,4.41787786293317,FALSE,0.57508862762654
"CAN","cpi",0.3,2003,3,2002,NA,1,2.07312556665098,2.25436251929613,2.71189071546809,4.32236105253803,FALSE,1.48846037027932
"CAN","cpi",0.3,2003,3,2002,NA,1.5,7.99558682954546,8.17682378219061,2.71189071546809,3.7551535685832,FALSE,15.2775115642948
"CAN","cpi",0.3,2004,3,2004,NA,0,1.57390330427469,1.68776164831915,1.83151661303942,1.83115885083991,FALSE,0.524586814673812
"CAN","cpi",0.3,2004,3,2004,NA,0.5,1.52057792443184,1.71124487396613,1.83151661303942,1.89356075843229,FALSE,0.534300489743705
"CAN","cpi",0.3,2004,3,2003,NA,1,0.584548464970887,0.775215414505175,1.83151661303942,2.5903955121087,FALSE,3.20867037391785
"CAN","cpi",0.3,2004,3,2003,NA,1.5,9.48336270429477,9.67402965382906,1.83151661303942,4.52605057310407,FALSE,22.053084353121
"CAN","cpi",0.3,2005,3,2005,NA,0,1.52363819513938,1.62819680445401,2.18071628336509,2.39375726304695,FALSE,1.68318569191772
"CAN","cpi",0.3,2005,3,2005,NA,0.5,1.40486279010743,1.71112121031929,2.18071628336509,2.00628617924563,FALSE,1.64795862891414
"CAN","cpi",0.3,2005,3,2004,NA,1,0.760759809682856,1.06701822989471,2.18071628336509,2.50853787240411,FALSE,3.48825285869865
"CAN","cpi",0.3,2005,3,2004,NA,1.5,7.53820344414442,7.92608552596976,2.18071628336509,3.53910826966273,FALSE,15.6949882554806
"CAN","cpi",0.3,2006,3,2006,NA,0,1.52148163048098,1.64221269195273,1.97519342012289,2.13830460574546,FALSE,1.07210457052935
"CAN","cpi",0.3,2006,3,2006,NA,0.5,1.66431614730397,1.87048817832654,1.97519342012289,2.27462572570213,FALSE,0.505329864726404
