isdrw/probabilistic-benchmark-forecasts/results/bayesian_quantile_regression/bqr_prediction_arima1_1_0_2026-02-20_11-40-32.csv
"country","target","tau","target_year","target_quarter","forecast_year","forecast_quarter","horizon","lower_bound","upper_bound","truth_value","prediction","covered","IS"
"CAN","cpi",0.1,1952,3,1952,NA,0,-25.9915346788053,-26.473395252887,2.55562336095485,2.46502621244774,FALSE,64.0270696789001
"CAN","cpi",0.1,1952,3,1952,NA,0.5,-12.9710724561707,-11.4379435670609,2.55562336095485,4.32129924776399,FALSE,32.6299442847004
"CAN","cpi",0.1,1952,3,1951,NA,1,12.1415307149749,13.6746596040847,2.55562336095485,9.65785623271456,FALSE,22.8351452313765
"CAN","cpi",0.1,1952,3,1951,NA,1.5,-28.8212651176293,-27.2881362285195,2.55562336095485,10.2729097180516,FALSE,67.8525946434972
"CAN","cpi",0.1,1953,3,1953,NA,0,0.160487244634315,-1.44901857990246,-1.01492775838436,-1.00749856253296,FALSE,1.96717378554495
"CAN","cpi",0.1,1953,3,1953,NA,0.5,-14.8377598541506,-16.4472656786874,-1.01492775838436,-2.06778904141071,FALSE,32.6845784428034
"CAN","cpi",0.1,1953,3,1952,NA,1,-17.4185983640462,-19.028104188583,-1.01492775838436,-1.55171650633025,FALSE,38.4197751314601
"CAN","cpi",0.1,1953,3,1952,NA,1.5,-9.39400592962832,-8.06126659342176,-1.01492775838436,1.96017794195978,FALSE,16.9912700807341
"CAN","cpi",0.1,1954,3,1954,NA,0,0.928310405440693,0.82071625996752,0.644425455961438,0.844896913757956,FALSE,0.52326129781406
"CAN","cpi",0.1,1954,3,1954,NA,0.5,1.64755909331413,1.53996494784095,0.644425455961438,-0.153040348587994,FALSE,2.12159171531058
"CAN","cpi",0.1,1954,3,1953,NA,1,11.9404612414052,12.0915775300813,0.644425455961438,2.75483618067449,FALSE,25.2534180341067
"CAN","cpi",0.1,1954,3,1953,NA,1.5,-7.22214886467527,-7.07103257599912,0.644425455961438,-2.52548049332379,FALSE,17.2965785819218
"CAN","cpi",0.1,1955,3,1955,NA,0,0.468463634485716,0.50427141471079,0.173649026558865,0.10765252516202,FALSE,0.690951353395854
"CAN","cpi",0.1,1955,3,1955,NA,0.5,-1.12563787248629,-0.792730705355238,0.173649026558865,-0.685764272176465,FALSE,2.48041768249572
"CAN","cpi",0.1,1955,3,1954,NA,1,9.47554244965612,9.85620091465672,0.173649026558865,3.05598167297881,FALSE,21.0515327385501
"CAN","cpi",0.1,1955,3,1954,NA,1.5,-8.76830163344113,-8.38764316844053,0.173649026558865,-1.37299158518014,FALSE,19.4057522316659
"CAN","cpi",0.1,1956,3,1956,NA,0,1.02879451754208,1.05791621311586,1.32752769429961,1.5132196707054,FALSE,0.628258320426564
"CAN","cpi",0.1,1956,3,1956,NA,0.5,-0.153157749469879,-0.1240360538961,1.32752769429961,-0.533297708724126,FALSE,3.25481891378646
"CAN","cpi",0.1,1956,3,1955,NA,1,1.98995849809021,2.01908019366399,1.32752769429961,0.79482048855347,FALSE,1.50119014844178
"CAN","cpi",0.1,1956,3,1955,NA,1.5,-5.90068489400144,-5.87156319842766,1.32752769429961,-1.67555014996128,FALSE,16.0271014571899
"CAN","cpi",0.1,1957,3,1957,NA,0,1.9509352157703,2.12185470267434,3.24684755852518,3.4081189986054,FALSE,2.67090361101701
"CAN","cpi",0.1,1957,3,1957,NA,0.5,3.38299799762454,3.98794003678371,3.24684755852518,2.36364513914165,FALSE,0.907498570491085
"CAN","cpi",0.1,1957,3,1956,NA,1,10.384983176253,12.0832785811576,3.24684755852518,6.42400073504334,FALSE,17.5608189998553
"CAN","cpi",0.1,1957,3,1956,NA,1.5,-9.78694670242118,-8.08865129751651,3.24684755852518,-1.44175113719435,FALSE,26.8882928627751
"CAN","cpi",0.1,1958,3,1958,NA,0,1.88979055614691,1.97269584534785,2.33186388641149,2.22393716079583,FALSE,0.881056491564576
"CAN","cpi",0.1,1958,3,1958,NA,0.5,3.73718909824273,4.30362678758542,2.33186388641149,2.22874439106395,FALSE,3.68938260452323
"CAN","cpi",0.1,1958,3,1957,NA,1,3.10700895920987,4.61715822016433,2.33186388641149,4.33819969505612,FALSE,3.23269386717309
"CAN","cpi",0.1,1958,3,1957,NA,1.5,-10.488384628266,-8.9782353673115,2.33186388641149,1.22685206136826,FALSE,26.6437031581167
"CAN","cpi",0.1,1959,3,1959,NA,0,1.32135503134905,1.38672894668646,1.19382698397654,1.19679708996586,FALSE,0.34876957616521
"CAN","cpi",0.1,1959,3,1959,NA,0.5,1.77896385911858,2.09531667114793,1.19382698397654,0.655175994826909,FALSE,1.61665697901165
"CAN","cpi",0.1,1959,3,1958,NA,1,0.52622375899349,1.34767432936955,1.19382698397654,1.75938857815981,TRUE,0.821450570376056
"CAN","cpi",0.1,1959,3,1958,NA,1.5,-5.4690270251096,-4.64757645473355,1.19382698397654,1.7749666101295,FALSE,13.8023471008429
"CAN","cpi",0.1,1960,3,1960,NA,0,0.996201887814967,1.03748551411326,1.34209404870695,1.03130246511349,FALSE,0.718191480950945
"CAN","cpi",0.1,1960,3,1960,NA,0.5,1.59074743010746,1.76005812440237,1.34209404870695,0.745602653132245,FALSE,0.721873764073814
"CAN","cpi",0.1,1960,3,1959,NA,1,3.40857232633636,3.78633018631571,1.34209404870695,3.33587387303437,FALSE,4.96993181026692
"CAN","cpi",0.1,1960,3,1959,NA,1.5,-4.09583343303626,-3.7180755730569,1.34209404870695,-0.32541909428789,FALSE,11.6225792416768
"CAN","cpi",0.1,1961,3,1961,NA,0,1.04636265296759,1.10608553144207,1.00921348094007,1.00921348094007,FALSE,0.142276594091188
"CAN","cpi",0.1,1961,3,1961,NA,0.5,2.12633801129975,2.30333128712339,1.00921348094007,1.31141131508129,FALSE,2.65949223217847
"CAN","cpi",0.1,1961,3,1960,NA,1,-0.415215779204639,-0.238222503380995,1.00921348094007,0.143625905669962,FALSE,2.94907324098157
"CAN","cpi",0.1,1961,3,1960,NA,1.5,-3.89333103766654,-3.7163377618429,1.00921348094007,-0.34011142415222,FALSE,10.6782182597858
"CAN","cpi",0.1,1962,3,1962,NA,0,1.00259127803411,1.05661280271085,1.04957947883042,1.11132998230876,TRUE,0.054021524676739
"CAN","cpi",0.1,1962,3,1962,NA,0.5,0.804116821415564,0.898377899549556,1.04957947883042,1.64134322488006e-44,FALSE,0.430264587647012
"CAN","cpi",0.1,1962,3,1961,NA,1,-0.0971705030034254,-0.002909424869433,1.04957947883042,-9.44308782563385e-19,FALSE,2.4331253085781
"CAN","cpi",0.1,1962,3,1961,NA,1.5,-1.49703467365018,-1.40277359551619,1.04957947883042,0.754384248690751,FALSE,5.543934576682
"CAN","cpi",0.1,1963,3,1963,NA,0,1.28794562872915,1.3426288436927,1.60677118395228,1.85599510888664,FALSE,0.641666193318181
"CAN","cpi",0.1,1963,3,1963,NA,0.5,1.61941241602887,1.77053123838338,1.60677118395228,0.932300293637426,FALSE,0.179210449191368
"CAN","cpi",0.1,1963,3,1962,NA,1,2.33865771683276,2.6627543580884,1.60677118395228,2.66748522343727,FALSE,1.95051115876781
"CAN","cpi",0.1,1963,3,1962,NA,1.5,-1.8816892053729,-1.55759256411726,1.60677118395228,4.10321927477868e-44,FALSE,7.35601608141018
"CAN","cpi",0.1,1964,3,1964,NA,0,1.45286485783702,1.51395022445075,1.88764670034376,1.98894154569002,FALSE,0.891521979709308
"CAN","cpi",0.1,1964,3,1964,NA,0.5,2.12932359738759,2.3309163896598,1.88764670034376,1.38377582747094,FALSE,0.738652563480723
"CAN","cpi",0.1,1964,3,1963,NA,1,3.78424748430177,4.16414087904359,1.88764670034376,4.71286552905431,FALSE,4.5945618035374
"CAN","cpi",0.1,1964,3,1963,NA,1.5,-2.30679607345434,-1.92690267871252,1.88764670034376,0.238779673172327,FALSE,8.85666979264467
"CAN","cpi",0.1,1965,3,1965,NA,0,1.64859171525186,1.71180725982758,2.29538304394236,2.35494510510554,FALSE,1.36005062038634
"CAN","cpi",0.1,1965,3,1965,NA,0.5,2.35465425597441,2.53262217761779,2.29538304394236,1.56044896459738,FALSE,0.309681726159045
"CAN","cpi",0.1,1965,3,1964,NA,1,1.87089378006007,2.17230094307236,2.29538304394236,2.42710731898607,FALSE,0.574922942723394
"CAN","cpi",0.1,1965,3,1964,NA,1.5,-1.42101834113216,-1.11961117811988,2.29538304394236,0.818315757903116,FALSE,7.89028321203947
"CAN","cpi",0.1,1966,3,1966,NA,0,2.29399044331695,2.36407756741285,3.72486065470629,3.84664136390011,FALSE,3.09404954030353
"CAN","cpi",0.1,1966,3,1966,NA,0.5,4.30127418579657,4.54416209739929,3.72486065470629,3.84691400230302,FALSE,1.52380686958112
"CAN","cpi",0.1,1966,3,1965,NA,1,2.68045086788441,3.05547695156333,3.72486065470629,3.31367997089714,FALSE,1.86254542399661
"CAN","cpi",0.1,1966,3,1965,NA,1.5,-0.964503536866283,-0.58947745318737,3.72486065470629,1.48150382413513,FALSE,9.96244410122038
"CAN","cpi",0.1,1967,3,1967,NA,0,2.63207483575022,2.70194033988886,3.49360316391996,3.76862969063141,FALSE,1.82911622420774
"CAN","cpi",0.1,1967,3,1967,NA,0.5,3.62467244409152,3.8199263618465,3.49360316391996,2.36174420726938,FALSE,0.486518984802895
"CAN","cpi",0.1,1967,3,1966,NA,1,2.83436830873626,3.34487528877328,3.49360316391996,3.4823384545504,FALSE,0.841013369251858
"CAN","cpi",0.1,1967,3,1966,NA,1.5,1.15172281177444,1.66222979181145,3.49360316391996,4.29257700443622,FALSE,4.58022558472258
"CAN","cpi",0.1,1968,3,1968,NA,0,2.67330646054159,2.77047735829956,3.95128347779386,4.1134030125927,FALSE,2.72118449663418
"CAN","cpi",0.1,1968,3,1968,NA,0.5,4.75665796191242,5.05029270486814,3.95128347779386,3.89224433743933,FALSE,2.08335581877475
"CAN","cpi",0.1,1968,3,1967,NA,1,5.14356540961593,5.91879075836932,3.95128347779386,5.85596711509228,FALSE,3.42474075280243
"CAN","cpi",0.1,1968,3,1967,NA,1.5,-0.561673182910457,0.21355216584293,3.95128347779386,2.14187095150408,FALSE,9.08129493086656
"CAN","cpi",0.1,1969,3,1969,NA,0,2.98667296317371,3.07644134135252,4.42679496126681,4.64263065146317,FALSE,3.09055420021058
"CAN","cpi",0.1,1969,3,1969,NA,0.5,4.2502049992659,4.46860907964045,4.42679496126681,3.06199492877772,TRUE,0.218404080374551
"CAN","cpi",0.1,1969,3,1968,NA,1,5.12550977258204,6.04729832952753,4.42679496126681,6.05582378748629,FALSE,2.47448813764599
"CAN","cpi",0.1,1969,3,1968,NA,1.5,1.0155222693557,1.93731082630119,4.42679496126681,3.87227485119322,FALSE,6.45397552353576
"CAN","cpi",0.1,1970,3,1970,NA,0,2.72990500224565,2.81119374958398,3.28128405769805,3.58996474924422,FALSE,1.1259338764807
"CAN","cpi",0.1,1970,3,1970,NA,0.5,5.33418720293084,5.63672265769178,3.28128405769805,4.17180269652751,FALSE,4.86454244416715
"CAN","cpi",0.1,1970,3,1969,NA,1,4.70524468742852,5.45563826795657,3.28128405769805,5.43865496465038,FALSE,3.91475053548465
"CAN","cpi",0.1,1970,3,1969,NA,1.5,-0.537250416537913,0.213143163990139,3.28128405769805,2.31672730979866,FALSE,7.56848445543451
"CAN","cpi",0.1,1971,3,1971,NA,0,2.18079455138348,2.25344723020764,2.64123406634756,2.89424739818036,FALSE,0.934401203579541
"CAN","cpi",0.1,1971,3,1971,NA,0.5,2.49826335233693,2.6669413420488,2.64123406634756,1.07533993963556,TRUE,0.16867798971187
"CAN","cpi",0.1,1971,3,1970,NA,1,2.65131388340756,3.2832508154331,2.64123406634756,2.98160965133743,FALSE,0.654336525492196
"CAN","cpi",0.1,1971,3,1970,NA,1.5,2.56193499310645,3.48024881731195,2.64123406634756,4.15708260691123,TRUE,0.918313824205496
"CAN","cpi",0.1,1972,3,1972,NA,0,2.81112504305562,2.89035207340823,4.83230569625923,5.10321489701878,FALSE,4.39467952557705
"CAN","cpi",0.1,1972,3,1972,NA,0.5,4.98286797611624,5.32775132711184,4.83230569625923,4.57526784474473,FALSE,0.679466195122286
"CAN","cpi",0.1,1972,3,1971,NA,1,6.18779896655019,6.8099507313679,4.83230569625923,6.5673313651466,FALSE,3.63435903213095
"CAN","cpi",0.1,1972,3,1971,NA,1.5,0.0838285321892818,0.705980297006992,4.83230569625923,1.20127092516847,FALSE,9.79176376315602
"CAN","cpi",0.1,1973,3,1973,NA,0,4.18062853298008,4.29416646697572,7.12388603531779,7.36268749116872,FALSE,6.40180364142246
"CAN","cpi",0.1,1973,3,1973,NA,0.5,6.84319962444513,7.321063558979,7.12388603531779,5.89432993074317,TRUE,0.477863934533872
"CAN","cpi",0.1,1973,3,1972,NA,1,6.58288626136894,7.69939665039579,7.12388603531779,7.371399360381,TRUE,1.11651038902686
"CAN","cpi",0.1,1973,3,1972,NA,1.5,2.7775694714684,3.89407986049525,7.12388603531779,4.50324671282129,FALSE,8.29385744418805
"CAN","cpi",0.1,1974,3,1974,NA,0,5.78094957889577,5.94526256184671,10.2717243737774,10.3222881332229,FALSE,9.77867256501917
"CAN","cpi",0.1,1974,3,1974,NA,0.5,9.92952808306489,10.807998013522,10.2717243737774,8.8471290293637,TRUE,0.878469930457108
"CAN","cpi",0.1,1974,3,1973,NA,1,9.7456315856091,11.4304059171034,10.2717243737774,10.9884402825372,TRUE,1.68477433149432
"CAN","cpi",0.1,1974,3,1973,NA,1.5,3.92018370605278,5.6049580375471,10.2717243737774,6.19554852079723,FALSE,12.0553661897839
"CAN","cpi",0.1,1975,3,1975,NA,0,6.45821444113797,6.69737797635925,10.0232981493341,10.2646941702359,FALSE,7.63009725294321
"CAN","cpi",0.1,1975,3,1975,NA,0.5,11.3836260439065,12.5234727658226,10.0232981493341,9.21855388205318,FALSE,4.16279759874363
"CAN","cpi",0.1,1975,3,1974,NA,1,9.23474031776142,10.9785698828455,10.0232981493341,11.9905143933903,TRUE,1.74382956508411
"CAN","cpi",0.1,1975,3,1974,NA,1.5,4.30897575949622,6.05280532458032,10.0232981493341,8.68009129130424,FALSE,10.5671469534259
"CAN","cpi",0.1,1976,3,1976,NA,0,5.43790941808575,5.58163945396868,7.22784311401172,7.25383067322222,FALSE,3.80196039153412
"CAN","cpi",0.1,1976,3,1976,NA,0.5,10.0153797220626,10.7607562526595,7.22784311401172,7.41547675604771,FALSE,6.93990232626555
"CAN","cpi",0.1,1976,3,1975,NA,1,7.50939759635128,8.98947065377073,7.22784311401172,11.9151510581142,FALSE,2.1057496848407
"CAN","cpi",0.1,1976,3,1975,NA,1.5,1.51828012028524,3.23450428861445,7.22784311401172,8.01331538119686,FALSE,10.5903104469898
"CAN","cpi",0.1,1977,3,1977,NA,0,4.78957551600589,4.96271397466274,7.58101410153764,7.61867129691007,FALSE,5.99158318504553
"CAN","cpi",0.1,1977,3,1977,NA,0.5,8.51982513026883,9.30131502133349,7.58101410153764,7.02287871989832,FALSE,2.86773662157841
"CAN","cpi",0.1,1977,3,1976,NA,1,3.58714068881398,4.56689861332816,7.58101410153764,5.87261903876238,FALSE,7.67779234275748
"CAN","cpi",0.1,1977,3,1976,NA,1.5,2.02289464768782,3.53184362782311,7.58101410153764,6.15322645024094,FALSE,10.5071055883898
"CAN","cpi",0.1,1978,3,1978,NA,0,5.24758716145761,5.40627640776192,8.50208927062595,8.68125407245005,FALSE,7.03827338600214
"CAN","cpi",0.1,1978,3,1978,NA,0.5,9.64484295978781,10.3254087287709,8.50208927062595,8.12508742330222,FALSE,3.22001841156504
"CAN","cpi",0.1,1978,3,1977,NA,1,5.66287112918016,6.91022720668696,8.50208927062595,8.64318766852961,FALSE,4.78482733070456
"CAN","cpi",0.1,1978,3,1977,NA,1.5,3.44330121314866,5.09979045966296,8.50208927062595,7.66028936796504,FALSE,9.2171532708765
"CAN","cpi",0.1,1979,3,1979,NA,0,5.46139514582917,5.63596926124377,8.65147652410481,8.61075946409788,FALSE,6.87570136621691
"CAN","cpi",0.1,1979,3,1979,NA,0.5,10.0235263001947,10.6885325626964,8.65147652410481,8.10062835274572,FALSE,3.71400576492368
"CAN","cpi",0.1,1979,3,1978,NA,1,6.13332445766964,7.41551435079699,8.65147652410481,9.5826348846829,FALSE,4.02877250047806
"CAN","cpi",0.1,1979,3,1978,NA,1.5,3.83028087584452,5.8795842252223,8.65147652410481,7.94183844676527,FALSE,8.20906401356114
"CAN","cpi",0.1,1980,3,1980,NA,0,5.77048958020487,5.9412087353888,9.5171912664748,9.53109046750286,FALSE,8.1173470020417
"CAN","cpi",0.1,1980,3,1980,NA,0.5,10.3799889961587,11.1852591476256,9.5171912664748,8.68563614915422,FALSE,2.72259843965336
"CAN","cpi",0.1,1980,3,1979,NA,1,4.38018923999409,5.52871146801893,9.5171912664748,8.32548734166583,FALSE,10.0118106690379
"CAN","cpi",0.1,1980,3,1979,NA,1.5,4.31366360796842,5.85791090984048,9.5171912664748,7.98047102096121,FALSE,9.67598142772609
"CAN","cpi",0.1,1981,3,1981,NA,0,6.70067135342418,6.92616960186831,11.5813425032741,11.708955977523,FALSE,10.5703269182349
"CAN","cpi",0.1,1981,3,1981,NA,0.5,13.4209920672478,14.2813877375693,11.5813425032741,12.1263962907449,FALSE,4.94850581248516
"CAN","cpi",0.1,1981,3,1980,NA,1,6.6106264121114,7.61162823180033,11.5813425032741,10.9849401653028,FALSE,9.82258908963073
"CAN","cpi",0.1,1981,3,1980,NA,1.5,4.25959216131804,6.13451620207239,11.5813425032741,8.62735225265647,FALSE,13.9789824878694
"CAN","cpi",0.1,1982,3,1982,NA,0,6.74243618685805,7.0067138094288,10.1124203763629,10.3109749747662,FALSE,7.16584777131331
"CAN","cpi",0.1,1982,3,1982,NA,0.5,12.6222748538367,13.6259695754161,10.1124203763629,10.0996836619997,FALSE,6.58114911596557
"CAN","cpi",0.1,1982,3,1981,NA,1,5.61941070853679,7.16932873630231,10.1124203763629,11.6194795199153,FALSE,8.09012167234471
"CAN","cpi",0.1,1982,3,1981,NA,1.5,7.17824473905031,10.2550440090634,10.1124203763629,12.7194356761443,TRUE,3.0767992700131
"CAN","cpi",0.1,1983,3,1983,NA,0,4.9169713756319,5.08154998274288,5.67091787896303,5.82764740362034,FALSE,1.47428504315577
"CAN","cpi",0.1,1983,3,1983,NA,0.5,8.4479873777234,9.01442015092964,5.67091787896303,4.97543944794331,FALSE,6.73769832600705
"CAN","cpi",0.1,1983,3,1982,NA,1,4.7986047244822,5.96833241185044,5.67091787896303,9.23778396682256,TRUE,1.16972768736824
"CAN","cpi",0.1,1983,3,1982,NA,1.5,5.31110339700215,7.35050148061968,5.67091787896303,9.78870144173853,TRUE,2.03939808361753
"CAN","cpi",0.1,1984,3,1984,NA,0,3.19747692803413,3.30508005290178,4.19799576814029,4.21357537293321,FALSE,2.09186026984211
"CAN","cpi",0.1,1984,3,1984,NA,0.5,6.28616461128539,6.75878554869925,4.19799576814029,4.64258933063566,FALSE,5.11299614440297
"CAN","cpi",0.1,1984,3,1983,NA,1,3.50258956170363,4.12103172155953,4.19799576814029,6.13137654871218,FALSE,0.789473374479806
"CAN","cpi",0.1,1984,3,1983,NA,1.5,0.800689941678108,1.419132101534,4.19799576814029,3.46832438596907,FALSE,6.79369475231431
"CAN","cpi",0.1,1985,3,1985,NA,0,2.72317729719745,2.81875792989185,3.86444262005169,3.91909325760218,FALSE,2.41932438860515
"CAN","cpi",0.1,1985,3,1985,NA,0.5,5.11677466520195,5.46939698982161,3.86444262005169,3.89150188195039,FALSE,3.13558242495357
"CAN","cpi",0.1,1985,3,1984,NA,1,1.45538284391479,2.17545081959241,3.86444262005169,3.29397074977035,FALSE,4.47338308780937
"CAN","cpi",0.1,1985,3,1984,NA,1.5,3.28780689873811,4.00787487441574,3.86444262005169,4.4666103475984,TRUE,0.720067975677621
"CAN","cpi",0.1,1986,3,1986,NA,0,2.70645634236559,2.80353167006048,4.08685396749431,4.1058885406559,FALSE,2.94890265532562
"CAN","cpi",0.1,1986,3,1986,NA,0.5,5.24188742670133,5.62979763281084,4.08685396749431,4.41001406158749,FALSE,2.95465122656955
"CAN","cpi",0.1,1986,3,1985,NA,1,2.35991483076349,2.87596146773372,4.08685396749431,3.99303879319441,FALSE,3.20691885866043
"CAN","cpi",0.1,1986,3,1985,NA,1.5,3.3342787086913,3.85032534566152,4.08685396749431,4.22326323880904,FALSE,1.04166579659865
"CAN","cpi",0.1,1987,3,1987,NA,0,2.86861325058119,2.96878574006697,4.23980729277887,4.35976718480882,FALSE,2.92466482884556
"CAN","cpi",0.1,1987,3,1987,NA,0.5,4.92185458484455,5.30371239286946,4.23980729277887,3.90936321394769,FALSE,1.89751845705975
"CAN","cpi",0.1,1987,3,1986,NA,1,2.74155327135902,3.31779896435513,4.23980729277887,4.33099659151455,FALSE,2.62515308949331
"CAN","cpi",0.1,1987,3,1986,NA,1.5,4.27639293868838,4.85263863168449,4.23980729277887,4.75247122036215,FALSE,0.657547128350582
"CAN","cpi",0.1,1988,3,1988,NA,0,2.79439710472635,2.87962276856008,3.92899537638065,4.01269560152408,FALSE,2.4171647923239
"CAN","cpi",0.1,1988,3,1988,NA,0.5,4.65627149000191,5.02355914168565,3.92899537638065,3.47075595914335,FALSE,1.98345679306431
"CAN","cpi",0.1,1988,3,1987,NA,1,2.9743896849141,3.42889810287312,3.92899537638065,4.58162438495066,FALSE,1.56583569242021
"CAN","cpi",0.1,1988,3,1987,NA,1.5,3.37276911963058,3.8272775375896,3.92899537638065,3.81364776332008,FALSE,0.680548059716916
"CAN","cpi",0.1,1989,3,1989,NA,0,3.05776461075665,3.12874415494561,4.82821664544208,5.02395320873108,FALSE,3.84758507862556
"CAN","cpi",0.1,1989,3,1989,NA,0.5,5.12673043694462,5.46271865382778,4.82821664544208,4.36789847845152,FALSE,0.999352197999925
"CAN","cpi",0.1,1989,3,1988,NA,1,3.02147690351078,3.37093404122495,4.82821664544208,4.46162561835953,FALSE,3.58786292486334
"CAN","cpi",0.1,1989,3,1988,NA,1.5,2.84701664993243,3.19647378764659,4.82821664544208,3.27838152614011,FALSE,3.97555237725968
"CAN","cpi",0.1,1990,3,1990,NA,0,3.12311353176279,3.20325971958665,4.64347549432717,4.51963128519567,FALSE,3.28062568724724
"CAN","cpi",0.1,1990,3,1990,NA,0.5,5.91504351202567,6.35683589863548,4.64347549432717,4.98434426998405,FALSE,3.26749909260648
"CAN","cpi",0.1,1990,3,1989,NA,1,4.26939948503931,4.75327223579395,4.64347549432717,5.9177493923911,TRUE,0.483872750754642
"CAN","cpi",0.1,1990,3,1989,NA,1.5,4.20698327200475,4.69085602275939,4.64347549432717,4.56185858388509,TRUE,0.483872750754642
"CAN","cpi",0.1,1991,3,1991,NA,0,3.44787859692367,3.5402527404498,5.4258100696218,5.62406762795447,FALSE,4.28250154168612
"CAN","cpi",0.1,1991,3,1991,NA,0.5,8.14099871410367,8.65804590426305,5.4258100696218,8.39172083833767,FALSE,6.55079973345243
"CAN","cpi",0.1,1991,3,1990,NA,1,2.5057992219406,3.02284641209997,5.4258100696218,3.86917616551897,FALSE,5.85696642909676
"CAN","cpi",0.1,1991,3,1990,NA,1.5,4.71098376730034,5.22803095745972,5.4258100696218,5.12288497855213,FALSE,0.956556328297334
"CAN","cpi",0.1,1992,3,1992,NA,0,2.280909730485,2.31438129540016,1.47496888572843,1.48060592990191,FALSE,1.82445121992976
"CAN","cpi",0.1,1992,3,1992,NA,0.5,3.58444218907382,3.61791375398898,1.47496888572843,1.17198715241532,FALSE,4.7211900167938
"CAN","cpi",0.1,1992,3,1991,NA,1,1.77477990476683,1.80825146968198,1.47496888572843,2.52024528073196,FALSE,0.699718273889365
"CAN","cpi",0.1,1992,3,1991,NA,1.5,11.2185770261333,11.2520485910485,1.47496888572843,10.1533377092026,FALSE,21.6859340991482
"CAN","cpi",0.1,1993,3,1993,NA,0,1.30530438375997,1.33658539455775,1.84351085411351,1.80262144325658,FALSE,1.1577820320328
"CAN","cpi",0.1,1993,3,1993,NA,0.5,2.72298994190135,2.90129884348173,1.84351085411351,2.34241315558581,FALSE,2.13270687444224
"CAN","cpi",0.1,1993,3,1992,NA,1,1.48854987005154,1.66685877163191,1.84351085411351,1.81805946412584,FALSE,0.57086908487282
"CAN","cpi",0.1,1993,3,1992,NA,1.5,1.12671590055913,1.30502480213951,1.84351085411351,1.14026360102641,FALSE,1.37494457263371
"CAN","cpi",0.1,1994,3,1994,NA,0,0.867070600105293,0.886711145390089,0.161630694655448,0.163616628358327,FALSE,1.58728477961778
"CAN","cpi",0.1,1994,3,1994,NA,0.5,0.957688059396034,1.04647386700751,0.161630694655448,-0.385140098029379,FALSE,1.85780217370167
"CAN","cpi",0.1,1994,3,1993,NA,1,1.05929444429236,1.32113595649045,0.161630694655448,1.37474728133383,FALSE,2.25664984472456
"CAN","cpi",0.1,1994,3,1993,NA,1.5,2.46012093946054,2.72196245165862,0.161630694655448,2.59685615311524,FALSE,5.36959761176496
"CAN","cpi",0.1,1995,3,1995,NA,0,1.08575845472981,1.11271158412519,2.11688403676572,2.19356448193293,FALSE,2.25844746859655
"CAN","cpi",0.1,1995,3,1995,NA,0.5,2.38842535563639,2.51042369772387,2.11688403676572,2.67750903542847,FALSE,0.725423495133417
"CAN","cpi",0.1,1995,3,1994,NA,1,1.2617004432014,1.38369878528888,2.11688403676572,1.34092618105198,FALSE,1.7512989009249
"CAN","cpi",0.1,1995,3,1994,NA,1.5,-0.968730531589549,-0.846732189502067,2.11688403676572,-1.3139842175605,FALSE,6.70781217823811
"CAN","cpi",0.1,1996,3,1996,NA,0,1.39828977252069,1.43605566023056,1.55309584667184,1.48206512402721,FALSE,0.297855190912722
"CAN","cpi",0.1,1996,3,1996,NA,0.5,2.06680073897196,2.25033197657757,1.55309584667184,1.23598680875262,FALSE,1.32509766493921
"CAN","cpi",0.1,1996,3,1995,NA,1,0.998599194257671,1.26464349333718,1.55309584667184,1.32983461361347,FALSE,0.907049528712089
"CAN","cpi",0.1,1996,3,1995,NA,1.5,3.20490276234047,3.47094706141999,1.55309584667184,3.42580605950136,FALSE,3.93672633389869
"CAN","cpi",0.1,1997,3,1997,NA,0,1.31485042498407,1.34964739945327,1.60528783555959,1.69050032419864,FALSE,0.602886832483244
"CAN","cpi",0.1,1997,3,1997,NA,0.5,2.43152056411895,2.61880737934688,1.60528783555959,2.11979188984917,FALSE,2.02335954535984
"CAN","cpi",0.1,1997,3,1996,NA,1,1.02058506872634,1.24544426131136,1.60528783555959,1.19524084873691,FALSE,1.02451157980331
"CAN","cpi",0.1,1997,3,1996,NA,1.5,1.28623692035421,1.51109611293923,1.60528783555959,1.35560903862103,FALSE,0.434174131741371
"CAN","cpi",0.1,1998,3,1998,NA,0,1.09079384126246,1.11819427223497,0.988908029337191,0.980088020931525,FALSE,0.253813346362005
"CAN","cpi",0.1,1998,3,1998,NA,0.5,1.89537353208127,2.06543937274869,0.988908029337191,1.31078347146242,FALSE,2.18443362454315
"CAN","cpi",0.1,1998,3,1997,NA,1,0.99119531915792,1.19845057922595,0.988908029337191,1.06570792570078,FALSE,0.212338126336313
"CAN","cpi",0.1,1998,3,1997,NA,1.5,2.0456815317558,2.25293679182382,0.988908029337191,2.25360669266494,FALSE,2.55564082099826
"CAN","cpi",0.1,1999,3,1999,NA,0,1.20465087745036,1.23106625617168,1.7107350135213,1.81711295343144,FALSE,1.09234595060935
"CAN","cpi",0.1,1999,3,1999,NA,0.5,1.30837138693794,1.43621929516849,1.7107350135213,0.788387565724544,FALSE,0.73788283790345
"CAN","cpi",0.1,1999,3,1998,NA,1,0.652775002056995,0.810220140859508,1.7107350135213,0.575366492854125,FALSE,2.15858930027315
"CAN","cpi",0.1,1999,3,1998,NA,1.5,1.60345237898849,1.760897517791,1.7107350135213,1.68716976710558,TRUE,0.157445138802513
"CAN","cpi",0.1,2000,3,2000,NA,0,1.71449706377183,1.74859830281163,2.6718361971244,2.72999398726497,FALSE,2.08574100417929
"CAN","cpi",0.1,2000,3,2000,NA,0.5,2.40749671089827,2.63455378472376,2.6718361971244,2.06798867425529,FALSE,0.309906879160242
"CAN","cpi",0.1,2000,3,1999,NA,1,2.52485955545191,2.82262134442891,2.6718361971244,3.09152396062306,TRUE,0.297761788977002
"CAN","cpi",0.1,2000,3,1999,NA,1.5,0.820358307952412,1.11812009692941,2.6718361971244,0.842861855264031,FALSE,3.75046423385475
"CAN","cpi",0.1,2001,3,2001,NA,0,2.03812199357132,2.07030885047085,2.47906219852806,2.84208465688611,FALSE,0.940527630360007
"CAN","cpi",0.1,2001,3,2001,NA,0.5,2.65194133690661,2.87037587195226,2.47906219852806,1.88638468602912,FALSE,0.602610398109093
"CAN","cpi",0.1,2001,3,2000,NA,1,2.98278566979452,3.29484229205258,2.47906219852806,3.69789354026514,FALSE,1.43144211396129
"CAN","cpi",0.1,2001,3,2000,NA,1.5,1.64333968111889,1.95539630337694,2.47906219852806,1.8681620253813,FALSE,1.47575861148277
"CAN","cpi",0.1,2002,3,2002,NA,0,1.80945231890744,1.85495881508746,2.20880570551249,2.37599565696257,FALSE,0.831832919346747
"CAN","cpi",0.1,2002,3,2002,NA,0.5,1.98856780098053,2.15100729660642,2.20880570551249,0.913576617687781,FALSE,0.290880404306038
"CAN","cpi",0.1,2002,3,2001,NA,1,1.60616671515539,1.90260187145607,2.20880570551249,1.93734082085477,FALSE,0.976888120870504
"CAN","cpi",0.1,2002,3,2001,NA,1.5,1.12829517039916,1.42473032669984,2.20880570551249,1.22267801456389,FALSE,2.03882488699546
"CAN","cpi",0.1,2003,3,2003,NA,0,1.84682942004171,1.88938954647758,2.71189071546809,2.73251886371656,FALSE,1.87034050197033
"CAN","cpi",0.1,2003,3,2003,NA,0.5,4.1187547681838,4.40382635405048,2.71189071546809,4.31675684669419,FALSE,3.41143614745715
"CAN","cpi",0.1,2003,3,2002,NA,1,3.64896859460498,3.93404018047166,2.71189071546809,4.61862409576541,FALSE,2.36746687283754
"CAN","cpi",0.1,2003,3,2002,NA,1.5,1.23228627025004,1.51735785611672,2.71189071546809,1.3655866266696,FALSE,2.93958905109194
"CAN","cpi",0.1,2004,3,2004,NA,0,1.69243098262373,1.73311024664732,1.83151661303942,1.82990600335775,FALSE,0.259360078228261
"CAN","cpi",0.1,2004,3,2004,NA,0.5,2.38213725771828,2.58657723835483,1.83151661303942,1.43982618755963,FALSE,1.42804141325624
"CAN","cpi",0.1,2004,3,2003,NA,1,0.982815870615792,1.18725585125234,1.83151661303942,1.02946817322814,FALSE,1.63613056238562
"CAN","cpi",0.1,2004,3,2003,NA,1.5,4.03213426277522,4.23657424341176,1.83151661303942,4.64649519124043,FALSE,5.09470142449387
"CAN","cpi",0.1,2005,3,2005,NA,0,1.63564004933378,1.6688699645608,2.18071628336509,2.38454318695835,FALSE,1.17066617923656
"CAN","cpi",0.1,2005,3,2005,NA,0.5,2.18163109441794,2.35612266317429,2.18071628336509,1.60616687455658,FALSE,0.176524482207132
"CAN","cpi",0.1,2005,3,2004,NA,1,1.4912397268347,1.68101208745457,2.18071628336509,1.65181790765431,FALSE,1.30022612930991
"CAN","cpi",0.1,2005,3,2004,NA,1.5,1.66865773000779,1.85843009062767,2.18071628336509,1.76259299547523,FALSE,0.905963900036367
"CAN","cpi",0.1,2006,3,2006,NA,0,1.64301006478317,1.68781755514716,1.97519342012289,2.13635134601064,FALSE,0.68342052364338
"CAN","cpi",0.1,2006,3,2006,NA,0.5,2.42992734378247,2.62919797128639,1.97519342012289,1.78685076876899,FALSE,1.20979045785855
"CAN","cpi",0.1,2006,3,2005,NA,1,2.87868280265021,3.10331755646462,1.97519342012289,3.50484952590076,FALSE,2.23238893720847
"CAN","cpi",0.1,2006,3,2005,NA,1.5,1.41430362689652,1.63893838071093,1.97519342012289,1.46813842301012,FALSE,0.971868174729864
"CAN","cpi",0.1,2007,3,2007,NA,0,1.6034842621599,1.645590482877,2.10062087284572,2.20475175639581,FALSE,1.05328486509204
"CAN","cpi",0.1,2007,3,2007,NA,0.5,2.45148705791864,2.63861536638505,2.10062087284572,1.98527746740088,FALSE,0.966830941961784
"CAN","cpi",0.1,2007,3,2006,NA,1,1.20979189129196,1.42683044151856,2.10062087284572,1.24740231882683,FALSE,1.71435061984251
"CAN","cpi",0.1,2007,3,2006,NA,1.5,1.48629291673054,1.70333146695714,2.10062087284572,1.60497207990466,FALSE,1.09990389664567
"CAN","cpi",0.1,2008,3,2008,NA,0,1.90638111741763,1.94670403326095,2.31447335265955,3.01767576079065,FALSE,0.85758807006244
"CAN","cpi",0.1,2008,3,2008,NA,0.5,1.86123510457091,2.03037713439039,2.31447335265955,1.03762364210032,FALSE,0.800466959306511
"CAN","cpi",0.1,2008,3,2007,NA,1,1.37078202203979,1.58006464198933,2.31447335265955,1.40291213269118,FALSE,1.84130197699448
"CAN","cpi",0.1,2008,3,2007,NA,1.5,2.37151716877664,2.58079978872618,2.31447335265955,2.69934766650446,FALSE,0.336046655765294
"CAN","cpi",0.1,2009,3,2009,NA,0,1.06462907334586,1.09109824985349,0.284533874408197,0.321726231334406,FALSE,1.76001406303576
"CAN","cpi",0.1,2009,3,2009,NA,0.5,0.42752429267055,0.566160487783223,0.284533874408197,-1.32493870283985,FALSE,0.456392680140124
"CAN","cpi",0.1,2009,3,2008,NA,1,4.09234531300459,4.36495501840968,0.284533874408197,5.07610742917547,FALSE,8.73441290228596
"CAN","cpi",0.1,2009,3,2008,NA,1.5,1.03572876969816,1.30833847510326,0.284533874408197,1.01106559029091,FALSE,1.94193169493835
"CAN","cpi",0.1,2010,3,2010,NA,0,0.969089317426736,0.987795926832432,1.75525687020327,1.75432596686424,FALSE,1.72417537245201
"CAN","cpi",0.1,2010,3,2010,NA,0.5,1.56895349784418,1.67239030502214,1.75525687020327,1.49344630005585,FALSE,0.287584729802696
"CAN","cpi",0.1,2010,3,2009,NA,1,1.14327988092471,1.24671668810267,1.75525687020327,1.13010370525173,FALSE,1.23352610073485
"CAN","cpi",0.1,2010,3,2009,NA,1.5,-1.52765140615031,-1.36131992856992,1.75525687020327,-2.25919184326718,FALSE,7.09205769707637
"CAN","cpi",0.1,2011,3,2011,NA,0,1.7739134574671,1.81732896058996,2.85717434028225,2.90832322356675,FALSE,2.35418301355016
"CAN","cpi",0.1,2011,3,2011,NA,0.5,2.92977476967486,3.10159182804272,2.85717434028225,2.81495035644064,FALSE,0.333151345907001
"CAN","cpi",0.1,2011,3,2010,NA,1,2.079314853098,2.25113191146586,2.85717434028225,2.24995624930718,FALSE,1.51857801129317
"CAN","cpi",0.1,2011,3,2010,NA,1.5,1.62827828486342,1.80009534323127,2.85717434028225,1.69121218305118,FALSE,2.52088149625891
"CAN","cpi",0.1,2012,3,2012,NA,0,1.62572698523569,1.66171437860467,1.50118536134935,1.50859370689259,FALSE,0.312746557560857
"CAN","cpi",0.1,2012,3,2012,NA,0.5,2.56219967713272,2.79806342784403,1.50118536134935,1.75125264874692,FALSE,2.59367334134103
"CAN","cpi",0.1,2012,3,2011,NA,1,1.84663813307995,2.12198584299559,1.50118536134935,1.8474445607568,FALSE,1.04302053598365
"CAN","cpi",0.1,2012,3,2011,NA,1.5,2.73171638048833,3.00706409040397,1.50118536134935,3.06926058053075,FALSE,3.00986108578005
"CAN","cpi",0.1,2013,3,2013,NA,0,1.08900713024527,1.1158041329355,0.931270594714462,1.05615594966199,FALSE,0.377322637203137
"CAN","cpi",0.1,2013,3,2013,NA,0.5,1.65170239370922,1.77332531163062,0.931270594714462,1.02417936454929,FALSE,1.72258247124308
"CAN","cpi",0.1,2013,3,2012,NA,1,0.498330694626469,0.619953612547878,0.931270594714462,0.0685845185761151,FALSE,0.81343843384715
"CAN","cpi",0.1,2013,3,2012,NA,1.5,1.66363269727574,1.78525561519715,0.931270594714462,1.71916958716775,FALSE,1.74909425694648
"CAN","cpi",0.1,2014,3,2014,NA,0,1.25848777166088,1.28793635702951,1.87639912240215,2.06386975595087,FALSE,1.33714361953006
"CAN","cpi",0.1,2014,3,2014,NA,0.5,2.01098426001601,2.14787230737966,1.87639912240215,1.92715211220712,FALSE,0.435966130950003
"CAN","cpi",0.1,2014,3,2013,NA,1,1.21707185288891,1.35395990025256,1.87639912240215,1.11372323439473,FALSE,1.29786409658497
"CAN","cpi",0.1,2014,3,2013,NA,1.5,1.34566942462809,1.48255747199174,1.87639912240215,1.40040388240124,FALSE,1.01209171494233
"CAN","cpi",0.1,2015,3,2015,NA,0,1.26653039995298,1.29900659988861,1.11090953952792,1.30732778141228,FALSE,0.378300334213544
"CAN","cpi",0.1,2015,3,2015,NA,0.5,1.10127397668257,1.26011802118027,1.11090953952792,0.0832530397055839,TRUE,0.158844044497697
"CAN","cpi",0.1,2015,3,2014,NA,1,1.5565352660482,1.72659833767506,1.11090953952792,1.43393836679687,FALSE,1.16034246389415
"CAN","cpi",0.1,2015,3,2014,NA,1.5,2.42412222121451,2.59418529284137,1.11090953952792,2.67552344749624,FALSE,3.08831347537485
"CAN","cpi",0.1,2016,3,2016,NA,0,1.11352723642379,1.14577223068549,1.41168586698797,1.50891536161516,FALSE,0.623164186044985
"CAN","cpi",0.1,2016,3,2016,NA,0.5,1.31947166998255,1.46213948044169,1.41168586698797,0.786851742019216,TRUE,0.142667810459145
"CAN","cpi",0.1,2016,3,2015,NA,1,1.9727298912733,2.14089335859391,1.41168586698797,2.15660249634191,FALSE,1.41492796573246
"CAN","cpi",0.1,2016,3,2015,NA,1.5,0.200050558048307,0.389897498964074,1.41168586698797,-0.117220285505753,FALSE,2.46048775874664
"CAN","cpi",0.1,2017,3,2017,NA,0,1.21199319113073,1.24179131997895,1.57888581671161,1.54881337220766,FALSE,0.778897010476359
"CAN","cpi",0.1,2017,3,2017,NA,0.5,2.15456488407743,2.32213606154441,1.57888581671161,1.91336997918348,FALSE,1.44685799383547
"CAN","cpi",0.1,2017,3,2016,NA,1,1.283748771739,1.45131994920597,1.57888581671161,1.18768855671255,FALSE,0.451050883035062
"CAN","cpi",0.1,2017,3,2016,NA,1.5,0.798029938128266,0.96560111559524,1.57888581671161,0.6644917028394,FALSE,1.53042606883669
"CAN","cpi",0.1,2018,3,2018,NA,0,1.56228475771571,1.59763428759279,2.23316270166586,2.44523056077762,FALSE,1.4476348944839
"CAN","cpi",0.1,2018,3,2018,NA,0.5,2.72351904679402,2.91718462149004,2.23316270166586,2.80156516368753,FALSE,1.28334634164749
"CAN","cpi",0.1,2018,3,2017,NA,1,1.0416271676321,1.23529274232812,2.23316270166586,0.82019125662587,FALSE,2.41115437322433
"CAN","cpi",0.1,2018,3,2017,NA,1.5,2.06920357550681,2.26286915020283,2.23316270166586,2.43256495233066,TRUE,0.193665574696021
"CAN","cpi",0.1,2019,3,2019,NA,0,1.6197478204726,1.66251061154986,1.91921619871868,2.08489368525497,FALSE,0.613219651452413
"CAN","cpi",0.1,2019,3,2019,NA,0.5,2.05970603835721,2.31287556124441,1.91921619871868,1.47181960590434,FALSE,0.565369166528375
"CAN","cpi",0.1,2019,3,2018,NA,1,2.06929010028508,2.34326812152216,1.91921619871868,2.1812391651413,FALSE,0.607475580273522
"CAN","cpi",0.1,2019,3,2018,NA,1.5,2.97988467846735,3.25386269970444,1.91921619871868,3.59347997035086,FALSE,2.63101908734524
"CAN","cpi",0.1,2020,3,2020,NA,0,1.07140274532084,1.09711521561219,0.71139989671781,0.692133240684643,FALSE,0.825718800520303
"CAN","cpi",0.1,2020,3,2020,NA,0.5,1.70413130556597,1.90038129187835,0.71139989671781,1.05558053361148,FALSE,2.40231978375274
"CAN","cpi",0.1,2020,3,2019,NA,1,1.93071624456237,2.12696623087475,0.71139989671781,2.01486975979332,FALSE,2.9058418704114
"CAN","cpi",0.1,2020,3,2019,NA,1.5,1.68091653521466,1.87716652152705,0.71139989671781,1.77269016603738,FALSE,2.35073140519428
"CAN","cpi",0.1,2021,3,2021,NA,0,1.60923914662202,1.66391201165096,3.31148121717802,3.37410895790077,FALSE,3.7159377662002
"CAN","cpi",0.1,2021,3,2021,NA,0.5,2.32937835846063,2.48098392781473,3.31148121717802,2.68190793980083,FALSE,1.99715510127253
"CAN","cpi",0.1,2021,3,2020,NA,1,1.22343688217829,1.3750424515324,3.31148121717802,1.19247466620579,FALSE,4.45480282634439
"CAN","cpi",0.1,2021,3,2020,NA,1.5,1.06415373476357,1.21575930411768,3.31148121717802,0.994097524483704,FALSE,4.80876537615487
"CAN","cpi",0.1,2022,3,2022,NA,0,3.44174868071815,3.53644895707309,6.50977236228281,6.71215382839029,FALSE,6.70208562126543
"CAN","cpi",0.1,2022,3,2022,NA,0.5,5.47299208970788,5.91457155752669,6.50977236228281,6.42154306210558,FALSE,1.76424792283241
"CAN","cpi",0.1,2022,3,2021,NA,1,4.0499281970537,4.49150766487251,6.50977236228281,4.97199453293936,FALSE,4.92661212873059
"CAN","cpi",0.1,2022,3,2021,NA,1.5,2.90057527255279,3.3421547403716,6.50977236228281,3.45701838810354,FALSE,7.48072973873261
"CAN","cpi",0.1,2023,3,2023,NA,0,3.47996072192489,3.57452048529056,3.78831288758619,4.042121841464,FALSE,0.569653990689293
"CAN","cpi",0.1,2023,3,2023,NA,0.5,4.40919867379834,4.99854494383805,3.78831288758619,3.05997192794191,FALSE,1.96909246162226
"CAN","cpi",0.1,2023,3,2022,NA,1,4.64865884910443,5.2567108640174,3.78831288758619,5.28351765661874,FALSE,2.51993192939795
"CAN","cpi",0.1,2023,3,2022,NA,1.5,5.97464402473722,6.58269603965019,3.78831288758619,7.28752716372712,FALSE,5.46656565302636
"CAN","cpi",0.1,2024,3,2023,NA,1,3.80962471068314,4.24966953547923,NA,4.37793695924716,NA,NA
"CAN","cpi",0.1,2024,3,2023,NA,1.5,2.09110786017628,2.53115268497237,NA,2.36897983740768,NA,NA
"CAN","cpi",0.2,1952,3,1952,NA,0,-22.7506663756527,-13.0327209726596,2.55562336095485,2.46502621244774,FALSE,48.6888062370293
"CAN","cpi",0.2,1952,3,1952,NA,0.5,-15.3239940479937,-5.60604864500067,2.55562336095485,4.32129924776399,FALSE,30.1221254178818
"CAN","cpi",0.2,1952,3,1951,NA,1,14.1899618559341,23.9079072589272,2.55562336095485,9.65785623271456,FALSE,38.8037916404412
"CAN","cpi",0.2,1952,3,1951,NA,1.5,-27.0232384805471,-17.305293077554,2.55562336095485,10.2729097180516,FALSE,59.3702364992652
"CAN","cpi",0.2,1953,3,1953,NA,0,-0.793080469173848,-1.51979662876188,-1.01492775838436,-1.00749856253296,FALSE,1.09007423938204
"CAN","cpi",0.2,1953,3,1953,NA,0.5,-15.3156008053197,-16.0423169649077,-1.01492775838436,-2.06778904141071,FALSE,36.8417568567203
"CAN","cpi",0.2,1953,3,1952,NA,1,-18.3954023664001,-18.5292401310907,-1.01492775838436,-1.55171650633025,FALSE,43.6519431670753
"CAN","cpi",0.2,1953,3,1952,NA,1.5,-8.32350707101674,-7.29291434132715,-1.01492775838436,1.96017794195978,FALSE,16.7255591870466
"CAN","cpi",0.2,1954,3,1954,NA,0,0.913943479506512,0.796202475476464,0.644425455961438,0.844896913757956,FALSE,0.556054054832637
"CAN","cpi",0.2,1954,3,1954,NA,0.5,1.5384169812269,1.42067597719685,0.644425455961438,-0.153040348587994,FALSE,2.11723780913361
"CAN","cpi",0.2,1954,3,1953,NA,1,12.2949103207909,12.1879322462639,0.644425455961438,2.75483618067449,FALSE,29.0192340875467
"CAN","cpi",0.2,1954,3,1953,NA,1.5,-6.21461929139662,-6.32159736592365,0.644425455961438,-2.52548049332379,FALSE,17.3080789801857
"CAN","cpi",0.2,1955,3,1955,NA,0,0.447120512022004,0.515617742850782,0.173649026558865,0.10765252516202,FALSE,0.752175944486625
"CAN","cpi",0.2,1955,3,1955,NA,0.5,-0.867336056273375,-0.776145473633246,0.173649026558865,-0.685764272176465,FALSE,2.46567683312041
"CAN","cpi",0.2,1955,3,1954,NA,1,8.55411448397659,10.1174827701574,0.173649026558865,3.05598167297881,FALSE,22.5145319297251
"CAN","cpi",0.2,1955,3,1954,NA,1.5,-9.32566324676706,-7.76229496058625,0.173649026558865,-1.37299158518014,FALSE,21.4032282540436
"CAN","cpi",0.2,1956,3,1956,NA,0,1.02289500158374,1.0560531150385,1.32752769429961,1.5132196707054,FALSE,0.711844561607528
"CAN","cpi",0.2,1956,3,1956,NA,0.5,-0.169714857917565,-0.136556744462807,1.32752769429961,-0.533297708724126,FALSE,3.6933692103608
"CAN","cpi",0.2,1956,3,1955,NA,1,1.79354431137926,2.18694283391796,1.32752769429961,0.79482048855347,FALSE,1.55844006523783
"CAN","cpi",0.2,1956,3,1955,NA,1.5,-6.12445547238776,-5.73105694984906,1.32752769429961,-1.67555014996128,FALSE,18.0398601329104
"CAN","cpi",0.2,1957,3,1957,NA,0,1.88036713684209,2.14480908170796,3.24684755852518,3.4081189986054,FALSE,3.01953813690892
"CAN","cpi",0.2,1957,3,1957,NA,0.5,3.08205991035526,4.3924268424698,3.24684755852518,2.36364513914165,TRUE,1.31036693211453
"CAN","cpi",0.2,1957,3,1956,NA,1,9.78409235793251,12.6174893390286,3.24684755852518,6.42400073504334,FALSE,19.1765089796145
"CAN","cpi",0.2,1957,3,1956,NA,1.5,-10.2444250453917,-7.41102806429557,3.24684755852518,-1.44175113719435,FALSE,29.478086038148
"CAN","cpi",0.2,1958,3,1958,NA,0,1.85418859767895,2.02887062223915,2.33186388641149,2.22393716079583,FALSE,0.932165184991053
"CAN","cpi",0.2,1958,3,1958,NA,0.5,3.38091444759123,4.74457282179968,2.33186388641149,2.22874439106395,FALSE,3.9862847771578
"CAN","cpi",0.2,1958,3,1957,NA,1,2.65537245305405,5.25047732837306,2.33186388641149,4.33819969505612,FALSE,3.40387629192541
"CAN","cpi",0.2,1958,3,1957,NA,1.5,-10.6123490131187,-8.01724413779974,2.33186388641149,1.22685206136826,FALSE,28.4678749358471
"CAN","cpi",0.2,1959,3,1959,NA,0,1.29765682039144,1.42767342087793,1.19382698397654,1.19679708996586,FALSE,0.38959119152374
"CAN","cpi",0.2,1959,3,1959,NA,0.5,1.62926357149309,2.22619236520466,1.19382698397654,0.655175994826909,FALSE,1.68552026250295
"CAN","cpi",0.2,1959,3,1958,NA,1,0.214570785708735,1.41400465356597,1.19382698397654,1.75938857815981,TRUE,1.19943386785723
"CAN","cpi",0.2,1959,3,1958,NA,1.5,-5.51124388355244,-4.31181001569521,1.19382698397654,1.7749666101295,FALSE,14.9635263670366
"CAN","cpi",0.2,1960,3,1960,NA,0,0.968624949971382,1.06267187637943,1.34209404870695,1.03130246511349,FALSE,0.792602357226857
"CAN","cpi",0.2,1960,3,1960,NA,0.5,1.53292901117065,1.87976853715938,1.34209404870695,0.745602653132245,FALSE,0.823926932147979
"CAN","cpi",0.2,1960,3,1959,NA,1,3.0812234772018,4.05087159954597,1.34209404870695,3.33587387303437,FALSE,5.31747169358129
"CAN","cpi",0.2,1960,3,1959,NA,1.5,-4.55922607009359,-3.58957794774943,1.34209404870695,-0.32541909428789,FALSE,13.2988281134851
"CAN","cpi",0.2,1961,3,1961,NA,0,1.01706012604267,1.13959074535305,1.00921348094007,1.00921348094007,FALSE,0.14214723206687
"CAN","cpi",0.2,1961,3,1961,NA,0.5,2.03228561052849,2.38282295870983,1.00921348094007,1.31141131508129,FALSE,2.90821767215239
"CAN","cpi",0.2,1961,3,1960,NA,1,-0.437597735281264,-0.0499706127077283,1.00921348094007,0.143625905669962,FALSE,3.03558735669304
"CAN","cpi",0.2,1961,3,1960,NA,1.5,-4.10871552369546,-3.72108840112192,1.00921348094007,-0.34011142415222,FALSE,12.2133818277285
"CAN","cpi",0.2,1962,3,1962,NA,0,0.981277565606184,1.08874277043939,1.04957947883042,1.11132998230876,TRUE,0.107465204833202
"CAN","cpi",0.2,1962,3,1962,NA,0.5,0.748160878312385,0.924384435694952,1.04957947883042,1.64134322488006e-44,FALSE,0.489211165221225
"CAN","cpi",0.2,1962,3,1961,NA,1,-0.12057912730833,0.0556444300742363,1.04957947883042,-9.44308782563385e-19,FALSE,2.66106117927301
"CAN","cpi",0.2,1962,3,1961,NA,1.5,-1.70925598814769,-1.53303243076512,1.04957947883042,0.754384248690751,FALSE,6.63275333137141
"CAN","cpi",0.2,1963,3,1963,NA,0,1.26090658206744,1.38040903537966,1.60677118395228,1.85599510888664,FALSE,0.685407824743786
"CAN","cpi",0.2,1963,3,1963,NA,0.5,1.54101441820182,1.85485860060383,1.60677118395228,0.932300293637426,TRUE,0.313844182402012
"CAN","cpi",0.2,1963,3,1962,NA,1,2.16355105673875,2.8666302296816,1.60677118395228,2.66748522343727,FALSE,2.09502885490903
"CAN","cpi",0.2,1963,3,1962,NA,1.5,-2.10452600376996,-1.4014468308271,1.60677118395228,4.10321927477868e-44,FALSE,8.22362420989132
"CAN","cpi",0.2,1964,3,1964,NA,0,1.42351680278604,1.57619805945996,1.88764670034376,1.98894154569002,FALSE,0.931302858883418
"CAN","cpi",0.2,1964,3,1964,NA,0.5,2.0725114444854,2.41996439785803,1.88764670034376,1.38377582747094,FALSE,0.809614813726725
"CAN","cpi",0.2,1964,3,1963,NA,1,3.75270018784126,4.57474253807211,1.88764670034376,4.71286552905431,FALSE,5.4846760689746
"CAN","cpi",0.2,1964,3,1963,NA,1.5,-2.29923229237328,-1.47718994214243,1.88764670034376,0.238779673172327,FALSE,9.23413395644632
"CAN","cpi",0.2,1965,3,1965,NA,0,1.62134518999324,1.75744107701969,2.29538304394236,2.35494510510554,FALSE,1.48095080433311
"CAN","cpi",0.2,1965,3,1965,NA,0.5,2.30416188686273,2.64116266073757,2.29538304394236,1.56044896459738,FALSE,0.358947881175773
"CAN","cpi",0.2,1965,3,1964,NA,1,1.77489153264228,2.28415287664602,2.29538304394236,2.42710731898607,FALSE,0.537336762244583
"CAN","cpi",0.2,1965,3,1964,NA,1.5,-1.59334965480128,-1.08408831079755,2.29538304394236,0.818315757903116,FALSE,8.95793973085349
"CAN","cpi",0.2,1966,3,1966,NA,0,2.25876878965896,2.42531338442364,3.72486065470629,3.84664136390011,FALSE,3.4154127704713
"CAN","cpi",0.2,1966,3,1966,NA,0.5,4.17885339397409,4.68972167344166,3.72486065470629,3.84691400230302,FALSE,1.64585012763707
"CAN","cpi",0.2,1966,3,1965,NA,1,2.46558309341489,3.30252788315109,3.72486065470629,3.31367997089714,FALSE,1.89277671862419
"CAN","cpi",0.2,1966,3,1965,NA,1.5,-1.18355041253686,-0.346605622800661,3.72486065470629,1.48150382413513,FALSE,11.0156104835036
"CAN","cpi",0.2,1967,3,1967,NA,0,2.59238055029151,2.76990606137458,3.49360316391996,3.76862969063141,FALSE,1.98676826744651
"CAN","cpi",0.2,1967,3,1967,NA,0.5,3.52791918814348,3.96582740410688,3.49360316391996,2.36174420726938,FALSE,0.523698276522205
"CAN","cpi",0.2,1967,3,1966,NA,1,2.47005950238587,3.52672485545942,3.49360316391996,3.4823384545504,TRUE,1.05666535307355
"CAN","cpi",0.2,1967,3,1966,NA,1.5,0.808983253126453,1.8656486062,3.49360316391996,4.29257700443622,FALSE,5.12655174737345
"CAN","cpi",0.2,1968,3,1968,NA,0,2.6345665654987,2.80860249958521,3.95128347779386,4.1134030125927,FALSE,3.03073837960813
"CAN","cpi",0.2,1968,3,1968,NA,0.5,4.62621252549044,5.16832125408208,3.95128347779386,3.89224433743933,FALSE,2.2294313478331
"CAN","cpi",0.2,1968,3,1967,NA,1,4.74998922541127,6.04774611852035,3.95128347779386,5.85596711509228,FALSE,3.29452126215261
"CAN","cpi",0.2,1968,3,1967,NA,1.5,-0.680577493649873,0.617179399459202,3.95128347779386,2.14187095150408,FALSE,9.63301708894571
"CAN","cpi",0.2,1969,3,1969,NA,0,2.94192873336377,3.10744987376018,4.42679496126681,4.64263065146317,FALSE,3.46388385916299
"CAN","cpi",0.2,1969,3,1969,NA,0.5,4.12762280138135,4.70748998860455,4.42679496126681,3.06199492877772,TRUE,0.579867187223194
"CAN","cpi",0.2,1969,3,1968,NA,1,4.79450740400329,6.51797240584973,4.42679496126681,6.05582378748629,FALSE,2.64274610868763
"CAN","cpi",0.2,1969,3,1968,NA,1.5,0.771067773220055,2.4945327750665,4.42679496126681,3.87227485119322,FALSE,6.55412046734724
"CAN","cpi",0.2,1970,3,1970,NA,0,2.70043048811346,2.84292328165909,3.28128405769805,3.58996474924422,FALSE,1.23839473364301
"CAN","cpi",0.2,1970,3,1970,NA,0.5,5.2149297239766,5.85209231955479,3.28128405769805,4.17180269652751,FALSE,5.47127676127458
"CAN","cpi",0.2,1970,3,1969,NA,1,4.40917476946125,6.06472537556616,3.28128405769805,5.43865496465038,FALSE,4.47527738551291
"CAN","cpi",0.2,1970,3,1969,NA,1.5,-1.51924605696782,0.136304549137088,3.28128405769805,2.31672730979866,FALSE,9.51799937750731
"CAN","cpi",0.2,1971,3,1971,NA,0,2.15090094028802,2.277088911816,2.64123406634756,2.89424739818036,FALSE,1.03655085785688
"CAN","cpi",0.2,1971,3,1971,NA,0.5,2.4174543530814,2.80077053242618,2.64123406634756,1.07533993963556,TRUE,0.383316179344774
"CAN","cpi",0.2,1971,3,1970,NA,1,2.28377710726248,3.5023706356808,2.64123406634756,2.98160965133743,TRUE,1.21859352841832
"CAN","cpi",0.2,1971,3,1970,NA,1.5,2.3662636396076,3.84752235211712,2.64123406634756,4.15708260691123,TRUE,1.48125871250952
"CAN","cpi",0.2,1972,3,1972,NA,0,2.74761572277515,2.89969932694085,4.83230569625923,5.10321489701878,FALSE,4.98359952746166
"CAN","cpi",0.2,1972,3,1972,NA,0.5,4.88454825853788,5.64011482232112,4.83230569625923,4.57526784474473,FALSE,0.886172969479871
"CAN","cpi",0.2,1972,3,1971,NA,1,5.76093634294249,7.39646352744042,4.83230569625923,6.5673313651466,FALSE,3.95710380120608
"CAN","cpi",0.2,1972,3,1971,NA,1.5,-0.376467876822802,1.25905930767513,4.83230569625923,1.20127092516847,FALSE,10.5686431559582
"CAN","cpi",0.2,1973,3,1973,NA,0,4.12049831390934,4.3377042295961,7.12388603531779,7.36268749116872,FALSE,7.18266042999099
"CAN","cpi",0.2,1973,3,1973,NA,0.5,6.62244488588971,7.60551773434854,7.12388603531779,5.89432993074317,TRUE,0.983072848458832
"CAN","cpi",0.2,1973,3,1972,NA,1,5.93755844502296,8.45692575435401,7.12388603531779,7.371399360381,TRUE,2.51936730933105
"CAN","cpi",0.2,1973,3,1972,NA,1.5,2.46850302417742,4.98787033350846,7.12388603531779,4.50324671282129,FALSE,7.85940656385437
"CAN","cpi",0.2,1974,3,1974,NA,0,5.68311150537483,6.04540536785227,10.2717243737774,10.3222881332229,FALSE,10.9280913772903
"CAN","cpi",0.2,1974,3,1974,NA,0.5,9.6443741143571,11.3038969579141,10.2717243737774,8.8471290293637,TRUE,1.65952284355701
"CAN","cpi",0.2,1974,3,1973,NA,1,8.95849504980971,11.7837385036316,10.2717243737774,10.9884402825372,TRUE,2.82524345382187
"CAN","cpi",0.2,1974,3,1973,NA,1.5,3.32489742111158,6.15014087493345,10.2717243737774,6.19554852079723,FALSE,13.1292022009318
"CAN","cpi",0.2,1975,3,1975,NA,0,6.38008735538323,6.76657851648909,10.0232981493341,10.2646941702359,FALSE,8.52829024321843
"CAN","cpi",0.2,1975,3,1975,NA,0.5,11.0679912972054,12.7118496436382,10.0232981493341,9.21855388205318,FALSE,4.25559121611097
"CAN","cpi",0.2,1975,3,1974,NA,1,8.37940000231318,10.772927950441,10.0232981493341,11.9905143933903,TRUE,2.39352794812786
"CAN","cpi",0.2,1975,3,1974,NA,1.5,3.74548377154917,6.13901171967703,10.0232981493341,8.68009129130424,FALSE,12.1042440222706
"CAN","cpi",0.2,1976,3,1976,NA,0,5.30854911469584,5.66416035999161,7.22784311401172,7.25383067322222,FALSE,4.26481813034604
"CAN","cpi",0.2,1976,3,1976,NA,0.5,9.41844437721647,11.2615046733335,7.22784311401172,7.41547675604771,FALSE,7.31956345412895
"CAN","cpi",0.2,1976,3,1975,NA,1,7.20329096434826,10.0322592029132,7.22784311401172,11.9151510581142,TRUE,2.82896823856494
"CAN","cpi",0.2,1976,3,1975,NA,1.5,0.583040000162976,3.68842777815868,7.22784311401172,8.01331538119686,FALSE,11.9539261176283
"CAN","cpi",0.2,1977,3,1977,NA,0,4.71757803643924,5.00592922955652,7.58101410153764,7.61867129691007,FALSE,6.72606337307009
"CAN","cpi",0.2,1977,3,1977,NA,0.5,8.17108005301874,9.72069174146543,7.58101410153764,7.02287871989832,FALSE,3.02477656714943
"CAN","cpi",0.2,1977,3,1976,NA,1,3.07125796433405,5.19362182923753,7.58101410153764,5.87261903876238,FALSE,8.09084454565376
"CAN","cpi",0.2,1977,3,1976,NA,1.5,1.59008998645826,4.58487335732059,7.58101410153764,6.15322645024094,FALSE,10.485135231405
"CAN","cpi",0.2,1978,3,1978,NA,0,5.16566377299481,5.4763744550047,8.50208927062595,8.68125407245005,FALSE,7.874997721063
"CAN","cpi",0.2,1978,3,1978,NA,0.5,9.25419639164765,10.7679564929522,8.50208927062595,8.12508742330222,FALSE,3.39402790385883
"CAN","cpi",0.2,1978,3,1977,NA,1,5.22901073815825,7.17175632572365,8.50208927062595,8.64318766852961,FALSE,5.26857794982114
"CAN","cpi",0.2,1978,3,1977,NA,1.5,2.67969519654416,6.42408667839011,8.50208927062595,7.66028936796504,FALSE,8.93939796243553
"CAN","cpi",0.2,1979,3,1979,NA,0,5.34796518010731,5.72877122341453,8.65147652410481,8.61075946409788,FALSE,7.68756929503292
"CAN","cpi",0.2,1979,3,1979,NA,0.5,9.59787156748191,11.3763815572983,8.65147652410481,8.10062835274572,FALSE,4.14449759825915
"CAN","cpi",0.2,1979,3,1978,NA,1,5.64740459168884,7.74379147635676,8.65147652410481,9.5826348846829,FALSE,4.36559950403804
"CAN","cpi",0.2,1979,3,1978,NA,1.5,2.6502000849795,6.57777656407715,8.65147652410481,7.94183844676527,FALSE,9.1118263791668
"CAN","cpi",0.2,1980,3,1980,NA,0,5.67412906533017,6.03930697220964,9.5171912664748,9.53109046750286,FALSE,9.05988864254236
"CAN","cpi",0.2,1980,3,1980,NA,0.5,9.90133713280866,11.5977143608497,9.5171912664748,8.68563614915422,FALSE,2.65674189387572
"CAN","cpi",0.2,1980,3,1979,NA,1,3.97448008726976,6.40155965275849,9.5171912664748,8.32548734166583,FALSE,10.2161585997795
"CAN","cpi",0.2,1980,3,1979,NA,1.5,2.77554575896404,6.683990448475,9.5171912664748,7.98047102096121,FALSE,10.9914467345105
"CAN","cpi",0.2,1981,3,1981,NA,0,6.60586699153644,7.0544205339344,11.5813425032741,11.708955977523,FALSE,11.7658584657473
"CAN","cpi",0.2,1981,3,1981,NA,0.5,12.8552154756086,14.828327957522,11.5813425032741,12.1263962907449,FALSE,5.15779491274947
"CAN","cpi",0.2,1981,3,1980,NA,1,5.54215497418621,8.26457866979672,11.5813425032741,10.9849401653028,FALSE,11.0143332793041
"CAN","cpi",0.2,1981,3,1980,NA,1.5,3.33805568588746,7.21299895152036,11.5813425032741,8.62735225265647,FALSE,14.7958021450173
"CAN","cpi",0.2,1982,3,1982,NA,0,6.65714516864046,7.1701466684516,10.1124203763629,10.3109749747662,FALSE,7.86868576958951
"CAN","cpi",0.2,1982,3,1982,NA,0.5,12.1832984118005,14.3385260111078,10.1124203763629,10.0996836619997,FALSE,7.33242268790125
"CAN","cpi",0.2,1982,3,1981,NA,1,4.82124729276023,7.9258150030573,10.1124203763629,11.6194795199153,FALSE,8.57108114356119
"CAN","cpi",0.2,1982,3,1981,NA,1.5,6.26666897763718,10.7470977311464,10.1124203763629,12.7194356761443,TRUE,4.48042875350923
"CAN","cpi",0.2,1983,3,1983,NA,0,4.83943091289934,5.15992410688503,5.67091787896303,5.82764740362034,FALSE,1.5979776241807
"CAN","cpi",0.2,1983,3,1983,NA,0.5,7.99273912114166,9.3311443964357,5.67091787896303,4.97543944794331,FALSE,7.14295838074061
"CAN","cpi",0.2,1983,3,1982,NA,1,3.23739437056773,6.40607127391956,5.67091787896303,9.23778396682256,TRUE,3.16867690335184
"CAN","cpi",0.2,1983,3,1982,NA,1.5,4.45190185954014,7.62057876289198,5.67091787896303,9.78870144173853,TRUE,3.16867690335184
"CAN","cpi",0.2,1984,3,1984,NA,0,3.12551272878319,3.3641863359324,4.19799576814029,4.21357537293321,FALSE,2.32319718766892
"CAN","cpi",0.2,1984,3,1984,NA,0.5,6.1209406104201,7.07199496334714,4.19799576814029,4.64258933063566,FALSE,5.75841645862658
"CAN","cpi",0.2,1984,3,1983,NA,1,2.87718234107541,4.8385920301214,4.19799576814029,6.13137654871218,TRUE,1.96140968904599
"CAN","cpi",0.2,1984,3,1983,NA,1.5,0.122188512246028,2.08359820129201,4.19799576814029,3.46832438596907,FALSE,7.24740360616667
"CAN","cpi",0.2,1985,3,1985,NA,0,2.67645532823855,2.87526811372191,3.86444262005169,3.91909325760218,FALSE,2.67174905130781
"CAN","cpi",0.2,1985,3,1985,NA,0.5,4.86296910520977,5.72704153803553,3.86444262005169,3.89150188195039,FALSE,3.36038864572095
"CAN","cpi",0.2,1985,3,1984,NA,1,1.27266907963344,2.52166758351363,3.86444262005169,3.29397074977035,FALSE,4.60593609522535
"CAN","cpi",0.2,1985,3,1984,NA,1.5,3.14375409276338,4.39275259664357,3.86444262005169,4.4666103475984,TRUE,1.24899850388019
"CAN","cpi",0.2,1986,3,1986,NA,0,2.66000349428266,2.83114735842373,4.08685396749431,4.1058885406559,FALSE,3.31041038681753
"CAN","cpi",0.2,1986,3,1986,NA,0.5,5.06043179920329,5.87848865515831,4.08685396749431,4.41001406158749,FALSE,3.25200143522747
"CAN","cpi",0.2,1986,3,1985,NA,1,2.12296338036914,3.11189295269306,4.08685396749431,3.99303879319441,FALSE,3.42633210932705
"CAN","cpi",0.2,1986,3,1985,NA,1.5,3.14832300392909,4.13725257625301,4.08685396749431,4.22326323880904,TRUE,0.988929572323924
"CAN","cpi",0.2,1987,3,1987,NA,0,2.81227151528058,3.00289635602615,4.23980729277887,4.35976718480882,FALSE,3.28290218262738
"CAN","cpi",0.2,1987,3,1987,NA,0.5,4.65361758622919,5.51915251733053,4.23980729277887,3.90936321394769,FALSE,1.90006066472713
"CAN","cpi",0.2,1987,3,1986,NA,1,2.57911111417846,3.56331551740322,4.23980729277887,4.33099659151455,FALSE,2.67543384166389
"CAN","cpi",0.2,1987,3,1986,NA,1.5,4.00116991392115,4.98537431714592,4.23980729277887,4.75247122036215,TRUE,0.984204403224762
"CAN","cpi",0.2,1988,3,1988,NA,0,2.75029256922776,2.92041388504299,3.92899537638065,4.01269560152408,FALSE,2.69157504415939
"CAN","cpi",0.2,1988,3,1988,NA,0.5,4.46343055891731,5.21590520449771,3.92899537638065,3.47075595914335,FALSE,2.08856260192204
"CAN","cpi",0.2,1988,3,1987,NA,1,2.8179370345204,3.72664437056858,3.92899537638065,4.58162438495066,FALSE,1.41458485057836
"CAN","cpi",0.2,1988,3,1987,NA,1.5,3.10937963978625,4.01808697583443,3.92899537638065,3.81364776332008,TRUE,0.908707336048182
"CAN","cpi",0.2,1989,3,1989,NA,0,3.00583276972747,3.17162414380765,4.82821664544208,5.02395320873108,FALSE,4.30727262816625
"CAN","cpi",0.2,1989,3,1989,NA,0.5,4.95386960203382,5.68327104201307,4.82821664544208,4.36789847845152,FALSE,1.04353383145861
"CAN","cpi",0.2,1989,3,1988,NA,1,2.84333341747725,3.5727348574565,4.82821664544208,4.46162561835953,FALSE,3.86810590994319
"CAN","cpi",0.2,1989,3,1988,NA,1.5,2.66909821740272,3.39849965738197,4.82821664544208,3.27838152614011,FALSE,4.30369391012953
"CAN","cpi",0.2,1990,3,1990,NA,0,3.07011676040439,3.24666460579522,4.64347549432717,4.51963128519567,FALSE,3.6685750667207
"CAN","cpi",0.2,1990,3,1990,NA,0.5,5.69483861311461,6.54834904831323,4.64347549432717,4.98434426998405,FALSE,3.48191823216722
"CAN","cpi",0.2,1990,3,1989,NA,1,3.86780925311561,4.72131968831424,4.64347549432717,5.9177493923911,TRUE,0.853510435198622
"CAN","cpi",0.2,1990,3,1989,NA,1.5,4.03205086379031,4.88556129898893,4.64347549432717,4.56185858388509,TRUE,0.853510435198622
"CAN","cpi",0.2,1991,3,1991,NA,0,3.40766763236721,3.59512891718062,5.4258100696218,5.62406762795447,FALSE,4.76416416591635
"CAN","cpi",0.2,1991,3,1991,NA,0.5,8.01805270390514,8.74951627654217,5.4258100696218,8.39172083833767,FALSE,7.2120701583454
"CAN","cpi",0.2,1991,3,1990,NA,1,2.37499555657286,3.10645912920989,5.4258100696218,3.86917616551897,FALSE,6.52984092366679
"CAN","cpi",0.2,1991,3,1990,NA,1.5,4.867296082831,5.59875965546803,5.4258100696218,5.12288497855213,TRUE,0.731463572637029
"CAN","cpi",0.2,1992,3,1992,NA,0,2.22953969949223,2.36345090950079,1.47496888572843,1.48060592990191,FALSE,2.02033824441806
"CAN","cpi",0.2,1992,3,1992,NA,0.5,3.29427535231662,3.77242878027096,1.47496888572843,1.17198715241532,FALSE,5.02641959442481
"CAN","cpi",0.2,1992,3,1991,NA,1,1.4441085113129,1.92226193926724,1.47496888572843,2.52024528073196,TRUE,0.478153427954333
"CAN","cpi",0.2,1992,3,1991,NA,1.5,10.8219791835962,11.3001326115506,1.47496888572843,10.1533377092026,FALSE,23.8456791726238
"CAN","cpi",0.2,1993,3,1993,NA,0,1.29170497029941,1.35653078434201,1.84351085411351,1.80262144325658,FALSE,1.28227598847135
"CAN","cpi",0.2,1993,3,1993,NA,0.5,2.60304329598197,2.96990755301676,1.84351085411351,2.34241315558581,FALSE,2.26569536170593
"CAN","cpi",0.2,1993,3,1992,NA,1,1.32731745043763,1.77395598648008,1.84351085411351,1.81805946412584,FALSE,0.620525705126021
"CAN","cpi",0.2,1993,3,1992,NA,1.5,1.03367421447518,1.48031275051763,1.84351085411351,1.14026360102641,FALSE,1.35463379503215
"CAN","cpi",0.2,1994,3,1994,NA,0,0.850417348821517,0.900939089815868,0.161630694655448,0.163616628358327,FALSE,1.77248837640952
"CAN","cpi",0.2,1994,3,1994,NA,0.5,0.864114114606288,1.08553130486861,0.161630694655448,-0.385140098029379,FALSE,1.97762574013942
"CAN","cpi",0.2,1994,3,1993,NA,1,0.993124734516093,1.34455379834309,0.161630694655448,1.37474728133383,FALSE,2.43016416347861
"CAN","cpi",0.2,1994,3,1993,NA,1.5,2.47489365325678,2.82632271708377,0.161630694655448,2.59685615311524,FALSE,6.13458646033032
"CAN","cpi",0.2,1995,3,1995,NA,0,1.07626887616016,1.12912771460189,2.11688403676572,2.19356448193293,FALSE,2.52224964385129
"CAN","cpi",0.2,1995,3,1995,NA,0.5,2.32752884525284,2.58993752896115,2.11688403676572,2.67750903542847,FALSE,0.789020704926114
"CAN","cpi",0.2,1995,3,1994,NA,1,1.21799327038739,1.48040195409571,2.11688403676572,1.34092618105198,FALSE,1.85361389038333
"CAN","cpi",0.2,1995,3,1994,NA,1.5,-1.08591909042385,-0.82351040671554,2.11688403676572,-1.3139842175605,FALSE,7.61339479241145
"CAN","cpi",0.2,1996,3,1996,NA,0,1.37887988658115,1.45330007784574,1.55309584667184,1.48206512402721,FALSE,0.323909613329853
"CAN","cpi",0.2,1996,3,1996,NA,0.5,1.9487078302305,2.33978467823102,1.55309584667184,1.23598680875262,FALSE,1.38010680689717
"CAN","cpi",0.2,1996,3,1995,NA,1,0.850534976467963,1.4460691235577,1.55309584667184,1.32983461361347,FALSE,0.863100954875094
"CAN","cpi",0.2,1996,3,1995,NA,1.5,3.05072325678018,3.64625740386991,1.55309584667184,3.42580605950136,FALSE,4.33960267236057
"CAN","cpi",0.2,1997,3,1997,NA,0,1.3043482162088,1.36809082695658,1.60528783555959,1.69050032419864,FALSE,0.656735132255313
"CAN","cpi",0.2,1997,3,1997,NA,0.5,2.34265169708505,2.70797900300604,1.60528783555959,2.11979188984917,FALSE,2.20873695973463
"CAN","cpi",0.2,1997,3,1996,NA,1,0.92245721760514,1.38990058450808,1.60528783555959,1.19524084873691,FALSE,1.00591149453171
"CAN","cpi",0.2,1997,3,1996,NA,1.5,1.1823580166897,1.64980138359265,1.60528783555959,1.35560903862103,TRUE,0.467443366902945
"CAN","cpi",0.2,1998,3,1998,NA,0,1.07947162485089,1.13140496625487,0.988908029337191,0.980088020931525,FALSE,0.278342330188224
"CAN","cpi",0.2,1998,3,1998,NA,0.5,1.78694899801677,2.14896178866531,0.988908029337191,1.31078347146242,FALSE,2.35711521234748
"CAN","cpi",0.2,1998,3,1997,NA,1,0.856671397303587,1.27592711741132,0.988908029337191,1.06570792570078,TRUE,0.41925572010773
"CAN","cpi",0.2,1998,3,1997,NA,1.5,2.0466854652301,2.46594118533783,0.988908029337191,2.25360669266494,FALSE,3.06369930984001
"CAN","cpi",0.2,1999,3,1999,NA,0,1.19222265064547,1.24459967850365,1.7107350135213,1.81711295343144,FALSE,1.2177153654023
"CAN","cpi",0.2,1999,3,1999,NA,0.5,1.21004119911672,1.50804010494904,1.7107350135213,0.788387565724544,FALSE,0.804736177262965
"CAN","cpi",0.2,1999,3,1998,NA,1,0.571741146490576,0.869740052322898,1.7107350135213,0.575366492854125,FALSE,2.40048630882832
"CAN","cpi",0.2,1999,3,1998,NA,1.5,1.60009506543094,1.89809397126326,1.7107350135213,1.68716976710558,TRUE,0.297998905832322
"CAN","cpi",0.2,2000,3,2000,NA,0,1.69763498275993,1.76850291226269,2.6718361971244,2.72999398726497,FALSE,2.32920114165704
"CAN","cpi",0.2,2000,3,2000,NA,0.5,2.2941118289103,2.71646491943281,2.6718361971244,2.06798867425529,TRUE,0.422353090522507
"CAN","cpi",0.2,2000,3,1999,NA,1,2.47796531273637,3.01746567528713,2.6718361971244,3.09152396062306,TRUE,0.539500362550759
"CAN","cpi",0.2,2000,3,1999,NA,1.5,0.714631438852937,1.2541318014037,2.6718361971244,0.842861855264031,FALSE,4.08376135185252
"CAN","cpi",0.2,2001,3,2001,NA,0,2.00586082704185,2.09363309112568,2.47906219852806,2.84208465688611,FALSE,1.05134503258979
"CAN","cpi",0.2,2001,3,2001,NA,0.5,2.5293076975709,3.00617002707318,2.47906219852806,1.88638468602912,FALSE,0.602476077109374
"CAN","cpi",0.2,2001,3,2000,NA,1,2.78835357193214,3.51205719612988,2.47906219852806,3.69789354026514,FALSE,1.49693205770794
"CAN","cpi",0.2,2001,3,2000,NA,1.5,1.47687639276266,2.2005800169604,2.47906219852806,1.8681620253813,FALSE,1.41990907811689
"CAN","cpi",0.2,2002,3,2002,NA,0,1.78829574508834,1.87338857003373,2.20880570551249,2.37599565696257,FALSE,0.923635663642287
"CAN","cpi",0.2,2002,3,2002,NA,0.5,1.82784856933052,2.2401530988744,2.20880570551249,0.913576617687781,TRUE,0.412304529543887
"CAN","cpi",0.2,2002,3,2001,NA,1,1.51492447636256,2.06174276678658,2.20880570551249,1.93734082085477,FALSE,0.914475637238785
"CAN","cpi",0.2,2002,3,2001,NA,1.5,0.964859718269292,1.51167800869332,2.20880570551249,1.22267801456389,FALSE,2.28963753247194
"CAN","cpi",0.2,2003,3,2003,NA,0,1.82031751986189,1.91144755805787,2.71189071546809,2.73251886371656,FALSE,2.09223793172153
"CAN","cpi",0.2,2003,3,2003,NA,0.5,3.99672979835686,4.55071034803997,2.71189071546809,4.31675684669419,FALSE,3.76607825690504
"CAN","cpi",0.2,2003,3,2002,NA,1,3.5335052889249,4.09153908419071,2.71189071546809,4.61862409576541,FALSE,2.61207022890782
"CAN","cpi",0.2,2003,3,2002,NA,1.5,1.09425450426272,1.65228829952853,2.71189071546809,1.3655866266696,FALSE,3.20703983511472
"CAN","cpi",0.2,2004,3,2004,NA,0,1.66310960833758,1.75081636080296,1.83151661303942,1.82990600335775,FALSE,0.289457383056531
"CAN","cpi",0.2,2004,3,2004,NA,0.5,2.24082754687842,2.72067781512978,1.83151661303942,1.43982618755963,FALSE,1.50312760284885
"CAN","cpi",0.2,2004,3,2003,NA,1,0.790922793329496,1.27077306158085,1.83151661303942,1.02946817322814,FALSE,1.88170914689779
"CAN","cpi",0.2,2004,3,2003,NA,1.5,4.01475906875043,4.49460933700178,1.83151661303942,4.64649519124043,FALSE,5.93795640752887
"CAN","cpi",0.2,2005,3,2005,NA,0,1.61481147331261,1.68719324579342,2.18071628336509,2.38454318695835,FALSE,1.30618936640999
"CAN","cpi",0.2,2005,3,2005,NA,0.5,2.06481367836083,2.4259534991393,2.18071628336509,1.60616687455658,TRUE,0.361139820778475
"CAN","cpi",0.2,2005,3,2004,NA,1,1.42603880918171,1.81408901610359,2.18071628336509,1.65181790765431,FALSE,1.30461837507564
"CAN","cpi",0.2,2005,3,2004,NA,1.5,1.61569918359835,2.00374939052022,2.18071628336509,1.76259299547523,FALSE,0.830467439034049
"CAN","cpi",0.2,2006,3,2006,NA,0,1.61818871013678,1.70136638683018,1.97519342012289,2.13635134601064,FALSE,0.76774525992517
"CAN","cpi",0.2,2006,3,2006,NA,0.5,2.31790418161254,2.71640818232002,1.97519342012289,1.78685076876899,FALSE,1.25528090443162
"CAN","cpi",0.2,2006,3,2005,NA,1,2.83191990249282,3.26059292858216,1.97519342012289,3.50484952590076,FALSE,2.57048923201418
"CAN","cpi",0.2,2006,3,2005,NA,1.5,1.3266709353263,1.75534396141564,1.97519342012289,1.46813842301012,FALSE,0.978296672857462
"CAN","cpi",0.2,2007,3,2007,NA,0,1.57805816004413,1.66068909569575,2.10062087284572,2.20475175639581,FALSE,1.18246037852656
"CAN","cpi",0.2,2007,3,2007,NA,0.5,2.35159455847741,2.71008354974297,2.10062087284572,1.98527746740088,FALSE,0.985923205344777
"CAN","cpi",0.2,2007,3,2006,NA,1,1.09889637889185,1.49918768233616,2.10062087284572,1.24740231882683,FALSE,1.90387427971822
"CAN","cpi",0.2,2007,3,2006,NA,1.5,1.48291065037981,1.88320195382412,2.10062087284572,1.60497207990466,FALSE,0.943838600998321
"CAN","cpi",0.2,2008,3,2008,NA,0,1.88085480894651,1.97496861457737,2.31447335265955,3.01767576079065,FALSE,0.942875650836313
"CAN","cpi",0.2,2008,3,2008,NA,0.5,1.75669285308131,2.10685914812243,2.31447335265955,1.03762364210032,FALSE,0.869201806383931
"CAN","cpi",0.2,2008,3,2007,NA,1,1.29925950853058,1.6494258035717,2.31447335265955,1.40291213269118,FALSE,2.01278516776076
"CAN","cpi",0.2,2008,3,2007,NA,1.5,2.33153497540138,2.6817012704425,2.31447335265955,2.69934766650446,FALSE,0.392820351895688
"CAN","cpi",0.2,2009,3,2009,NA,0,1.04347870656832,1.10595438995776,0.284533874408197,0.321726231334406,FALSE,1.95983776378975
"CAN","cpi",0.2,2009,3,2009,NA,0.5,0.340639795262335,0.608492811017012,0.284533874408197,-1.32493870283985,FALSE,0.408117817890021
"CAN","cpi",0.2,2009,3,2008,NA,1,4.03488271805256,4.49274658976377,0.284533874408197,5.07610742917547,FALSE,9.83373598082213
"CAN","cpi",0.2,2009,3,2008,NA,1.5,0.993723454553662,1.45158732626487,0.284533874408197,1.01106559029091,FALSE,2.23083782207487
"CAN","cpi",0.2,2010,3,2010,NA,0,0.956328503180188,0.998441799343042,1.75525687020327,1.75432596686424,FALSE,1.93415097331343
"CAN","cpi",0.2,2010,3,2010,NA,0.5,1.54900017327577,1.70370471798732,1.75525687020327,1.49344630005585,FALSE,0.283584925251428
"CAN","cpi",0.2,2010,3,2009,NA,1,1.15878683223956,1.31349137695111,1.75525687020327,1.13010370525173,FALSE,1.25911827784195
"CAN","cpi",0.2,2010,3,2009,NA,1.5,-1.54279635886693,-1.38809181415538,1.75525687020327,-2.25919184326718,FALSE,8.01307625560818
"CAN","cpi",0.2,2011,3,2011,NA,0,1.74695371783165,1.83314432265076,2.85717434028225,2.90832322356675,FALSE,2.64626564889782
"CAN","cpi",0.2,2011,3,2011,NA,0.5,2.82120313966225,3.22532544878814,2.85717434028225,2.81495035644064,TRUE,0.404122309125892
"CAN","cpi",0.2,2011,3,2010,NA,1,2.00212649083635,2.40624879996225,2.85717434028225,2.24995624930718,FALSE,1.53143615992589
"CAN","cpi",0.2,2011,3,2010,NA,1.5,1.55492166017158,1.95904396929748,2.85717434028225,1.69121218305118,FALSE,2.64944823658782
"CAN","cpi",0.2,2012,3,2012,NA,0,1.60097214649415,1.68544771713211,1.50118536134935,1.50859370689259,FALSE,0.333942533499969
"CAN","cpi",0.2,2012,3,2012,NA,0.5,2.44379140680013,2.91552713722203,1.50118536134935,1.75125264874692,FALSE,2.82825084404886
"CAN","cpi",0.2,2012,3,2011,NA,1,1.69699062950118,2.24674420045656,1.50118536134935,1.8474445607568,FALSE,1.03926674133496
"CAN","cpi",0.2,2012,3,2011,NA,1.5,2.65802187116153,3.20777544211691,1.50118536134935,3.06926058053075,FALSE,3.44184484548584
"CAN","cpi",0.2,2013,3,2013,NA,0,1.07260111779393,1.12977767915951,0.931270594714462,1.05615594966199,FALSE,0.410502869064259
"CAN","cpi",0.2,2013,3,2013,NA,0.5,1.5297822733863,1.85617680849613,0.931270594714462,1.02417936454929,FALSE,1.82267373178942
"CAN","cpi",0.2,2013,3,2012,NA,1,0.375738310461687,0.702132845571521,0.931270594714462,0.0685845185761151,FALSE,0.899238907967187
"CAN","cpi",0.2,2013,3,2012,NA,1.5,1.59127211717297,1.91766665228281,0.931270594714462,1.71916958716775,FALSE,1.97639834125611
"CAN","cpi",0.2,2014,3,2014,NA,0,1.2404011785532,1.29941102642544,1.87639912240215,2.06386975595087,FALSE,1.50148008781402
"CAN","cpi",0.2,2014,3,2014,NA,0.5,1.94376053574419,2.1968455512076,1.87639912240215,1.92715211220712,FALSE,0.421488548818499
"CAN","cpi",0.2,2014,3,2013,NA,1,1.17843834766771,1.43152336313112,1.87639912240215,1.11372323439473,FALSE,1.365274413641
"CAN","cpi",0.2,2014,3,2013,NA,1.5,1.35606707196969,1.6091520874331,1.87639912240215,1.40040388240124,FALSE,0.921202602886039
"CAN","cpi",0.2,2015,3,2015,NA,0,1.25017784203264,1.32066828102501,1.11090953952792,1.30732778141228,FALSE,0.418661195254182
"CAN","cpi",0.2,2015,3,2015,NA,0.5,1.02943975395014,1.3292067604037,1.11090953952792,0.0832530397055839,TRUE,0.299767006453558
"CAN","cpi",0.2,2015,3,2014,NA,1,1.45669975601628,1.84280574079283,1.11090953952792,1.43393836679687,FALSE,1.25058152599746
"CAN","cpi",0.2,2015,3,2014,NA,1.5,2.40980728703043,2.79591327180698,1.11090953952792,2.67552344749624,FALSE,3.63335035353283
"CAN","cpi",0.2,2016,3,2016,NA,0,1.09589737323778,1.15800555698498,1.41168586698797,1.50891536161516,FALSE,0.696308958754657
"CAN","cpi",0.2,2016,3,2016,NA,0.5,1.24308386810734,1.52452824071507,1.41168586698797,0.786851742019216,TRUE,0.281444372607726
"CAN","cpi",0.2,2016,3,2015,NA,1,1.90853001748893,2.2339816948137,1.41168586698797,2.15660249634191,FALSE,1.56756205357718
"CAN","cpi",0.2,2016,3,2015,NA,1.5,0.137341868939196,0.462793546263965,1.41168586698797,-0.117220285505753,FALSE,2.69768247913477
"CAN","cpi",0.2,2017,3,2017,NA,0,1.19464633662363,1.25829089242336,1.57888581671161,1.54881337220766,FALSE,0.865131866520365
"CAN","cpi",0.2,2017,3,2017,NA,0.5,2.07459516444705,2.4084099175131,1.57888581671161,1.91336997918348,FALSE,1.57308812240464
"CAN","cpi",0.2,2017,3,2016,NA,1,1.20644804900576,1.54026280207182,1.57888581671161,1.18768855671255,FALSE,0.430372289665542
"CAN","cpi",0.2,2017,3,2016,NA,1.5,0.737962722558884,1.07177747562494,1.57888581671161,0.6644917028394,FALSE,1.60158560578273
"CAN","cpi",0.2,2018,3,2018,NA,0,1.53589842982015,1.61902953074701,2.23316270166586,2.44523056077762,FALSE,1.61846402822398
"CAN","cpi",0.2,2018,3,2018,NA,0.5,2.66241443756204,3.01897841752165,2.23316270166586,2.80156516368753,FALSE,1.42969331970007
"CAN","cpi",0.2,2018,3,2017,NA,1,0.952013279789472,1.30857725974908,2.23316270166586,0.82019125662587,FALSE,2.66802758475156
"CAN","cpi",0.2,2018,3,2017,NA,1.5,2.0570180542788,2.4135820342384,2.23316270166586,2.43256495233066,TRUE,0.356563979959604
"CAN","cpi",0.2,2019,3,2019,NA,0,1.59923940207001,1.68577779921322,1.91921619871868,2.08489368525497,FALSE,0.670134395906865
"CAN","cpi",0.2,2019,3,2019,NA,0.5,1.94695809281531,2.40368643581777,1.91921619871868,1.47181960590434,FALSE,0.526083078244025
"CAN","cpi",0.2,2019,3,2018,NA,1,2.00186072883311,2.45858907183557,1.91921619871868,2.1812391651413,FALSE,0.663339668288536
"CAN","cpi",0.2,2019,3,2018,NA,1.5,3.00660692638725,3.46333526938971,1.91921619871868,3.59347997035086,FALSE,3.17520516217389
"CAN","cpi",0.2,2020,3,2020,NA,0,1.05151370191341,1.11604061805419,0.71139989671781,0.692133240684643,FALSE,0.914811429129778
"CAN","cpi",0.2,2020,3,2020,NA,0.5,1.61860999438033,1.99213454355572,0.71139989671781,1.05558053361148,FALSE,2.64154979333169
"CAN","cpi",0.2,2020,3,2019,NA,1,1.86281910491333,2.23634365408871,0.71139989671781,2.01486975979332,FALSE,3.25207256966418
"CAN","cpi",0.2,2020,3,2019,NA,1.5,1.65666468581159,2.03018923498698,0.71139989671781,1.77269016603738,FALSE,2.73668652190984
"CAN","cpi",0.2,2021,3,2021,NA,0,1.59299099580258,1.67631378737479,3.31148121717802,3.37410895790077,FALSE,4.1712413660803
"CAN","cpi",0.2,2021,3,2021,NA,0.5,2.27043278158283,2.56624989358499,3.31148121717802,2.68190793980083,FALSE,2.15889542098476
"CAN","cpi",0.2,2021,3,2020,NA,1,1.16894245983162,1.46475957183378,3.31148121717802,1.19247466620579,FALSE,4.91262122536278
"CAN","cpi",0.2,2021,3,2020,NA,1.5,1.0196196456901,1.31543675769226,3.31148121717802,0.994097524483704,FALSE,5.28592826071658
"CAN","cpi",0.2,2022,3,2022,NA,0,3.3911591363304,3.5855394310756,6.50977236228281,6.71215382839029,FALSE,7.50496262276323
"CAN","cpi",0.2,2022,3,2022,NA,0.5,5.28649311743783,6.09215164048738,6.50977236228281,6.42154306210558,FALSE,1.84971032753812
"CAN","cpi",0.2,2022,3,2021,NA,1,3.94264839568617,4.74830691873572,6.50977236228281,4.97199453293936,FALSE,5.20932213191728
"CAN","cpi",0.2,2022,3,2021,NA,1.5,2.78774876125439,3.59340728430394,6.50977236228281,3.45701838810354,FALSE,8.09657121799673
"CAN","cpi",0.2,2023,3,2023,NA,0,3.41229456901415,3.62264963294261,3.78831288758619,4.042121841464,FALSE,0.624513200537417
"CAN","cpi",0.2,2023,3,2023,NA,0.5,4.13760061168017,5.22082961328847,3.78831288758619,3.05997192794191,FALSE,1.95644831184325
"CAN","cpi",0.2,2023,3,2022,NA,1,4.30474124356576,5.56988242812587,3.78831288758619,5.28351765661874,FALSE,2.55621207450902
"CAN","cpi",0.2,2023,3,2022,NA,1.5,5.72981366682445,6.99495485138456,3.78831288758619,7.28752716372712,FALSE,6.11889313265575
"CAN","cpi",0.2,2024,3,2023,NA,1,3.64137491970969,4.4316446699874,NA,4.37793695924716,NA,NA
"CAN","cpi",0.2,2024,3,2023,NA,1.5,2.03672535831248,2.82699510859019,NA,2.36897983740768,NA,NA
"CAN","cpi",0.3,1952,3,1952,NA,0,-30.1680034087676,-19.8551923484,2.55562336095485,2.46502621244774,FALSE,74.3437130870957
"CAN","cpi",0.3,1952,3,1952,NA,0.5,-21.0529616600186,-1.16448213688012,2.55562336095485,4.32129924776399,FALSE,30.5173523740955
"CAN","cpi",0.3,1952,3,1951,NA,1,1.65677520385529,22.6530168993197,2.55562336095485,9.65785623271456,TRUE,20.9962416954644
"CAN","cpi",0.3,1952,3,1951,NA,1.5,-43.6345443766693,-22.6383026812049,2.55562336095485,10.2729097180516,FALSE,92.9788875302064
"CAN","cpi",0.3,1953,3,1953,NA,0,-1.83730054881412,-0.655841307484174,-1.01492775838436,-1.00749856253296,TRUE,1.18145924132995
"CAN","cpi",0.3,1953,3,1953,NA,0.5,-16.7430798760316,-14.8870726415542,-1.01492775838436,-2.06778904141071,FALSE,41.490706900677
"CAN","cpi",0.3,1953,3,1952,NA,1,-19.7974432602395,-17.9414360257621,-1.01492775838436,-1.55171650633025,FALSE,50.2174594269853
"CAN","cpi",0.3,1953,3,1952,NA,1.5,-8.36512830257515,-6.50912106809777,-1.01492775838436,1.96017794195978,FALSE,17.5537024050871
"CAN","cpi",0.3,1954,3,1954,NA,0,1.52803727915389,0.178440780958428,0.644425455961438,0.844896913757956,FALSE,2.50639349664871
"CAN","cpi",0.3,1954,3,1954,NA,0.5,2.30097051923427,0.951374021038806,0.644425455961438,-0.153040348587994,FALSE,3.38338939686977
"CAN","cpi",0.3,1954,3,1953,NA,1,13.7660847679233,12.4164882697278,0.644425455961438,2.75483618067449,FALSE,36.1408586788384
"CAN","cpi",0.3,1954,3,1953,NA,1.5,-5.90324739176246,-7.25284388995792,0.644425455961438,-2.52548049332379,FALSE,21.2140302044313
"CAN","cpi",0.3,1955,3,1955,NA,0,0.438735537679904,0.548496372050625,0.173649026558865,0.10765252516202,FALSE,0.867150866145119
"CAN","cpi",0.3,1955,3,1955,NA,0.5,-1.01221062940858,-0.743459880861505,0.173649026558865,-0.685764272176465,FALSE,2.88906191260527
"CAN","cpi",0.3,1955,3,1954,NA,1,7.51116375071489,10.2184475748845,0.173649026558865,3.05598167297881,FALSE,23.6716116074725
"CAN","cpi",0.3,1955,3,1954,NA,1.5,-9.52478960793028,-6.81750578376069,0.173649026558865,-1.37299158518014,FALSE,22.682011853654
"CAN","cpi",0.3,1956,3,1956,NA,0,0.99738183550635,1.10718428071038,1.32752769429961,1.5132196707054,FALSE,0.739355055458964
"CAN","cpi",0.3,1956,3,1956,NA,0.5,-0.214011537867899,-0.104209092663867,1.32752769429961,-0.533297708724126,FALSE,4.20047897938539
"CAN","cpi",0.3,1956,3,1955,NA,1,1.62322402352829,2.40671667980514,1.32752769429961,0.79482048855347,FALSE,1.62833931121594
"CAN","cpi",0.3,1956,3,1955,NA,1.5,-5.99334547125514,-5.2098528149783,1.32752769429961,-1.67555014996128,FALSE,19.4617226827851
"CAN","cpi",0.3,1957,3,1957,NA,0,1.84023402897762,2.27106843649604,3.24684755852518,3.4081189986054,FALSE,3.21877475617309
"CAN","cpi",0.3,1957,3,1957,NA,0.5,2.86234769785405,4.61383344994309,3.24684755852518,2.36364513914165,TRUE,1.75148575208904
"CAN","cpi",0.3,1957,3,1956,NA,1,9.23217527611116,14.2927148850646,3.24684755852518,6.42400073504334,FALSE,22.1614759449134
"CAN","cpi",0.3,1957,3,1956,NA,1.5,-11.3389057370134,-6.27836612805994,3.24684755852518,-1.44175113719435,FALSE,32.2754358563395
"CAN","cpi",0.3,1958,3,1958,NA,0,1.80213441620627,2.11918430494749,2.33186388641149,2.22393716079583,FALSE,0.924705835781209
"CAN","cpi",0.3,1958,3,1958,NA,0.5,3.17266194884616,5.084261602544,2.33186388641149,2.22874439106395,FALSE,4.31387983208262
"CAN","cpi",0.3,1958,3,1957,NA,1,1.83116627003417,5.98394410835372,2.33186388641149,4.33819969505612,TRUE,4.15277783831955
"CAN","cpi",0.3,1958,3,1957,NA,1.5,-11.584287660572,-7.43150982225244,2.33186388641149,1.22685206136826,FALSE,32.048131291645
"CAN","cpi",0.3,1959,3,1959,NA,0,1.26779422483117,1.45617204252638,1.19382698397654,1.19679708996586,FALSE,0.399712791565581
"CAN","cpi",0.3,1959,3,1959,NA,0.5,1.5681122758777,2.33406015885182,1.19382698397654,0.655175994826909,FALSE,1.83533443126315
"CAN","cpi",0.3,1959,3,1958,NA,1,-0.144245128926375,2.14210862961356,1.19382698397654,1.75938857815981,TRUE,2.28635375853994
"CAN","cpi",0.3,1959,3,1958,NA,1.5,-6.17301437151398,-3.88666061297405,1.19382698397654,1.7749666101295,FALSE,16.8020326069702
"CAN","cpi",0.3,1960,3,1960,NA,0,0.951644040517457,1.0866872703865,1.34209404870695,1.03130246511349,FALSE,0.864776882213188
"CAN","cpi",0.3,1960,3,1960,NA,0.5,1.46112638391572,2.00748163108022,1.34209404870695,0.745602653132245,FALSE,0.886447633475272
"CAN","cpi",0.3,1960,3,1959,NA,1,2.94832092325507,4.64049021011921,1.34209404870695,3.33587387303437,FALSE,6.28138892843019
"CAN","cpi",0.3,1960,3,1959,NA,1.5,-4.93372193590726,-3.24155264904312,1.34209404870695,-0.32541909428789,FALSE,14.7883027090072
"CAN","cpi",0.3,1961,3,1961,NA,0,0.994074706625869,1.20055551396819,1.00921348094007,1.00921348094007,TRUE,0.206480807342317
"CAN","cpi",0.3,1961,3,1961,NA,0.5,2.00897898525847,2.46059740281304,1.00921348094007,1.31141131508129,FALSE,3.30809128703571
"CAN","cpi",0.3,1961,3,1960,NA,1,-0.576914488219573,-0.125296070665006,1.00921348094007,0.143625905669962,FALSE,3.69307427928336
"CAN","cpi",0.3,1961,3,1960,NA,1.5,-4.26945621828317,-3.8178378007286,1.00921348094007,-0.34011142415222,FALSE,14.2431935080365
"CAN","cpi",0.3,1962,3,1962,NA,0,0.958775761856225,1.11449502459889,1.04957947883042,1.11132998230876,TRUE,0.155719262742663
"CAN","cpi",0.3,1962,3,1962,NA,0.5,0.694515614901976,0.999160411158954,1.04957947883042,1.64134322488006e-44,FALSE,0.448699275318296
"CAN","cpi",0.3,1962,3,1961,NA,1,-0.277245823498412,0.126583454002544,1.04957947883042,-9.44308782563385e-19,FALSE,3.04096077700916
"CAN","cpi",0.3,1962,3,1961,NA,1.5,-1.84638622181357,-1.44255694431262,1.04957947883042,0.754384248690751,FALSE,7.52421905790962
"CAN","cpi",0.3,1963,3,1963,NA,0,1.23839668098176,1.41643790579954,1.60677118395228,1.85599510888664,FALSE,0.721850590968469
"CAN","cpi",0.3,1963,3,1963,NA,0.5,1.50504118480343,1.96867659292126,1.60677118395228,0.932300293637426,TRUE,0.463635408117833
"CAN","cpi",0.3,1963,3,1962,NA,1,2.06326015620597,3.05004711748384,1.60677118395228,2.66748522343727,FALSE,2.29104116771697
"CAN","cpi",0.3,1963,3,1962,NA,1.5,-2.33551450752561,-1.34872754624774,1.60677118395228,4.10321927477868e-44,FALSE,9.43106904756365
"CAN","cpi",0.3,1964,3,1964,NA,0,1.39447864203742,1.59874200527881,1.88764670034376,1.98894154569002,FALSE,1.02970534914125
"CAN","cpi",0.3,1964,3,1964,NA,0.5,2.00198469601544,2.54866311923886,1.88764670034376,1.38377582747094,FALSE,0.873358410856788
"CAN","cpi",0.3,1964,3,1963,NA,1,3.45715355832781,4.91510735139968,1.88764670034376,4.71286552905431,FALSE,5.94225910159773
"CAN","cpi",0.3,1964,3,1963,NA,1.5,-2.72388340721899,-1.26592961414712,1.88764670034376,0.238779673172327,FALSE,10.4681718344744
"CAN","cpi",0.3,1965,3,1965,NA,0,1.59569994643246,1.80671044843843,2.29538304394236,2.35494510510554,FALSE,1.60721791773147
"CAN","cpi",0.3,1965,3,1965,NA,0.5,2.17145150157435,2.74352545514691,2.29538304394236,1.56044896459738,TRUE,0.572073953572554
"CAN","cpi",0.3,1965,3,1964,NA,1,1.63056715144083,2.39414139799483,2.29538304394236,2.42710731898607,TRUE,0.763574246553993
"CAN","cpi",0.3,1965,3,1964,NA,1.5,-1.91396990078692,-1.15039565423293,2.29538304394236,0.818315757903116,FALSE,10.6086562413405
"CAN","cpi",0.3,1966,3,1966,NA,0,2.22381129317294,2.47357208031292,3.72486065470629,3.84664136390011,FALSE,3.82487099969247
"CAN","cpi",0.3,1966,3,1966,NA,0.5,4.12785488540269,4.8181474017003,3.72486065470629,3.84691400230302,FALSE,1.8417046040016
"CAN","cpi",0.3,1966,3,1965,NA,1,2.37703514479875,3.57490985665148,3.72486065470629,3.31367997089714,FALSE,1.62630556343791
"CAN","cpi",0.3,1966,3,1965,NA,1.5,-1.64581994839872,-0.44794523654599,3.72486065470629,1.48150382413513,FALSE,13.1201772582878
"CAN","cpi",0.3,1967,3,1967,NA,0,2.54547615071977,2.81074997419104,3.49360316391996,3.76862969063141,FALSE,2.21628293698246
"CAN","cpi",0.3,1967,3,1967,NA,0.5,3.41050368429914,4.19813643640457,3.49360316391996,2.36174420726938,TRUE,0.787632752105429
"CAN","cpi",0.3,1967,3,1966,NA,1,2.22993878740529,3.85622149554272,3.49360316391996,3.4823384545504,TRUE,1.62628270813743
"CAN","cpi",0.3,1967,3,1966,NA,1.5,0.296730645028406,1.92301335316584,3.49360316391996,4.29257700443622,FALSE,6.11368216743492
"CAN","cpi",0.3,1968,3,1968,NA,0,2.59869338512945,2.88426599095011,3.95128347779386,4.1134030125927,FALSE,3.3341939968028
"CAN","cpi",0.3,1968,3,1968,NA,0.5,4.46324245287174,5.52776489456466,3.95128347779386,3.89224433743933,FALSE,2.52726237048688
"CAN","cpi",0.3,1968,3,1967,NA,1,4.424568082132,6.80119202995305,3.95128347779386,5.85596711509228,FALSE,3.72886567450147
"CAN","cpi",0.3,1968,3,1967,NA,1.5,-1.57114492778846,0.80547902003259,3.95128347779386,2.14187095150408,FALSE,11.3646366842818
"CAN","cpi",0.3,1969,3,1969,NA,0,2.88373434447629,3.16703777704188,4.42679496126681,4.64263065146317,FALSE,3.88260967320825
"CAN","cpi",0.3,1969,3,1969,NA,0.5,4.03979453575102,4.91346128493263,4.42679496126681,3.06199492877772,TRUE,0.873666749181613
"CAN","cpi",0.3,1969,3,1968,NA,1,4.30368597899537,6.78212369551236,4.42679496126681,6.05582378748629,TRUE,2.47843771651699
"CAN","cpi",0.3,1969,3,1968,NA,1.5,0.372115936296443,2.85055365281344,4.42679496126681,3.87227485119322,FALSE,6.98198431209807
"CAN","cpi",0.3,1970,3,1970,NA,0,2.6608530296455,2.8889848491036,3.28128405769805,3.58996474924422,FALSE,1.34898670115652
"CAN","cpi",0.3,1970,3,1970,NA,0.5,5.07156204265156,6.22831055137001,3.28128405769805,4.17180269652751,FALSE,6.27182846572849
"CAN","cpi",0.3,1970,3,1969,NA,1,3.962062736255,6.32956562480229,3.28128405769805,5.43865496465038,FALSE,4.31258482728145
"CAN","cpi",0.3,1970,3,1969,NA,1.5,-1.59560919416465,0.771893694382637,3.28128405769805,2.31672730979866,FALSE,9.53718964087703
"CAN","cpi",0.3,1971,3,1971,NA,0,2.11892356833149,2.31615802402247,2.64123406634756,2.89424739818036,FALSE,1.12602314804839
"CAN","cpi",0.3,1971,3,1971,NA,0.5,2.39011900632517,2.95680460824113,2.64123406634756,1.07533993963556,TRUE,0.566685601915969
"CAN","cpi",0.3,1971,3,1970,NA,1,1.94005931720427,4.01756239921343,2.64123406634756,2.98160965133743,TRUE,2.07750308200916
"CAN","cpi",0.3,1971,3,1970,NA,1.5,1.93963183076122,4.71721952102733,2.64123406634756,4.15708260691123,TRUE,2.77758769026611
"CAN","cpi",0.3,1972,3,1972,NA,0,2.70662677779461,2.96315375208914,4.83230569625923,5.10321489701878,FALSE,5.5969611004948
"CAN","cpi",0.3,1972,3,1972,NA,0.5,4.76776245209621,5.97854491668813,4.83230569625923,4.57526784474473,TRUE,1.21078246459192
"CAN","cpi",0.3,1972,3,1971,NA,1,5.35958580855146,7.54314261810327,4.83230569625923,6.5673313651466,FALSE,3.69007141610104
"CAN","cpi",0.3,1972,3,1971,NA,1.5,-0.655001747544889,1.52855506200693,4.83230569625923,1.20127092516847,FALSE,11.622844335987
"CAN","cpi",0.3,1973,3,1973,NA,0,4.01480092028293,4.42077159928953,7.12388603531779,7.36268749116872,FALSE,8.12915478194448
"CAN","cpi",0.3,1973,3,1973,NA,0.5,6.55256757312487,8.13050738335468,7.12388603531779,5.89432993074317,TRUE,1.57793981022981
"CAN","cpi",0.3,1973,3,1972,NA,1,5.34073718186446,8.83734027680538,7.12388603531779,7.371399360381,TRUE,3.49660309494092
"CAN","cpi",0.3,1973,3,1972,NA,1.5,1.85965499147059,5.35625808641151,7.12388603531779,4.50324671282129,FALSE,8.54696866324458
"CAN","cpi",0.3,1974,3,1974,NA,0,5.600576785178,6.11842326751277,10.2717243737774,10.3222881332229,FALSE,12.3844210716623
"CAN","cpi",0.3,1974,3,1974,NA,0.5,9.48754840231866,11.9621791114712,10.2717243737774,8.8471290293637,TRUE,2.47463070915252
"CAN","cpi",0.3,1974,3,1973,NA,1,7.90637440543733,12.8367444510023,10.2717243737774,10.9884402825372,TRUE,4.93037004556492
"CAN","cpi",0.3,1974,3,1973,NA,1.5,2.30038427836607,7.23075432393099,10.2717243737774,6.19554852079723,FALSE,13.618855902269
"CAN","cpi",0.3,1975,3,1975,NA,0,6.23698663297002,6.89826235986714,10.0232981493341,10.2646941702359,FALSE,9.58994941108848
"CAN","cpi",0.3,1975,3,1975,NA,0.5,10.5439967874072,13.5240990927503,10.0232981493341,9.21855388205318,FALSE,4.46781269983758
"CAN","cpi",0.3,1975,3,1974,NA,1,7.70666571555602,12.3737456074419,10.0232981493341,11.9905143933903,TRUE,4.6670798918859
"CAN","cpi",0.3,1975,3,1974,NA,1.5,1.97265409538558,6.63973398727148,10.0232981493341,8.68009129130424,FALSE,14.3344060692077
"CAN","cpi",0.3,1976,3,1976,NA,0,5.19662712245839,5.75319554162716,7.22784311401172,7.25383067322222,FALSE,4.76984719741036
"CAN","cpi",0.3,1976,3,1976,NA,0.5,8.94203124954866,11.6030976020862,7.22784311401172,7.41547675604771,FALSE,7.55874673978595
"CAN","cpi",0.3,1976,3,1975,NA,1,5.86137098960381,10.6300561472555,7.22784311401172,11.9151510581142,TRUE,4.76868515765173
"CAN","cpi",0.3,1976,3,1975,NA,1.5,0.218820595938073,5.32484125049943,7.22784311401172,8.01331538119686,FALSE,10.543168836025
"CAN","cpi",0.3,1977,3,1977,NA,0,4.62759918625976,5.10738678219816,7.58101410153764,7.61867129691007,FALSE,7.54729422262264
"CAN","cpi",0.3,1977,3,1977,NA,0.5,7.71805531005142,10.2326049662113,7.58101410153764,7.02287871989832,FALSE,2.90609596619925
"CAN","cpi",0.3,1977,3,1976,NA,1,2.31096295766724,5.38498509504558,7.58101410153764,5.87261903876238,FALSE,9.34839072735567
"CAN","cpi",0.3,1977,3,1976,NA,1.5,0.309985471239101,5.01367441042928,7.58101410153764,6.15322645024094,FALSE,12.0389451994998
"CAN","cpi",0.3,1978,3,1978,NA,0,5.02920102608874,5.58029432127838,8.50208927062595,8.68125407245005,FALSE,8.89907886475411
"CAN","cpi",0.3,1978,3,1978,NA,0.5,8.72813830642563,11.4156155247507,8.50208927062595,8.12508742330222,FALSE,3.33333160632419
"CAN","cpi",0.3,1978,3,1977,NA,1,3.95745360343065,7.89797891906907,8.50208927062595,8.64318766852961,FALSE,5.66655489151521
"CAN","cpi",0.3,1978,3,1977,NA,1.5,1.59401728505634,7.55985850572469,8.50208927062595,7.66028936796504,FALSE,8.65792912038622
"CAN","cpi",0.3,1979,3,1979,NA,0,5.27389566485568,5.81774006193367,8.65147652410481,8.61075946409788,FALSE,8.64023428899554
"CAN","cpi",0.3,1979,3,1979,NA,0.5,9.00198666875662,11.6262752536097,8.65147652410481,8.10062835274572,FALSE,3.62574614100112
"CAN","cpi",0.3,1979,3,1978,NA,1,4.75710978161062,8.455563623298,8.65147652410481,9.5826348846829,FALSE,4.25820498684971
"CAN","cpi",0.3,1979,3,1978,NA,1.5,1.15352696220321,7.67390713267322,8.65147652410481,7.94183844676527,FALSE,9.31343557456027
"CAN","cpi",0.3,1980,3,1980,NA,0,5.56606077845065,6.17261073182504,9.5171912664748,9.53109046750286,FALSE,10.162494338088
"CAN","cpi",0.3,1980,3,1980,NA,0.5,9.36245905756953,12.3404464432702,9.5171912664748,8.68563614915422,TRUE,2.97798738570069
"CAN","cpi",0.3,1980,3,1979,NA,1,3.31939895263639,7.03138629680655,9.5171912664748,8.32548734166583,FALSE,10.814287257508
"CAN","cpi",0.3,1980,3,1979,NA,1.5,2.03913559338312,7.51106876433577,9.5171912664748,7.98047102096121,FALSE,11.2037117484927
"CAN","cpi",0.3,1981,3,1981,NA,0,6.49676266625443,7.1862622091871,11.5813425032741,11.708955977523,FALSE,13.2468718117528
"CAN","cpi",0.3,1981,3,1981,NA,0.5,11.8341882588761,15.447848630788,11.5813425032741,12.1263962907449,FALSE,4.33607681648899
"CAN","cpi",0.3,1981,3,1980,NA,1,4.63529773060737,9.15926221701052,11.5813425032741,10.9849401653028,FALSE,11.4441938757278
"CAN","cpi",0.3,1981,3,1980,NA,1.5,1.48175876131129,8.34848100218015,11.5813425032741,8.62735225265647,FALSE,16.1034693868517
"CAN","cpi",0.3,1982,3,1982,NA,0,6.54572456540649,7.27721539234935,10.1124203763629,10.3109749747662,FALSE,8.83207649555314
"CAN","cpi",0.3,1982,3,1982,NA,0.5,11.7042134867785,14.8199723083715,10.1124203763629,10.0996836619997,FALSE,7.66373913706596
"CAN","cpi",0.3,1982,3,1981,NA,1,4.05448588270762,8.92191572891979,10.1124203763629,11.6194795199153,FALSE,8.26887169604976
"CAN","cpi",0.3,1982,3,1981,NA,1.5,4.40319273698404,12.0643144723447,10.1124203763629,12.7194356761443,TRUE,7.66112173536064
"CAN","cpi",0.3,1983,3,1983,NA,0,4.7541342304567,5.29039828961788,5.67091787896303,5.82764740362034,FALSE,1.62346288586162
"CAN","cpi",0.3,1983,3,1983,NA,0.5,7.67670168474069,9.75635226696311,5.67091787896303,4.97543944794331,FALSE,7.81046145587287
"CAN","cpi",0.3,1983,3,1982,NA,1,2.06997193657822,7.35589361502966,5.67091787896303,9.23778396682256,TRUE,5.28592167845144
"CAN","cpi",0.3,1983,3,1982,NA,1.5,2.96664969305881,8.25257137151025,5.67091787896303,9.78870144173853,TRUE,5.28592167845144
"CAN","cpi",0.3,1984,3,1984,NA,0,3.09554611943699,3.43129924403893,4.19799576814029,4.21357537293321,FALSE,2.5263146220344
"CAN","cpi",0.3,1984,3,1984,NA,0.5,5.73971737235776,7.37785568642525,4.19799576814029,4.64258933063566,FALSE,6.04305718326027
"CAN","cpi",0.3,1984,3,1983,NA,1,2.50265411464956,5.09614977312538,4.19799576814029,6.13137654871218,TRUE,2.59349565847583
"CAN","cpi",0.3,1984,3,1983,NA,1.5,-0.70731717245388,2.39443856797719,4.19799576814029,3.46832438596907,FALSE,8.25477631232564
"CAN","cpi",0.3,1985,3,1985,NA,0,2.63978771054978,2.91764742728878,3.86444262005169,3.91909325760218,FALSE,2.98298883891875
"CAN","cpi",0.3,1985,3,1985,NA,0.5,4.63487392304135,5.99825173694353,3.86444262005169,3.89150188195039,FALSE,3.56461010815835
"CAN","cpi",0.3,1985,3,1984,NA,1,0.751423119791552,2.89644317499209,3.86444262005169,3.29397074977035,FALSE,4.91073275537083
"CAN","cpi",0.3,1985,3,1984,NA,1.5,2.35309906817224,4.75478312821181,3.86444262005169,4.4666103475984,TRUE,2.40168406003957
"CAN","cpi",0.3,1986,3,1986,NA,0,2.61821049881356,2.89018587732393,4.08685396749431,4.1058885406559,FALSE,3.69102706471146
"CAN","cpi",0.3,1986,3,1986,NA,0.5,4.71787978610647,6.17011705654516,4.08685396749431,4.41001406158749,FALSE,3.25516818075915
"CAN","cpi",0.3,1986,3,1985,NA,1,1.85029930220863,3.36505086723263,4.08685396749431,3.99303879319441,FALSE,3.57704613720024
"CAN","cpi",0.3,1986,3,1985,NA,1.5,2.86139843330037,4.37614999832437,4.08685396749431,4.22326323880904,TRUE,1.514751565024
"CAN","cpi",0.3,1987,3,1987,NA,0,2.76569168559474,3.06021017902421,4.23980729277887,4.35976718480882,FALSE,3.66479596129992
"CAN","cpi",0.3,1987,3,1987,NA,0.5,4.43531574340654,5.7851398388819,4.23980729277887,3.90936321394769,FALSE,1.90841966869727
"CAN","cpi",0.3,1987,3,1986,NA,1,2.11081895958508,3.87150184157867,4.23980729277887,4.33099659151455,FALSE,2.81298417113701
"CAN","cpi",0.3,1987,3,1986,NA,1.5,3.45249126145583,5.21317414344942,4.23980729277887,4.75247122036215,TRUE,1.76068288199359
"CAN","cpi",0.3,1988,3,1988,NA,0,2.70242362365869,2.96010761965572,3.92899537638065,4.01269560152408,FALSE,3.02593472949685
"CAN","cpi",0.3,1988,3,1988,NA,0.5,4.19373397945804,5.44704303523748,3.92899537638065,3.47075595914335,FALSE,2.00970506457197
"CAN","cpi",0.3,1988,3,1987,NA,1,2.40058480263644,4.03555530828191,3.92899537638065,4.58162438495066,TRUE,1.63497050564547
"CAN","cpi",0.3,1988,3,1987,NA,1.5,2.56130093337788,4.19627143902335,3.92899537638065,3.81364776332008,TRUE,1.63497050564547
"CAN","cpi",0.3,1989,3,1989,NA,0,2.95500165148583,3.2080424001269,4.82821664544208,5.02395320873108,FALSE,4.88211002097014
"CAN","cpi",0.3,1989,3,1989,NA,0.5,4.74519292954116,5.97113399812439,4.82821664544208,4.36789847845152,TRUE,1.22594106858323
"CAN","cpi",0.3,1989,3,1988,NA,1,2.33465780869915,3.74223863759278,4.82821664544208,4.46162561835953,FALSE,4.51037513703449
"CAN","cpi",0.3,1989,3,1988,NA,1.5,2.26581641394741,3.67339724284104,4.82821664544208,3.27838152614011,FALSE,4.70706483632516
"CAN","cpi",0.3,1990,3,1990,NA,0,3.02643207531521,3.3077241310351,4.64347549432717,4.51963128519567,FALSE,4.09772452226867
"CAN","cpi",0.3,1990,3,1990,NA,0.5,5.58066478284636,6.87194575847319,4.64347549432717,4.98434426998405,FALSE,3.96896465711022
"CAN","cpi",0.3,1990,3,1989,NA,1,3.56821595338106,5.17827309310996,4.64347549432717,5.9177493923911,TRUE,1.6100571397289
"CAN","cpi",0.3,1990,3,1989,NA,1.5,3.42183894421984,5.03189608394874,4.64347549432717,4.56185858388509,TRUE,1.6100571397289
"CAN","cpi",0.3,1991,3,1991,NA,0,3.34988268413217,3.6555331161899,5.4258100696218,5.62406762795447,FALSE,5.36358458472029
"CAN","cpi",0.3,1991,3,1991,NA,0.5,7.72007995302788,9.1867482828918,5.4258100696218,8.39172083833767,FALSE,8.02172513959559
"CAN","cpi",0.3,1991,3,1990,NA,1,1.96093618915494,3.42760451901886,5.4258100696218,3.86917616551897,FALSE,7.17582704587232
"CAN","cpi",0.3,1991,3,1990,NA,1.5,4.21580410310735,5.68247243297127,5.4258100696218,5.12288497855213,TRUE,1.46666832986392
"CAN","cpi",0.3,1992,3,1992,NA,0,2.1956641127866,2.40411365204545,1.47496888572843,1.48060592990191,FALSE,2.26757875942503
"CAN","cpi",0.3,1992,3,1992,NA,0.5,3.06099378124223,4.00884718846948,1.47496888572843,1.17198715241532,FALSE,5.47935310869524
"CAN","cpi",0.3,1992,3,1991,NA,1,0.85509020221366,2.18997872860492,1.47496888572843,2.52024528073196,TRUE,1.33488852639126
"CAN","cpi",0.3,1992,3,1991,NA,1.5,10.445576763196,11.7804652895873,1.47496888572843,10.1533377092026,FALSE,26.9651967477272
"CAN","cpi",0.3,1993,3,1993,NA,0,1.26536815129942,1.37789761284272,1.84351085411351,1.80262144325658,FALSE,1.44285300803127
"CAN","cpi",0.3,1993,3,1993,NA,0.5,2.51546894118922,3.1099354537924,1.84351085411351,2.34241315558581,FALSE,2.51434676139091
"CAN","cpi",0.3,1993,3,1992,NA,1,1.24315171346046,1.8866832264426,1.84351085411351,1.81805946412584,TRUE,0.643531512982146
"CAN","cpi",0.3,1993,3,1992,NA,1.5,0.920019796432074,1.56355130941422,1.84351085411351,1.14026360102641,FALSE,1.44341592640869
"CAN","cpi",0.3,1994,3,1994,NA,0,0.838419425647689,0.920106490809909,0.161630694655448,0.163616628358327,FALSE,2.01536915371148
"CAN","cpi",0.3,1994,3,1994,NA,0.5,0.776259165198993,1.11718187291626,0.161630694655448,-0.385140098029379,FALSE,2.0970040521274
"CAN","cpi",0.3,1994,3,1993,NA,1,0.853569291356265,1.52113636257949,0.161630694655448,1.37474728133383,FALSE,2.64453449036842
"CAN","cpi",0.3,1994,3,1993,NA,1.5,2.36460283085368,3.03216990207691,0.161630694655448,2.59685615311524,FALSE,6.96177317464676
"CAN","cpi",0.3,1995,3,1995,NA,0,1.05994126732442,1.14295057270304,2.11688403676572,2.19356448193293,FALSE,2.86567634555768
"CAN","cpi",0.3,1995,3,1995,NA,0.5,2.31913957675506,2.63979037376046,2.11688403676572,2.67750903542847,FALSE,0.898523768403523
"CAN","cpi",0.3,1995,3,1994,NA,1,1.18441217009633,1.50506296710173,2.11688403676572,1.34092618105198,FALSE,2.06871099604537
"CAN","cpi",0.3,1995,3,1994,NA,1.5,-1.13636728001788,-0.815716483012483,2.11688403676572,-1.3139842175605,FALSE,8.69950942494311
"CAN","cpi",0.3,1996,3,1996,NA,0,1.35779239761046,1.47353257808411,1.55309584667184,1.48206512402721,FALSE,0.34306380501003
"CAN","cpi",0.3,1996,3,1996,NA,0.5,1.77857524485652,2.44779690860147,1.55309584667184,1.23598680875262,FALSE,1.31344851570118
"CAN","cpi",0.3,1996,3,1995,NA,1,0.6551570468297,1.61378794272209,1.55309584667184,1.32983461361347,TRUE,0.958630895892386
"CAN","cpi",0.3,1996,3,1995,NA,1.5,2.90851615368259,3.86714704957497,1.55309584667184,3.42580605950136,FALSE,4.83126034449451
"CAN","cpi",0.3,1997,3,1997,NA,0,1.28157176297138,1.38711115797596,1.60528783555959,1.69050032419864,FALSE,0.728901330957812
"CAN","cpi",0.3,1997,3,1997,NA,0.5,2.20760198407077,2.80653971148018,1.60528783555959,2.11979188984917,FALSE,2.31983529458421
"CAN","cpi",0.3,1997,3,1996,NA,1,0.775048043554874,1.46076777602534,1.60528783555959,1.19524084873691,FALSE,1.09863418828262
"CAN","cpi",0.3,1997,3,1996,NA,1.5,1.07693866035189,1.76265839282235,1.60528783555959,1.35560903862103,TRUE,0.685719732470465
"CAN","cpi",0.3,1998,3,1998,NA,0,1.06390271969811,1.14803425361268,0.988908029337191,0.980088020931525,FALSE,0.298402077802904
"CAN","cpi",0.3,1998,3,1998,NA,0.5,1.65327795735545,2.23029587414798,0.988908029337191,1.31078347146242,FALSE,2.47521771113041
"CAN","cpi",0.3,1998,3,1997,NA,1,0.746613478793058,1.36259494890898,0.988908029337191,1.06570792570078,TRUE,0.61598147011592
"CAN","cpi",0.3,1998,3,1997,NA,1.5,1.92581375307966,2.54179522319558,0.988908029337191,2.25360669266494,FALSE,3.29285496652299
"CAN","cpi",0.3,1999,3,1999,NA,0,1.17439915456113,1.26236999657214,1.7107350135213,1.81711295343144,FALSE,1.36901374758002
"CAN","cpi",0.3,1999,3,1999,NA,0.5,1.15736356824392,1.57095198936086,1.7107350135213,0.788387565724544,FALSE,0.81296849014676
"CAN","cpi",0.3,1999,3,1998,NA,1,0.474506713459934,0.918604572897606,1.7107350135213,0.575366492854125,FALSE,2.70732768979107
"CAN","cpi",0.3,1999,3,1998,NA,1.5,1.52224750966288,1.96634536910055,1.7107350135213,1.68716976710558,TRUE,0.444097859437671
"CAN","cpi",0.3,2000,3,2000,NA,0,1.6765643801256,1.79510910169103,2.6718361971244,2.72999398726497,FALSE,2.62347927994647
"CAN","cpi",0.3,2000,3,2000,NA,0.5,2.12816057272993,2.83545881182224,2.6718361971244,2.06798867425529,TRUE,0.707298239092311
"CAN","cpi",0.3,2000,3,1999,NA,1,2.34731986972197,3.13180945571165,2.6718361971244,3.09152396062306,TRUE,0.784489585989674
"CAN","cpi",0.3,2000,3,1999,NA,1.5,0.590920933420075,1.37541051940975,2.6718361971244,0.842861855264031,FALSE,4.48856295088868
"CAN","cpi",0.3,2001,3,2001,NA,0,1.9826841848199,2.12071290237937,2.47906219852806,2.84208465688611,FALSE,1.16188384941288
"CAN","cpi",0.3,2001,3,2001,NA,0.5,2.33528351301274,3.12334025088718,2.47906219852806,1.88638468602912,TRUE,0.788056737874442
"CAN","cpi",0.3,2001,3,2000,NA,1,2.64773069227988,3.69043495698134,2.47906219852806,3.69789354026514,FALSE,1.52461424684952
"CAN","cpi",0.3,2001,3,2000,NA,1.5,1.37845029738815,2.42115456208961,2.47906219852806,1.8681620253813,FALSE,1.20815465452561
"CAN","cpi",0.3,2002,3,2002,NA,0,1.76874772528913,1.89352959254081,2.20880570551249,2.37599565696257,FALSE,1.02557076145648
"CAN","cpi",0.3,2002,3,2002,NA,0.5,1.65671187793399,2.32344961294688,2.20880570551249,0.913576617687781,TRUE,0.666737735012893
"CAN","cpi",0.3,2002,3,2001,NA,1,1.3479039198046,2.12000711734935,2.20880570551249,1.93734082085477,FALSE,1.02581344943943
"CAN","cpi",0.3,2002,3,2001,NA,1.5,0.95668887326923,1.72879207081398,2.20880570551249,1.22267801456389,FALSE,2.14357072525476
"CAN","cpi",0.3,2003,3,2003,NA,0,1.7966883434072,1.93552775070376,2.71189071546809,2.73251886371656,FALSE,2.35701930662321
"CAN","cpi",0.3,2003,3,2003,NA,0.5,3.84196540651755,4.67570664421767,2.71189071546809,4.31675684669419,FALSE,4.06252606927
"CAN","cpi",0.3,2003,3,2002,NA,1,3.45056496882037,4.2843062065205,2.71189071546809,4.61862409576541,FALSE,2.94423910442093
"CAN","cpi",0.3,2003,3,2002,NA,1.5,0.992260320502312,1.82600155820244,2.71189071546809,1.3655866266696,FALSE,3.36485311560199
"CAN","cpi",0.3,2004,3,2004,NA,0,1.64201252456834,1.77470341515094,1.83151661303942,1.82990600335775,FALSE,0.295014313121122
"CAN","cpi",0.3,2004,3,2004,NA,0.5,2.05223196877473,2.80180221585537,1.83151661303942,1.43982618755963,FALSE,1.38018554918152
"CAN","cpi",0.3,2004,3,2003,NA,1,0.664713453285517,1.41428370036616,1.83151661303942,1.02946817322814,FALSE,1.94166428328997
"CAN","cpi",0.3,2004,3,2003,NA,1.5,3.82875855279852,4.67918417358593,1.83151661303942,4.64649519124043,FALSE,6.55683116295625
"CAN","cpi",0.3,2005,3,2005,NA,0,1.58902777789839,1.70882778891523,2.18071628336509,2.38454318695835,FALSE,1.46805285230216
"CAN","cpi",0.3,2005,3,2005,NA,0.5,1.92133423079715,2.54104254787302,2.18071628336509,1.60616687455658,TRUE,0.619708317075874
"CAN","cpi",0.3,2005,3,2004,NA,1,1.26408101667968,1.88981498239949,2.18071628336509,1.65181790765431,FALSE,1.45688053990724
"CAN","cpi",0.3,2005,3,2004,NA,1.5,1.51989214926702,2.14562611498684,2.18071628336509,1.76259299547523,FALSE,0.725991589657675
"CAN","cpi",0.3,2006,3,2006,NA,0,1.59060526577457,1.7228312956111,1.97519342012289,2.13635134601064,FALSE,0.853260671298784
