isdrw/probabilistic-benchmark-forecasts/results/bayesian_quantile_regression/bqr_prediction_arima_auto_2026-02-20_11-40-32.csv
"country","target","tau","target_year","target_quarter","forecast_year","forecast_quarter","horizon","lower_bound","upper_bound","truth_value","prediction","covered","IS"
"CAN","cpi",0.1,1952,3,1952,NA,0,-26.2628386583232,-25.8223984017249,2.55562336095485,2.50792675283471,FALSE,63.5027108403311
"CAN","cpi",0.1,1952,3,1952,NA,0.5,-8.59257657681619,-5.43606447102621,2.55562336095485,5.20333179389047,FALSE,20.9158183990812
"CAN","cpi",0.1,1952,3,1951,NA,1,-19.7389291845301,-16.5824170787401,2.55562336095485,8.18998200969936,FALSE,45.6854908606677
"CAN","cpi",0.1,1952,3,1951,NA,1.5,10.4428381936527,17.1150379891159,2.55562336095485,7.55460015368862,FALSE,24.1993438681251
"CAN","cpi",0.1,1953,3,1953,NA,0,1.12302749104719,0.0871019912566898,-1.01492775838436,-0.954275034924989,FALSE,3.71508616561295
"CAN","cpi",0.1,1953,3,1953,NA,0.5,-8.82883657901229,-9.86476207880279,-1.01492775838436,-1.88711612688489,FALSE,18.6303729900282
"CAN","cpi",0.1,1953,3,1952,NA,1,-11.6732955537061,-12.7092210534966,-1.01492775838436,-0.873617238258229,FALSE,24.9513929337923
"CAN","cpi",0.1,1953,3,1952,NA,1.5,25.8842642417378,32.1752710544545,-1.01492775838436,5.93557635631702,FALSE,66.0669890352104
"CAN","cpi",0.1,1954,3,1954,NA,0,0.8934807165118,0.832922254740295,0.644425455961438,0.879731201855888,FALSE,0.492897672784856
"CAN","cpi",0.1,1954,3,1954,NA,0.5,0.868687687247802,0.843416749345707,0.644425455961438,-0.358875738913824,FALSE,0.473089576067602
"CAN","cpi",0.1,1954,3,1953,NA,1,13.4363645306595,14.0668818499214,0.644425455961438,3.38326531029323,FALSE,29.0570485963687
"CAN","cpi",0.1,1954,3,1953,NA,1.5,-2.21477117459571,-1.58425385533385,0.644425455961438,-1.28741438714058,FALSE,5.58313801102917
"CAN","cpi",0.1,1955,3,1955,NA,0,0.449863779495306,0.491588720548865,0.173649026558865,0.115254687233858,FALSE,0.655535503134539
"CAN","cpi",0.1,1955,3,1955,NA,0.5,-1.35525371428382,-1.1237354068548,0.173649026558865,-0.770970046821609,FALSE,3.11459482612605
"CAN","cpi",0.1,1955,3,1954,NA,1,8.15675302525093,8.51123480624638,0.173649026558865,3.47019599757395,FALSE,18.0947128892
"CAN","cpi",0.1,1955,3,1954,NA,1.5,-8.29887825211918,-7.94439647112373,0.173649026558865,-1.89562740163941,FALSE,18.3945828869568
"CAN","cpi",0.1,1956,3,1956,NA,0,1.22520820195001,0.937781735789765,1.32752769429961,1.56059797998755,FALSE,0.578675663861629
"CAN","cpi",0.1,1956,3,1956,NA,0.5,-0.335677141772471,-0.623103607932716,1.32752769429961,-0.709146002056511,FALSE,4.0473097610227
"CAN","cpi",0.1,1956,3,1955,NA,1,1.33396567311287,1.04653920695263,1.32752769429961,0.884549626974225,FALSE,0.351299014195855
"CAN","cpi",0.1,1956,3,1955,NA,1.5,-4.6187075303823,-4.90613399654254,1.32752769429961,-1.89150615642833,FALSE,13.5651550690445
"CAN","cpi",0.1,1957,3,1957,NA,0,1.96426445444031,2.13310931294123,3.24684755852518,3.4151370317006,FALSE,2.64381873757636
"CAN","cpi",0.1,1957,3,1957,NA,0.5,3.65550029757641,4.22280337123912,3.24684755852518,2.23982631608766,FALSE,1.47542027155434
"CAN","cpi",0.1,1957,3,1956,NA,1,9.12028792020642,10.0723223279274,3.24684755852518,6.98754636690555,FALSE,14.0041241003459
"CAN","cpi",0.1,1957,3,1956,NA,1.5,-5.33527431903582,-4.38323991131488,3.24684755852518,-1.88668623310337,FALSE,17.9077843406988
"CAN","cpi",0.1,1958,3,1958,NA,0,1.80019734753117,1.90090088404088,2.33186388641149,2.22387249143335,FALSE,1.05839909733329
"CAN","cpi",0.1,1958,3,1958,NA,0.5,4.00730285039403,4.67413008091178,2.33186388641149,2.22839060734872,FALSE,4.39002492825673
"CAN","cpi",0.1,1958,3,1957,NA,1,0.800209270827058,2.69131400100789,2.33186388641149,4.42088197051908,TRUE,1.89110473018084
"CAN","cpi",0.1,1958,3,1957,NA,1.5,-1.44069757929852,0.450407150882314,2.33186388641149,0.91301479707402,FALSE,6.07211969802345
"CAN","cpi",0.1,1959,3,1959,NA,0,1.27888388862166,1.36421236297551,1.19382698397654,1.24991216431293,FALSE,0.274343818009666
"CAN","cpi",0.1,1959,3,1959,NA,0.5,1.77291647618912,2.04991638820776,1.19382698397654,0.437839731590327,FALSE,1.56386545026882
"CAN","cpi",0.1,1959,3,1958,NA,1,-0.469818108949241,-0.0157144025420322,1.19382698397654,1.75862762885946,FALSE,3.14197345422626
"CAN","cpi",0.1,1959,3,1958,NA,1.5,1.22400497092493,2.37952482400197,1.19382698397654,1.77407172713766,FALSE,1.22258204629569
"CAN","cpi",0.1,1960,3,1960,NA,0,0.960437917520177,1.01451379490605,1.34209404870695,1.02361304259477,FALSE,0.782031996943426
"CAN","cpi",0.1,1960,3,1960,NA,0.5,1.63765409406938,1.79845208716844,1.34209404870695,0.53898348018166,FALSE,0.817598093904452
"CAN","cpi",0.1,1960,3,1959,NA,1,3.24843037145871,3.49947542486907,1.34209404870695,3.95759373689442,FALSE,4.48734799285871
"CAN","cpi",0.1,1960,3,1959,NA,1.5,-1.43436676376402,-1.18332171035366,1.34209404870695,-0.873476815404885,FALSE,5.86308007354505
"CAN","cpi",0.1,1961,3,1961,NA,0,1.0154337557258,1.08744527201722,1.00921348094007,1.00921348094007,FALSE,0.0858343491485886
"CAN","cpi",0.1,1961,3,1961,NA,0.5,2.16078688105179,2.35270970151072,1.00921348094007,1.00921348094007,FALSE,2.75097482070719
"CAN","cpi",0.1,1961,3,1960,NA,1,-0.867356964300668,-0.675434143841737,1.00921348094007,0.0537704626035329,FALSE,3.93558420886295
"CAN","cpi",0.1,1961,3,1960,NA,1.5,-1.29267694803655,-1.10075412757762,1.00921348094007,-0.862181798940035,FALSE,4.88073972827602
"CAN","cpi",0.1,1962,3,1962,NA,0,0.981004899764653,1.04191019697162,1.04957947883042,1.10232402731478,FALSE,0.0779481457820689
"CAN","cpi",0.1,1962,3,1962,NA,0.5,0.989775314945785,1.08304246314933,1.04957947883042,0,TRUE,0.0932671482035444
"CAN","cpi",0.1,1962,3,1961,NA,1,-0.315151972006069,-0.162887907452893,1.04957947883042,0,FALSE,2.84663603407164
"CAN","cpi",0.1,1962,3,1961,NA,1.5,-0.105687824987243,0.0802580537784411,1.04957947883042,0,FALSE,2.33999348999229
"CAN","cpi",0.1,1963,3,1963,NA,0,1.30421176805556,1.36363152753236,1.60677118395228,1.91491729531202,FALSE,0.599730107076628
"CAN","cpi",0.1,1963,3,1963,NA,0.5,1.79888009626487,1.94257745105505,1.60677118395228,0.836828714617504,FALSE,0.570606048818146
"CAN","cpi",0.1,1963,3,1962,NA,1,1.92536923898429,2.25464775541189,1.60677118395228,2.56411490415144,FALSE,1.0372741942765
"CAN","cpi",0.1,1963,3,1962,NA,1.5,-0.150647053685621,0.178631462741978,1.60677118395228,0,FALSE,3.50292234133939
"CAN","cpi",0.1,1964,3,1964,NA,0,1.43479690594467,1.50668504140222,1.88764670034376,1.98877256446048,FALSE,0.918469599772085
"CAN","cpi",0.1,1964,3,1964,NA,0.5,2.47500551460549,2.70035825747135,1.88764670034376,1.38369006227607,FALSE,1.53059455233637
"CAN","cpi",0.1,1964,3,1963,NA,1,3.95903024296589,4.33358899133683,1.88764670034376,5.39044290347256,FALSE,4.97763328753123
"CAN","cpi",0.1,1964,3,1963,NA,1.5,-0.222244985249661,0.152313763121277,1.88764670034376,0,FALSE,4.2308541644209
"CAN","cpi",0.1,1965,3,1965,NA,0,1.61407484154091,1.68497766857914,2.29538304394236,2.34557047418999,FALSE,1.42735921673427
"CAN","cpi",0.1,1965,3,1965,NA,0.5,2.7652147856684,2.95803495051105,2.29538304394236,1.61079447956654,FALSE,1.23689070201163
"CAN","cpi",0.1,1965,3,1964,NA,1,1.63590965939831,1.98301805451874,2.29538304394236,2.42518862179847,FALSE,1.0412528160618
"CAN","cpi",0.1,1965,3,1964,NA,1.5,0.591776757293645,0.938885152414069,2.29538304394236,0.818102552316399,FALSE,3.36154815407217
"CAN","cpi",0.1,1966,3,1966,NA,0,2.26818029226597,2.34649405602777,3.72486065470629,3.82010987863709,FALSE,3.14135064971407
"CAN","cpi",0.1,1966,3,1966,NA,0.5,4.95992234350955,5.25851039910461,3.72486065470629,3.99123398895563,FALSE,3.04316958626898
"CAN","cpi",0.1,1966,3,1965,NA,1,2.26161296063452,2.70001802561996,3.72486065470629,3.20722068745854,FALSE,2.71583312962173
"CAN","cpi",0.1,1966,3,1965,NA,1.5,1.26980508600273,1.78554960010725,3.72486065470629,1.60663824631958,FALSE,4.82532463543572
"CAN","cpi",0.1,1967,3,1967,NA,0,2.60664705389852,2.68656470218851,3.49360316391996,3.76768849328632,FALSE,1.87333645213766
"CAN","cpi",0.1,1967,3,1967,NA,0.5,4.11972381232485,4.34722104063825,3.49360316391996,2.4074547441976,FALSE,1.61887644699093
"CAN","cpi",0.1,1967,3,1966,NA,1,2.12981482420707,2.83158238808277,3.49360316391996,3.18103323070284,FALSE,2.1729248435139
"CAN","cpi",0.1,1967,3,1966,NA,1.5,4.04548851974393,5.03067019237638,3.49360316391996,4.65128160487248,FALSE,2.2115935744635
"CAN","cpi",0.1,1968,3,1968,NA,0,2.66811651616437,2.77634545169331,3.95128347779386,4.17287945672396,FALSE,2.71920232686349
"CAN","cpi",0.1,1968,3,1968,NA,0.5,5.49728082814214,5.88385323457406,3.95128347779386,4.07097205779852,FALSE,3.82212207387255
"CAN","cpi",0.1,1968,3,1967,NA,1,4.57922384243887,5.37719088640941,3.95128347779386,5.84521682123848,FALSE,2.19339007651501
"CAN","cpi",0.1,1968,3,1967,NA,1.5,2.09285757141909,2.89082461538963,3.95128347779386,2.25565858240226,FALSE,3.1545422937577
"CAN","cpi",0.1,1969,3,1969,NA,0,2.8866005937057,2.98722898034694,4.42679496126681,4.46896837073893,FALSE,3.29966389979651
"CAN","cpi",0.1,1969,3,1969,NA,0.5,4.74864683694971,5.05649055120933,4.42679496126681,2.96612019395715,FALSE,1.02307010466606
"CAN","cpi",0.1,1969,3,1968,NA,1,5.16798254970179,6.31226365338195,4.42679496126681,6.72487630040807,FALSE,2.79136463353566
"CAN","cpi",0.1,1969,3,1968,NA,1.5,4.17562937836947,5.55146448273042,4.42679496126681,4.31664452944541,TRUE,1.37583510436095
"CAN","cpi",0.1,1970,3,1970,NA,0,2.65635114892206,2.75812759860535,3.28128405769805,3.52697515579364,FALSE,1.26434635877817
"CAN","cpi",0.1,1970,3,1970,NA,0.5,6.45289328886369,6.81209436303724,3.28128405769805,4.65371085276917,FALSE,7.40722158787498
"CAN","cpi",0.1,1970,3,1969,NA,1,3.37885317546063,4.1890035678307,3.28128405769805,4.52747875087707,FALSE,1.0269706540647
"CAN","cpi",0.1,1970,3,1969,NA,1.5,2.28043259537573,3.16942501319969,3.28128405769805,2.07973847283129,FALSE,1.13756807226475
"CAN","cpi",0.1,1971,3,1971,NA,0,2.11836749853649,2.20795638688342,2.64123406634756,2.8393232579169,FALSE,1.05242817604502
"CAN","cpi",0.1,1971,3,1971,NA,0.5,3.68083710024263,3.91844373714206,2.64123406634756,2.06692165705507,FALSE,2.54783560111069
"CAN","cpi",0.1,1971,3,1970,NA,1,2.20714413672429,2.70381619010842,2.64123406634756,2.64105994583495,TRUE,0.496672053384129
"CAN","cpi",0.1,1971,3,1970,NA,1.5,4.95069360988692,6.27462218614978,2.64123406634756,4.63977638900468,FALSE,6.45606089523921
"CAN","cpi",0.1,1972,3,1972,NA,0,2.75322253717589,2.84139108473564,4.83230569625923,5.03048103188219,FALSE,4.5124232398344
"CAN","cpi",0.1,1972,3,1972,NA,0.5,6.07105535199734,6.51825272592288,4.83230569625923,5.06705904355972,FALSE,3.1999743866769
"CAN","cpi",0.1,1972,3,1971,NA,1,5.25382779796478,6.09419260289222,4.83230569625923,5.9169160270675,FALSE,1.77708058649532
"CAN","cpi",0.1,1972,3,1971,NA,1.5,3.70121431014125,4.54157911506869,4.83230569625923,3.09276495441271,FALSE,1.48642387423975
"CAN","cpi",0.1,1973,3,1973,NA,0,3.97522955242717,4.11477623736897,7.12388603531779,6.99264756193144,FALSE,6.82645734705029
"CAN","cpi",0.1,1973,3,1973,NA,0.5,7.27678989130175,7.77773825867493,7.12388603531779,5.47469896411854,FALSE,0.840734714004197
"CAN","cpi",0.1,1973,3,1972,NA,1,5.4198938962525,6.74921814638681,7.12388603531779,6.69062283747837,FALSE,2.16191955886982
"CAN","cpi",0.1,1973,3,1972,NA,1.5,5.80283480898729,7.13215905912161,7.12388603531779,4.73174243586486,TRUE,1.32932425013431
"CAN","cpi",0.1,1974,3,1974,NA,0,5.50889261454373,5.71674990442858,10.2717243737774,9.94431520564033,FALSE,10.3300227773267
"CAN","cpi",0.1,1974,3,1974,NA,0.5,10.7553641696374,11.592197656456,10.2717243737774,8.3378654175141,FALSE,1.91158858872964
"CAN","cpi",0.1,1974,3,1973,NA,1,5.99594171086344,7.0931518231265,10.2717243737774,7.16712422635118,FALSE,8.1607046692651
"CAN","cpi",0.1,1974,3,1973,NA,1.5,5.34269776063,6.62964469051431,10.2717243737774,4.05174749178054,FALSE,9.38045733713567
"CAN","cpi",0.1,1975,3,1975,NA,0,6.18917928741871,6.45590191400835,10.0232981493341,10.0931823619779,FALSE,8.19426981620247
"CAN","cpi",0.1,1975,3,1975,NA,0.5,12.5837201856786,13.3362566787983,10.0232981493341,8.98267476097328,FALSE,6.44236324055183
"CAN","cpi",0.1,1975,3,1974,NA,1,5.09176460333648,6.46840756825525,10.0232981493341,7.7837982223054,FALSE,9.2763998117607
"CAN","cpi",0.1,1975,3,1974,NA,1.5,6.41741618635372,7.79405915127249,10.0232981493341,5.75931605308519,FALSE,6.33050740505572
"CAN","cpi",0.1,1976,3,1976,NA,0,5.16660318555921,5.38535274709918,7.22784311401172,7.07277954951717,FALSE,4.31317259912338
"CAN","cpi",0.1,1976,3,1976,NA,0.5,11.8573133430477,12.2239802900362,7.22784311401172,8.59089060438327,FALSE,10.6543785670685
"CAN","cpi",0.1,1976,3,1975,NA,1,6.09628075916011,7.040447514975,7.22784311401172,10.4141477685142,FALSE,1.36060142034092
"CAN","cpi",0.1,1976,3,1975,NA,1.5,5.93059884813798,7.55882930587125,7.22784311401172,6.43051086134862,TRUE,1.62823045773326
"CAN","cpi",0.1,1977,3,1977,NA,0,4.60949201550368,4.80392177319229,7.58101410153764,7.55301151664772,FALSE,6.3657460429005
"CAN","cpi",0.1,1977,3,1977,NA,0.5,10.2686154558485,11.0325689299313,7.58101410153764,7.98165850021887,FALSE,6.73640092810691
"CAN","cpi",0.1,1977,3,1976,NA,1,1.14444381518203,2.07873557797496,7.58101410153764,3.72134649143602,FALSE,13.16157737071
"CAN","cpi",0.1,1977,3,1976,NA,1.5,8.0321155746441,9.97616634608594,7.58101410153764,8.00272044475614,FALSE,2.94649848945618
"CAN","cpi",0.1,1978,3,1978,NA,0,5.07096119539231,5.32749913494171,8.50208927062595,8.67127840358843,FALSE,7.31118268551436
"CAN","cpi",0.1,1978,3,1978,NA,0.5,10.7461656818011,11.322905242004,8.50208927062595,8.3788273181893,FALSE,5.563576029481
"CAN","cpi",0.1,1978,3,1977,NA,1,4.80803955149008,5.80994884746291,8.50208927062595,7.54783828416051,FALSE,6.98444356966847
"CAN","cpi",0.1,1978,3,1977,NA,1.5,9.87519085901175,11.4082058629911,8.50208927062595,9.72562756342223,FALSE,4.58435186705887
"CAN","cpi",0.1,1979,3,1979,NA,0,5.29404472132027,5.52100330455346,8.65147652410481,8.56376390232469,FALSE,7.18356573779175
"CAN","cpi",0.1,1979,3,1979,NA,0.5,11.0986107212569,11.7138676403175,8.65147652410481,8.29599284966764,FALSE,6.05333291273192
"CAN","cpi",0.1,1979,3,1978,NA,1,5.72494219836421,6.96144544769262,8.65147652410481,9.20311500508918,FALSE,4.99212786357772
"CAN","cpi",0.1,1979,3,1978,NA,1.5,9.0415162301359,10.3353354171492,8.65147652410481,8.55646910152924,FALSE,2.16057408930456
"CAN","cpi",0.1,1980,3,1980,NA,0,5.63537420529873,5.86572603629451,9.5171912664748,9.50406722106931,FALSE,8.34471900917419
"CAN","cpi",0.1,1980,3,1980,NA,0.5,11.2544856534397,11.885710142576,9.5171912664748,8.57798914335092,FALSE,4.49187868239162
"CAN","cpi",0.1,1980,3,1979,NA,1,4.37313105659328,5.35808880170656,9.5171912664748,8.17875203710815,FALSE,10.2274076668205
"CAN","cpi",0.1,1980,3,1979,NA,1.5,8.76097656598348,10.2213698239554,9.5171912664748,8.39204766062112,TRUE,1.46039325797192
"CAN","cpi",0.1,1981,3,1981,NA,0,6.59722333124986,6.8880851657863,11.5813425032741,11.7113878984199,FALSE,10.7203225845094
"CAN","cpi",0.1,1981,3,1981,NA,0.5,14.9070302226198,15.4917408039096,11.5813425032741,12.2156196752767,FALSE,7.97512773539119
"CAN","cpi",0.1,1981,3,1980,NA,1,6.61294215198936,8.10895975966857,11.5813425032741,11.0496853423024,FALSE,9.21242370458047
"CAN","cpi",0.1,1981,3,1980,NA,1.5,8.10553826884888,9.60155587652809,11.5813425032741,8.33809792174894,FALSE,5.89554344489265
"CAN","cpi",0.1,1982,3,1982,NA,0,6.60152891610171,6.95525297222887,10.1124203763629,10.2566668151097,FALSE,7.36965162086956
"CAN","cpi",0.1,1982,3,1982,NA,0.5,13.5333673705593,14.4733957624175,10.1124203763629,10.1085355973545,FALSE,8.54213282340568
"CAN","cpi",0.1,1982,3,1981,NA,1,5.50793861267434,7.20704875373893,10.1124203763629,11.770988683124,FALSE,8.15549152467351
"CAN","cpi",0.1,1982,3,1981,NA,1.5,12.4885238649755,14.7645661947268,10.1124203763629,12.8701250351281,FALSE,7.55627230444587
"CAN","cpi",0.1,1983,3,1983,NA,0,4.80097473701713,5.01151556029627,5.67091787896303,5.7310121416489,FALSE,1.67587930920528
"CAN","cpi",0.1,1983,3,1983,NA,0.5,8.38593172636238,8.88540043144184,5.67091787896303,4.91343016009654,FALSE,6.53283281041134
"CAN","cpi",0.1,1983,3,1982,NA,1,4.22167822961205,6.22575879487009,5.67091787896303,9.18500149866057,TRUE,2.00408056525804
"CAN","cpi",0.1,1983,3,1982,NA,1.5,9.34845668943341,11.4087580968083,5.67091787896303,9.68672301569366,FALSE,10.2326098750869
"CAN","cpi",0.1,1984,3,1984,NA,0,NA,NA,4.19799576814029,NA,NA,NA
"CAN","cpi",0.1,1984,3,1984,NA,0.5,7.44420539212295,7.89151392118405,4.19799576814029,5.85770686024457,FALSE,7.66110769346702
"CAN","cpi",0.1,1984,3,1983,NA,1,3.19167981833033,4.05152326203609,4.19799576814029,5.76553357996429,FALSE,1.18533790171508
"CAN","cpi",0.1,1984,3,1983,NA,1.5,2.97947423816067,3.83931768186643,4.19799576814029,2.9197996794717,FALSE,1.65690585764768
"CAN","cpi",0.1,1985,3,1985,NA,0,2.67245423882418,2.78718625139693,3.86444262005169,3.85417990135378,FALSE,2.50863505402778
"CAN","cpi",0.1,1985,3,1985,NA,0.5,5.55860289189616,5.83563042990781,3.86444262005169,4.21990042382899,FALSE,4.04182814211047
"CAN","cpi",0.1,1985,3,1984,NA,1,NA,NA,3.86444262005169,NA,NA,NA
"CAN","cpi",0.1,1985,3,1984,NA,1.5,9.12715858515313,10.5821874036832,3.86444262005169,8.62999660305356,FALSE,13.1499531854221
"CAN","cpi",0.1,1986,3,1986,NA,0,2.67428118404983,2.78045297252504,4.08685396749431,4.03771389199993,FALSE,3.00928511062914
"CAN","cpi",0.1,1986,3,1986,NA,0.5,5.45394780234159,5.80170004467229,4.08685396749431,4.38219332503529,FALSE,3.38573854199132
"CAN","cpi",0.1,1986,3,1985,NA,1,1.56823067422704,2.38133973072337,4.08685396749431,3.37849976080849,FALSE,4.60314069376509
"CAN","cpi",0.1,1986,3,1985,NA,1.5,5.14811239290252,5.96122144939885,4.08685396749431,4.95309858900956,FALSE,3.17146111295901
"CAN","cpi",0.1,1987,3,1987,NA,0,NA,NA,4.23980729277887,NA,NA,NA
"CAN","cpi",0.1,1987,3,1987,NA,0.5,5.29610552432237,5.58853720795499,4.23980729277887,4.13342161080085,FALSE,2.63976108706262
"CAN","cpi",0.1,1987,3,1986,NA,1,2.01333140526793,2.68270300532087,4.23980729277887,3.66140988164798,FALSE,4.12960334995961
"CAN","cpi",0.1,1987,3,1986,NA,1.5,5.10750321479503,5.77687481484796,4.23980729277887,4.80242768143514,FALSE,2.59758476008884
"CAN","cpi",0.1,1988,3,1988,NA,0,2.75861214994289,2.86169123874819,3.92899537638065,3.9438316199536,FALSE,2.47486606132188
"CAN","cpi",0.1,1988,3,1988,NA,0.5,4.65504850239694,4.96793517051445,3.92899537638065,3.35419215340812,FALSE,1.92633805926482
"CAN","cpi",0.1,1988,3,1987,NA,1,NA,NA,3.92899537638065,NA,NA,NA
"CAN","cpi",0.1,1988,3,1987,NA,1.5,4.39937403807281,4.88625672110109,3.92899537638065,3.89461929526446,FALSE,1.53216859789974
"CAN","cpi",0.1,1989,3,1989,NA,0,3.04840252782244,3.15103933710904,4.82821664544208,4.95130318392835,FALSE,3.82969749447113
"CAN","cpi",0.1,1989,3,1989,NA,0.5,5.27749206822308,5.52823875821635,4.82821664544208,4.23024942747073,FALSE,1.2491365183955
"CAN","cpi",0.1,1989,3,1988,NA,1,2.66817983766783,3.3083263249292,4.82821664544208,4.05841794603162,FALSE,4.01768053284555
"CAN","cpi",0.1,1989,3,1988,NA,1.5,2.88555981207855,3.52570629933992,4.82821664544208,2.597843559383,FALSE,3.53461392304394
"CAN","cpi",0.1,1990,3,1990,NA,0,3.09189068560411,3.20793538518859,4.64347549432717,4.4746950192663,FALSE,3.30613383100354
"CAN","cpi",0.1,1990,3,1990,NA,0.5,6.16649726359449,6.59846464207769,4.64347549432717,4.96487168902479,FALSE,3.81646019907725
"CAN","cpi",0.1,1990,3,1989,NA,1,3.90767582189638,4.60269850623185,4.64347549432717,5.43871373969076,FALSE,0.785638213436189
"CAN","cpi",0.1,1990,3,1989,NA,1.5,3.78065795429542,4.4756806386309,4.64347549432717,3.3732540002381,FALSE,1.0679001414383
"CAN","cpi",0.1,1991,3,1991,NA,0,3.44755744828609,3.58177318476251,5.4258100696218,5.61053369942382,FALSE,4.23207548060816
"CAN","cpi",0.1,1991,3,1991,NA,0.5,8.43003989143317,8.76407231869616,5.4258100696218,7.82199295477594,FALSE,7.01009869795493
"CAN","cpi",0.1,1991,3,1990,NA,1,2.41959981294896,3.07304193093554,5.4258100696218,3.66716818384097,FALSE,5.88181575951159
"CAN","cpi",0.1,1991,3,1990,NA,1.5,5.09452204492736,5.80266906426328,5.4258100696218,4.82481948664164,TRUE,0.708147019335915
"CAN","cpi",0.1,1992,3,1992,NA,0,NA,NA,1.47496888572843,NA,NA,NA
"CAN","cpi",0.1,1992,3,1992,NA,0.5,NA,NA,1.47496888572843,NA,NA,NA
"CAN","cpi",0.1,1992,3,1991,NA,1,1.66428591000051,2.50098819509349,1.47496888572843,2.76780571233213,FALSE,1.25740678347537
"CAN","cpi",0.1,1992,3,1991,NA,1.5,7.57508403148148,8.41178631657445,1.47496888572843,7.14938182660169,FALSE,14.3925137200997
"CAN","cpi",0.1,1993,3,1993,NA,0,NA,NA,NA,NA,NA,NA
"CAN","cpi",0.1,1993,3,1993,NA,0.5,NA,NA,NA,NA,NA,NA
"CAN","cpi",0.1,1993,3,1992,NA,1,NA,NA,NA,NA,NA,NA
"CAN","cpi",0.1,1993,3,1992,NA,1.5,NA,NA,NA,NA,NA,NA
"CAN","cpi",0.1,1994,3,1994,NA,0,NA,NA,NA,NA,NA,NA
"CAN","cpi",0.1,1994,3,1994,NA,0.5,NA,NA,NA,NA,NA,NA
"CAN","cpi",0.1,1994,3,1993,NA,1,NA,NA,NA,NA,NA,NA
"CAN","cpi",0.1,1994,3,1993,NA,1.5,NA,NA,NA,NA,NA,NA
"CAN","cpi",0.1,1995,3,1995,NA,0,NA,NA,2.11688403676572,NA,NA,NA
"CAN","cpi",0.1,1995,3,1995,NA,0.5,NA,NA,2.11688403676572,2.51937811073084,NA,NA
"CAN","cpi",0.1,1995,3,1994,NA,1,NA,NA,2.11688403676572,0.719396410821945,NA,NA
"CAN","cpi",0.1,1995,3,1994,NA,1.5,NA,NA,2.11688403676572,-1.04654603924828,NA,NA
"CAN","cpi",0.1,1996,3,1996,NA,0,1.34764705442621,1.3990916584956,1.55309584667184,1.42780748357026,FALSE,0.393676133349936
"CAN","cpi",0.1,1996,3,1996,NA,0.5,NA,NA,1.55309584667184,NA,NA,NA
"CAN","cpi",0.1,1996,3,1995,NA,1,NA,NA,1.55309584667184,NA,NA,NA
"CAN","cpi",0.1,1996,3,1995,NA,1.5,3.3656602943617,3.66815465586497,1.55309584667184,2.92232271175447,FALSE,4.33041535636962
"CAN","cpi",0.1,1997,3,1997,NA,0,1.31918720724237,1.36519210235362,1.60528783555959,1.73535847807117,FALSE,0.579550968902298
"CAN","cpi",0.1,1997,3,1997,NA,0.5,2.72132069613852,2.88519137619348,1.60528783555959,2.11078363597796,FALSE,2.64394370356368
"CAN","cpi",0.1,1997,3,1996,NA,1,0.658501814682003,1.06605677168435,1.60528783555959,0.984961337307556,FALSE,1.60584621005844
"CAN","cpi",0.1,1997,3,1996,NA,1.5,NA,NA,1.60528783555959,NA,NA,NA
"CAN","cpi",0.1,1998,3,1998,NA,0,1.08159742929992,1.124438956332,0.988908029337191,1.0350847138471,FALSE,0.248817971393706
"CAN","cpi",0.1,1998,3,1998,NA,0.5,2.33059409287997,2.51821953350811,0.988908029337191,1.68533655437107,FALSE,3.16915002627876
"CAN","cpi",0.1,1998,3,1997,NA,1,1.8804425655212,2.17676561578754,0.988908029337191,2.25159584334757,FALSE,2.27751090845302
"CAN","cpi",0.1,1998,3,1997,NA,1.5,2.67510095882592,2.97142400909226,0.988908029337191,2.38987816876076,FALSE,4.04341844913018
"CAN","cpi",0.1,1999,3,1999,NA,0,1.17505529666296,1.22024332916754,1.7107350135213,1.77618438459462,FALSE,1.13516955329071
"CAN","cpi",0.1,1999,3,1999,NA,0.5,1.59124958816362,1.72457673520354,1.7107350135213,1.0290924799153,TRUE,0.133327147039922
"CAN","cpi",0.1,1999,3,1998,NA,1,1.53318946759923,1.80283993340795,1.7107350135213,1.85177544064205,TRUE,0.269650465808725
"CAN","cpi",0.1,1999,3,1998,NA,1.5,3.14415216300451,3.41380262881323,1.7107350135213,2.94645730787123,FALSE,3.45502190910475
"CAN","cpi",0.1,2000,3,2000,NA,0,1.68853002760865,1.73933903772279,2.6718361971244,2.7102541785615,FALSE,2.1230249198955
"CAN","cpi",0.1,2000,3,2000,NA,0.5,2.84376506395756,3.03903418677807,2.6718361971244,2.34405201403356,FALSE,0.577333271338636
"CAN","cpi",0.1,2000,3,1999,NA,1,2.41468842731689,2.73332381798349,2.6718361971244,3.07542936781209,TRUE,0.318635390666593
"CAN","cpi",0.1,2000,3,1999,NA,1.5,2.52518222376741,2.843817614434,2.6718361971244,2.27809035801724,TRUE,0.318635390666593
"CAN","cpi",0.1,2001,3,2001,NA,0,1.99159546758587,2.04229265832267,2.47906219852806,2.77546584984351,FALSE,1.02129616897101
"CAN","cpi",0.1,2001,3,2001,NA,0.5,3.13515423408353,3.37381653345817,2.47906219852806,2.43566755503104,FALSE,1.696644600609
"CAN","cpi",0.1,2001,3,2000,NA,1,2.86447622715769,3.34371661556113,2.47906219852806,3.68958695319843,FALSE,1.33571600758038
"CAN","cpi",0.1,2001,3,2000,NA,1.5,3.27036355188044,3.74960394028388,2.47906219852806,3.01270789712173,FALSE,2.23768784029762
"CAN","cpi",0.1,2002,3,2002,NA,0,1.74475766655368,1.80177322109591,2.20880570551249,2.27196234986351,FALSE,0.961532186579069
"CAN","cpi",0.1,2002,3,2002,NA,0.5,2.41549631580914,2.62244023151247,2.20880570551249,1.58345411989126,FALSE,0.666256383029231
"CAN","cpi",0.1,2002,3,2001,NA,1,1.7368236113171,2.12736154115503,2.20880570551249,2.26510423845898,FALSE,0.571524961743383
"CAN","cpi",0.1,2002,3,2001,NA,1.5,3.2106484991573,3.64723680488646,2.20880570551249,3.02058043279009,FALSE,2.66290562493986
"CAN","cpi",0.1,2003,3,2003,NA,0,1.82445725843028,1.87475250051148,2.71189071546809,2.71326702620668,FALSE,1.91060238642923
"CAN","cpi",0.1,2003,3,2003,NA,0.5,4.5578968632663,4.82614352250667,2.71189071546809,4.51432649273496,FALSE,4.3704825432364
"CAN","cpi",0.1,2003,3,2002,NA,1,3.06601001189798,3.41356073776347,2.71189071546809,3.85618281746238,FALSE,1.13448249570969
"CAN","cpi",0.1,2003,3,2002,NA,1.5,2.62058141553154,2.96813214139703,2.71189071546809,2.39402389849184,TRUE,0.347550725865487
"CAN","cpi",0.1,2004,3,2004,NA,0,1.65029055002956,1.70250607404938,1.83151661303942,1.77466852383015,FALSE,0.338905610664358
"CAN","cpi",0.1,2004,3,2004,NA,0.5,2.38255779604436,2.62405870025959,1.83151661303942,1.55260435151936,FALSE,1.46603686644843
"CAN","cpi",0.1,2004,3,2003,NA,1,1.3626801162041,1.67661432840508,1.83151661303942,1.79415792598285,FALSE,0.658161511388406
"CAN","cpi",0.1,2004,3,2003,NA,1.5,4.31505807701681,4.67607993799523,1.83151661303942,4.26699272545716,FALSE,5.88000289203927
"CAN","cpi",0.1,2005,3,2005,NA,0,1.61147124348669,1.66100298221417,2.18071628336509,2.34345353472953,FALSE,1.20445018572953
"CAN","cpi",0.1,2005,3,2005,NA,0.5,2.11180979263345,2.29318481367736,2.18071628336509,1.50321338317329,TRUE,0.181375021043911
"CAN","cpi",0.1,2005,3,2004,NA,1,1.33708977350092,1.55853420275354,2.18071628336509,1.64043962712234,FALSE,1.60407127505606
"CAN","cpi",0.1,2005,3,2004,NA,1.5,2.26168175342451,2.52952934710645,2.18071628336509,2.03393284113233,FALSE,0.447770860480646
"CAN","cpi",0.1,2006,3,2006,NA,0,1.61528922130103,1.6620974255451,1.97519342012289,2.09514376892657,FALSE,0.742577081083593
"CAN","cpi",0.1,2006,3,2006,NA,0.5,2.65294773576372,2.87405933002783,1.97519342012289,2.09436263599022,FALSE,1.72723229568819
"CAN","cpi",0.1,2006,3,2005,NA,1,2.35461799360008,2.67200513187269,1.97519342012289,2.9582912060806,FALSE,1.16055285711082
"CAN","cpi",0.1,2006,3,2005,NA,1.5,1.97645654657395,2.29384368484656,1.97519342012289,1.64885961980806,FALSE,0.320194085941644
"CAN","cpi",0.1,2007,3,2007,NA,0,1.55853384621435,1.60464774938603,2.10062087284572,2.10683622102307,FALSE,1.14827639974878
"CAN","cpi",0.1,2007,3,2007,NA,0.5,2.63210769535354,2.83238433577071,2.10062087284572,2.17629902083353,FALSE,1.38135846821233
"CAN","cpi",0.1,2007,3,2006,NA,1,1.28787034881632,1.48814698923349,2.10062087284572,1.50861692709856,FALSE,1.56132971511101
"CAN","cpi",0.1,2007,3,2006,NA,1.5,2.37093581804583,2.64946194788336,2.10062087284572,2.15918616350405,FALSE,0.879226008059988
"CAN","cpi",0.1,2008,3,2008,NA,0,1.85797009077757,1.9078520469035,2.31447335265955,2.87079455148828,FALSE,0.953484857806049
"CAN","cpi",0.1,2008,3,2008,NA,0.5,1.95426014829319,2.19490021151261,2.31447335265955,1.31005314695267,FALSE,0.506358154657072
"CAN","cpi",0.1,2008,3,2007,NA,1,1.32903983862638,1.5696799018458,2.31447335265955,1.47031049982668,FALSE,1.89573662058332
"CAN","cpi",0.1,2008,3,2007,NA,1.5,2.64663594152137,2.88727600474079,2.31447335265955,2.46453195342394,FALSE,0.97877914957902
"CAN","cpi",0.1,2009,3,2009,NA,0,0.998915051321562,1.02956482729332,0.284533874408197,0.187122346349721,FALSE,1.6181635024459
"CAN","cpi",0.1,2009,3,2009,NA,0.5,1.033982659142,1.27789395690538,0.284533874408197,-0.0727492620466167,FALSE,1.90935304161628
"CAN","cpi",0.1,2009,3,2008,NA,1,3.12673232343493,3.38679431384858,0.284533874408197,3.81780026356951,FALSE,6.57605854380639
"CAN","cpi",0.1,2009,3,2008,NA,1.5,2.01384743019036,2.273909420604,0.284533874408197,1.68675152630419,FALSE,4.10298100326288
"CAN","cpi",0.1,2010,3,2010,NA,0,0.929257083979494,0.957710286707713,1.75525687020327,1.6089956646354,FALSE,1.80077894382946
"CAN","cpi",0.1,2010,3,2010,NA,0.5,1.98629652276376,2.06521109104675,1.75525687020327,1.91109502526183,FALSE,0.5923360184174
"CAN","cpi",0.1,2010,3,2009,NA,1,1.06658799877157,1.14550256705456,1.75525687020327,0.992295788494754,FALSE,1.43392413083569
"CAN","cpi",0.1,2010,3,2009,NA,1.5,1.17081906673398,1.25680087995655,1.75525687020327,0.885103052815867,FALSE,1.19366179154861
"CAN","cpi",0.1,2011,3,2011,NA,0,1.77110749369791,1.83278849541319,2.85717434028225,2.86665414062098,FALSE,2.33809399031318
"CAN","cpi",0.1,2011,3,2011,NA,0.5,2.87954763516901,3.10677677410902,2.85717434028225,2.76583381894771,FALSE,0.276947572021709
"CAN","cpi",0.1,2011,3,2010,NA,1,1.33208952070352,1.55931865964354,2.85717434028225,1.39294644169719,FALSE,3.1113528736927
"CAN","cpi",0.1,2011,3,2010,NA,1.5,1.95546134456852,2.18269048350853,2.85717434028225,1.64253060592363,FALSE,1.72608215399271
"CAN","cpi",0.1,2012,3,2012,NA,0,1.62962829258444,1.67707958498051,1.50118536134935,1.52822510849394,FALSE,0.332880028474056
"CAN","cpi",0.1,2012,3,2012,NA,0.5,2.54508259480012,2.81374780930252,1.50118536134935,1.92429021972789,FALSE,2.58843684439302
"CAN","cpi",0.1,2012,3,2011,NA,1,1.95224366960257,2.22090888410497,1.50118536134935,1.99945242447079,FALSE,1.27101701062067
"CAN","cpi",0.1,2012,3,2011,NA,1.5,2.71650458744501,3.10878973912702,1.50118536134935,2.48150957397962,FALSE,3.09299454300571
"CAN","cpi",0.1,2013,3,2013,NA,0,1.09214975661946,1.12439281322041,0.931270594714462,1.05630513423211,FALSE,0.389752305278729
"CAN","cpi",0.1,2013,3,2013,NA,0.5,1.64343458475856,1.83613517471237,0.931270594714462,1.16963454554932,FALSE,1.77528723449626
"CAN","cpi",0.1,2013,3,2012,NA,1,1.120805338358,1.3550139173391,0.931270594714462,1.08868089128742,FALSE,0.655396898188963
"CAN","cpi",0.1,2013,3,2012,NA,1.5,2.33710957566869,2.58007869752548,0.931270594714462,2.14573179530527,FALSE,3.36705574619952
"CAN","cpi",0.1,2014,3,2014,NA,0,1.24537610864561,1.28544311776562,1.87639912240215,1.99862849145116,FALSE,1.35330257497896
"CAN","cpi",0.1,2014,3,2014,NA,0.5,1.91170733901496,2.08687030110923,1.87639912240215,1.79231976082687,FALSE,0.253625665678298
"CAN","cpi",0.1,2014,3,2013,NA,1,1.36034314937505,1.53550611146932,1.87639912240215,1.40664989819898,FALSE,0.932702986389449
"CAN","cpi",0.1,2014,3,2013,NA,1.5,1.73922089650714,1.91438385860141,1.87639912240215,1.51436121777893,TRUE,0.17516296209427
"CAN","cpi",0.1,2015,3,2015,NA,0,1.23811411753063,1.27614079582674,1.11090953952792,1.2103065042478,FALSE,0.320703518302136
"CAN","cpi",0.1,2015,3,2015,NA,0.5,1.18472685815535,1.37385941150914,1.11090953952792,0.458547315718059,FALSE,0.353171039192526
"CAN","cpi",0.1,2015,3,2014,NA,1,1.50418628358015,1.71253604315635,1.11090953952792,1.57054781428135,FALSE,1.08229807969227
"CAN","cpi",0.1,2015,3,2014,NA,1.5,2.16034514099307,2.43236273677252,1.11090953952792,1.88229109541157,FALSE,2.60409671014645
"CAN","cpi",0.1,2016,3,2016,NA,0,1.09240124600862,1.12142569023113,1.41168586698797,1.41630667471992,FALSE,0.674047059237704
"CAN","cpi",0.1,2016,3,2016,NA,0.5,1.52942377149559,1.66294661873932,1.41168586698797,1.17972158292925,FALSE,0.395162635038451
"CAN","cpi",0.1,2016,3,2015,NA,1,1.67565686936818,1.87515967223492,1.41168586698797,1.8638656605167,FALSE,0.786105030378328
"CAN","cpi",0.1,2016,3,2015,NA,1.5,1.38788163085387,1.59101444970326,1.41168586698797,1.07023002715086,TRUE,0.203132818849397
"CAN","cpi",0.1,2017,3,2017,NA,0,1.2103387064449,1.24552617001372,1.57888581671161,1.50492692646759,FALSE,0.775986678453019
"CAN","cpi",0.1,2017,3,2017,NA,0.5,2.18899812008819,2.37858897606281,1.57888581671161,2.09086618282141,FALSE,1.54539597458923
"CAN","cpi",0.1,2017,3,2016,NA,1,1.15049994379904,1.35756663425947,1.57888581671161,1.14652050352824,FALSE,0.698887095909626
"CAN","cpi",0.1,2017,3,2016,NA,1.5,1.55116536861816,1.75823205907859,1.57888581671161,1.26788084523026,TRUE,0.207066690460431
"CAN","cpi",0.1,2018,3,2018,NA,0,1.5691025239082,1.61627080613338,2.23316270166586,2.41317537496083,FALSE,1.41803916118624
"CAN","cpi",0.1,2018,3,2018,NA,0.5,2.47991282535922,2.6940642968648,2.23316270166586,2.52809119314695,FALSE,0.762485079713048
"CAN","cpi",0.1,2018,3,2017,NA,1,1.20046818616646,1.41461965767203,2.23316270166586,1.16800101916097,FALSE,2.03313601371408
"CAN","cpi",0.1,2018,3,2017,NA,1.5,2.19471621501384,2.42728606521038,2.23316270166586,2.07298402260093,TRUE,0.232569850196542
"CAN","cpi",0.1,2019,3,2019,NA,0,NA,NA,1.91921619871868,NA,NA,NA
"CAN","cpi",0.1,2019,3,2019,NA,0.5,1.90187153230525,2.14194498872853,1.91921619871868,1.47328806303322,TRUE,0.240073456423279
"CAN","cpi",0.1,2019,3,2018,NA,1,2.09114039361359,2.33121385003687,1.91921619871868,2.23470281046333,FALSE,0.622127222856407
"CAN","cpi",0.1,2019,3,2018,NA,1.5,2.49703285446307,2.79311526534078,1.91921619871868,2.32030562567512,FALSE,1.58011942364302
"CAN","cpi",0.1,2020,3,2020,NA,0,1.06797052164997,1.10562274762665,0.71139989671781,0.673588636713597,FALSE,0.830031392492597
"CAN","cpi",0.1,2020,3,2020,NA,0.5,NA,NA,0.71139989671781,NA,NA,NA
"CAN","cpi",0.1,2020,3,2019,NA,1,NA,NA,0.71139989671781,NA,NA,NA
"CAN","cpi",0.1,2020,3,2019,NA,1.5,2.02652026452512,2.26122185536573,0.71139989671781,1.77705491937904,FALSE,3.15719129707907
"CAN","cpi",0.1,2021,3,2021,NA,0,1.61357021576155,1.66116483980082,3.31148121717802,3.2525646654712,FALSE,3.71496435154417
"CAN","cpi",0.1,2021,3,2021,NA,0.5,2.00034855643609,2.15417450548045,3.31148121717802,2.16773480502693,FALSE,2.72561864170564
"CAN","cpi",0.1,2021,3,2020,NA,1,1.50157213555524,1.6594623285971,3.31148121717802,1.61070774476322,FALSE,3.82904327877724
"CAN","cpi",0.1,2021,3,2020,NA,1.5,NA,NA,3.31148121717802,NA,NA,NA
"CAN","cpi",0.1,2022,3,2022,NA,0,3.4736848398589,3.59264920264193,6.50977236228281,6.58682891800883,FALSE,6.6014602730961
"CAN","cpi",0.1,2022,3,2022,NA,0.5,4.96306230089773,5.39363511109694,6.50977236228281,5.58900513180898,FALSE,2.91087781283448
"CAN","cpi",0.1,2022,3,2021,NA,1,2.86383507536636,3.29440788556557,6.50977236228281,3.35597076522593,FALSE,7.57582720290419
"CAN","cpi",0.1,2022,3,2021,NA,1.5,2.15882835971702,2.58940116991623,6.50977236228281,1.89458222166426,FALSE,9.14250879323605
"CAN","cpi",0.1,2023,3,2023,NA,0,3.48971911853405,3.59538759267527,3.78831288758619,3.96221561415741,FALSE,0.534391351721044
"CAN","cpi",0.1,2023,3,2023,NA,0.5,4.43772320989741,4.98890199818834,3.78831288758619,3.6121970566696,FALSE,1.99431283787142
"CAN","cpi",0.1,2023,3,2022,NA,1,4.49898653400907,5.11140047639834,3.78831288758619,5.4861852561408,FALSE,2.19168871221789
"CAN","cpi",0.1,2023,3,2022,NA,1.5,3.97867611458631,4.73947141018289,3.78831288758619,3.85557075258935,FALSE,1.18382468893017
"CAN","cpi",0.1,2024,3,2023,NA,1,3.93984265067351,4.36615077126483,NA,4.72280809903739,NA,NA
"CAN","cpi",0.1,2024,3,2023,NA,1.5,4.26494842871054,4.69125654930185,NA,4.36705509613113,NA,NA
"CAN","cpi",0.2,1952,3,1952,NA,0,-23.3632314530501,-10.7867838563649,2.55562336095485,2.50792675283471,FALSE,45.9324656399846
"CAN","cpi",0.2,1952,3,1952,NA,0.5,-13.5414092386072,-0.711789755537919,2.55562336095485,5.20333179389047,FALSE,20.9981522743012
"CAN","cpi",0.2,1952,3,1951,NA,1,-29.8808749506443,-17.051255467575,2.55562336095485,8.18998200969936,FALSE,61.846816554394
"CAN","cpi",0.2,1952,3,1951,NA,1.5,-1.67118034080373,16.9670526898747,2.55562336095485,7.55460015368862,TRUE,18.6382330306784
"CAN","cpi",0.2,1953,3,1953,NA,0,1.01349341533567,-0.0753218276492502,-1.01492775838436,-0.954275034924989,FALSE,3.98223769131516
"CAN","cpi",0.2,1953,3,1953,NA,0.5,-8.86104235877389,-9.94985760175881,-1.01492775838436,-1.88711612688489,FALSE,21.2485093654512
"CAN","cpi",0.2,1953,3,1952,NA,1,-12.5190882315611,-13.607903474546,-1.01492775838436,-0.873617238258229,FALSE,30.3936240474192
"CAN","cpi",0.2,1953,3,1952,NA,1.5,24.0763790322752,32.8845947892978,-1.01492775838436,5.93557635631702,FALSE,71.5364827336715
"CAN","cpi",0.2,1954,3,1954,NA,0,0.903805833184498,0.827033645525435,0.644425455961438,0.879731201855888,FALSE,0.571678755398588
"CAN","cpi",0.2,1954,3,1954,NA,0.5,0.729269348761794,0.652497161102731,0.644425455961438,-0.358875738913824,FALSE,0.135337544341827
"CAN","cpi",0.2,1954,3,1953,NA,1,13.0702380580931,14.3131286238026,0.644425455961438,3.38326531029323,FALSE,32.3074220710386
"CAN","cpi",0.2,1954,3,1953,NA,1.5,-2.51938927355524,-1.27649870784571,0.644425455961438,-1.28741438714058,FALSE,6.0452009752274
"CAN","cpi",0.2,1955,3,1955,NA,0,0.489372641774775,0.441153028642663,0.173649026558865,0.115254687233858,FALSE,0.741089424907664
"CAN","cpi",0.2,1955,3,1955,NA,0.5,-1.12471347409572,-1.17293308722784,0.173649026558865,-0.770970046821609,FALSE,3.31823567133464
"CAN","cpi",0.2,1955,3,1954,NA,1,7.3023900753157,8.50105986998776,0.173649026558865,3.47019599757395,FALSE,19.0205224165642
"CAN","cpi",0.2,1955,3,1954,NA,1.5,-8.55472020630933,-7.35605041163727,0.173649026558865,-1.89562740163941,FALSE,20.0229183901624
"CAN","cpi",0.2,1956,3,1956,NA,0,1.24422280959843,0.903535845888509,1.32752769429961,1.56059797998755,FALSE,0.719292657317825
"CAN","cpi",0.2,1956,3,1956,NA,0.5,-0.36689373316137,-0.707580696871293,1.32752769429961,-0.709146002056511,FALSE,4.74708401421733
"CAN","cpi",0.2,1956,3,1955,NA,1,1.29266182609726,0.951974862387341,1.32752769429961,0.884549626974225,FALSE,0.598195116070745
"CAN","cpi",0.2,1956,3,1955,NA,1.5,-4.79531159788952,-5.13599856159944,1.32752769429961,-1.89150615642833,FALSE,15.8181286760377
"CAN","cpi",0.2,1957,3,1957,NA,0,1.87928937509419,2.158109021004,3.24684755852518,3.4151370317006,FALSE,3.00066598971275
"CAN","cpi",0.2,1957,3,1957,NA,0.5,3.23085121062671,4.74503620039915,3.24684755852518,2.23982631608766,TRUE,1.51418498977244
"CAN","cpi",0.2,1957,3,1956,NA,1,8.49413551405813,10.1199474813743,3.24684755852518,6.98754636690555,FALSE,14.7440318561486
"CAN","cpi",0.2,1957,3,1956,NA,1.5,-5.46651586689058,-3.84070389957439,3.24684755852518,-1.88668623310337,FALSE,19.3446906125651
"CAN","cpi",0.2,1958,3,1958,NA,0,1.76113348333243,1.98052662977089,2.33186388641149,2.22387249143335,FALSE,1.09773628803997
"CAN","cpi",0.2,1958,3,1958,NA,0.5,3.67491668463906,5.12401062125979,2.33186388641149,2.22839060734872,FALSE,4.80672593218965
"CAN","cpi",0.2,1958,3,1957,NA,1,0.300890376614596,3.20419244694781,2.33186388641149,4.42088197051908,TRUE,2.90330207033321
"CAN","cpi",0.2,1958,3,1957,NA,1.5,-1.87952294796172,1.02377912237149,2.33186388641149,0.91301479707402,FALSE,6.1735139804332
"CAN","cpi",0.2,1959,3,1959,NA,0,1.25357599776382,1.42983840124966,1.19382698397654,1.24991216431293,FALSE,0.325634937954028
"CAN","cpi",0.2,1959,3,1959,NA,0.5,1.68478740833337,2.1419448131337,1.19382698397654,0.437839731590327,FALSE,1.6845584656924
"CAN","cpi",0.2,1959,3,1958,NA,1,-1.02259027415752,0.321114419960007,1.19382698397654,1.75862762885946,FALSE,3.52548610415886
"CAN","cpi",0.2,1959,3,1958,NA,1.5,0.661400551762361,2.86648685142261,1.19382698397654,1.77407172713766,TRUE,2.20508629966025
"CAN","cpi",0.2,1960,3,1960,NA,0,0.929045484621691,1.04129518937659,1.34209404870695,1.02361304259477,FALSE,0.864246853080805
"CAN","cpi",0.2,1960,3,1960,NA,0.5,1.60446943424817,1.93159780297941,1.34209404870695,0.53898348018166,FALSE,0.983066832584296
"CAN","cpi",0.2,1960,3,1959,NA,1,2.81843000206155,3.67407262672725,1.34209404870695,3.95759373689442,FALSE,4.5464825080522
"CAN","cpi",0.2,1960,3,1959,NA,1.5,-1.79803942768231,-0.942396803016616,1.34209404870695,-0.873476815404885,FALSE,6.56686975397462
"CAN","cpi",0.2,1961,3,1961,NA,0,0.98556538557706,1.12776440400259,1.00921348094007,1.00921348094007,TRUE,0.142199018425533
"CAN","cpi",0.2,1961,3,1961,NA,0.5,2.08326367626819,2.3902491648616,1.00921348094007,1.00921348094007,FALSE,2.99211097691371
"CAN","cpi",0.2,1961,3,1960,NA,1,-0.873344901672605,-0.5663594130792,1.00921348094007,0.0537704626035329,FALSE,4.24591772364158
"CAN","cpi",0.2,1961,3,1960,NA,1.5,-1.38400128518512,-1.07701579659171,1.00921348094007,-0.862181798940035,FALSE,5.52255868242286
"CAN","cpi",0.2,1962,3,1962,NA,0,0.959606522423375,1.08169480907614,1.04957947883042,1.10232402731478,TRUE,0.12208828665277
"CAN","cpi",0.2,1962,3,1962,NA,0.5,0.893130807301729,1.12851907683928,1.04957947883042,0,TRUE,0.235388269537547
"CAN","cpi",0.2,1962,3,1961,NA,1,-0.397412845502797,-0.0511970823055546,1.04957947883042,0,FALSE,3.09815716603717
"CAN","cpi",0.2,1962,3,1961,NA,1.5,-0.191464013586461,0.154751749610781,1.04957947883042,0,FALSE,2.58328508624633
"CAN","cpi",0.2,1963,3,1963,NA,0,1.26676728265853,1.41102343212672,1.60677118395228,1.91491729531202,FALSE,0.633625529032106
"CAN","cpi",0.2,1963,3,1963,NA,0.5,1.71568336084704,2.02686911095596,1.60677118395228,0.836828714617504,FALSE,0.583466192345812
"CAN","cpi",0.2,1963,3,1962,NA,1,1.77837988147781,2.32506362024243,1.60677118395228,2.56411490415144,FALSE,0.975705482578445
"CAN","cpi",0.2,1963,3,1962,NA,1.5,-0.216562441077669,0.33012129768695,1.60677118395228,0,FALSE,3.73830845442795
"CAN","cpi",0.2,1964,3,1964,NA,0,1.39605591192157,1.56637580011461,1.88764670034376,1.98877256446048,FALSE,0.973497138765905
"CAN","cpi",0.2,1964,3,1964,NA,0.5,2.37540895597254,2.77461242348017,1.88764670034376,1.38369006227607,FALSE,1.61860910657959
"CAN","cpi",0.2,1964,3,1963,NA,1,3.8902172573754,4.61118201120741,1.88764670034376,5.39044290347256,FALSE,5.72739114641111
"CAN","cpi",0.2,1964,3,1963,NA,1.5,-0.377496844903603,0.34346790892841,1.88764670034376,0,FALSE,4.58141173237039
"CAN","cpi",0.2,1965,3,1965,NA,0,1.58303152092753,1.74055654735284,2.29538304394236,2.34557047418999,FALSE,1.5445912678991
"CAN","cpi",0.2,1965,3,1965,NA,0.5,2.65318048676949,3.0414785897026,2.29538304394236,1.61079447956654,FALSE,1.28279171000093
"CAN","cpi",0.2,1965,3,1964,NA,1,1.37443748910538,2.08852252951451,2.29538304394236,2.42518862179847,FALSE,1.23123632647875
"CAN","cpi",0.2,1965,3,1964,NA,1.5,0.430893149652899,1.14497819006203,2.29538304394236,0.818102552316399,FALSE,3.59009717510996
"CAN","cpi",0.2,1966,3,1966,NA,0,2.22598198306205,2.41534741965499,3.72486065470629,3.82010987863709,FALSE,3.46314852422118
"CAN","cpi",0.2,1966,3,1966,NA,0.5,4.79916577892171,5.44563536888394,3.72486065470629,3.99123398895563,FALSE,3.33223240050079
"CAN","cpi",0.2,1966,3,1965,NA,1,1.96745441280686,3.02141333973753,3.72486065470629,3.20722068745854,FALSE,2.81257721435258
"CAN","cpi",0.2,1966,3,1965,NA,1.5,0.994872844289636,2.0488317712203,3.72486065470629,1.60663824631958,FALSE,5.24403113564563
"CAN","cpi",0.2,1967,3,1967,NA,0,2.53287988824632,2.75793874249561,3.49360316391996,3.76768849328632,FALSE,2.06421990781016
"CAN","cpi",0.2,1967,3,1967,NA,0.5,3.95129460832524,4.44815436175852,3.49360316391996,2.4074547441976,FALSE,1.64108836444648
"CAN","cpi",0.2,1967,3,1966,NA,1,1.81459491746514,3.07788935521856,3.49360316391996,3.18103323070284,FALSE,2.30257895950693
"CAN","cpi",0.2,1967,3,1966,NA,1.5,3.51585899835249,5.49944981105263,3.49360316391996,4.65128160487248,FALSE,2.03923039878147
"CAN","cpi",0.2,1968,3,1968,NA,0,2.60558148159096,2.80823309426535,3.95128347779386,4.17287945672396,FALSE,3.06027757149566
"CAN","cpi",0.2,1968,3,1968,NA,0.5,5.2975389177251,5.97958888317742,3.95128347779386,4.07097205779852,FALSE,4.04768856528043
"CAN","cpi",0.2,1968,3,1967,NA,1,4.11644123846806,5.87107543426792,3.95128347779386,5.84521682123848,FALSE,2.16752859748536
"CAN","cpi",0.2,1968,3,1967,NA,1.5,1.74571341666332,3.50034761246319,3.95128347779386,2.25565858240226,FALSE,2.88197385912654
"CAN","cpi",0.2,1969,3,1969,NA,0,2.83874198049944,3.01997455250342,4.42679496126681,4.46896837073893,FALSE,3.69828359391247
"CAN","cpi",0.2,1969,3,1969,NA,0.5,4.63672771944727,5.22589634037152,4.42679496126681,2.96612019395715,FALSE,1.11400051637539
"CAN","cpi",0.2,1969,3,1968,NA,1,4.49948706076613,6.97016508061502,4.42679496126681,6.72487630040807,FALSE,2.65240826859718
"CAN","cpi",0.2,1969,3,1968,NA,1.5,3.76091935925065,6.23159737909953,4.42679496126681,4.31664452944541,TRUE,2.47067801984888
"CAN","cpi",0.2,1970,3,1970,NA,0,2.59819619104096,2.81026686874355,3.28128405769805,3.52697515579364,FALSE,1.38961365008884
"CAN","cpi",0.2,1970,3,1970,NA,0.5,6.24607549550944,7.20123969600609,3.28128405769805,4.65371085276917,FALSE,8.36714279502512
"CAN","cpi",0.2,1970,3,1969,NA,1,3.05702987651126,4.83605015031188,3.28128405769805,4.52747875087707,TRUE,1.77902027380061
"CAN","cpi",0.2,1970,3,1969,NA,1.5,1.68630261229698,3.70836521116697,3.28128405769805,2.07973847283129,TRUE,2.02206259886999
"CAN","cpi",0.2,1971,3,1971,NA,0,2.07859723968298,2.24742305196433,2.64123406634756,2.8393232579169,FALSE,1.15335334823944
"CAN","cpi",0.2,1971,3,1971,NA,0.5,3.55195195933729,4.08939154060546,2.64123406634756,2.06692165705507,FALSE,2.81423431374249
"CAN","cpi",0.2,1971,3,1970,NA,1,1.79013245613273,2.8267705497452,2.64123406634756,2.64105994583495,TRUE,1.03663809361247
"CAN","cpi",0.2,1971,3,1970,NA,1.5,4.49616081498662,7.04725917122107,2.64123406634756,4.63977638900468,FALSE,7.1884152278321
"CAN","cpi",0.2,1972,3,1972,NA,0,2.68519897296239,2.85739037334281,4.83230569625923,5.03048103188219,FALSE,5.10947970767146
"CAN","cpi",0.2,1972,3,1972,NA,0.5,5.84152296603789,6.74147336006176,4.83230569625923,5.06705904355972,FALSE,3.42299356847052
"CAN","cpi",0.2,1972,3,1971,NA,1,4.78237967371337,6.59824778347851,4.83230569625923,5.9169160270675,TRUE,1.81586810976514
"CAN","cpi",0.2,1972,3,1971,NA,1.5,3.22686213322313,5.04273024298827,4.83230569625923,3.09276495441271,TRUE,1.81586810976514
"CAN","cpi",0.2,1973,3,1973,NA,0,3.91173713941955,4.16703720832749,7.12388603531779,6.99264756193144,FALSE,7.64742213638369
"CAN","cpi",0.2,1973,3,1973,NA,0.5,6.99364990043563,8.03201024722188,7.12388603531779,5.47469896411854,TRUE,1.03836034678625
"CAN","cpi",0.2,1973,3,1972,NA,1,5.23516390805592,7.72028865088024,7.12388603531779,6.69062283747837,TRUE,2.48512474282432
"CAN","cpi",0.2,1973,3,1972,NA,1.5,5.15290716233554,7.95132717468882,7.12388603531779,4.73174243586486,TRUE,2.79842001235327
"CAN","cpi",0.2,1974,3,1974,NA,0,5.38938390587353,5.83597115635357,10.2717243737774,9.94431520564033,FALSE,11.5359702940397
"CAN","cpi",0.2,1974,3,1974,NA,0.5,10.3861738874789,11.7992812254885,10.2717243737774,8.3378654175141,FALSE,1.69923112226324
"CAN","cpi",0.2,1974,3,1973,NA,1,4.9832959118426,7.44499856637605,10.2717243737774,7.16712422635118,FALSE,9.52851717303688
"CAN","cpi",0.2,1974,3,1973,NA,1.5,4.46826637986309,6.92996903439654,10.2717243737774,4.05174749178054,FALSE,10.8160910029856
"CAN","cpi",0.2,1975,3,1975,NA,0,6.06311956447929,6.59276942814839,10.0232981493341,10.0931823619779,FALSE,9.10597166663342
"CAN","cpi",0.2,1975,3,1975,NA,0.5,12.1161409743354,13.4573677893254,10.0232981493341,8.98267476097328,FALSE,6.57333387749325
"CAN","cpi",0.2,1975,3,1974,NA,1,4.26768117220934,6.16565230835527,10.0232981493341,7.7837982223054,FALSE,11.5420857385931
"CAN","cpi",0.2,1975,3,1974,NA,1.5,5.76676159640158,8.07104096091442,10.0232981493341,5.75931605308519,FALSE,7.18492233556209
"CAN","cpi",0.2,1976,3,1976,NA,0,5.01055867813156,5.51498343750031,7.22784311401172,7.07277954951717,FALSE,4.78657395064725
"CAN","cpi",0.2,1976,3,1976,NA,0.5,11.6259325711843,12.7444691158793,7.22784311401172,8.59089060438327,FALSE,12.1137601876264
"CAN","cpi",0.2,1976,3,1975,NA,1,5.75723938353684,7.73397328342238,7.22784311401172,10.4141477685142,TRUE,1.97673389988554
"CAN","cpi",0.2,1976,3,1975,NA,1.5,5.33279683684294,7.88559318430011,7.22784311401172,6.43051086134862,TRUE,2.55279634745717
"CAN","cpi",0.2,1977,3,1977,NA,0,4.5088815542901,4.91203076799646,7.58101410153764,7.55301151664772,FALSE,7.07560754755933
"CAN","cpi",0.2,1977,3,1977,NA,0.5,9.9996581943553,11.2117587398238,7.58101410153764,7.98165850021887,FALSE,7.25871077751263
"CAN","cpi",0.2,1977,3,1976,NA,1,0.759947998538146,2.29988530666328,7.58101410153764,3.72134649143602,FALSE,14.742759295311
"CAN","cpi",0.2,1977,3,1976,NA,1.5,7.39992804137048,10.9054576013174,7.58101410153764,8.00272044475614,TRUE,3.50552955994689
"CAN","cpi",0.2,1978,3,1978,NA,0,4.9806885645931,5.4096773207738,8.50208927062595,8.67127840358843,FALSE,8.16001863081107
"CAN","cpi",0.2,1978,3,1978,NA,0.5,10.5371955620124,11.9413568652503,8.50208927062595,8.3788273181893,FALSE,6.49192703170398
"CAN","cpi",0.2,1978,3,1977,NA,1,4.11053677475123,6.65173003182702,8.50208927062595,7.54783828416051,FALSE,7.16709135407311
"CAN","cpi",0.2,1978,3,1977,NA,1.5,9.26125053050186,12.8651227988988,8.50208927062595,9.72562756342223,FALSE,5.50177541808673
"CAN","cpi",0.2,1979,3,1979,NA,0,5.15137164005474,5.64620600268791,8.65147652410481,8.56376390232469,FALSE,8.00801066617541
"CAN","cpi",0.2,1979,3,1979,NA,0.5,10.7222457437401,12.1651709805271,8.65147652410481,8.29599284966764,FALSE,6.6198482858752
"CAN","cpi",0.2,1979,3,1978,NA,1,5.27505663686444,7.80814337604607,8.65147652410481,9.20311500508918,FALSE,4.64141960932848
"CAN","cpi",0.2,1979,3,1978,NA,1.5,7.98312262249865,11.2554141337533,8.65147652410481,8.55646910152924,TRUE,3.27229151125465
"CAN","cpi",0.2,1980,3,1980,NA,0,5.5069418279351,5.95970415310862,9.5171912664748,9.50406722106931,FALSE,9.34648010858896
"CAN","cpi",0.2,1980,3,1980,NA,0.5,10.83656864758,12.219520061132,9.5171912664748,8.57798914335092,FALSE,4.68139486631499
"CAN","cpi",0.2,1980,3,1979,NA,1,3.43731609881131,6.51202320797067,9.5171912664748,8.17875203710815,FALSE,10.5876272554197
"CAN","cpi",0.2,1980,3,1979,NA,1.5,7.75169041696303,11.2729640546342,9.5171912664748,8.39204766062112,TRUE,3.52127363767118
"CAN","cpi",0.2,1981,3,1981,NA,0,6.43443712551525,7.02472578232032,11.5813425032741,11.7113878984199,FALSE,11.9818304591896
"CAN","cpi",0.2,1981,3,1981,NA,0.5,14.31366949601,15.8847940468399,11.5813425032741,12.2156196752767,FALSE,8.40194203266954
"CAN","cpi",0.2,1981,3,1980,NA,1,5.41766062219202,8.7891804377858,11.5813425032741,11.0496853423024,FALSE,10.3519249793146
"CAN","cpi",0.2,1981,3,1980,NA,1.5,7.5828215338618,10.9543413494556,11.5813425032741,8.33809792174894,FALSE,4.93902270014017
"CAN","cpi",0.2,1982,3,1982,NA,0,6.51949411496459,7.09888825137185,10.1124203763629,10.2566668151097,FALSE,8.11322444888499
"CAN","cpi",0.2,1982,3,1982,NA,0.5,13.148899913755,14.79583131587,10.1124203763629,10.1085355973545,FALSE,9.23813024559514
"CAN","cpi",0.2,1982,3,1981,NA,1,3.93004159906703,8.5148648646231,10.1124203763629,11.770988683124,FALSE,8.57871204490569
"CAN","cpi",0.2,1982,3,1981,NA,1.5,11.1623934178363,15.7472166833923,10.1124203763629,12.8701250351281,FALSE,7.20975586923939
"CAN","cpi",0.2,1983,3,1983,NA,0,4.70021914687432,5.0803429898386,5.67091787896303,5.7310121416489,FALSE,1.85656106577537
"CAN","cpi",0.2,1983,3,1983,NA,0.5,7.92708212800898,9.22428919276045,5.67091787896303,4.91343016009654,FALSE,6.93761768736634
"CAN","cpi",0.2,1983,3,1982,NA,1,3.09907359092806,6.67427592074822,5.67091787896303,9.18500149866057,TRUE,3.57520232982017
"CAN","cpi",0.2,1983,3,1982,NA,1.5,8.59156804233057,12.1667703721507,5.67091787896303,9.68672301569366,FALSE,10.876827738239
"CAN","cpi",0.2,1984,3,1984,NA,0,NA,NA,4.19799576814029,NA,NA,NA
"CAN","cpi",0.2,1984,3,1984,NA,0.5,7.23942697379964,8.13727725451219,4.19799576814029,5.85770686024457,FALSE,8.50142829486093
"CAN","cpi",0.2,1984,3,1983,NA,1,2.68709732804915,4.59763320539202,4.19799576814029,5.76553357996429,TRUE,1.91053587734287
"CAN","cpi",0.2,1984,3,1983,NA,1.5,2.45307047080689,4.36360634814976,4.19799576814029,2.9197996794717,TRUE,1.91053587734287
"CAN","cpi",0.2,1985,3,1985,NA,0,2.59890118331838,2.84869669088792,3.86444262005169,3.85417990135378,FALSE,2.78916033047896
"CAN","cpi",0.2,1985,3,1985,NA,0.5,5.33634880526081,6.11234101606019,3.86444262005169,4.21990042382899,FALSE,4.45575767382217
"CAN","cpi",0.2,1985,3,1984,NA,1,NA,NA,3.86444262005169,NA,NA,NA
"CAN","cpi",0.2,1985,3,1984,NA,1.5,8.72560712453997,10.8299994802157,3.86444262005169,8.62999660305356,FALSE,14.2573036168964
"CAN","cpi",0.2,1986,3,1986,NA,0,2.60028186183493,2.84528294288782,4.08685396749431,4.03771389199993,FALSE,3.34892864256913
"CAN","cpi",0.2,1986,3,1986,NA,0.5,5.35309146015113,6.00543960356318,4.08685396749431,4.38219332503529,FALSE,3.8179418750541
"CAN","cpi",0.2,1986,3,1985,NA,1,1.30582929969108,2.66555933964551,4.08685396749431,3.37849976080849,FALSE,4.91296660957644
"CAN","cpi",0.2,1986,3,1985,NA,1.5,4.910647165676,6.4748845369234,4.08685396749431,4.95309858900956,FALSE,3.62372036670161
"CAN","cpi",0.2,1987,3,1987,NA,0,NA,NA,4.23980729277887,NA,NA,NA
"CAN","cpi",0.2,1987,3,1987,NA,0.5,5.00382279647478,5.79426158342391,4.23980729277887,4.13342161080085,FALSE,2.7004775461889
"CAN","cpi",0.2,1987,3,1986,NA,1,1.80619816049349,3.22898766668417,4.23980729277887,3.66140988164798,FALSE,3.94983857142744
"CAN","cpi",0.2,1987,3,1986,NA,1.5,4.84041633203001,6.26320583822068,4.23980729277887,4.80242768143514,FALSE,2.92431210431852
"CAN","cpi",0.2,1988,3,1988,NA,0,2.68768397265555,2.93084828266612,3.92899537638065,3.9438316199536,FALSE,2.7385320442969
"CAN","cpi",0.2,1988,3,1988,NA,0.5,4.44368693871567,5.14026396530325,3.92899537638065,3.35419215340812,FALSE,1.98330593242512
"CAN","cpi",0.2,1988,3,1987,NA,1,NA,NA,3.92899537638065,NA,NA,NA
"CAN","cpi",0.2,1988,3,1987,NA,1.5,3.95985241913037,5.12442143417361,3.92899537638065,3.89461929526446,FALSE,1.24171162191753
"CAN","cpi",0.2,1989,3,1989,NA,0,2.97207835454863,3.20200757123905,4.82821664544208,4.95130318392835,FALSE,4.29545190219799
"CAN","cpi",0.2,1989,3,1989,NA,0.5,5.10058663247964,5.75771762174066,4.82821664544208,4.23024942747073,FALSE,1.33805595685493
"CAN","cpi",0.2,1989,3,1988,NA,1,2.33326491989444,3.46215729063487,4.82821664544208,4.05841794603162,FALSE,4.54404075775844
"CAN","cpi",0.2,1989,3,1988,NA,1.5,2.70845877450753,3.83735114524796,4.82821664544208,2.597843559383,FALSE,3.60605612122571
"CAN","cpi",0.2,1990,3,1990,NA,0,3.00850474923948,3.26607615347897,4.64347549432717,4.4746950192663,FALSE,3.70106975635999
"CAN","cpi",0.2,1990,3,1990,NA,0.5,5.96758023459317,6.76085517298722,4.64347549432717,4.96487168902479,FALSE,4.10353678905905
"CAN","cpi",0.2,1990,3,1989,NA,1,3.68706217369339,4.95113139110809,4.64347549432717,5.43871373969076,TRUE,1.2640692174147
"CAN","cpi",0.2,1990,3,1989,NA,1.5,3.5577687827482,4.8218380001629,4.64347549432717,3.3732540002381,TRUE,1.2640692174147
"CAN","cpi",0.2,1991,3,1991,NA,0,3.37305507526227,3.66424591569753,5.4258100696218,5.61053369942382,FALSE,4.69510122524592
"CAN","cpi",0.2,1991,3,1991,NA,0.5,8.22842027436296,8.89927633135087,5.4258100696218,7.82199295477594,FALSE,7.67738156884081
"CAN","cpi",0.2,1991,3,1990,NA,1,2.09382525070339,3.29970352254458,5.4258100696218,3.66716818384097,FALSE,6.52114463953423
"CAN","cpi",0.2,1991,3,1990,NA,1.5,5.00666833128415,6.21254660312533,5.4258100696218,4.82481948664164,TRUE,1.20587827184119
"CAN","cpi",0.2,1992,3,1992,NA,0,NA,NA,1.47496888572843,NA,NA,NA
"CAN","cpi",0.2,1992,3,1992,NA,0.5,NA,NA,1.47496888572843,NA,NA,NA
"CAN","cpi",0.2,1992,3,1991,NA,1,1.32886539049127,2.56205717365411,1.47496888572843,2.76780571233213,TRUE,1.23319178316284
"CAN","cpi",0.2,1992,3,1991,NA,1.5,7.31685688230186,8.86256472055045,1.47496888572843,7.14938182660169,FALSE,16.1504278296822
"CAN","cpi",0.2,1993,3,1993,NA,0,NA,NA,NA,NA,NA,NA
"CAN","cpi",0.2,1993,3,1993,NA,0.5,NA,NA,NA,NA,NA,NA
"CAN","cpi",0.2,1993,3,1992,NA,1,NA,NA,NA,NA,NA,NA
"CAN","cpi",0.2,1993,3,1992,NA,1.5,NA,NA,NA,NA,NA,NA
"CAN","cpi",0.2,1994,3,1994,NA,0,NA,NA,NA,NA,NA,NA
"CAN","cpi",0.2,1994,3,1994,NA,0.5,NA,NA,NA,NA,NA,NA
"CAN","cpi",0.2,1994,3,1993,NA,1,NA,NA,NA,NA,NA,NA
"CAN","cpi",0.2,1994,3,1993,NA,1.5,NA,NA,NA,NA,NA,NA
"CAN","cpi",0.2,1995,3,1995,NA,0,NA,NA,2.11688403676572,NA,NA,NA
"CAN","cpi",0.2,1995,3,1995,NA,0.5,NA,NA,2.11688403676572,2.51937811073084,NA,NA
"CAN","cpi",0.2,1995,3,1994,NA,1,NA,NA,2.11688403676572,0.719396410821945,NA,NA
"CAN","cpi",0.2,1995,3,1994,NA,1.5,NA,NA,2.11688403676572,-1.04654603924828,NA,NA
"CAN","cpi",0.2,1996,3,1996,NA,0,1.30383236854256,1.42073615753985,1.55309584667184,1.42780748357026,FALSE,0.447803011827273
"CAN","cpi",0.2,1996,3,1996,NA,0.5,NA,NA,1.55309584667184,NA,NA,NA
"CAN","cpi",0.2,1996,3,1995,NA,1,NA,NA,1.55309584667184,NA,NA,NA
"CAN","cpi",0.2,1996,3,1995,NA,1.5,3.22912218164693,3.82623906107889,1.55309584667184,2.92232271175447,FALSE,4.78718271686967
"CAN","cpi",0.2,1997,3,1997,NA,0,1.29454858378817,1.39428031431008,1.60528783555959,1.73535847807117,FALSE,0.627250533645692
"CAN","cpi",0.2,1997,3,1997,NA,0.5,2.65237774918465,3.00130856919804,1.60528783555959,2.11078363597796,FALSE,2.96665560407603
"CAN","cpi",0.2,1997,3,1996,NA,1,0.586899108096763,1.11081105274833,1.60528783555959,0.984961337307556,FALSE,1.76010390167972
"CAN","cpi",0.2,1997,3,1996,NA,1.5,NA,NA,1.60528783555959,NA,NA,NA
"CAN","cpi",0.2,1998,3,1998,NA,0,1.05776334191944,1.14309482511804,0.988908029337191,1.0350847138471,FALSE,0.25746976465423
"CAN","cpi",0.2,1998,3,1998,NA,0.5,2.22029939254209,2.61328065245477,0.988908029337191,1.68533655437107,FALSE,3.47145966792492
"CAN","cpi",0.2,1998,3,1997,NA,1,1.6611112145513,2.35512664866728,0.988908029337191,2.25159584334757,FALSE,2.37452339715125
"CAN","cpi",0.2,1998,3,1997,NA,1.5,2.55329900131579,3.24731443543178,0.988908029337191,2.38987816876076,FALSE,4.60499286406248
"CAN","cpi",0.2,1999,3,1999,NA,0,1.1526283470272,1.23634821399069,1.7107350135213,1.77618438459462,FALSE,1.26968686579001
"CAN","cpi",0.2,1999,3,1999,NA,0.5,1.53618871644959,1.79860118020134,1.7107350135213,1.0290924799153,TRUE,0.262412463751752
"CAN","cpi",0.2,1999,3,1998,NA,1,1.46741740178537,1.92749157444291,1.7107350135213,1.85177544064205,TRUE,0.460074172657539
"CAN","cpi",0.2,1999,3,1998,NA,1.5,2.93775375964043,3.55805098489801,1.7107350135213,2.94645730787123,FALSE,3.68784409055542
"CAN","cpi",0.2,2000,3,2000,NA,0,1.65803464650778,1.76738515012622,2.6718361971244,2.7102541785615,FALSE,2.37047812111389
"CAN","cpi",0.2,2000,3,2000,NA,0.5,2.73177811804171,3.11052347569147,2.6718361971244,2.34405201403356,FALSE,0.528600159943042
"CAN","cpi",0.2,2000,3,1999,NA,1,2.27749873734922,3.03595408074565,2.6718361971244,3.07542936781209,TRUE,0.758455343396437
"CAN","cpi",0.2,2000,3,1999,NA,1.5,2.37268566265125,3.13114100604768,2.6718361971244,2.27809035801724,TRUE,0.758455343396437
"CAN","cpi",0.2,2001,3,2001,NA,0,1.94787667719725,2.06178878716133,2.47906219852806,2.77546584984351,FALSE,1.15709563838091
"CAN","cpi",0.2,2001,3,2001,NA,0.5,3.03806120330813,3.52459494853059,2.47906219852806,2.43566755503104,FALSE,1.88403125717262
"CAN","cpi",0.2,2001,3,2000,NA,1,2.57951140753066,3.50377553208285,2.47906219852806,3.68958695319843,FALSE,1.17538714705867
"CAN","cpi",0.2,2001,3,2000,NA,1.5,3.04221685894357,3.98995238231992,2.47906219852806,3.01270789712173,FALSE,2.35562217441511
"CAN","cpi",0.2,2002,3,2002,NA,0,1.71680816579371,1.82746123531677,2.20880570551249,2.27196234986351,FALSE,1.06401424501235
"CAN","cpi",0.2,2002,3,2002,NA,0.5,2.25182339356634,2.7319804691403,2.20880570551249,1.58345411989126,FALSE,0.587701295708591
"CAN","cpi",0.2,2002,3,2001,NA,1,1.48893942696351,2.26968077196778,2.20880570551249,2.26510423845898,TRUE,0.780741345004276
"CAN","cpi",0.2,2002,3,2001,NA,1.5,3.11228795483101,3.89302929983529,2.20880570551249,3.02058043279009,FALSE,3.03944696830059
"CAN","cpi",0.2,2003,3,2003,NA,0,1.79527359944221,1.89754068266306,2.71189071546809,2.71326702620668,FALSE,2.13814216523342
"CAN","cpi",0.2,2003,3,2003,NA,0.5,4.46366901689228,4.95258749081274,2.71189071546809,4.51432649273496,FALSE,4.86836422748094
"CAN","cpi",0.2,2003,3,2002,NA,1,2.91130395456629,3.47528346408791,2.71189071546809,3.85618281746238,FALSE,1.06251260726712
"CAN","cpi",0.2,2003,3,2002,NA,1.5,2.48993395454173,3.20158733346002,2.71189071546809,2.39402389849184,TRUE,0.711653378918292
"CAN","cpi",0.2,2004,3,2004,NA,0,1.62970140616686,1.71458839970729,1.83151661303942,1.77466852383015,FALSE,0.377207526870763
"CAN","cpi",0.2,2004,3,2004,NA,0.5,2.22318545693248,2.74540783559369,1.83151661303942,1.55260435151936,FALSE,1.50139448839385
"CAN","cpi",0.2,2004,3,2003,NA,1,1.20857565868752,1.83864562586288,1.83151661303942,1.79415792598285,TRUE,0.63006996717536
"CAN","cpi",0.2,2004,3,2003,NA,1.5,4.20731574256774,5.02856010168683,1.83151661303942,4.26699272545716,FALSE,6.76074218293989
"CAN","cpi",0.2,2005,3,2005,NA,0,1.59270198362222,1.67853812163675,2.18071628336509,2.34345353472953,FALSE,1.34128154233539
"CAN","cpi",0.2,2005,3,2005,NA,0.5,2.04567898081486,2.39532928812873,2.18071628336509,1.50321338317329,TRUE,0.349650307313867
"CAN","cpi",0.2,2005,3,2004,NA,1,1.24472495276963,1.62654514162397,2.18071628336509,1.64043962712234,FALSE,1.76724804320713
"CAN","cpi",0.2,2005,3,2004,NA,1.5,2.16246452140032,2.66718218254141,2.18071628336509,2.03393284113233,TRUE,0.504717661141086
"CAN","cpi",0.2,2006,3,2006,NA,0,1.58703490584006,1.68030107178153,1.97519342012289,2.09514376892657,FALSE,0.830497036794861
"CAN","cpi",0.2,2006,3,2006,NA,0.5,2.55810644390842,2.98341185089844,1.97519342012289,2.09436263599022,FALSE,1.88258796645386
"CAN","cpi",0.2,2006,3,2005,NA,1,2.24437287945884,2.72335679270134,1.97519342012289,2.9582912060806,FALSE,1.15193256158238
"CAN","cpi",0.2,2006,3,2005,NA,1.5,1.90671522932756,2.48897584944072,1.97519342012289,1.64885961980806,TRUE,0.582260620113161
"CAN","cpi",0.2,2007,3,2007,NA,0,1.53330134917642,1.62288999803074,2.10062087284572,2.10683622102307,FALSE,1.28391583589178
"CAN","cpi",0.2,2007,3,2007,NA,0.5,2.57213276416094,2.93555914122669,2.10062087284572,2.17629902083353,FALSE,1.5422061053538
"CAN","cpi",0.2,2007,3,2006,NA,1,1.15391028981293,1.5516362860268,2.10062087284572,1.50861692709856,FALSE,1.77018746326118
"CAN","cpi",0.2,2007,3,2006,NA,1.5,2.24050453068365,2.79577916086043,2.10062087284572,2.15918616350405,FALSE,0.904983774771597
"CAN","cpi",0.2,2008,3,2008,NA,0,1.83329549038998,1.93306875626224,2.31447335265955,2.87079455148828,FALSE,1.05328475686553
"CAN","cpi",0.2,2008,3,2008,NA,0.5,1.88605987645128,2.29701622515531,2.31447335265955,1.31005314695267,FALSE,0.454599167464634
"CAN","cpi",0.2,2008,3,2007,NA,1,1.1435919720736,1.55454832077763,2.31447335265955,1.47031049982668,FALSE,2.31076892840883
"CAN","cpi",0.2,2008,3,2007,NA,1.5,2.55603105722887,2.99269371442624,2.31447335265955,2.46453195342394,FALSE,1.04055691862068
"CAN","cpi",0.2,2009,3,2009,NA,0,0.979275365476807,1.04755815479659,0.284533874408197,0.187122346349721,FALSE,1.80513651699131
"CAN","cpi",0.2,2009,3,2009,NA,0.5,0.965753864197021,1.33124123602117,0.284533874408197,-0.0727492620466167,FALSE,2.06853734629621
"CAN","cpi",0.2,2009,3,2008,NA,1,2.9900690252893,3.35555639711346,0.284533874408197,3.81780026356951,FALSE,7.12932524902692
"CAN","cpi",0.2,2009,3,2008,NA,1.5,1.95746982185066,2.34975822600949,0.284533874408197,1.68675152630419,FALSE,4.57462827276499
"CAN","cpi",0.2,2010,3,2010,NA,0,0.916774129704862,0.970375237870641,1.75525687020327,1.6089956646354,FALSE,2.01580518899736
"CAN","cpi",0.2,2010,3,2010,NA,0.5,1.97969367098673,2.08726082172049,1.75525687020327,1.91109502526183,FALSE,0.66865915269241
"CAN","cpi",0.2,2010,3,2009,NA,1,1.01582955495238,1.18711810347082,1.75525687020327,0.992295788494754,FALSE,1.59163546534958
"CAN","cpi",0.2,2010,3,2009,NA,1.5,1.14868324934266,1.31999701174789,1.75525687020327,0.885103052815867,FALSE,1.25946340854369
"CAN","cpi",0.2,2011,3,2011,NA,0,1.73981490581197,1.86220275515243,2.85717434028225,2.86665414062098,FALSE,2.60981681216499
"CAN","cpi",0.2,2011,3,2011,NA,0.5,2.8243293754263,3.23456729094956,2.85717434028225,2.76583381894771,TRUE,0.410237915523263
"CAN","cpi",0.2,2011,3,2010,NA,1,1.27500275642609,1.68524067194935,2.85717434028225,1.39294644169719,FALSE,3.3400720863555
"CAN","cpi",0.2,2011,3,2010,NA,1.5,1.85387864195587,2.31948573486398,2.85717434028225,1.64253060592363,FALSE,1.80982860645377
"CAN","cpi",0.2,2012,3,2012,NA,0,1.59185939986666,1.70369427412555,1.50118536134935,1.52822510849394,FALSE,0.338519970552173
"CAN","cpi",0.2,2012,3,2012,NA,0.5,2.39582032782473,2.94180066730558,1.50118536134935,1.92429021972789,FALSE,2.7825677556693
"CAN","cpi",0.2,2012,3,2011,NA,1,1.72562436360531,2.27160470308616,1.50118536134935,1.99945242447079,FALSE,1.10707784512077
"CAN","cpi",0.2,2012,3,2011,NA,1.5,2.68651197492692,3.31626402070979,1.50118536134935,2.48150957397962,FALSE,3.59306857972681
"CAN","cpi",0.2,2013,3,2013,NA,0,1.0700930095587,1.13653194924034,0.931270594714462,1.05630513423211,FALSE,0.413494976792229
"CAN","cpi",0.2,2013,3,2013,NA,0.5,1.57254920981532,1.92816670990572,0.931270594714462,1.16963454554932,FALSE,1.95881403784255
"CAN","cpi",0.2,2013,3,2012,NA,1,1.06379038320068,1.4453372259617,0.931270594714462,1.08868089128742,FALSE,0.712846313976559
"CAN","cpi",0.2,2013,3,2012,NA,1.5,2.23209490327134,2.72811224895201,0.931270594714462,2.14573179530527,FALSE,3.74807811707288
"CAN","cpi",0.2,2014,3,2014,NA,0,1.23098582607284,1.30045156728914,1.87639912240215,1.99862849145116,FALSE,1.50933462899883
"CAN","cpi",0.2,2014,3,2014,NA,0.5,1.87049111673092,2.17773718667405,1.87639912240215,1.79231976082687,TRUE,0.307246069943131
"CAN","cpi",0.2,2014,3,2013,NA,1,1.24466751956111,1.57722792497246,1.87639912240215,1.40664989819898,FALSE,1.08048839898557
"CAN","cpi",0.2,2014,3,2013,NA,1.5,1.69560972960727,2.02817013501862,1.87639912240215,1.51436121777893,TRUE,0.332560405411352
"CAN","cpi",0.2,2015,3,2015,NA,0,1.2162789807334,1.29044555460309,1.11090953952792,1.2103065042478,FALSE,0.337590176883396
"CAN","cpi",0.2,2015,3,2015,NA,0.5,1.11061418675308,1.47687727344526,1.11090953952792,0.458547315718059,TRUE,0.366263086692184
"CAN","cpi",0.2,2015,3,2014,NA,1,1.42219910009578,1.83322669403856,1.11090953952792,1.57054781428135,FALSE,1.18925149536244
"CAN","cpi",0.2,2015,3,2014,NA,1.5,2.05536439646771,2.60570345027981,1.11090953952792,1.88229109541157,FALSE,2.91147619616158
"CAN","cpi",0.2,2016,3,2016,NA,0,1.07283211612788,1.1377107753122,1.41168586698797,1.41630667471992,FALSE,0.749816388373727
"CAN","cpi",0.2,2016,3,2016,NA,0.5,1.46807110809642,1.76063972271124,1.41168586698797,1.17972158292925,FALSE,0.433531717385963
"CAN","cpi",0.2,2016,3,2015,NA,1,1.56805247565375,1.95770694091427,1.41168586698797,1.8638656605167,FALSE,0.780570986924978
"CAN","cpi",0.2,2016,3,2015,NA,1.5,1.30632990420894,1.69598436946947,1.41168586698797,1.07023002715086,TRUE,0.389654465260529
"CAN","cpi",0.2,2017,3,2017,NA,0,1.1924185187243,1.26120859676157,1.57888581671161,1.50492692646759,FALSE,0.862983127912382
"CAN","cpi",0.2,2017,3,2017,NA,0.5,2.10044208438764,2.47921832825095,1.57888581671161,2.09086618282141,FALSE,1.68266691305337
"CAN","cpi",0.2,2017,3,2016,NA,1,1.06022068944737,1.43899693331068,1.57888581671161,1.14652050352824,FALSE,0.728498452365632
"CAN","cpi",0.2,2017,3,2016,NA,1.5,1.48207160324864,1.8723975573725,1.57888581671161,1.26788084523026,TRUE,0.390325954123864
"CAN","cpi",0.2,2018,3,2018,NA,0,1.54311785458743,1.6329830484294,2.23316270166586,2.41317537496083,FALSE,1.59031432693312
"CAN","cpi",0.2,2018,3,2018,NA,0.5,2.39402504677019,2.79896251056236,2.23316270166586,2.52809119314695,FALSE,0.807093326553002
"CAN","cpi",0.2,2018,3,2017,NA,1,1.06631280805418,1.47125027184635,2.23316270166586,1.16800101916097,FALSE,2.30971853834094
"CAN","cpi",0.2,2018,3,2017,NA,1.5,2.16221230176612,2.58452511241343,2.23316270166586,2.07298402260093,TRUE,0.422312810647314
"CAN","cpi",0.2,2019,3,2019,NA,0,NA,NA,1.91921619871868,NA,NA,NA
"CAN","cpi",0.2,2019,3,2019,NA,0.5,1.80622527856341,2.25161590914829,1.91921619871868,1.47328806303322,TRUE,0.445390630584881
"CAN","cpi",0.2,2019,3,2018,NA,1,1.86571052955883,2.4354000377876,1.91921619871868,2.23470281046333,TRUE,0.569689508228779
"CAN","cpi",0.2,2019,3,2018,NA,1.5,2.4066144019221,2.97630391015088,1.91921619871868,2.32030562567512,FALSE,1.78818501623733
"CAN","cpi",0.2,2020,3,2020,NA,0,1.05025181161852,1.11843524272055,0.71139989671781,0.673588636713597,FALSE,0.915313218353803
"CAN","cpi",0.2,2020,3,2020,NA,0.5,NA,NA,0.71139989671781,NA,NA,NA
"CAN","cpi",0.2,2020,3,2019,NA,1,NA,NA,0.71139989671781,NA,NA,NA
"CAN","cpi",0.2,2020,3,2019,NA,1.5,1.93703229378354,2.42261947563291,0.71139989671781,1.77705491937904,FALSE,3.54966817451369
"CAN","cpi",0.2,2021,3,2021,NA,0,1.58151589311037,1.69123912886259,3.31148121717802,3.2525646654712,FALSE,4.16032845654079
"CAN","cpi",0.2,2021,3,2021,NA,0.5,2.00033937013756,2.25506866279007,3.31148121717802,2.16773480502693,FALSE,2.89576067862239
"CAN","cpi",0.2,2021,3,2020,NA,1,1.45394102544381,1.72724272929785,3.31148121717802,1.61070774476322,FALSE,4.23389792355447
"CAN","cpi",0.2,2021,3,2020,NA,1.5,NA,NA,3.31148121717802,NA,NA,NA
"CAN","cpi",0.2,2022,3,2022,NA,0,3.4094079431336,3.6465744442252,6.50977236228281,6.58682891800883,FALSE,7.39516129623563
"CAN","cpi",0.2,2022,3,2022,NA,0.5,4.79542153361946,5.51998745521647,6.50977236228281,5.58900513180898,FALSE,3.19902818926286
"CAN","cpi",0.2,2022,3,2021,NA,1,2.69717710584068,3.4217430274377,6.50977236228281,3.35597076522593,FALSE,8.4446392587098
"CAN","cpi",0.2,2022,3,2021,NA,1.5,2.07034988426905,2.79491580586606,6.50977236228281,1.89458222166426,FALSE,10.0117073126389
"CAN","cpi",0.2,2023,3,2023,NA,0,3.42492673305829,3.64394679260569,3.78831288758619,3.96221561415741,FALSE,0.579935296998653
"CAN","cpi",0.2,2023,3,2023,NA,0.5,4.26516308607614,5.31049468881671,3.78831288758619,3.6121970566696,FALSE,2.23745709896544
"CAN","cpi",0.2,2023,3,2022,NA,1,4.14106485614974,5.52333860824336,3.78831288758619,5.4861852561408,FALSE,2.26415367350249
"CAN","cpi",0.2,2023,3,2022,NA,1.5,3.72726406108649,5.1095378131801,3.78831288758619,3.85557075258935,TRUE,1.38227375209361
"CAN","cpi",0.2,2024,3,2023,NA,1,3.71105919673163,4.68713437921815,NA,4.72280809903739,NA,NA
"CAN","cpi",0.2,2024,3,2023,NA,1.5,4.06678228240866,5.04285746489517,NA,4.36705509613113,NA,NA
"CAN","cpi",0.3,1952,3,1952,NA,0,-31.1185364835678,-19.6317090762369,2.55562336095485,2.50792675283471,FALSE,74.8792057993073
"CAN","cpi",0.3,1952,3,1952,NA,0.5,-13.5236218028294,1.34304680815828,2.55562336095485,5.20333179389047,FALSE,18.3311730475493
"CAN","cpi",0.3,1952,3,1951,NA,1,-30.5429163015139,-15.6762476905262,2.55562336095485,8.18998200969936,FALSE,66.9577287580765
"CAN","cpi",0.3,1952,3,1951,NA,1.5,2.61281027778244,25.9312888377924,2.55562336095485,7.55460015368862,FALSE,23.4818697509459
"CAN","cpi",0.3,1953,3,1953,NA,0,0.0241260590856439,0.598650309845707,-1.01492775838436,-0.954275034924989,FALSE,3.54324944353151
"CAN","cpi",0.3,1953,3,1953,NA,0.5,-10.768212114561,-8.6422232068729,-1.01492775838436,-1.88711612688489,FALSE,23.9182616176553
"CAN","cpi",0.3,1953,3,1952,NA,1,-14.4768502061174,-12.3508612984293,-1.01492775838436,-0.873617238258229,FALSE,34.5143704506736
"CAN","cpi",0.3,1953,3,1952,NA,1.5,25.1753818357192,34.8441640597609,-1.01492775838436,5.93557635631702,FALSE,84.4982382071948
"CAN","cpi",0.3,1954,3,1954,NA,0,1.08550801072848,0.614754941323386,0.644425455961438,0.879731201855888,FALSE,0.87425570032375
"CAN","cpi",0.3,1954,3,1954,NA,0.5,1.10162035004734,0.630867280642243,0.644425455961438,-0.358875738913824,FALSE,0.874255700323749
"CAN","cpi",0.3,1954,3,1953,NA,1,14.9263011620412,15.1790506739085,0.644425455961438,3.38326531029323,FALSE,41.0581086720952
"CAN","cpi",0.3,1954,3,1953,NA,1.5,-2.21105266267213,-1.95830315080482,0.644425455961438,-1.28741438714058,FALSE,7.68911695977091
"CAN","cpi",0.3,1955,3,1955,NA,0,0.449570044152171,0.503775834580206,0.173649026558865,0.115254687233858,FALSE,0.842551554980339
"CAN","cpi",0.3,1955,3,1955,NA,0.5,-1.20895596235416,-1.15475017192612,0.173649026558865,-0.770970046821609,FALSE,3.84963207181372
"CAN","cpi",0.3,1955,3,1954,NA,1,6.43857991259032,9.24929700049602,0.173649026558865,3.47019599757395,FALSE,20.7105196194241
"CAN","cpi",0.3,1955,3,1954,NA,1.5,-8.95328124577804,-6.14256415787234,0.173649026558865,-1.89562740163941,FALSE,20.8570404719949
"CAN","cpi",0.3,1956,3,1956,NA,0,1.17815065063908,0.991218448418347,1.32752769429961,1.56059797998755,FALSE,0.773951357440013
"CAN","cpi",0.3,1956,3,1956,NA,0.5,-0.449426652003716,-0.636358854224449,1.32752769429961,-0.709146002056511,FALSE,5.42417222213372
"CAN","cpi",0.3,1956,3,1955,NA,1,1.39278959159334,1.20585738937261,1.32752769429961,0.884549626974225,FALSE,0.347159804124218
"CAN","cpi",0.3,1956,3,1955,NA,1.5,-4.91311543981623,-5.10004764203697,1.32752769429961,-1.89150615642833,FALSE,18.1775687587409
"CAN","cpi",0.3,1957,3,1957,NA,0,1.8103492736564,2.2732670677604,3.24684755852518,3.4151370317006,FALSE,3.24457633914622
"CAN","cpi",0.3,1957,3,1957,NA,0.5,3.06668202209604,5.03360914441255,3.24684755852518,2.23982631608766,TRUE,1.96692712231652
"CAN","cpi",0.3,1957,3,1956,NA,1,8.29916643113555,11.3977319329895,3.24684755852518,6.98754636690555,FALSE,17.5337622807407
"CAN","cpi",0.3,1957,3,1956,NA,1.5,-6.40591044458245,-3.3073449427285,3.24684755852518,-1.88668623310337,FALSE,21.8248297911502
"CAN","cpi",0.3,1958,3,1958,NA,0,1.69177224841724,2.05522333755805,2.33186388641149,2.22387249143335,FALSE,1.1538526572935
"CAN","cpi",0.3,1958,3,1958,NA,0.5,3.44053025907225,5.58617003583814,2.33186388641149,2.22839060734872,FALSE,5.31325798436807
"CAN","cpi",0.3,1958,3,1957,NA,1,-0.351642656656177,4.0925341837201,2.33186388641149,4.42088197051908,TRUE,4.44417684037628
"CAN","cpi",0.3,1958,3,1957,NA,1.5,-2.60296237277019,1.84121446760609,2.33186388641149,0.91301479707402,FALSE,5.84603232267743
"CAN","cpi",0.3,1959,3,1959,NA,0,1.21864288285106,1.46078656090826,1.19382698397654,1.24991216431293,FALSE,0.313046246270106
"CAN","cpi",0.3,1959,3,1959,NA,0.5,1.58030289550612,2.28691387478224,1.19382698397654,0.437839731590327,FALSE,1.81082786936063
"CAN","cpi",0.3,1959,3,1958,NA,1,-1.2874486450878,0.791598434510886,1.19382698397654,1.75862762885946,FALSE,3.22827150664341
"CAN","cpi",0.3,1959,3,1958,NA,1.5,0.270364875619997,3.5117795165907,1.19382698397654,1.77407172713766,TRUE,3.2414146409707
"CAN","cpi",0.3,1960,3,1960,NA,0,0.906505387451417,1.06524114028819,1.34209404870695,1.02361304259477,FALSE,0.949744062604654
"CAN","cpi",0.3,1960,3,1960,NA,0.5,1.53509081959556,2.00812657138612,1.34209404870695,0.53898348018166,FALSE,1.02445509718659
"CAN","cpi",0.3,1960,3,1959,NA,1,2.7567940149221,4.1968455885373,1.34209404870695,3.95759373689442,FALSE,5.48205147708705
"CAN","cpi",0.3,1960,3,1959,NA,1.5,-2.11980763270345,-0.679756059088243,1.34209404870695,-0.873476815404885,FALSE,7.21676616731576
"CAN","cpi",0.3,1961,3,1961,NA,0,0.952109547024411,1.19536625649297,1.00921348094007,1.00921348094007,TRUE,0.24325670946856
"CAN","cpi",0.3,1961,3,1961,NA,0.5,2.05450351485173,2.49460232627011,1.00921348094007,1.00921348094007,FALSE,3.42664176545169
"CAN","cpi",0.3,1961,3,1960,NA,1,-1.00599540059187,-0.565896589173481,1.00921348094007,0.0537704626035329,FALSE,4.94041329745711
"CAN","cpi",0.3,1961,3,1960,NA,1.5,-1.47015801828071,-1.03005920686232,1.00921348094007,-0.862181798940035,FALSE,6.26659220513951
"CAN","cpi",0.3,1962,3,1962,NA,0,0.929437384792071,1.10820720949091,1.04957947883042,1.10232402731478,TRUE,0.178769824698841
"CAN","cpi",0.3,1962,3,1962,NA,0.5,0.842806818549691,1.18147041451294,1.04957947883042,0,TRUE,0.338663595963244
"CAN","cpi",0.3,1962,3,1961,NA,1,-0.558069932081831,0.0115753526098848,1.04957947883042,0,FALSE,3.53537135960752
"CAN","cpi",0.3,1962,3,1961,NA,1.5,-0.253769684071845,0.315875600619871,1.04957947883042,0,FALSE,2.66594207957898
"CAN","cpi",0.3,1963,3,1963,NA,0,1.24148468964599,1.4529909061463,1.60677118395228,1.91491729531202,FALSE,0.650878438803121
"CAN","cpi",0.3,1963,3,1963,NA,0.5,1.64936017043395,2.12466777633004,1.60677118395228,0.836828714617504,FALSE,0.596990424415146
"CAN","cpi",0.3,1963,3,1962,NA,1,1.6444302932305,2.55117996003403,1.60677118395228,2.56411490415144,FALSE,1.01434712188415
"CAN","cpi",0.3,1963,3,1962,NA,1.5,-0.412808555754267,0.49394111104926,1.60677118395228,0,FALSE,4.08626416081217
"CAN","cpi",0.3,1964,3,1964,NA,0,1.35757914776591,1.60108197888275,1.88764670034376,1.98877256446048,FALSE,1.06225917814829
"CAN","cpi",0.3,1964,3,1964,NA,0.5,2.28811691632627,2.87218617635895,1.88764670034376,1.38369006227607,FALSE,1.72826987712557
"CAN","cpi",0.3,1964,3,1963,NA,1,3.51608193174665,4.77758284778888,1.88764670034376,5.39044290347256,FALSE,5.91417300576478
"CAN","cpi",0.3,1964,3,1963,NA,1.5,-0.651598427216887,0.609902488825348,1.88764670034376,0,FALSE,4.9121986632377
"CAN","cpi",0.3,1965,3,1965,NA,0,1.55855039858294,1.80047175663467,2.29538304394236,2.34557047418999,FALSE,1.65595360750226
"CAN","cpi",0.3,1965,3,1965,NA,0.5,2.49520926521659,3.17795355339158,2.29538304394236,1.61079447956654,FALSE,1.2536763489585
"CAN","cpi",0.3,1965,3,1964,NA,1,1.20941229027754,2.22337431763125,2.29538304394236,2.42518862179847,FALSE,1.21970124538544
"CAN","cpi",0.3,1965,3,1964,NA,1.5,0.280884787449772,1.29484681480349,2.29538304394236,0.818102552316399,FALSE,3.87263696775049
"CAN","cpi",0.3,1966,3,1966,NA,0,2.18448609954237,2.46889674580424,3.72486065470629,3.82010987863709,FALSE,3.87287895741058
"CAN","cpi",0.3,1966,3,1966,NA,0.5,4.69190899220124,5.68573663535697,3.72486065470629,3.99123398895563,FALSE,3.7568228931413
"CAN","cpi",0.3,1966,3,1965,NA,1,1.693162758176,3.215482118647,3.72486065470629,3.20722068745854,FALSE,2.97768660635468
"CAN","cpi",0.3,1966,3,1965,NA,1.5,0.846272601156032,2.36859196162703,3.72486065470629,1.60663824631958,FALSE,5.39737276926888
"CAN","cpi",0.3,1967,3,1967,NA,0,2.50185437320681,2.81368171040076,3.49360316391996,3.76768849328632,FALSE,2.25446006153452
"CAN","cpi",0.3,1967,3,1967,NA,0.5,3.82837696273162,4.70477287770007,3.49360316391996,2.4074547441976,FALSE,1.83289248300177
"CAN","cpi",0.3,1967,3,1966,NA,1,1.42108819635248,3.39263904275655,3.49360316391996,3.18103323070284,FALSE,2.26001976401382
"CAN","cpi",0.3,1967,3,1966,NA,1.5,3.15628448110392,6.21346344754311,3.49360316391996,4.65128160487248,TRUE,3.05717896643919
"CAN","cpi",0.3,1968,3,1968,NA,0,2.56018327116542,2.89578954957574,3.95128347779386,4.17287945672396,FALSE,3.35130321617636
"CAN","cpi",0.3,1968,3,1968,NA,0.5,5.1405880743091,6.3736998169243,3.95128347779386,4.07097205779852,FALSE,4.63112487551589
"CAN","cpi",0.3,1968,3,1967,NA,1,3.63519479811234,6.4202873225571,3.95128347779386,5.84521682123848,TRUE,2.78509252444476
"CAN","cpi",0.3,1968,3,1967,NA,1.5,1.23692493232298,4.02201745676773,3.95128347779386,2.25565858240226,TRUE,2.78509252444476
"CAN","cpi",0.3,1969,3,1969,NA,0,2.75470311798181,3.09046002483839,4.42679496126681,4.46896837073893,FALSE,4.15385672522351
"CAN","cpi",0.3,1969,3,1969,NA,0.5,4.42453280675034,5.40751403267671,4.42679496126681,2.96612019395715,TRUE,0.982981225926373
"CAN","cpi",0.3,1969,3,1968,NA,1,3.94346887582972,7.31417149516457,4.42679496126681,6.72487630040807,TRUE,3.37070261933485
"CAN","cpi",0.3,1969,3,1968,NA,1.5,3.35593759057558,7.14503885663712,4.42679496126681,4.31664452944541,TRUE,3.78910126606154
"CAN","cpi",0.3,1970,3,1970,NA,0,2.56779120085811,2.84710419116308,3.28128405769805,3.52697515579364,FALSE,1.51982689469059
"CAN","cpi",0.3,1970,3,1970,NA,0.5,5.99589723434871,7.44706995019477,3.28128405769805,4.65371085276917,FALSE,9.2072103634194
"CAN","cpi",0.3,1970,3,1969,NA,1,2.44108081157146,5.23936264284674,3.28128405769805,4.52747875087707,TRUE,2.79828183127527
"CAN","cpi",0.3,1970,3,1969,NA,1.5,1.4360952658381,4.23437709711337,3.28128405769805,2.07973847283129,TRUE,2.79828183127527
"CAN","cpi",0.3,1971,3,1971,NA,0,2.03762112066149,2.28765335758737,2.64123406634756,2.8393232579169,FALSE,1.26026283338357
"CAN","cpi",0.3,1971,3,1971,NA,0.5,3.40005283967377,4.22166830401964,2.64123406634756,2.06692165705507,FALSE,2.98966910242075
"CAN","cpi",0.3,1971,3,1970,NA,1,1.47255353420797,3.3298627698163,2.64123406634756,2.64105994583495,TRUE,1.85730923560832
"CAN","cpi",0.3,1971,3,1970,NA,1.5,4.03172560367875,7.83554959086101,2.64123406634756,4.63977638900468,FALSE,7.77665695098564
"CAN","cpi",0.3,1972,3,1972,NA,0,2.6417817334161,2.92773236311506,4.83230569625923,5.03048103188219,FALSE,5.72758872439659
"CAN","cpi",0.3,1972,3,1972,NA,0.5,5.64226583961402,7.01832010267162,4.83230569625923,5.06705904355972,FALSE,3.69022610121415
"CAN","cpi",0.3,1972,3,1971,NA,1,4.28418739612347,7.07448693399575,4.83230569625923,5.9169160270675,TRUE,2.79029953787228
"CAN","cpi",0.3,1972,3,1971,NA,1.5,2.81738987288223,5.60768941075451,4.83230569625923,3.09276495441271,TRUE,2.79029953787228
"CAN","cpi",0.3,1973,3,1973,NA,0,3.77493666415931,4.25554713247457,7.12388603531779,6.99264756193144,FALSE,8.67586447643874
"CAN","cpi",0.3,1973,3,1973,NA,0.5,6.76910132993879,8.26991860462419,7.12388603531779,5.47469896411854,TRUE,1.50081727468539
"CAN","cpi",0.3,1973,3,1972,NA,1,4.4513875224531,8.15949017012106,7.12388603531779,6.69062283747837,TRUE,3.70810264766797
"CAN","cpi",0.3,1973,3,1972,NA,1.5,4.55621871161956,8.82932501952922,7.12388603531779,4.73174243586486,TRUE,4.27310630790965
"CAN","cpi",0.3,1974,3,1974,NA,0,5.32425727083754,5.95650742602813,10.2717243737774,9.94431520564033,FALSE,12.9614414344743
"CAN","cpi",0.3,1974,3,1974,NA,0.5,10.0366408374035,12.4034376749478,10.2717243737774,8.3378654175141,TRUE,2.36679683754426
"CAN","cpi",0.3,1974,3,1973,NA,1,4.32963528559138,8.48855702982231,10.2717243737774,7.16712422635118,FALSE,9.25368558410266
"CAN","cpi",0.3,1974,3,1973,NA,1.5,3.69544196826888,7.85436371249981,10.2717243737774,4.05174749178054,FALSE,11.0656664907384
"CAN","cpi",0.3,1975,3,1975,NA,0,5.9323566731703,6.75460368532735,10.0232981493341,10.0931823619779,FALSE,10.1613740521764
"CAN","cpi",0.3,1975,3,1975,NA,0.5,11.6849378044214,14.1281587432635,10.0232981493341,8.98267476097328,FALSE,7.19076281052008
"CAN","cpi",0.3,1975,3,1974,NA,1,3.85497299042446,7.63207190805071,10.0232981493341,7.7837982223054,FALSE,10.6091738927217
"CAN","cpi",0.3,1975,3,1974,NA,1.5,4.83556933290324,8.61266825052948,10.0232981493341,5.75931605308519,FALSE,7.80747005706807
"CAN","cpi",0.3,1976,3,1976,NA,0,4.88476658806426,5.62941838141421,7.22784311401172,7.07277954951717,FALSE,5.31157960077139
"CAN","cpi",0.3,1976,3,1976,NA,0.5,11.0883374841994,12.9656476358209,7.22784311401172,8.59089060438327,FALSE,12.9072940664434
"CAN","cpi",0.3,1976,3,1975,NA,1,4.99921990791752,8.1027323455651,7.22784311401172,10.4141477685142,TRUE,3.10351243764758
"CAN","cpi",0.3,1976,3,1975,NA,1.5,4.89146899782941,8.82294069451033,7.22784311401172,6.43051086134862,TRUE,3.93147169668092
"CAN","cpi",0.3,1977,3,1977,NA,0,4.40448333869612,5.00703097717478,7.58101410153764,7.55301151664772,FALSE,7.95678513665827
"CAN","cpi",0.3,1977,3,1977,NA,0.5,9.60831491485645,11.6789746058839,7.58101410153764,7.98165850021887,FALSE,7.86294772908117
"CAN","cpi",0.3,1977,3,1976,NA,1,0.214224804172588,2.54172281896629,7.58101410153764,3.72134649143602,FALSE,16.7254731078547
"CAN","cpi",0.3,1977,3,1976,NA,1.5,6.31430823201871,11.511581983533,7.58101410153764,8.00272044475614,TRUE,5.19727375151426
"CAN","cpi",0.3,1978,3,1978,NA,0,4.82116559864274,5.54205644559964,8.50208927062595,8.67127840358843,FALSE,9.1781274898892
"CAN","cpi",0.3,1978,3,1978,NA,0.5,10.0660301694972,12.211437550891,8.50208927062595,8.3788273181893,FALSE,6.6138099495973
"CAN","cpi",0.3,1978,3,1977,NA,1,3.18777818906557,7.09159503459297,8.50208927062595,7.54783828416051,FALSE,7.93380037705019
"CAN","cpi",0.3,1978,3,1977,NA,1.5,8.21710927821299,13.9644570529914,8.50208927062595,9.72562756342223,TRUE,5.74734777477839
"CAN","cpi",0.3,1979,3,1979,NA,0,5.06054430515211,5.75000193167075,8.65147652410481,8.56376390232469,FALSE,8.97938503347309
"CAN","cpi",0.3,1979,3,1979,NA,0.5,10.2089862696971,12.3669465993102,8.65147652410481,8.29599284966764,FALSE,6.60798817416239
"CAN","cpi",0.3,1979,3,1978,NA,1,4.547487976064,8.02216820132003,8.65147652410481,9.20311500508918,FALSE,5.27270400464112
"CAN","cpi",0.3,1979,3,1978,NA,1.5,6.96121442527759,11.8743871385879,8.65147652410481,8.55646910152924,TRUE,4.91317271331027
"CAN","cpi",0.3,1980,3,1980,NA,0,5.38921186402132,6.13973958686564,9.5171912664748,9.50406722106931,FALSE,10.4003896645848
"CAN","cpi",0.3,1980,3,1980,NA,0.5,10.4060129704373,12.8564079203985,9.5171912664748,8.57798914335092,FALSE,4.98988553271126
"CAN","cpi",0.3,1980,3,1979,NA,1,3.19711777483704,7.09595322273504,9.5171912664748,8.17875203710815,FALSE,10.8166584300116
"CAN","cpi",0.3,1980,3,1979,NA,1.5,7.36589181396575,11.5660734652247,9.5171912664748,8.39204766062112,TRUE,4.20018165125899
"CAN","cpi",0.3,1981,3,1981,NA,0,6.3103354907857,7.17328296239137,11.5813425032741,11.7113878984199,FALSE,13.4574033026993
"CAN","cpi",0.3,1981,3,1981,NA,0.5,13.544668674831,16.2979605903029,11.5813425032741,12.2156196752767,FALSE,8.36279526277723
"CAN","cpi",0.3,1981,3,1980,NA,1,4.53340519535588,9.90306164226896,11.5813425032741,11.0496853423024,FALSE,10.1647446212136
"CAN","cpi",0.3,1981,3,1980,NA,1.5,6.44149048630448,11.8111469332176,11.5813425032741,8.33809792174894,TRUE,5.36965644691309
"CAN","cpi",0.3,1982,3,1982,NA,0,6.36546159656461,7.22831927639983,10.1124203763629,10.2566668151097,FALSE,9.1031465368727
"CAN","cpi",0.3,1982,3,1982,NA,0.5,12.5910435185611,15.2076987440014,10.1124203763629,10.1085355973545,FALSE,9.69843563172084
"CAN","cpi",0.3,1982,3,1981,NA,1,2.91052619805681,9.99462496493561,10.1124203763629,11.770988683124,FALSE,7.42065708524262
"CAN","cpi",0.3,1982,3,1981,NA,1.5,10.6281774436958,17.7122762105746,10.1124203763629,12.8701250351281,FALSE,8.55769038782983
"CAN","cpi",0.3,1983,3,1983,NA,0,4.57165422594317,5.22394088725939,5.67091787896303,5.7310121416489,FALSE,1.92936378046948
"CAN","cpi",0.3,1983,3,1983,NA,0.5,7.52561669915228,9.73807962995679,5.67091787896303,4.91343016009654,FALSE,7.5116024170595
"CAN","cpi",0.3,1983,3,1982,NA,1,2.12017482468821,7.85415069968073,5.67091787896303,9.18500149866057,TRUE,5.73397587499252
"CAN","cpi",0.3,1983,3,1982,NA,1.5,7.38424152216271,13.1182173971552,5.67091787896303,9.68672301569366,FALSE,10.6291862841345
"CAN","cpi",0.3,1984,3,1984,NA,0,NA,NA,4.19799576814029,NA,NA,NA
"CAN","cpi",0.3,1984,3,1984,NA,0.5,6.95400007593122,8.59655130044519,4.19799576814029,5.85770686024457,FALSE,9.51684924677377
"CAN","cpi",0.3,1984,3,1983,NA,1,2.32044494052098,5.16008574264642,4.19799576814029,5.76553357996429,TRUE,2.83964080212544
"CAN","cpi",0.3,1984,3,1983,NA,1.5,2.19539169291449,5.03503249503992,4.19799576814029,2.9197996794717,TRUE,2.83964080212543
"CAN","cpi",0.3,1985,3,1985,NA,0,2.53412428115252,2.89660644871336,3.86444262005169,3.85417990135378,FALSE,3.12772837138464
"CAN","cpi",0.3,1985,3,1985,NA,0.5,5.25357347122679,6.43363332877081,3.86444262005169,4.21990042382899,FALSE,5.14900514661574
"CAN","cpi",0.3,1985,3,1984,NA,1,NA,NA,3.86444262005169,NA,NA,NA
"CAN","cpi",0.3,1985,3,1984,NA,1.5,7.99442192438859,11.9387418961356,3.86444262005169,8.62999660305356,FALSE,15.744260841281
"CAN","cpi",0.3,1986,3,1986,NA,0,2.54074790698128,2.89122219162973,4.08685396749431,4.03771389199993,FALSE,3.76656507283296
"CAN","cpi",0.3,1986,3,1986,NA,0.5,5.01757007331563,6.23776452318716,4.08685396749431,4.38219332503529,FALSE,3.87938332364672
"CAN","cpi",0.3,1986,3,1985,NA,1,1.05231228332055,3.05711718139349,4.08685396749431,3.37849976080849,FALSE,4.94691000121814
"CAN","cpi",0.3,1986,3,1985,NA,1.5,4.64450330278829,6.77746480004225,4.08685396749431,4.95309858900956,FALSE,3.72624531237962
"CAN","cpi",0.3,1987,3,1987,NA,0,NA,NA,4.23980729277887,NA,NA,NA
"CAN","cpi",0.3,1987,3,1987,NA,0.5,4.84089989948058,6.1066363534365,4.23980729277887,4.13342161080085,FALSE,2.98314390167509
"CAN","cpi",0.3,1987,3,1986,NA,1,1.31474268727939,3.43034094207459,4.23980729277887,3.66140988164798,FALSE,4.42835925680744
"CAN","cpi",0.3,1987,3,1986,NA,1.5,4.50353562050363,6.72268994324824,4.23980729277887,4.80242768143514,FALSE,2.97266383052964
"CAN","cpi",0.3,1988,3,1988,NA,0,2.61248267456119,2.97400800202703,3.92899537638065,3.9438316199536,FALSE,3.09006068276192
"CAN","cpi",0.3,1988,3,1988,NA,0.5,4.24306844048914,5.39938344566625,3.92899537638065,3.35419215340812,FALSE,2.05366661691564
"CAN","cpi",0.3,1988,3,1987,NA,1,NA,NA,3.92899537638065,NA,NA,NA
"CAN","cpi",0.3,1988,3,1987,NA,1.5,3.6041700091748,5.58408908762524,3.92899537638065,3.89461929526446,TRUE,1.97991907845045
"CAN","cpi",0.3,1989,3,1989,NA,0,2.89407946216645,3.281437655333,4.82821664544208,4.95130318392835,FALSE,4.80672673633533
"CAN","cpi",0.3,1989,3,1989,NA,0.5,5.00601518134919,6.03233383255056,4.82821664544208,4.23024942747073,FALSE,1.53431446807883
"CAN","cpi",0.3,1989,3,1988,NA,1,1.99645580581251,3.77135482688941,4.82821664544208,4.05841794603162,FALSE,4.79450421694166
"CAN","cpi",0.3,1989,3,1988,NA,1.5,2.46217769456843,4.23707671564534,4.82821664544208,2.597843559383,FALSE,3.46387024906759
"CAN","cpi",0.3,1990,3,1990,NA,0,2.96579694366525,3.32325021807823,4.64347549432717,4.4746950192663,FALSE,4.1295254922671
"CAN","cpi",0.3,1990,3,1990,NA,0.5,5.88701319462988,6.98080941211915,4.64347549432717,4.96487168902479,FALSE,4.64676107549701
"CAN","cpi",0.3,1990,3,1989,NA,1,2.98088048359985,5.10017607113569,4.64347549432717,5.43871373969076,TRUE,2.11929558753585
"CAN","cpi",0.3,1990,3,1989,NA,1.5,3.03266894800378,5.15196453553962,4.64347549432717,3.3732540002381,TRUE,2.11929558753585
"CAN","cpi",0.3,1991,3,1991,NA,0,3.29374769157013,3.72549056027397,5.4258100696218,5.61053369942382,FALSE,5.28979860969763
"CAN","cpi",0.3,1991,3,1991,NA,0.5,8.02522542361047,9.36746789446698,5.4258100696218,7.82199295477594,FALSE,8.76914348225272
"CAN","cpi",0.3,1991,3,1990,NA,1,1.51575569206936,3.61434237567762,5.4258100696218,3.66716818384097,FALSE,7.2742086663059
"CAN","cpi",0.3,1991,3,1990,NA,1.5,4.60228505040107,6.70087173400932,5.4258100696218,4.82481948664164,TRUE,2.09858668360826
"CAN","cpi",0.3,1992,3,1992,NA,0,NA,NA,1.47496888572843,NA,NA,NA
"CAN","cpi",0.3,1992,3,1992,NA,0.5,NA,NA,1.47496888572843,NA,NA,NA
"CAN","cpi",0.3,1992,3,1991,NA,1,0.940621803744381,3.11555097689343,1.47496888572843,2.76780571233213,TRUE,2.17492917314905
"CAN","cpi",0.3,1992,3,1991,NA,1.5,6.96843252342351,9.39905113429766,1.47496888572843,7.14938182660169,FALSE,18.1262290042887
"CAN","cpi",0.3,1993,3,1993,NA,0,NA,NA,NA,NA,NA,NA
"CAN","cpi",0.3,1993,3,1993,NA,0.5,NA,NA,NA,NA,NA,NA
"CAN","cpi",0.3,1993,3,1992,NA,1,NA,NA,NA,NA,NA,NA
"CAN","cpi",0.3,1993,3,1992,NA,1.5,NA,NA,NA,NA,NA,NA
"CAN","cpi",0.3,1994,3,1994,NA,0,NA,NA,NA,NA,NA,NA
"CAN","cpi",0.3,1994,3,1994,NA,0.5,NA,NA,NA,NA,NA,NA
"CAN","cpi",0.3,1994,3,1993,NA,1,NA,NA,NA,NA,NA,NA
"CAN","cpi",0.3,1994,3,1993,NA,1.5,NA,NA,NA,NA,NA,NA
"CAN","cpi",0.3,1995,3,1995,NA,0,NA,NA,2.11688403676572,NA,NA,NA
"CAN","cpi",0.3,1995,3,1995,NA,0.5,NA,NA,2.11688403676572,2.51937811073084,NA,NA
"CAN","cpi",0.3,1995,3,1994,NA,1,NA,NA,2.11688403676572,0.719396410821945,NA,NA
"CAN","cpi",0.3,1995,3,1994,NA,1.5,NA,NA,2.11688403676572,-1.04654603924828,NA,NA
"CAN","cpi",0.3,1996,3,1996,NA,0,1.28121860956367,1.45288523826422,1.55309584667184,1.42780748357026,FALSE,0.457982652722327
"CAN","cpi",0.3,1996,3,1996,NA,0.5,NA,NA,1.55309584667184,NA,NA,NA
"CAN","cpi",0.3,1996,3,1995,NA,1,NA,NA,1.55309584667184,NA,NA,NA
"CAN","cpi",0.3,1996,3,1995,NA,1.5,3.03042915198718,4.18492770023522,1.55309584667184,2.92232271175447,FALSE,5.37545084914901
"CAN","cpi",0.3,1997,3,1997,NA,0,1.25020562404996,1.42252144713018,1.60528783555959,1.73535847807117,FALSE,0.694505504307103
"CAN","cpi",0.3,1997,3,1997,NA,0.5,2.65194178199238,3.08464840174007,1.60528783555959,2.11078363597796,FALSE,3.42314646669851
"CAN","cpi",0.3,1997,3,1996,NA,1,0.339224246856308,1.31038002303816,1.60528783555959,0.984961337307556,FALSE,1.81374952624309
"CAN","cpi",0.3,1997,3,1996,NA,1.5,NA,NA,1.60528783555959,NA,NA,NA
"CAN","cpi",0.3,1998,3,1998,NA,0,1.02900192195824,1.16601356964381,0.988908029337191,1.0350847138471,FALSE,0.251565626602854
"CAN","cpi",0.3,1998,3,1998,NA,0.5,2.2024323239872,2.68386616767912,0.988908029337191,1.68533655437107,FALSE,3.94864611412052
"CAN","cpi",0.3,1998,3,1997,NA,1,1.45638173092529,2.46014112229908,0.988908029337191,2.25159584334757,FALSE,2.33939853876835
"CAN","cpi",0.3,1998,3,1997,NA,1.5,2.41137012143773,3.41512951281151,0.988908029337191,2.38987816876076,FALSE,5.06793679737532
"CAN","cpi",0.3,1999,3,1999,NA,0,1.12750965399223,1.26062408846503,1.7107350135213,1.77618438459462,FALSE,1.41914564891928
"CAN","cpi",0.3,1999,3,1999,NA,0.5,1.46751625698746,1.87750527905786,1.7107350135213,1.0290924799153,TRUE,0.409989022070397
"CAN","cpi",0.3,1999,3,1998,NA,1,1.25225218121652,2.15755653451782,1.7107350135213,1.85177544064205,TRUE,0.905304353301294
"CAN","cpi",0.3,1999,3,1998,NA,1.5,2.82644219833459,3.82376253584088,1.7107350135213,2.94645730787123,FALSE,4.18505515125855
"CAN","cpi",0.3,2000,3,2000,NA,0,1.62452003080665,1.79061155324496,2.6718361971244,2.7102541785615,FALSE,2.68387621923671
"CAN","cpi",0.3,2000,3,2000,NA,0.5,2.62905746420761,3.24247024995029,2.6718361971244,2.34405201403356,TRUE,0.613412785742678
"CAN","cpi",0.3,2000,3,1999,NA,1,2.00211362226445,3.10269224702086,2.6718361971244,3.07542936781209,TRUE,1.10057862475641
"CAN","cpi",0.3,2000,3,1999,NA,1.5,2.19455826840484,3.29513689316126,2.6718361971244,2.27809035801724,TRUE,1.10057862475641
"CAN","cpi",0.3,2001,3,2001,NA,0,1.90585875927383,2.09553832229759,2.47906219852806,2.77546584984351,FALSE,1.2854620665394
"CAN","cpi",0.3,2001,3,2001,NA,0.5,2.91592972429865,3.65146012163953,2.47906219852806,2.43566755503104,FALSE,1.98372332811398
"CAN","cpi",0.3,2001,3,2000,NA,1,2.29858338697678,3.68058370792322,2.47906219852806,3.68958695319843,TRUE,1.38200032094644
"CAN","cpi",0.3,2001,3,2000,NA,1.5,2.8712065088576,4.25320682980404,2.47906219852806,3.01270789712173,FALSE,2.50241263617368
"CAN","cpi",0.3,2002,3,2002,NA,0,1.67207988213019,1.85243266523542,2.20880570551249,2.27196234986351,FALSE,1.19856146961114
"CAN","cpi",0.3,2002,3,2002,NA,0.5,2.23247513008834,2.86969722753773,2.20880570551249,1.58345411989126,FALSE,0.704849024808974
"CAN","cpi",0.3,2002,3,2001,NA,1,1.33766874314054,2.46870832170174,2.20880570551249,2.26510423845898,TRUE,1.1310395785612
"CAN","cpi",0.3,2002,3,2001,NA,1.5,2.90161213591383,4.18004362743006,2.20880570551249,3.02058043279009,FALSE,3.25787843552007
"CAN","cpi",0.3,2003,3,2003,NA,0,1.74887872296255,1.92144345528645,2.71189071546809,2.71326702620668,FALSE,2.43098547570001
"CAN","cpi",0.3,2003,3,2003,NA,0.5,4.40511095194237,5.10075281881202,2.71189071546809,4.51432649273496,FALSE,5.53341397108189
"CAN","cpi",0.3,2003,3,2002,NA,1,2.59878871492553,3.65937486877488,2.71189071546809,3.85618281746238,TRUE,1.06058615384935
"CAN","cpi",0.3,2003,3,2002,NA,1.5,2.32471109754535,3.3852972513947,2.71189071546809,2.39402389849184,TRUE,1.06058615384935
"CAN","cpi",0.3,2004,3,2004,NA,0,1.58991925182699,1.73981179086713,1.83151661303942,1.77466852383015,FALSE,0.411906316675264
"CAN","cpi",0.3,2004,3,2004,NA,0.5,2.2466756894475,2.87792141513241,1.83151661303942,1.55260435151936,FALSE,1.81741451542227
"CAN","cpi",0.3,2004,3,2003,NA,1,1.06785579655924,1.97917776799871,1.83151661303942,1.79415792598285,TRUE,0.911321971439465
"CAN","cpi",0.3,2004,3,2003,NA,1.5,3.98148765456507,5.38403724112206,1.83151661303942,4.26699272545716,FALSE,7.54532399091599
"CAN","cpi",0.3,2005,3,2005,NA,0,1.55830819635436,1.70624110051107,2.18071628336509,2.34345353472953,FALSE,1.50357628373963
"CAN","cpi",0.3,2005,3,2005,NA,0.5,2.00347668819208,2.44643496709215,2.18071628336509,1.50321338317329,TRUE,0.442958278900069
"CAN","cpi",0.3,2005,3,2004,NA,1,1.09303605484458,1.75122972220699,2.18071628336509,1.64043962712234,FALSE,1.88529812781412
"CAN","cpi",0.3,2005,3,2004,NA,1.5,2.0363092999417,2.99076084971532,2.18071628336509,2.03393284113233,TRUE,0.954451549773614
"CAN","cpi",0.3,2006,3,2006,NA,0,1.55220113105032,1.70168795096018,1.97519342012289,2.09514376892657,FALSE,0.930931017517595
"CAN","cpi",0.3,2006,3,2006,NA,0.5,2.49878303807607,3.07435688383993,1.97519342012289,2.09436263599022,FALSE,2.07154418277295
"CAN","cpi",0.3,2006,3,2005,NA,1,2.06439458633273,2.8639684022748,1.97519342012289,2.9582912060806,FALSE,1.05443429082733
"CAN","cpi",0.3,2006,3,2005,NA,1.5,1.80084741792756,2.60042123386963,1.97519342012289,1.64885961980806,TRUE,0.799573815942073
"CAN","cpi",0.3,2007,3,2007,NA,0,1.49274022463196,1.64517876101374,2.10062087284572,2.10683622102307,FALSE,1.45370171304459
"CAN","cpi",0.3,2007,3,2007,NA,0.5,2.5264418948182,3.04521836757188,2.10062087284572,2.17629902083353,FALSE,1.73540796410361
"CAN","cpi",0.3,2007,3,2006,NA,1,1.03031742174257,1.66152262367323,2.10062087284572,1.50861692709856,FALSE,1.88577162813778
"CAN","cpi",0.3,2007,3,2006,NA,1.5,2.16607694791139,2.975921253082,2.10062087284572,2.15918616350405,FALSE,0.996861662501083
"CAN","cpi",0.3,2008,3,2008,NA,0,1.79118497923068,1.96132799716006,2.31447335265955,2.87079455148828,FALSE,1.17912974792793
"CAN","cpi",0.3,2008,3,2008,NA,0.5,1.79336268292814,2.40980552051739,2.31447335265955,1.31005314695267,TRUE,0.616442837589252
"CAN","cpi",0.3,2008,3,2007,NA,1,1.0714432433244,1.72493901716016,2.31447335265955,1.47031049982668,FALSE,2.33787958954831
"CAN","cpi",0.3,2008,3,2007,NA,1.5,2.37385833726195,3.19453384743604,2.31447335265955,2.46453195342394,FALSE,0.990346894752369
"CAN","cpi",0.3,2009,3,2009,NA,0,0.953292445262248,1.05306268960025,0.284533874408197,0.187122346349721,FALSE,2.01050901820672
"CAN","cpi",0.3,2009,3,2009,NA,0.5,0.896600244003215,1.42425672812836,0.284533874408197,-0.0727492620466167,FALSE,2.27641754011091
"CAN","cpi",0.3,2009,3,2008,NA,1,2.79877590065547,3.4831398124147,0.284533874408197,3.81780026356951,FALSE,7.86791255818
"CAN","cpi",0.3,2009,3,2008,NA,1.5,1.89577369322467,2.5801376049839,0.284533874408197,1.68675152630419,FALSE,5.28790625123487
"CAN","cpi",0.3,2010,3,2010,NA,0,0.900202703090645,0.98910567263108,1.75525687020327,1.6089956646354,FALSE,2.27790639117527
"CAN","cpi",0.3,2010,3,2010,NA,0.5,1.93280218871887,2.17606031880066,1.75525687020327,1.91109502526183,FALSE,0.750530468697788
"CAN","cpi",0.3,2010,3,2009,NA,1,0.97426271321206,1.21752084329384,1.75525687020327,0.992295788494754,FALSE,1.77964677839444
"CAN","cpi",0.3,2010,3,2009,NA,1.5,1.11473393231049,1.40215785236747,1.75525687020327,0.885103052815867,FALSE,1.2962782567307
"CAN","cpi",0.3,2011,3,2011,NA,0,1.70989475200141,1.88674213234603,2.85717434028225,2.86665414062098,FALSE,2.94951083159095
"CAN","cpi",0.3,2011,3,2011,NA,0.5,2.75910230472733,3.34108712569368,2.85717434028225,2.76583381894771,TRUE,0.581984820966346
"CAN","cpi",0.3,2011,3,2010,NA,1,1.18030026155996,1.7622850825263,2.85717434028225,1.39294644169719,FALSE,3.71023984312618
"CAN","cpi",0.3,2011,3,2010,NA,1.5,1.79732226323683,2.45792817457193,2.85717434028225,1.64253060592363,FALSE,1.801309241936
"CAN","cpi",0.3,2012,3,2012,NA,0,1.56070365913387,1.72411312513261,1.50118536134935,1.52822510849394,FALSE,0.333461745383097
"CAN","cpi",0.3,2012,3,2012,NA,0.5,2.35147304748156,3.13150330994312,1.50118536134935,1.92429021972789,FALSE,3.20942365141075
"CAN","cpi",0.3,2012,3,2011,NA,1,1.5134850318104,2.4186035087424,1.50118536134935,1.99945242447079,FALSE,0.940260392535022
"CAN","cpi",0.3,2012,3,2011,NA,1.5,2.63724633519886,3.5864686565306,1.50118536134935,2.48150957397962,FALSE,4.19511081804464
"CAN","cpi",0.3,2013,3,2013,NA,0,1.05217309948164,1.15354647771299,0.931270594714462,1.05630513423211,FALSE,0.44680910613758
"CAN","cpi",0.3,2013,3,2013,NA,0.5,1.52877880287213,2.00904254165565,0.931270594714462,1.16963454554932,FALSE,2.18743004780543
"CAN","cpi",0.3,2013,3,2012,NA,1,0.912634430061003,1.49545230457404,0.931270594714462,1.08868089128742,TRUE,0.582817874513039
"CAN","cpi",0.3,2013,3,2012,NA,1.5,2.1806484734426,2.92124460585608,0.931270594714462,2.14573179530527,FALSE,4.31024721449387
"CAN","cpi",0.3,2014,3,2014,NA,0,1.20484578835395,1.3192700150221,1.87639912240215,1.99862849145116,FALSE,1.70622167632544
"CAN","cpi",0.3,2014,3,2014,NA,0.5,1.83706934611072,2.25150673905214,1.87639912240215,1.79231976082687,TRUE,0.414437392941416
"CAN","cpi",0.3,2014,3,2013,NA,1,1.20088853394237,1.64091215398065,1.87639912240215,1.40664989819898,FALSE,1.112843529814
"CAN","cpi",0.3,2014,3,2013,NA,1.5,1.61079339083539,2.16061529107621,1.87639912240215,1.51436121777893,TRUE,0.549821900240816
"CAN","cpi",0.3,2015,3,2015,NA,0,1.19584751221081,1.31386429182241,1.11090953952792,1.2103065042478,FALSE,0.360696701562722
"CAN","cpi",0.3,2015,3,2015,NA,0.5,1.06496438672847,1.57407824409597,1.11090953952792,0.458547315718059,TRUE,0.509113857367494
"CAN","cpi",0.3,2015,3,2014,NA,1,1.29547099776941,1.94801631508133,1.11090953952792,1.57054781428135,FALSE,1.17986376943047
