isdrw/probabilistic-benchmark-forecasts/results/bayesian_quantile_regression/bqr_prediction_ar1_2026-02-26_16-19-38.csv
"country","target","tau","target_year","target_quarter","forecast_year","forecast_quarter","horizon","lower_bound","upper_bound","truth_value","prediction","covered","IS"
"CAN","cpi",0.1,1952,3,1952,NA,0,-25.540719776381,-26.3664693358116,2.55562336095485,2.50792675283471,FALSE,63.4455675444948
"CAN","cpi",0.1,1952,3,1952,NA,0.5,-14.1904842754346,-15.0162338348651,2.55562336095485,3.80942800622696,FALSE,38.222821986836
"CAN","cpi",0.1,1952,3,1951,NA,1,-1.4062984679824,-2.23204802741291,2.55562336095485,6.36946346746546,FALSE,9.81352019249784
"CAN","cpi",0.1,1952,3,1951,NA,1.5,-68.6562026830404,-69.4819522424709,2.55562336095485,4.80604275648344,FALSE,159.257751781516
"CAN","cpi",0.1,1953,3,1953,NA,0,-0.596053348479144,-1.71915680750753,-1.01492775838436,-1.00118391953201,FALSE,1.37268200547913
"CAN","cpi",0.1,1953,3,1953,NA,0.5,-14.3755647538013,-15.4986682128297,-1.01492775838436,-1.88711612688489,FALSE,31.062986439739
"CAN","cpi",0.1,1953,3,1952,NA,1,-13.6984157427814,-14.8215192018098,-1.01492775838436,-0.873617238258229,FALSE,29.5582108596948
"CAN","cpi",0.1,1953,3,1952,NA,1.5,-20.6879910297357,-18.7786717781925,-1.01492775838436,0.432272395627528,FALSE,41.384305962228
"CAN","cpi",0.1,1954,3,1954,NA,0,0.928211994509081,0.841228700283964,0.644425455961438,0.831821956393317,FALSE,0.543653458102979
"CAN","cpi",0.1,1954,3,1954,NA,0.5,1.72065996697541,1.63367667275029,0.644425455961438,-0.141712452464762,FALSE,2.30464895247259
"CAN","cpi",0.1,1954,3,1953,NA,1,9.74557242257814,10.1400591545685,0.644425455961438,2.12291681679911,FALSE,20.6192577689164
"CAN","cpi",0.1,1954,3,1953,NA,1.5,-0.807020096567273,-0.412533364576892,0.644425455961438,-1.28741438714058,FALSE,2.74328411096445
"CAN","cpi",0.1,1955,3,1955,NA,0,0.472795486828268,0.510064548642927,0.173649026558865,0.10295813188439,FALSE,0.702038973524443
"CAN","cpi",0.1,1955,3,1955,NA,0.5,-0.88417569565508,-0.534536646380068,0.173649026558865,-0.548848324097393,FALSE,1.92338498913931
"CAN","cpi",0.1,1955,3,1954,NA,1,6.90650002985754,7.4866886940557,0.173649026558865,2.19101630104756,FALSE,15.5420797826397
"CAN","cpi",0.1,1955,3,1954,NA,1.5,-8.89336850118548,-8.31317983698732,0.173649026558865,-0.815294949881493,FALSE,19.4398083609675
"CAN","cpi",0.1,1956,3,1956,NA,0,1.0070349482517,1.07717463832849,1.32752769429961,1.46434436590257,FALSE,0.626479814457054
"CAN","cpi",0.1,1956,3,1956,NA,0.5,-0.111230861128661,-0.0410911710518691,1.32752769429961,-0.485738076612692,FALSE,3.11151494641341
"CAN","cpi",0.1,1956,3,1955,NA,1,1.40730421389293,1.59673114356808,1.32752769429961,0.557995939500226,FALSE,0.366708084326981
"CAN","cpi",0.1,1956,3,1955,NA,1.5,-4.75769786384904,-4.56827093417389,1.32752769429961,-0.793756041684752,FALSE,13.2912016596163
"CAN","cpi",0.1,1957,3,1957,NA,0,1.97782122956862,2.13080440541506,3.24684755852518,3.35523637829212,FALSE,2.63307907164669
"CAN","cpi",0.1,1957,3,1957,NA,0.5,3.32732494011499,3.89192940996339,3.24684755852518,2.12793087018929,FALSE,0.743443095603532
"CAN","cpi",0.1,1957,3,1956,NA,1,7.67612622814479,8.84397149653114,3.24684755852518,4.42886834530761,FALSE,11.0106867564299
"CAN","cpi",0.1,1957,3,1956,NA,1.5,-10.4635224954504,-9.29567722706408,3.24684755852518,-0.785064469253982,FALSE,29.0401225696958
"CAN","cpi",0.1,1958,3,1958,NA,0,1.91990447613484,1.99441115880785,2.33186388641149,2.20013349321115,FALSE,0.824401632903323
"CAN","cpi",0.1,1958,3,1958,NA,0.5,3.69366420497492,4.2626444208989,2.33186388641149,2.0126030377883,FALSE,3.59520314606493
"CAN","cpi",0.1,1958,3,1957,NA,1,0.936165763485439,2.39662838081469,2.33186388641149,2.83859761398538,TRUE,1.46046261732925
"CAN","cpi",0.1,1958,3,1957,NA,1.5,-17.8076625401385,-16.3471999228093,2.33186388641149,0.366312073207214,FALSE,42.9694933044865
"CAN","cpi",0.1,1959,3,1959,NA,0,1.34638049388222,1.40832865103835,1.19382698397654,1.18954599151176,FALSE,0.400955956946529
"CAN","cpi",0.1,1959,3,1959,NA,0.5,1.720685565678,2.02520988799122,1.19382698397654,0.545308327160925,FALSE,1.47532117053868
"CAN","cpi",0.1,1959,3,1958,NA,1,-0.137783924856748,0.514396127526186,1.19382698397654,1.13295114249046,FALSE,2.16202640005039
"CAN","cpi",0.1,1959,3,1958,NA,1.5,-11.4890441463833,-9.97237905181863,1.19382698397654,0.717422088079289,FALSE,26.3304562852206
"CAN","cpi",0.1,1960,3,1960,NA,0,1.01272505462824,1.05760775041013,1.34209404870695,1.02361304259477,FALSE,0.677074469774822
"CAN","cpi",0.1,1960,3,1960,NA,0.5,1.58916519391066,1.76290507815273,1.34209404870695,0.648611007713657,FALSE,0.722786873583642
"CAN","cpi",0.1,1960,3,1959,NA,1,2.70031129360192,3.00669730059186,1.34209404870695,2.37666873185636,FALSE,3.32464655120099
"CAN","cpi",0.1,1960,3,1959,NA,1.5,-5.40124853823824,-5.0948625312483,1.34209404870695,-0.349092179567277,FALSE,14.6107339624461
"CAN","cpi",0.1,1961,3,1961,NA,0,1.06194919161607,1.1218994082835,1.00921348094007,1.00921348094007,FALSE,0.177140684836319
"CAN","cpi",0.1,1961,3,1961,NA,0.5,1.98418656917236,2.09421527808677,1.00921348094007,1.00921348094007,FALSE,2.27663557165283
"CAN","cpi",0.1,1961,3,1960,NA,1,-0.505272306126478,-0.395243597212067,1.00921348094007,0.0537704626035329,FALSE,3.23104443814139
"CAN","cpi",0.1,1961,3,1960,NA,1.5,-5.26528506076168,-5.15525635184727,1.00921348094007,-0.332316386156399,FALSE,13.8088505595529
"CAN","cpi",0.1,1962,3,1962,NA,0,1.01803276485576,1.02915217174619,1.04957947883042,1.0653801125483,FALSE,0.0565134226331511
"CAN","cpi",0.1,1962,3,1962,NA,0.5,0.910727927707315,0.92184733459775,1.04957947883042,0,FALSE,0.294968616296358
"CAN","cpi",0.1,1962,3,1961,NA,1,-0.0219894484635985,-0.0108700415731631,1.04957947883042,0,FALSE,2.36767389667616
"CAN","cpi",0.1,1962,3,1961,NA,1.5,-3.57032376517704,-3.55920435828661,1.04957947883042,0,FALSE,10.2528612671505
"CAN","cpi",0.1,1963,3,1963,NA,0,1.30488720369871,1.35325851625948,1.60677118395228,1.83024954277348,FALSE,0.61173279632255
"CAN","cpi",0.1,1963,3,1963,NA,0.5,1.62935909435401,1.79268591812792,1.60677118395228,0.836828714617504,FALSE,0.213522180222193
"CAN","cpi",0.1,1963,3,1962,NA,1,1.6805685143903,1.89074258574569,1.60677118395228,1.60935100695326,FALSE,0.374168138995424
"CAN","cpi",0.1,1963,3,1962,NA,1.5,-2.93127606335762,-2.72110199200223,1.60677118395228,0,FALSE,9.82767001792097
"CAN","cpi",0.1,1964,3,1964,NA,0,1.46575308688669,1.53287129873724,1.88764670034376,1.95194648443024,FALSE,0.855507993198365
"CAN","cpi",0.1,1964,3,1964,NA,0.5,2.18846686013593,2.37238073073705,1.88764670034376,1.27307816843398,FALSE,0.852403114583726
"CAN","cpi",0.1,1964,3,1963,NA,1,3.0431662279924,3.22708009859352,1.88764670034376,3.20172332637508,FALSE,2.75173504315365
"CAN","cpi",0.1,1964,3,1963,NA,1.5,-3.64866653449305,-3.46475266389193,1.88764670034376,0,FALSE,12.0781346800138
"CAN","cpi",0.1,1965,3,1965,NA,0,1.65969351654865,1.7228179635581,2.29538304394236,2.29800189469823,FALSE,1.3354912923078
"CAN","cpi",0.1,1965,3,1965,NA,0.5,2.37897410308762,2.53032421545964,2.29538304394236,1.39443218256826,FALSE,0.337108021583714
"CAN","cpi",0.1,1965,3,1964,NA,1,1.40510827668545,1.55645838905747,2.29538304394236,1.48078368039448,FALSE,1.7934049010051
"CAN","cpi",0.1,1965,3,1964,NA,1.5,-3.28087640125291,-3.12952628888088,2.29538304394236,0.293257399533461,FALSE,12.2067041853126
"CAN","cpi",0.1,1966,3,1966,NA,0,2.32600262046308,2.38631048424668,3.72486065470629,3.77511268244847,FALSE,3.03486379813829
"CAN","cpi",0.1,1966,3,1966,NA,0.5,4.25623966209032,4.31952648951816,3.72486065470629,3.37743719728421,FALSE,1.24412906605902
"CAN","cpi",0.1,1966,3,1965,NA,1,2.01409231239551,2.07737913982334,3.72486065470629,1.98486973144544,FALSE,3.72435686050106
"CAN","cpi",0.1,1966,3,1965,NA,1.5,-3.40666860271714,-3.3433817752893,3.72486065470629,0.578640834001038,FALSE,15.770492227418
"CAN","cpi",0.1,1967,3,1967,NA,0,2.7820851602409,2.6400249492246,3.49360316391996,3.68375770714608,FALSE,1.7547802660845
"CAN","cpi",0.1,1967,3,1967,NA,0.5,3.81854851496591,3.67648830394961,3.49360316391996,2.11054708048259,FALSE,0.580040569085816
"CAN","cpi",0.1,1967,3,1966,NA,1,2.13035993592136,1.98829972490505,3.49360316391996,2.02003307533501,FALSE,3.20305854235016
"CAN","cpi",0.1,1967,3,1966,NA,1.5,-3.67357166735429,-3.81563187837059,3.49360316391996,1.71558536379673,FALSE,16.1006843274071
"CAN","cpi",0.1,1968,3,1968,NA,0,2.73178565690054,2.82696932577785,3.95128347779386,4.07085717819357,FALSE,2.59365956224621
"CAN","cpi",0.1,1968,3,1968,NA,0.5,4.76903373346367,4.96470324763482,3.95128347779386,3.50732233276501,FALSE,2.01289230454851
"CAN","cpi",0.1,1968,3,1967,NA,1,3.91080901551902,4.10647852969017,3.95128347779386,3.66303679301692,TRUE,0.195669514171147
"CAN","cpi",0.1,1968,3,1967,NA,1.5,-3.84831414627938,-3.65264463210823,3.95128347779386,0.834881519045053,FALSE,17.0932875361758
"CAN","cpi",0.1,1969,3,1969,NA,0,3.01485341028102,3.09748555271444,4.42679496126681,4.52532640008253,FALSE,3.03665305032758
"CAN","cpi",0.1,1969,3,1969,NA,0.5,4.2199979300344,4.41466414377851,4.42679496126681,2.69090620784681,FALSE,0.221623585940337
"CAN","cpi",0.1,1969,3,1968,NA,1,4.40969460427689,4.604360818021,4.42679496126681,4.0779393276339,TRUE,0.19466621374411
"CAN","cpi",0.1,1969,3,1968,NA,1.5,-3.73851770458126,-3.54385149083715,4.42679496126681,1.61221871335458,FALSE,17.9072138850862
"CAN","cpi",0.1,1970,3,1970,NA,0,2.78721351778117,2.88157032606804,3.28128405769805,3.55878605435979,FALSE,0.982609545242444
"CAN","cpi",0.1,1970,3,1970,NA,0.5,5.34372831882366,5.61009208432458,3.28128405769805,3.74969277403504,FALSE,4.84957323466894
"CAN","cpi",0.1,1970,3,1969,NA,1,3.37310509470256,3.63946886020348,3.28128405769805,3.11186608282608,FALSE,0.470410514399839
"CAN","cpi",0.1,1970,3,1969,NA,1.5,-4.33465924361218,-4.06829547811125,3.28128405769805,0.764941977259638,FALSE,16.598762733966
"CAN","cpi",0.1,1971,3,1971,NA,0,2.19863742894935,2.28186375540186,2.64123406634756,2.81514553288871,FALSE,0.881827017442952
"CAN","cpi",0.1,1971,3,1971,NA,0.5,2.69614634633732,2.87668779622665,2.64123406634756,1.11673730766521,FALSE,0.302568738755453
"CAN","cpi",0.1,1971,3,1970,NA,1,2.13607501158292,2.59379589387541,2.64123406634756,1.92043450460395,FALSE,0.563139043341722
"CAN","cpi",0.1,1971,3,1970,NA,1.5,-1.62331917043212,-1.0797226117258,2.64123406634756,1.70194075200601,FALSE,8.81238917664712
"CAN","cpi",0.1,1972,3,1972,NA,0,2.83964950110209,2.93020396666156,4.83230569625923,5.04828762155974,FALSE,4.31744719799874
"CAN","cpi",0.1,1972,3,1972,NA,0.5,4.84647227029211,5.22219677904223,4.83230569625923,4.09602385359717,FALSE,0.407205784378738
"CAN","cpi",0.1,1972,3,1971,NA,1,4.80763823820595,5.18336274695608,4.83230569625923,4.16812111633716,TRUE,0.375724508750123
"CAN","cpi",0.1,1972,3,1971,NA,1.5,-1.36653450753079,-0.990809998780668,4.83230569625923,0.692030005351089,FALSE,13.3159816088388
"CAN","cpi",0.1,1973,3,1973,NA,0,4.22561648372505,4.3403311589066,7.12388603531779,7.25096132226983,FALSE,6.30039217831752
"CAN","cpi",0.1,1973,3,1973,NA,0.5,6.75906886832151,7.20543029790746,7.12388603531779,5.30446017290082,TRUE,0.446361429585949
"CAN","cpi",0.1,1973,3,1972,NA,1,5.3795234073897,6.20057062215,7.12388603531779,4.92276035792265,FALSE,2.87285924402206
"CAN","cpi",0.1,1973,3,1972,NA,1.5,-1.744155338103,-0.9231081233427,7.12388603531779,1.79187879074203,FALSE,18.7032564562281
"CAN","cpi",0.1,1974,3,1974,NA,0,5.8291947563638,6.01541763612493,10.2717243737774,10.148911210151,FALSE,9.64468229676666
"CAN","cpi",0.1,1974,3,1974,NA,0.5,9.72892255722998,10.4838992660215,10.2717243737774,7.90446289245049,TRUE,0.75497670879151
"CAN","cpi",0.1,1974,3,1973,NA,1,7.89176015236477,8.89879489639011,10.2717243737774,7.30476096756609,FALSE,4.05798913821936
"CAN","cpi",0.1,1974,3,1973,NA,1.5,-2.49080454640032,-1.48376980237497,10.2717243737774,2.5663290958369,FALSE,27.1303551354751
"CAN","cpi",0.1,1975,3,1975,NA,0,6.58167749152107,6.82397103777237,10.0232981493341,10.1746571103793,FALSE,7.35190934972186
"CAN","cpi",0.1,1975,3,1975,NA,0.5,11.2687677397418,12.2250122040088,10.0232981493341,8.07152306914465,FALSE,3.7239546651729
"CAN","cpi",0.1,1975,3,1974,NA,1,7.10177759893777,8.05802206320481,10.0232981493341,7.8187778356914,FALSE,5.3235246556655
"CAN","cpi",0.1,1975,3,1974,NA,1.5,-5.47023077323978,-4.51398630897274,10.0232981493341,3.64914274700436,FALSE,33.2613210382823
"CAN","cpi",0.1,1976,3,1976,NA,0,5.55551052506016,5.70891327806189,7.22784311401172,7.18995143043805,FALSE,3.52880238844578
"CAN","cpi",0.1,1976,3,1976,NA,0.5,10.1063237552491,10.6895047153352,7.22784311401172,6.61333364285308,FALSE,6.97980460728025
"CAN","cpi",0.1,1976,3,1975,NA,1,7.11883661779054,7.70201757787668,7.22784311401172,8.584971075903,TRUE,0.583180960086137
"CAN","cpi",0.1,1976,3,1975,NA,1.5,-8.68956694224147,-8.10638598215533,7.22784311401172,3.14738569995591,FALSE,34.6592456182351
"CAN","cpi",0.1,1977,3,1977,NA,0,4.86630344688733,5.04550618726529,7.58101410153764,7.50176944503946,FALSE,5.8136647720943
"CAN","cpi",0.1,1977,3,1977,NA,0.5,8.58634639064058,9.36985036293756,7.58101410153764,6.40571638826874,FALSE,3.01757572585906
"CAN","cpi",0.1,1977,3,1976,NA,1,3.28502114147323,4.13780260322135,7.58101410153764,4.04909286077014,FALSE,8.50436256911767
"CAN","cpi",0.1,1977,3,1976,NA,1.5,-4.348450321,-3.49566885925188,7.58101410153764,2.59432747727492,FALSE,25.4676324857248
"CAN","cpi",0.1,1978,3,1978,NA,0,5.33082222112146,5.542970817696,8.50208927062595,8.59104847384149,FALSE,6.78796738086331
"CAN","cpi",0.1,1978,3,1978,NA,0.5,9.59732819246729,10.3137794394775,8.50208927062595,7.34113908733495,FALSE,3.15031551776877
"CAN","cpi",0.1,1978,3,1977,NA,1,4.6658936292503,5.75414580915435,8.50208927062595,5.87902868518151,FALSE,7.19479320539648
"CAN","cpi",0.1,1978,3,1977,NA,1.5,-3.05582924636492,-1.69597144025827,8.50208927062595,3.89293485842214,FALSE,24.0222149414049
"CAN","cpi",0.1,1979,3,1979,NA,0,5.55711125112071,5.73999365798788,8.65147652410481,8.48651410143776,FALSE,6.65284433157145
"CAN","cpi",0.1,1979,3,1979,NA,0.5,10.1584522293715,10.8062073583175,8.65147652410481,7.46186747064873,FALSE,3.99659002953861
"CAN","cpi",0.1,1979,3,1978,NA,1,5.53582761326947,6.64248573301739,8.65147652410481,6.93686058379669,FALSE,5.57108209994218
"CAN","cpi",0.1,1979,3,1978,NA,1.5,-0.852137516168993,0.254520603578932,8.65147652410481,3.9179710204728,FALSE,19.766560165361
"CAN","cpi",0.1,1980,3,1980,NA,0,5.91698322588829,6.07210678837013,9.5171912664748,9.43711128155219,FALSE,7.81086684715887
"CAN","cpi",0.1,1980,3,1980,NA,0.5,10.4287909521712,11.2462197243626,9.5171912664748,7.89144076485851,FALSE,2.84320585151666
"CAN","cpi",0.1,1980,3,1979,NA,1,3.89779739347508,4.72036640507023,9.5171912664748,5.69387794711803,FALSE,11.4821798147164
"CAN","cpi",0.1,1980,3,1979,NA,1.5,0.981028587070204,1.80359759866536,9.5171912664748,4.27199048256738,FALSE,17.9638882733939
"CAN","cpi",0.1,1981,3,1981,NA,0,6.8970488291254,7.06882517763048,11.5813425032741,11.617538759154,FALSE,10.1995926277132
"CAN","cpi",0.1,1981,3,1981,NA,0.5,13.5453080629675,14.3648871691244,11.5813425032741,11.3038259100907,FALSE,5.18394701658663
"CAN","cpi",0.1,1981,3,1980,NA,1,6.12301958299579,6.94259868915271,11.5813425032741,8.22922472590444,FALSE,11.1278986930934
"CAN","cpi",0.1,1981,3,1980,NA,1.5,2.12015198292169,2.93973108907862,11.5813425032741,4.54818367546621,FALSE,20.0231600265914
"CAN","cpi",0.1,1982,3,1982,NA,0,6.90732038993809,7.17113406276624,10.1124203763629,10.1863972123348,FALSE,6.80000548082083
"CAN","cpi",0.1,1982,3,1982,NA,0.5,12.9957790646274,13.8721312783179,10.1124203763629,9.38011590167964,FALSE,7.28381596538932
"CAN","cpi",0.1,1982,3,1981,NA,1,5.79076163601264,7.10229857334685,10.1124203763629,8.92774959502704,FALSE,8.0006964995922
"CAN","cpi",0.1,1982,3,1981,NA,1.5,7.80287445281741,9.11441139015161,10.1124203763629,7.65688060941457,FALSE,3.5293346844705
"CAN","cpi",0.1,1983,3,1983,NA,0,5.07725527717736,5.24999175157615,5.67091787896303,5.79231449937116,FALSE,1.10812786859187
"CAN","cpi",0.1,1983,3,1983,NA,0.5,8.6500033235054,9.26567892424281,5.67091787896303,4.48935486750539,FALSE,7.23586547749823
"CAN","cpi",0.1,1983,3,1982,NA,1,4.83807108129001,5.50519497576694,5.67091787896303,6.68360843662591,FALSE,1.03539701269048
"CAN","cpi",0.1,1983,3,1982,NA,1.5,4.72558997757853,5.39271387205546,5.67091787896303,5.80492936344428,FALSE,1.2853550209382
"CAN","cpi",0.1,1984,3,1984,NA,0,3.29079700711281,3.39974593756709,4.19799576814029,4.1863442377944,FALSE,1.88283744283916
"CAN","cpi",0.1,1984,3,1984,NA,0.5,6.55928725600275,6.8919030832827,4.19799576814029,4.37368919035215,FALSE,5.57993024475209
"CAN","cpi",0.1,1984,3,1983,NA,1,4.13190514676953,4.46452097404948,4.19799576814029,4.8252398586334,TRUE,0.332615827279948
"CAN","cpi",0.1,1984,3,1983,NA,1.5,-0.327089077591748,0.00552674968819958,4.19799576814029,1.63651850095104,FALSE,9.64921364606237
"CAN","cpi",0.1,1985,3,1985,NA,0,2.79334020449719,2.88275834540193,3.86444262005169,3.87488963413478,FALSE,2.27093875123754
"CAN","cpi",0.1,1985,3,1985,NA,0.5,5.27956358434604,5.64616764663805,3.86444262005169,3.66954460168274,FALSE,3.51131731627945
"CAN","cpi",0.1,1985,3,1984,NA,1,1.86597711947157,2.36464877479361,3.86444262005169,2.51760914226531,FALSE,3.83154686700667
"CAN","cpi",0.1,1985,3,1984,NA,1.5,2.26743400927458,2.76610566459662,3.86444262005169,2.74468923002786,FALSE,2.93942044522221
"CAN","cpi",0.1,1986,3,1986,NA,0,2.79087324244459,2.87217529980799,4.08685396749431,4.09009381020777,FALSE,2.78058798555522
"CAN","cpi",0.1,1986,3,1986,NA,0.5,5.46087673251759,5.80816865591081,4.08685396749431,4.18867743652029,FALSE,3.40067584566717
"CAN","cpi",0.1,1986,3,1985,NA,1,2.51082030698282,2.85811223037604,4.08685396749431,2.96346536694636,FALSE,3.07782911698937
"CAN","cpi",0.1,1986,3,1985,NA,1.5,2.42467902904857,2.77197095244179,4.08685396749431,2.65645514502224,FALSE,3.26925417906549
"CAN","cpi",0.1,1987,3,1987,NA,0,2.94275189844513,3.02702745012367,4.23980729277887,4.30382748919395,FALSE,2.7793418686901
"CAN","cpi",0.1,1987,3,1987,NA,0.5,5.04310501747501,5.40369931252177,4.23980729277887,3.60745044359556,FALSE,2.14570034992706
"CAN","cpi",0.1,1987,3,1986,NA,1,3.15275116101068,3.51334545605744,4.23980729277887,3.48954394276064,FALSE,1.97495393220549
"CAN","cpi",0.1,1987,3,1986,NA,1.5,3.03294631676066,3.39354061180742,4.23980729277887,3.05061614822702,FALSE,2.24118691942777
"CAN","cpi",0.1,1988,3,1988,NA,0,2.865907530957,2.94537813706346,3.92899537638065,3.96651200874969,FALSE,2.265286693478
"CAN","cpi",0.1,1988,3,1988,NA,0.5,4.84944796553096,5.12879396768926,3.92899537638065,3.27588434563216,FALSE,2.32479620027009
"CAN","cpi",0.1,1988,3,1987,NA,1,2.97755941767461,3.25690541983291,3.92899537638065,3.36557853238272,FALSE,1.77287923893106
"CAN","cpi",0.1,1988,3,1987,NA,1.5,2.32777693379078,2.60712293594908,3.92899537638065,2.22890665988493,FALSE,3.21684031422846
"CAN","cpi",0.1,1989,3,1989,NA,0,3.1241579612142,3.19182378537322,4.82821664544208,4.96224122245117,FALSE,3.70409440208982
"CAN","cpi",0.1,1989,3,1989,NA,0.5,5.34678385766582,5.57348548383577,4.82821664544208,4.15246181762677,FALSE,1.37907320888938
"CAN","cpi",0.1,1989,3,1988,NA,1,3.06532729389619,3.29202892006614,4.82821664544208,3.35061776773985,FALSE,3.64045212700536
"CAN","cpi",0.1,1989,3,1988,NA,1.5,2.07291515331862,2.29961677948857,4.82821664544208,2.03293210635829,FALSE,5.84581243939997
"CAN","cpi",0.1,1990,3,1990,NA,0,3.20274207705384,3.28195887937477,4.64347549432717,4.49116732458404,FALSE,3.10480927999293
"CAN","cpi",0.1,1990,3,1990,NA,0.5,6.1578895633047,6.48824929581671,4.64347549432717,4.80635133900141,FALSE,3.69572433023985
"CAN","cpi",0.1,1990,3,1989,NA,1,4.16965039037581,4.50001012288781,4.64347549432717,4.45332930526201,FALSE,0.649171669043908
"CAN","cpi",0.1,1990,3,1989,NA,1.5,3.21530997889275,3.54566971140475,4.64347549432717,2.93994143296931,FALSE,2.76992813900627
"CAN","cpi",0.1,1991,3,1991,NA,0,3.54236736415499,3.62429403263655,5.4258100696218,5.5966415351231,FALSE,4.08529563955988
"CAN","cpi",0.1,1991,3,1991,NA,0.5,8.39478281741227,8.77294497217074,5.4258100696218,8.0424604401558,FALSE,6.97587937207063
"CAN","cpi",0.1,1991,3,1990,NA,1,2.60965016057457,2.98781231533304,5.4258100696218,3.00766385389873,FALSE,5.79593494206681
"CAN","cpi",0.1,1991,3,1990,NA,1.5,3.70680792063722,4.0849700753957,5.4258100696218,3.42461322750937,FALSE,3.35780658637203
"CAN","cpi",0.1,1992,3,1992,NA,0,2.32772834194136,2.4038291591711,1.47496888572843,1.46118300949616,FALSE,1.97112183103624
"CAN","cpi",0.1,1992,3,1992,NA,0.5,3.7315526657991,3.86143058536281,1.47496888572843,1.2379681755847,FALSE,5.14450854194297
"CAN","cpi",0.1,1992,3,1991,NA,1,1.70942928500222,1.83930720456593,1.47496888572843,1.8723365291461,FALSE,0.650901029061016
"CAN","cpi",0.1,1992,3,1991,NA,1.5,8.3617392217606,8.4916171413243,1.47496888572843,6.89933696838937,FALSE,15.4338119996352
"CAN","cpi",0.1,1993,3,1993,NA,0,1.34437548806305,1.37837561387169,1.84351085411351,1.80220567555903,FALSE,1.06763399301269
"CAN","cpi",0.1,1993,3,1993,NA,0.5,2.79049089992701,2.93828581533332,1.84351085411351,2.21818498229346,FALSE,2.25219501721408
"CAN","cpi",0.1,1993,3,1992,NA,1,1.52861469866331,1.67640961406963,1.84351085411351,1.3520429918812,FALSE,0.519131004392727
"CAN","cpi",0.1,1993,3,1992,NA,1.5,1.13928915056659,1.2870840659729,1.84351085411351,0.933485487336859,FALSE,1.38429888905212
"CAN","cpi",0.1,1994,3,1994,NA,0,0.910366306261525,0.933353379007424,0.161630694655448,0.202109657487191,FALSE,1.68684398742607
"CAN","cpi",0.1,1994,3,1994,NA,0.5,0.856035178664772,0.939149571186334,0.161630694655448,-0.572639707462777,FALSE,1.62623546809784
"CAN","cpi",0.1,1994,3,1993,NA,1,1.29722319882612,1.44230508696306,0.161630694655448,1.14110533076836,FALSE,2.66862078629398
"CAN","cpi",0.1,1994,3,1993,NA,1.5,1.84326255907751,1.98834444721445,0.161630694655448,1.65023462295923,FALSE,3.88204158685263
"CAN","cpi",0.1,1995,3,1995,NA,0,1.09479690148788,1.11907882898151,2.11688403676572,2.14851249512314,FALSE,2.24162683368075
"CAN","cpi",0.1,1995,3,1995,NA,0.5,2.47957674727039,2.60835373689491,2.11688403676572,2.60072443309243,FALSE,0.934760790746022
"CAN","cpi",0.1,1995,3,1994,NA,1,1.67992076729859,1.80869775692311,2.11688403676572,1.43373972642191,FALSE,0.813635389274755
"CAN","cpi",0.1,1995,3,1994,NA,1.5,-0.984723354232729,-0.855946364608211,2.11688403676572,-1.26611333424577,FALSE,6.73506677045547
"CAN","cpi",0.1,1996,3,1996,NA,0,1.4211943261905,1.45608729421427,1.55309584667184,1.43665270425039,FALSE,0.2504675290406
"CAN","cpi",0.1,1996,3,1996,NA,0.5,2.20789308046639,2.37644075510624,1.55309584667184,1.23276330365037,FALSE,1.62365263862773
"CAN","cpi",0.1,1996,3,1995,NA,1,0.856048243544365,1.06485457144279,1.55309584667184,0.729753259393914,FALSE,1.29378693951854
"CAN","cpi",0.1,1996,3,1995,NA,1.5,2.37361395684184,2.58242028474027,1.55309584667184,2.31904839186543,FALSE,2.03217990605398
"CAN","cpi",0.1,1997,3,1997,NA,0,1.34422258159235,1.37891424808091,1.60528783555959,1.67949478723595,FALSE,0.537744083107853
"CAN","cpi",0.1,1997,3,1997,NA,0.5,2.47346038879228,2.62150386767725,1.60528783555959,1.93291992098407,FALSE,2.07731581940206
"CAN","cpi",0.1,1997,3,1996,NA,1,0.937241074404469,1.08528455328943,1.60528783555959,0.614630451620954,FALSE,1.30360632837421
"CAN","cpi",0.1,1997,3,1996,NA,1.5,1.0253965641166,1.17344004300156,1.60528783555959,0.962161564198873,FALSE,1.10770524012504
"CAN","cpi",0.1,1998,3,1998,NA,0,1.11270403806584,1.13948545500989,0.988908029337191,0.967063680387792,FALSE,0.301883658563266
"CAN","cpi",0.1,1998,3,1998,NA,0.5,2.04410067286323,2.20444288936251,0.988908029337191,1.34897459866337,FALSE,2.50521475766825
"CAN","cpi",0.1,1998,3,1997,NA,1,1.12654201405049,1.28688423054977,0.988908029337191,0.792689959246129,FALSE,0.466195515862167
"CAN","cpi",0.1,1998,3,1997,NA,1.5,1.26197000295542,1.4223122194547,0.988908029337191,1.28384000376946,FALSE,0.76714660231756
"CAN","cpi",0.1,1999,3,1999,NA,0,1.21444475931595,1.24034320870116,1.7107350135213,1.76864633894604,FALSE,1.07121357120774
"CAN","cpi",0.1,1999,3,1999,NA,0.5,1.35845035032531,1.47349468720571,1.7107350135213,0.732099710600531,FALSE,0.642245062026138
"CAN","cpi",0.1,1999,3,1998,NA,1,0.751428929357776,0.866473266238176,1.7107350135213,0.369052571959629,FALSE,1.99118155306511
"CAN","cpi",0.1,1999,3,1998,NA,1.5,1.31050817023391,1.42555250711431,1.7107350135213,1.26847007023129,FALSE,0.748783240007033
"CAN","cpi",0.1,2000,3,2000,NA,0,1.7438111287116,1.77899017715834,2.6718361971244,2.70257810674034,FALSE,2.01928131503799
"CAN","cpi",0.1,2000,3,2000,NA,0.5,2.4864858985927,2.7105881216726,2.6718361971244,1.95948305880876,TRUE,0.224102223079893
"CAN","cpi",0.1,2000,3,1999,NA,1,2.39612589547158,2.62992093886147,2.6718361971244,2.16154661985999,FALSE,0.326940061751962
"CAN","cpi",0.1,2000,3,1999,NA,1.5,0.520478165311772,0.754273208701661,2.6718361971244,0.50278387806376,FALSE,4.49504612877375
"CAN","cpi",0.1,2001,3,2001,NA,0,2.04645330773105,2.07266931826249,2.47906219852806,2.73154549386087,FALSE,0.929311300010496
"CAN","cpi",0.1,2001,3,2001,NA,0.5,2.65495876597583,2.86206244817784,2.47906219852806,1.65861828263926,FALSE,0.597984943197052
"CAN","cpi",0.1,2001,3,2000,NA,1,3.06619996292665,3.27330364512866,2.47906219852806,2.84133895788986,FALSE,1.51185426975443
"CAN","cpi",0.1,2001,3,2000,NA,1.5,1.07983822447046,1.28694190667248,2.47906219852806,1.14191354447969,FALSE,2.85625988632554
"CAN","cpi",0.1,2002,3,2002,NA,0,1.8354559849466,1.87032760519105,2.20880570551249,2.31282527465204,FALSE,0.787045176514308
"CAN","cpi",0.1,2002,3,2002,NA,0.5,2.34228252739525,2.50998744119537,2.20880570551249,1.24731948634093,FALSE,0.464320073539591
"CAN","cpi",0.1,2002,3,2001,NA,1,1.03018765870744,1.27365259975652,2.20880570551249,0.695491540886875,FALSE,2.32158295384011
"CAN","cpi",0.1,2002,3,2001,NA,1.5,0.43602094836328,0.679485889412364,2.20880570551249,0.47606161882134,FALSE,3.64195342127158
"CAN","cpi",0.1,2003,3,2003,NA,0,1.90045338855068,1.93636607097104,2.71189071546809,2.75460397277825,FALSE,1.75930078130269
"CAN","cpi",0.1,2003,3,2003,NA,0.5,4.27981732981844,4.51776976969376,2.71189071546809,4.16096970792426,FALSE,3.72223380509831
"CAN","cpi",0.1,2003,3,2002,NA,1,3.45833992775686,3.69629236763218,2.71189071546809,3.27791908188471,FALSE,1.8967284671837
"CAN","cpi",0.1,2003,3,2002,NA,1.5,1.39085357534119,1.62880601521651,2.71189071546809,1.51830012756901,FALSE,2.64480732932327
"CAN","cpi",0.1,2004,3,2004,NA,0,1.71282592812653,1.74682946022817,1.83151661303942,1.76153103901938,FALSE,0.222197205015534
"CAN","cpi",0.1,2004,3,2004,NA,0.5,2.49935789043885,2.69791246691926,1.83151661303942,1.38945604480572,FALSE,1.6826463040347
"CAN","cpi",0.1,2004,3,2003,NA,1,1.37523856105091,1.57497707995662,1.83151661303942,1.01874619159597,FALSE,0.769826370200826
"CAN","cpi",0.1,2004,3,2003,NA,1.5,2.83007438134272,3.02981290024843,1.83151661303942,2.99105359104411,FALSE,2.41875578180193
"CAN","cpi",0.1,2005,3,2005,NA,0,1.65920901242256,1.68727096854391,2.18071628336509,2.35062481142317,FALSE,1.12460710016842
"CAN","cpi",0.1,2005,3,2005,NA,0.5,2.21267902273092,2.36612584353103,2.18071628336509,1.4552837212303,FALSE,0.224475130501951
"CAN","cpi",0.1,2005,3,2004,NA,1,1.18413862238127,1.33758544318139,2.18071628336509,0.79648671202377,FALSE,2.02707091009723
"CAN","cpi",0.1,2005,3,2004,NA,1.5,1.14817459117483,1.30162141197494,2.18071628336509,1.13680951350797,FALSE,2.10699097944489
"CAN","cpi",0.1,2006,3,2006,NA,0,1.65678058207745,1.69440611050796,1.97519342012289,2.06448042324351,FALSE,0.661597327574788
"CAN","cpi",0.1,2006,3,2006,NA,0.5,2.56278822764008,2.75085458651706,1.97519342012289,1.77073314120205,FALSE,1.49383259780408
"CAN","cpi",0.1,2006,3,2005,NA,1,2.79258004751731,3.02313275630632,1.97519342012289,2.58808204718941,FALSE,2.04696743633218
"CAN","cpi",0.1,2006,3,2005,NA,1.5,0.796393793744204,1.02694650253321,1.97519342012289,0.762075268916728,FALSE,2.33776808121051
"CAN","cpi",0.1,2007,3,2007,NA,0,1.60692226730905,1.63993226818655,2.10062087284572,2.10807340507977,FALSE,1.05676245567566
"CAN","cpi",0.1,2007,3,2007,NA,0.5,2.69590783527105,2.8717609706284,2.10062087284572,2.09760271424675,FALSE,1.49871305185809
"CAN","cpi",0.1,2007,3,2006,NA,1,0.89204824671037,1.06790138206772,2.10062087284572,0.438862458623872,FALSE,2.47078533708624
"CAN","cpi",0.1,2007,3,2006,NA,1.5,1.06859682720984,1.24444996256719,2.10062087284572,1.08089197775225,FALSE,2.07845515819853
"CAN","cpi",0.1,2008,3,2008,NA,0,1.92424027376737,1.95780312731798,2.31447335265955,2.9146675338117,FALSE,0.82616335430966
"CAN","cpi",0.1,2008,3,2008,NA,0.5,1.98204514785517,2.15461368004309,2.31447335265955,1.04562745221765,FALSE,0.527812249113389
"CAN","cpi",0.1,2008,3,2007,NA,1,0.874995428817059,1.04828831418266,2.31447335265955,0.365030180386173,FALSE,2.98703741531425
"CAN","cpi",0.1,2008,3,2007,NA,1.5,1.91103114094231,2.0843240263079,2.31447335265955,2.04107389452134,FALSE,0.684735832813701
"CAN","cpi",0.1,2009,3,2009,NA,0,1.08408557844066,1.11051777075044,0.284533874408197,0.272618836216429,FALSE,1.80321375682637
"CAN","cpi",0.1,2009,3,2009,NA,0.5,0.798949463883352,0.963659616940221,0.284533874408197,-0.807426338518035,FALSE,1.3078559074461
"CAN","cpi",0.1,2009,3,2008,NA,1,3.48967393938327,3.72888487235832,0.284533874408197,3.28355694764985,FALSE,7.36174441069743
"CAN","cpi",0.1,2009,3,2008,NA,1.5,0.804570865465349,1.0437817984404,0.284533874408197,0.703376955238912,FALSE,1.39484869087983
"CAN","cpi",0.1,2010,3,2010,NA,0,0.987049444158527,1.00412208989654,1.75525687020327,1.72708036400674,FALSE,1.68626104641964
"CAN","cpi",0.1,2010,3,2010,NA,0.5,1.61313644713101,1.70692147590265,1.75525687020327,1.42243266198166,FALSE,0.201197016106353
"CAN","cpi",0.1,2010,3,2009,NA,1,0.886809474897486,0.980594503669125,1.75525687020327,0.515829437079458,FALSE,1.81525695440308
"CAN","cpi",0.1,2010,3,2009,NA,1.5,-0.239057884419676,-0.145272855648037,1.75525687020327,-0.666399632006793,FALSE,4.31718441955233
"CAN","cpi",0.1,2011,3,2011,NA,0,1.80224477636038,1.83415402853955,2.85717434028225,2.82871118728348,FALSE,2.30528772271849
"CAN","cpi",0.1,2011,3,2011,NA,0.5,2.9190464972075,3.11684867386539,2.85717434028225,2.59305645945043,FALSE,0.335295858714008
"CAN","cpi",0.1,2011,3,2010,NA,1,1.95963424233624,2.15743641899414,2.85717434028225,1.58194849312145,FALSE,1.75277533507592
"CAN","cpi",0.1,2011,3,2010,NA,1.5,1.10257293086625,1.30037510752415,2.85717434028225,1.00866231757724,FALSE,3.65735602723144
"CAN","cpi",0.1,2012,3,2012,NA,0,1.66525035879037,1.70093560425958,1.50118536134935,1.46681751445377,FALSE,0.400274128671492
"CAN","cpi",0.1,2012,3,2012,NA,0.5,2.65476501732069,2.87510486054489,1.50118536134935,1.63866597060755,FALSE,2.78385018982718
"CAN","cpi",0.1,2012,3,2011,NA,1,1.44348671950964,1.72176846412589,1.50118536134935,0.848240548987433,TRUE,0.27828174461625
"CAN","cpi",0.1,2012,3,2011,NA,1.5,1.66608343762488,1.94436518224113,1.50118536134935,1.68384299188515,FALSE,0.644721914117444
"CAN","cpi",0.1,2013,3,2013,NA,0,1.11622448208518,1.140325011242,0.931270594714462,1.03083115414128,FALSE,0.43510916775842
"CAN","cpi",0.1,2013,3,2013,NA,0.5,1.71792928953613,1.85288147591693,0.931270594714462,1.00184063196526,FALSE,1.88308261931783
"CAN","cpi",0.1,2013,3,2012,NA,1,0.371659751970568,0.50661193835137,0.931270594714462,-0.272545990872386,FALSE,1.0786380894099
"CAN","cpi",0.1,2013,3,2012,NA,1.5,1.11441248021652,1.24936466659732,0.931270594714462,0.958608804136071,FALSE,0.541934154163156
"CAN","cpi",0.1,2014,3,2014,NA,0,1.26938573917448,1.29601845104094,1.87639912240215,1.98613278510701,FALSE,1.31636753711359
"CAN","cpi",0.1,2014,3,2014,NA,0.5,2.14005553767504,2.27601787091057,1.87639912240215,1.95223885123801,FALSE,0.721865478286403
"CAN","cpi",0.1,2014,3,2013,NA,1,1.14517535790822,1.28113769114375,1.87639912240215,0.688658687283847,FALSE,1.45876551380976
"CAN","cpi",0.1,2014,3,2013,NA,1.5,0.997121952865175,1.1330842861007,1.87639912240215,0.891594199884501,FALSE,1.78777308057208
"CAN","cpi",0.1,2015,3,2015,NA,0,1.29007831304242,1.32071266430665,1.11090953952792,1.24641866377254,FALSE,0.428787181296457
"CAN","cpi",0.1,2015,3,2015,NA,0.5,1.25217511108912,1.39771408168898,1.11090953952792,0.198117162089698,FALSE,0.459462462958087
"CAN","cpi",0.1,2015,3,2014,NA,1,1.18180043120036,1.32733940180021,1.11090953952792,0.532106072596766,FALSE,0.303074285427506
"CAN","cpi",0.1,2015,3,2014,NA,1.5,1.848317289903,1.99385626050285,1.11090953952792,1.81035920235268,FALSE,1.78422286032225
"CAN","cpi",0.1,2016,3,2016,NA,0,1.12957049425927,1.15616033097105,1.41168586698797,1.44184957394589,FALSE,0.59442436119382
"CAN","cpi",0.1,2016,3,2016,NA,0.5,1.43332862767859,1.5832318517527,1.41168586698797,0.843100047406122,FALSE,0.197998247831049
"CAN","cpi",0.1,2016,3,2015,NA,1,1.66947587905653,1.82077576272805,1.41168586698797,1.23484853770273,FALSE,0.724166577157218
"CAN","cpi",0.1,2016,3,2015,NA,1.5,0.358795543392851,0.52375419210026,1.41168586698797,0.107462752177283,FALSE,2.13814014845787
"CAN","cpi",0.1,2017,3,2017,NA,0,1.24707965493553,1.27307329625053,1.57888581671161,1.51739925639673,FALSE,0.705577020117404
"CAN","cpi",0.1,2017,3,2017,NA,0.5,2.24125225547869,2.39924116813493,1.57888581671161,1.88170269277887,FALSE,1.62991433213863
"CAN","cpi",0.1,2017,3,2016,NA,1,0.973547393794634,1.13153630645087,1.57888581671161,0.418338346755244,FALSE,1.15209893545788
"CAN","cpi",0.1,2017,3,2016,NA,1.5,0.685077422584518,0.843066335240756,1.57888581671161,0.52557608733729,FALSE,1.79314331592481
"CAN","cpi",0.1,2018,3,2018,NA,0,1.59913682463108,1.63678464329045,2.23316270166586,2.40611378585155,FALSE,1.36293239282695
"CAN","cpi",0.1,2018,3,2018,NA,0.5,2.7570672494161,2.92969435642134,2.23316270166586,2.62207020824204,FALSE,1.3368594353391
"CAN","cpi",0.1,2018,3,2017,NA,1,0.99841466143801,1.17104176844325,2.23316270166586,0.40411310060617,FALSE,2.53289584749992
"CAN","cpi",0.1,2018,3,2017,NA,1.5,1.50200684247513,1.67463394948037,2.23316270166586,1.53787524714926,FALSE,1.41380211186188
"CAN","cpi",0.1,2019,3,2019,NA,0,1.65668336010477,1.69016940927337,1.91921619871868,2.01142839895124,FALSE,0.542478914602619
"CAN","cpi",0.1,2019,3,2019,NA,0.5,2.21160298599041,2.44079028807687,1.91921619871868,1.51883708040586,FALSE,0.878935718245864
"CAN","cpi",0.1,2019,3,2018,NA,1,1.96985270118021,2.19904000326666,1.91921619871868,1.41942984101848,FALSE,0.341712863112069
"CAN","cpi",0.1,2019,3,2018,NA,1.5,1.94818523390466,2.18867618741618,1.91921619871868,2.06105171090012,FALSE,0.304866587258134
"CAN","cpi",0.1,2020,3,2020,NA,0,1.12303285079534,1.15173010250623,0.71139989671781,0.726179852791075,FALSE,0.943437149660954
"CAN","cpi",0.1,2020,3,2020,NA,0.5,1.78353387620308,1.97067074304551,0.71139989671781,1.07225945048052,FALSE,2.56965682125415
"CAN","cpi",0.1,2020,3,2019,NA,1,1.58399095318365,1.77112782002608,0.71139989671781,1.01913964327806,FALSE,2.12622810343318
"CAN","cpi",0.1,2020,3,2019,NA,1.5,1.30341011844071,1.49054698528314,0.71139989671781,1.22761645350518,FALSE,1.50271513733777
"CAN","cpi",0.1,2021,3,2021,NA,0,1.63985193631741,1.67810211809503,3.31148121717802,3.30988753190892,FALSE,3.66798151307316
"CAN","cpi",0.1,2021,3,2021,NA,0.5,2.31895906173326,2.4663227456278,3.31148121717802,2.4899040786607,FALSE,2.02549362067281
"CAN","cpi",0.1,2021,3,2020,NA,1,1.54562257874804,1.69298626264258,3.31148121717802,1.1979067045331,FALSE,3.74401913841776
"CAN","cpi",0.1,2021,3,2020,NA,1.5,0.833215341663123,0.980579025557665,3.31148121717802,0.670626810990653,FALSE,5.32714633193978
"CAN","cpi",0.1,2022,3,2022,NA,0,3.50169988969912,3.57314356197121,6.50977236228281,6.54555789178856,FALSE,6.59728545074231
"CAN","cpi",0.1,2022,3,2022,NA,0.5,5.42655380171103,5.82806450428354,6.50977236228281,5.96468998606203,FALSE,1.916417053682
"CAN","cpi",0.1,2022,3,2021,NA,1,3.74211633207373,4.14362703464624,6.50977236228281,3.42105264822981,FALSE,5.65961143065378
"CAN","cpi",0.1,2022,3,2021,NA,1.5,1.75540872414523,2.15691942671774,6.50977236228281,1.93276265883962,FALSE,10.0745172260504
"CAN","cpi",0.1,2023,3,2023,NA,0,3.57790076975694,3.67090771276299,3.78831288758619,3.97188685244318,FALSE,0.353907331502053
"CAN","cpi",0.1,2023,3,2023,NA,0.5,4.49282758975877,4.99535327017472,3.78831288758619,2.8392001035463,FALSE,2.06811390746613
"CAN","cpi",0.1,2023,3,2022,NA,1,3.84365925134112,4.34618493175707,3.78831288758619,2.86884991489758,FALSE,0.62551759987135
"CAN","cpi",0.1,2023,3,2022,NA,1.5,3.476817804402,3.97934348481794,3.78831288758619,4.03317247515909,TRUE,0.502525680415948
"CAN","cpi",0.1,2024,3,2023,NA,1,3.60016615124367,3.94903986231666,NA,2.89946754179362,NA,NA
"CAN","cpi",0.1,2024,3,2023,NA,1.5,1.17041256801657,1.51928627908956,NA,1.17991651782151,NA,NA
"CAN","cpi",0.2,1952,3,1952,NA,0,-22.1123507305839,-13.5444457508927,2.55562336095485,2.50792675283471,FALSE,48.81807775931
"CAN","cpi",0.2,1952,3,1952,NA,0.5,-16.8565135462716,-8.28860856658044,2.55562336095485,3.80942800622696,FALSE,35.6784847985294
"CAN","cpi",0.2,1952,3,1951,NA,1,3.01261366269391,11.5805186423851,2.55562336095485,6.36946346746546,FALSE,9.71038073403886
"CAN","cpi",0.2,1952,3,1951,NA,1.5,-76.4683707851972,-67.900465805506,2.55562336095485,4.80604275648344,FALSE,184.708127895843
"CAN","cpi",0.2,1953,3,1953,NA,0,-1.3034291845494,-2.09948797751651,-1.01492775838436,-1.00118391953201,FALSE,1.91534175486326
"CAN","cpi",0.2,1953,3,1953,NA,0.5,-14.4570688524305,-15.2531276453976,-1.01492775838436,-1.88711612688489,FALSE,34.7994409245661
"CAN","cpi",0.2,1953,3,1952,NA,1,-14.2515599045859,-14.2222858152401,-1.01492775838436,-0.873617238258229,FALSE,33.0476692314851
"CAN","cpi",0.2,1953,3,1952,NA,1.5,-19.0984236530009,-17.8530950564695,-1.01492775838436,0.432272395627528,FALSE,43.3407468417441
"CAN","cpi",0.2,1954,3,1954,NA,0,0.92231134666108,0.820240801388927,0.644425455961438,0.831821956393317,FALSE,0.592644181476953
"CAN","cpi",0.2,1954,3,1954,NA,0.5,1.65666304198735,1.5545924967152,0.644425455961438,-0.141712452464762,FALSE,2.42852341979263
"CAN","cpi",0.2,1954,3,1953,NA,1,9.99993147438518,10.1595886826002,0.644425455961438,2.12291681679911,FALSE,23.5484222542744
"CAN","cpi",0.2,1954,3,1953,NA,1.5,-0.541587676246218,-0.381930468031198,0.644425455961438,-1.28741438714058,FALSE,2.72554701819661
"CAN","cpi",0.2,1955,3,1955,NA,0,0.446894214450362,0.521544033824421,0.173649026558865,0.10295813188439,FALSE,0.757762789102802
"CAN","cpi",0.2,1955,3,1955,NA,0.5,-0.691176708544259,-0.498691993790033,0.173649026558865,-0.548848324097393,FALSE,1.87333726562647
"CAN","cpi",0.2,1955,3,1954,NA,1,6.03932807694676,7.57154621048322,0.173649026558865,2.19101630104756,FALSE,16.1964157595062
"CAN","cpi",0.2,1955,3,1954,NA,1.5,-9.32137498094817,-7.78915684741171,0.173649026558865,-0.815294949881493,FALSE,21.4392328184629
"CAN","cpi",0.2,1956,3,1956,NA,0,1.01505499194883,1.06423985461273,1.32752769429961,1.46434436590257,FALSE,0.707404461881088
"CAN","cpi",0.2,1956,3,1956,NA,0.5,-0.126922051133059,-0.0777371884691543,1.32752769429961,-0.485738076612692,FALSE,3.56234706958581
"CAN","cpi",0.2,1956,3,1955,NA,1,1.31470898150593,1.83537334759529,1.32752769429961,0.557995939500226,TRUE,0.520664366089359
"CAN","cpi",0.2,1956,3,1955,NA,1.5,-5.11553141891675,-4.59486705282739,1.32752769429961,-0.793756041684752,FALSE,15.3266512339068
"CAN","cpi",0.2,1957,3,1957,NA,0,1.90897964430412,2.1611932724317,3.24684755852518,3.35523637829212,FALSE,2.96634934336127
"CAN","cpi",0.2,1957,3,1957,NA,0.5,2.99645413826623,4.27008869800646,3.24684755852518,2.12793087018929,TRUE,1.27363455974023
"CAN","cpi",0.2,1957,3,1956,NA,1,6.94483875610855,9.37522688897709,3.24684755852518,4.42886834530761,FALSE,11.675366126827
"CAN","cpi",0.2,1957,3,1956,NA,1.5,-10.8102126002156,-8.37982446734706,3.24684755852518,-0.785064469253982,FALSE,31.4970681975491
"CAN","cpi",0.2,1958,3,1958,NA,0,1.88726879028399,2.0537271349172,2.33186388641149,2.20013349321115,FALSE,0.861800223368937
"CAN","cpi",0.2,1958,3,1958,NA,0.5,3.30244473333086,4.66449352447048,2.33186388641149,2.0126030377883,FALSE,3.78850090843805
"CAN","cpi",0.2,1958,3,1957,NA,1,0.737128394308271,2.86414162160915,2.33186388641149,2.83859761398538,TRUE,2.12701322730087
"CAN","cpi",0.2,1958,3,1957,NA,1.5,-16.7129512306694,-14.5859380033685,2.33186388641149,0.366312073207214,FALSE,44.4215179517509
"CAN","cpi",0.2,1959,3,1959,NA,0,1.31558815058823,1.45214111073898,1.19382698397654,1.18954599151176,FALSE,0.440955876679965
"CAN","cpi",0.2,1959,3,1959,NA,0.5,1.62310052010102,2.18590023625922,1.19382698397654,0.545308327160925,FALSE,1.6359835564694
"CAN","cpi",0.2,1959,3,1958,NA,1,-0.715245804520059,0.624366229595898,1.19382698397654,1.13295114249046,FALSE,2.76326392006756
"CAN","cpi",0.2,1959,3,1958,NA,1.5,-11.1976131077017,-9.85800107358578,1.19382698397654,0.717422088079289,FALSE,28.9691821780218
"CAN","cpi",0.2,1960,3,1960,NA,0,0.985125422773351,1.08137539555311,1.34209404870695,1.02361304259477,FALSE,0.748046605664365
"CAN","cpi",0.2,1960,3,1960,NA,0.5,1.54366880997359,1.8700796511398,1.34209404870695,0.648611007713657,FALSE,0.830347744332805
"CAN","cpi",0.2,1960,3,1959,NA,1,2.31717582397469,3.32099266376983,1.34209404870695,2.37666873185636,FALSE,3.44152127796449
"CAN","cpi",0.2,1960,3,1959,NA,1.5,-6.08628651830219,-5.08246967850706,1.34209404870695,-0.349092179567277,FALSE,17.0652261578302
"CAN","cpi",0.2,1961,3,1961,NA,0,1.04026920354613,1.1588261886542,1.00921348094007,1.00921348094007,FALSE,0.196196291623215
"CAN","cpi",0.2,1961,3,1961,NA,0.5,1.89094064421197,2.21693780706448,1.00921348094007,1.00921348094007,FALSE,2.53031507103226
"CAN","cpi",0.2,1961,3,1960,NA,1,-0.572585167056423,-0.18405980266091,1.00921348094007,0.0537704626035329,FALSE,3.37170857339797
"CAN","cpi",0.2,1961,3,1960,NA,1.5,-5.64209543409261,-5.2535700696971,1.00921348094007,-0.332316386156399,FALSE,16.0454842409884
"CAN","cpi",0.2,1962,3,1962,NA,0,1.02541094344806,1.03923653017746,1.04957947883042,1.0653801125483,FALSE,0.0396829583617949
"CAN","cpi",0.2,1962,3,1962,NA,0.5,0.890825869988015,0.904651456717417,1.04957947883042,0,FALSE,0.376145642011897
"CAN","cpi",0.2,1962,3,1961,NA,1,-0.0238684707425928,-0.0100428840131903,1.04957947883042,0,FALSE,2.66288149383842
"CAN","cpi",0.2,1962,3,1961,NA,1.5,-3.7841040966642,-3.77027850993479,1.04957947883042,0,FALSE,12.0634705586424
"CAN","cpi",0.2,1963,3,1963,NA,0,1.27345638062024,1.39636116797475,1.60677118395228,1.83024954277348,FALSE,0.648929827298347
"CAN","cpi",0.2,1963,3,1963,NA,0.5,1.57622421288878,1.86829852945571,1.60677118395228,0.836828714617504,TRUE,0.29207431656693
"CAN","cpi",0.2,1963,3,1962,NA,1,1.58287202178889,1.90337568386839,1.60677118395228,1.60935100695326,TRUE,0.320503662079493
"CAN","cpi",0.2,1963,3,1962,NA,1.5,-3.00823744816983,-2.68773378609034,1.60677118395228,0,FALSE,11.056766087186
"CAN","cpi",0.2,1964,3,1964,NA,0,1.44016404429741,1.5794014393547,1.88764670034376,1.95194648443024,FALSE,0.909850547529939
"CAN","cpi",0.2,1964,3,1964,NA,0.5,2.10709451750363,2.46756876871771,1.88764670034376,1.27307816843398,FALSE,0.909093794113756
"CAN","cpi",0.2,1964,3,1963,NA,1,3.10217900919231,3.46569855341905,1.88764670034376,3.20172332637508,FALSE,3.39985031634812
"CAN","cpi",0.2,1964,3,1963,NA,1.5,-3.62859583374249,-3.26507628951575,1.88764670034376,0,FALSE,13.2453270188755
"CAN","cpi",0.2,1965,3,1965,NA,0,1.65095265744707,1.75211688187948,2.29538304394236,2.29800189469823,FALSE,1.4593296295896
"CAN","cpi",0.2,1965,3,1965,NA,0.5,2.42341829133117,2.52458251576359,2.29538304394236,1.39443218256826,FALSE,0.421252342904458
"CAN","cpi",0.2,1965,3,1964,NA,1,1.39566197397823,1.49682619841065,2.29538304394236,1.48078368039448,FALSE,2.09755633826168
"CAN","cpi",0.2,1965,3,1964,NA,1.5,-3.26607895286726,-3.16491472843484,2.29538304394236,0.293257399533461,FALSE,13.7519086553754
"CAN","cpi",0.2,1966,3,1966,NA,0,2.28665583434015,2.45010726806973,3.72486065470629,3.77511268244847,FALSE,3.35033490032097
"CAN","cpi",0.2,1966,3,1966,NA,0.5,4.10712290472962,4.48118832184303,3.72486065470629,3.37743719728421,FALSE,1.32972104217174
"CAN","cpi",0.2,1966,3,1965,NA,1,1.85200743329182,2.22607285040523,3.72486065470629,1.98486973144544,FALSE,4.12103492786606
"CAN","cpi",0.2,1966,3,1965,NA,1.5,-3.42499204848913,-3.05092663137573,3.72486065470629,0.578640834001038,FALSE,17.3135336323185
"CAN","cpi",0.2,1967,3,1967,NA,0,2.63032966570641,2.79718608404393,3.49360316391996,3.68375770714608,FALSE,1.90789911802759
"CAN","cpi",0.2,1967,3,1967,NA,0.5,3.64822393386414,3.89338313307829,3.49360316391996,2.11054708048259,FALSE,0.631711124074601
"CAN","cpi",0.2,1967,3,1966,NA,1,1.91918187816884,2.16434107738299,3.49360316391996,2.02003307533501,FALSE,3.56831441555657
"CAN","cpi",0.2,1967,3,1966,NA,1.5,-3.79486896245858,-3.54970976324443,3.49360316391996,1.71558536379673,FALSE,17.8534415171251
"CAN","cpi",0.2,1968,3,1968,NA,0,2.67750900958895,2.85846258374332,3.95128347779386,4.07085717819357,FALSE,2.91300580928071
"CAN","cpi",0.2,1968,3,1968,NA,0.5,4.7318255758493,4.97565379912305,3.95128347779386,3.50732233276501,FALSE,2.19518346841236
"CAN","cpi",0.2,1968,3,1967,NA,1,3.81768167925093,4.06150990252468,3.95128347779386,3.66303679301692,TRUE,0.243828223273753
"CAN","cpi",0.2,1968,3,1967,NA,1.5,-3.7969864015993,-3.55315817832555,3.95128347779386,0.834881519045053,FALSE,19.0049323635723
"CAN","cpi",0.2,1969,3,1969,NA,0,2.97441593933134,3.14010015433842,4.42679496126681,4.52532640008253,FALSE,3.38242123232806
"CAN","cpi",0.2,1969,3,1969,NA,0.5,4.17160309751123,4.60232090330926,4.42679496126681,2.69090620784681,TRUE,0.430717805798039
"CAN","cpi",0.2,1969,3,1968,NA,1,4.30836636906587,4.73908417486391,4.42679496126681,4.0779393276339,TRUE,0.430717805798041
"CAN","cpi",0.2,1969,3,1968,NA,1.5,-3.56327854295196,-3.13256073715392,4.42679496126681,1.61221871335458,FALSE,19.3291070518499
"CAN","cpi",0.2,1970,3,1970,NA,0,2.75994151239268,2.90711416172739,3.28128405769805,3.55878605435979,FALSE,1.08259738926134
"CAN","cpi",0.2,1970,3,1970,NA,0.5,5.31545245440553,5.74160774959887,3.28128405769805,3.74969277403504,FALSE,5.51157628696205
"CAN","cpi",0.2,1970,3,1969,NA,1,3.28135575649286,3.7075110516862,3.28128405769805,3.11186608282608,FALSE,0.426334542180378
"CAN","cpi",0.2,1970,3,1969,NA,1.5,-5.01966930193366,-4.59351400674032,3.28128405769805,0.764941977259638,FALSE,20.1131504562893
"CAN","cpi",0.2,1971,3,1971,NA,0,2.17429700136299,2.3087906703289,2.64123406634756,2.81514553288871,FALSE,0.965602159012562
"CAN","cpi",0.2,1971,3,1971,NA,0.5,2.62207611811098,3.00442871966616,2.64123406634756,1.11673730766521,TRUE,0.382352601555189
"CAN","cpi",0.2,1971,3,1970,NA,1,1.99055394784371,2.59210109125352,2.64123406634756,1.92043450460395,FALSE,0.724379581144914
"CAN","cpi",0.2,1971,3,1970,NA,1.5,-1.70170571068022,-1.1001585672704,2.64123406634756,1.70194075200601,FALSE,9.95502872745472
"CAN","cpi",0.2,1972,3,1972,NA,0,2.79341362761657,2.94496940399604,4.83230569625923,5.04828762155974,FALSE,4.86989650703744
"CAN","cpi",0.2,1972,3,1972,NA,0.5,4.76121860699419,5.48117697023804,4.83230569625923,4.09602385359717,TRUE,0.719958363243848
"CAN","cpi",0.2,1972,3,1971,NA,1,4.46370312716346,5.57142220235171,4.83230569625923,4.16812111633716,TRUE,1.10771907518825
"CAN","cpi",0.2,1972,3,1971,NA,1.5,-1.69659871591884,-0.58887964073059,4.83230569625923,0.692030005351089,FALSE,14.6606824176628
"CAN","cpi",0.2,1973,3,1973,NA,0,4.16259677345987,4.38587985265866,7.12388603531779,7.25096132226983,FALSE,7.06829853584662
"CAN","cpi",0.2,1973,3,1973,NA,0.5,6.5568223098219,7.43302810091445,7.12388603531779,5.30446017290082,TRUE,0.876205791092552
"CAN","cpi",0.2,1973,3,1972,NA,1,4.99384327913609,6.79505780445748,7.12388603531779,4.92276035792265,FALSE,2.62328510247217
"CAN","cpi",0.2,1973,3,1972,NA,1.5,-2.00298880231248,-0.201774276991089,7.12388603531779,1.79187879074203,FALSE,20.1153653060936
"CAN","cpi",0.2,1974,3,1974,NA,0,5.75676145683919,6.1119678803097,10.2717243737774,10.148911210151,FALSE,10.7545976571398
"CAN","cpi",0.2,1974,3,1974,NA,0.5,9.46601517449772,10.944998135928,10.2717243737774,7.90446289245049,TRUE,1.47898296143027
"CAN","cpi",0.2,1974,3,1973,NA,1,7.47085811265817,9.15654489760879,10.2717243737774,7.30476096756609,FALSE,4.4736354753722
"CAN","cpi",0.2,1974,3,1973,NA,1.5,-2.99599077949509,-1.31030399454447,10.2717243737774,2.5663290958369,FALSE,30.6407577057553
"CAN","cpi",0.2,1975,3,1975,NA,0,6.51975342644103,6.91797674975161,10.0232981493341,10.1746571103793,FALSE,8.16152682226686
"CAN","cpi",0.2,1975,3,1975,NA,0.5,11.1770148428587,12.0615762395515,10.0232981493341,8.07152306914465,FALSE,3.76885313050433
"CAN","cpi",0.2,1975,3,1974,NA,1,6.88670926845676,7.77127066514953,10.0232981493341,7.8187778356914,FALSE,6.51463010715425
"CAN","cpi",0.2,1975,3,1974,NA,1.5,-6.6567692088991,-5.77220781220632,10.0232981493341,3.64914274700436,FALSE,40.3733263005439
"CAN","cpi",0.2,1976,3,1976,NA,0,5.44704222673379,5.80688699829561,7.22784311401172,7.18995143043805,FALSE,3.91223506085209
"CAN","cpi",0.2,1976,3,1976,NA,0.5,9.52472283303383,11.1257051214395,7.22784311401172,6.61333364285308,FALSE,7.34318158596097
"CAN","cpi",0.2,1976,3,1975,NA,1,6.81162176332281,8.4126040517285,7.22784311401172,8.584971075903,TRUE,1.60098228840568
"CAN","cpi",0.2,1976,3,1975,NA,1.5,-8.84628439676556,-7.24530210835987,7.22784311401172,3.14738569995591,FALSE,37.7838453443347
"CAN","cpi",0.2,1977,3,1977,NA,0,4.81889559809783,5.09679148903576,7.58101410153764,7.50176944503946,FALSE,6.48845242219265
"CAN","cpi",0.2,1977,3,1977,NA,0.5,8.26062260252244,9.71728046363669,7.58101410153764,6.40571638826874,FALSE,3.15567911357624
"CAN","cpi",0.2,1977,3,1976,NA,1,2.73369117232895,4.74767709684356,7.58101410153764,4.04909286077014,FALSE,9.09732843624982
"CAN","cpi",0.2,1977,3,1976,NA,1.5,-5.18294074594895,-2.97087871185226,7.58101410153764,2.59432747727492,FALSE,28.5917940675714
"CAN","cpi",0.2,1978,3,1978,NA,0,5.28700202009268,5.57898691250292,8.50208927062595,8.59104847384149,FALSE,7.59974078771781
"CAN","cpi",0.2,1978,3,1978,NA,0.5,9.24613578691779,10.7158378001585,8.50208927062595,7.34113908733495,FALSE,3.32981830397034
"CAN","cpi",0.2,1978,3,1977,NA,1,4.25637624786854,5.99441536921361,8.50208927062595,5.87902868518151,FALSE,8.00722387487592
"CAN","cpi",0.2,1978,3,1977,NA,1.5,-3.93342054632585,-1.120063964462,8.50208927062595,3.89293485842214,FALSE,26.8687396695837
"CAN","cpi",0.2,1979,3,1979,NA,0,5.4704688349595,5.83978443336941,8.65147652410481,8.48651410143776,FALSE,7.39854582524841
"CAN","cpi",0.2,1979,3,1979,NA,0.5,9.77728356260394,11.4310584547843,8.65147652410481,7.46186747064873,FALSE,4.46829248842813
"CAN","cpi",0.2,1979,3,1978,NA,1,5.00964582849982,7.10152055311965,8.65147652410481,6.93686058379669,FALSE,5.96676465208273
"CAN","cpi",0.2,1979,3,1978,NA,1.5,-2.21400725696629,-0.122132532346462,8.65147652410481,3.9179710204728,FALSE,24.025897365748
"CAN","cpi",0.2,1980,3,1980,NA,0,5.81780346397433,6.15219972381804,9.5171912664748,9.43711128155219,FALSE,8.7468751164856
"CAN","cpi",0.2,1980,3,1980,NA,0.5,10.0118686077935,11.6338386974532,9.5171912664748,7.89144076485851,FALSE,2.85866344295647
"CAN","cpi",0.2,1980,3,1979,NA,1,3.28332164945647,5.39150129203909,9.5171912664748,5.69387794711803,FALSE,12.4224045786719
"CAN","cpi",0.2,1980,3,1979,NA,1.5,0.0302113814779346,2.13839102406055,9.5171912664748,4.27199048256738,FALSE,20.5551802486182
"CAN","cpi",0.2,1981,3,1981,NA,0,6.76532967076426,7.199697691773,11.5813425032741,11.617538759154,FALSE,11.3884800497616
"CAN","cpi",0.2,1981,3,1981,NA,0.5,13.0246035608564,14.9279838833254,11.5813425032741,11.3038259100907,FALSE,5.51153296642457
"CAN","cpi",0.2,1981,3,1980,NA,1,5.66884843698352,7.57222875945254,11.5813425032741,8.22922472590444,FALSE,11.926164682023
"CAN","cpi",0.2,1981,3,1980,NA,1.5,1.85873620049381,3.76211652296283,11.5813425032741,4.54818367546621,FALSE,21.4514452732473
"CAN","cpi",0.2,1982,3,1982,NA,0,6.85202208898052,7.33220480089816,10.1124203763629,10.1863972123348,FALSE,7.4307216505796
"CAN","cpi",0.2,1982,3,1982,NA,0.5,12.5831561663341,14.3838874291153,10.1124203763629,9.38011590167964,FALSE,7.97757073770903
"CAN","cpi",0.2,1982,3,1981,NA,1,5.61666849395433,7.41739975673552,10.1124203763629,8.92774959502704,FALSE,8.53828281184974
"CAN","cpi",0.2,1982,3,1981,NA,1.5,7.26418478154458,9.06491604432577,10.1124203763629,7.65688060941457,FALSE,4.41949209287414
"CAN","cpi",0.2,1983,3,1983,NA,0,4.97577067244779,5.30174764251773,5.67091787896303,5.79231449937116,FALSE,1.24890256118321
"CAN","cpi",0.2,1983,3,1983,NA,0.5,8.26368275041085,9.45072770987548,5.67091787896303,4.48935486750539,FALSE,7.66895713808417
"CAN","cpi",0.2,1983,3,1982,NA,1,4.19657406510325,5.55794502367051,5.67091787896303,6.68360843662591,FALSE,1.64380309679857
"CAN","cpi",0.2,1983,3,1982,NA,1.5,4.27571112623621,5.63708208480347,5.67091787896303,5.80492936344428,FALSE,1.44596044396617
"CAN","cpi",0.2,1984,3,1984,NA,0,3.21513074897548,3.46315671836704,4.19799576814029,4.1863442377944,FALSE,2.08512359382469
"CAN","cpi",0.2,1984,3,1984,NA,0.5,6.2991284707382,7.28710553527782,4.19799576814029,4.37368919035215,FALSE,6.24080882103441
"CAN","cpi",0.2,1984,3,1983,NA,1,3.69469985830005,4.68267692283966,4.19799576814029,4.8252398586334,TRUE,0.987977064539617
"CAN","cpi",0.2,1984,3,1983,NA,1.5,-0.809550779454491,0.178426285085126,4.19799576814029,1.63651850095104,FALSE,11.0369007721775
"CAN","cpi",0.2,1985,3,1985,NA,0,2.74826101838029,2.9453887625152,3.86444262005169,3.87488963413478,FALSE,2.49476238797614
"CAN","cpi",0.2,1985,3,1985,NA,0.5,5.10843907465323,5.85475021900381,3.86444262005169,3.66954460168274,FALSE,3.85630228085442
"CAN","cpi",0.2,1985,3,1984,NA,1,1.78920362592785,2.53551477027843,3.86444262005169,2.51760914226531,FALSE,4.06863076878374
"CAN","cpi",0.2,1985,3,1984,NA,1.5,2.23811927453031,2.98443041888089,3.86444262005169,2.74468923002786,FALSE,2.94634164727758
"CAN","cpi",0.2,1986,3,1986,NA,0,2.73693749426348,2.90536774679202,4.08685396749431,4.09009381020777,FALSE,3.12214580428427
"CAN","cpi",0.2,1986,3,1986,NA,0.5,5.24861273234279,6.02704681749921,4.08685396749431,4.18867743652029,FALSE,3.68283099727762
"CAN","cpi",0.2,1986,3,1985,NA,1,2.32477886020086,3.10321294535728,4.08685396749431,2.96346536694636,FALSE,3.237536640499
"CAN","cpi",0.2,1986,3,1985,NA,1.5,2.32542105076239,3.10385513591881,4.08685396749431,2.65645514502224,FALSE,3.23593116409517
"CAN","cpi",0.2,1987,3,1987,NA,0,2.88708713998652,3.0562218844292,4.23980729277887,4.30382748919395,FALSE,3.12809826531686
"CAN","cpi",0.2,1987,3,1987,NA,0.5,4.91218939346057,5.51791090298692,4.23980729277887,3.60745044359556,FALSE,2.28667676123059
"CAN","cpi",0.2,1987,3,1986,NA,1,3.07355943845025,3.6792809479766,4.23980729277887,3.48954394276064,FALSE,2.00703737153202
"CAN","cpi",0.2,1987,3,1986,NA,1.5,3.08294719580677,3.68866870533312,4.23980729277887,3.05061614822702,FALSE,1.98356797814072
"CAN","cpi",0.2,1988,3,1988,NA,0,2.81392900130092,2.97931266695876,3.92899537638065,3.96651200874969,FALSE,2.53959043921258
"CAN","cpi",0.2,1988,3,1988,NA,0.5,4.70616070907393,5.30640139434102,3.92899537638065,3.27588434563216,FALSE,2.54315401700028
"CAN","cpi",0.2,1988,3,1987,NA,1,2.88820234689204,3.48844303215912,3.92899537638065,3.36557853238272,FALSE,1.70162154582092
"CAN","cpi",0.2,1988,3,1987,NA,1.5,2.21831028795653,2.81855097322362,3.92899537638065,2.22890665988493,FALSE,3.37635169315967
"CAN","cpi",0.2,1989,3,1989,NA,0,3.07635948681389,3.22738494558347,4.82821664544208,4.96224122245117,FALSE,4.1531047084161
"CAN","cpi",0.2,1989,3,1989,NA,0.5,5.24417631227976,5.72577397659461,4.82821664544208,4.15246181762677,FALSE,1.52149683140906
"CAN","cpi",0.2,1989,3,1988,NA,1,2.92262800389995,3.40422566821479,4.82821664544208,3.35061776773985,FALSE,4.04157510738305
"CAN","cpi",0.2,1989,3,1988,NA,1.5,2.06622300124327,2.54782066555811,4.82821664544208,2.03293210635829,FALSE,6.18258761402475
"CAN","cpi",0.2,1990,3,1990,NA,0,3.16019416646986,3.3228965788294,4.64347549432717,4.49116732458404,FALSE,3.46414970110397
"CAN","cpi",0.2,1990,3,1990,NA,0.5,6.03742657448748,6.66461434937885,4.64347549432717,4.80635133900141,FALSE,4.11206547529215
"CAN","cpi",0.2,1990,3,1989,NA,1,3.92483021815306,4.55201799304444,4.64347549432717,4.45332930526201,FALSE,0.855831528098206
"CAN","cpi",0.2,1990,3,1989,NA,1.5,3.17413647604643,3.80132425093781,4.64347549432717,2.93994143296931,FALSE,2.73256588336479
"CAN","cpi",0.2,1991,3,1991,NA,0,3.48988094296128,3.67154640917267,5.4258100696218,5.5966415351231,FALSE,4.56732461733421
"CAN","cpi",0.2,1991,3,1991,NA,0.5,8.29028330000145,8.87502264576296,5.4258100696218,8.0424604401558,FALSE,7.74592242171065
"CAN","cpi",0.2,1991,3,1990,NA,1,2.53589885449651,3.12063820025803,5.4258100696218,3.00766385389873,FALSE,6.34766901917093
"CAN","cpi",0.2,1991,3,1990,NA,1.5,3.82576440967033,4.41050375543185,5.4258100696218,3.42461322750937,FALSE,3.12300513123639
"CAN","cpi",0.2,1992,3,1992,NA,0,2.29288137808655,2.42353243993213,1.47496888572843,1.46118300949616,FALSE,2.17543229274087
"CAN","cpi",0.2,1992,3,1992,NA,0.5,3.52360337303033,3.99791310128348,1.47496888572843,1.2379681755847,FALSE,5.5958959465079
"CAN","cpi",0.2,1992,3,1991,NA,1,1.4675661720237,1.94187590027685,1.47496888572843,1.8723365291461,TRUE,0.474309728253155
"CAN","cpi",0.2,1992,3,1991,NA,1.5,8.27169121595368,8.74600094420683,1.47496888572843,6.89933696838937,FALSE,17.4661155538163
"CAN","cpi",0.2,1993,3,1993,NA,0,1.32702497626563,1.39523760774368,1.84351085411351,1.80220567555903,FALSE,1.18889574740263
"CAN","cpi",0.2,1993,3,1993,NA,0.5,2.70650953836778,3.00652887132756,1.84351085411351,2.21818498229346,FALSE,2.45751604359546
"CAN","cpi",0.2,1993,3,1992,NA,1,1.46462260071028,1.76464193367006,1.84351085411351,1.3520429918812,FALSE,0.497191634068405
"CAN","cpi",0.2,1993,3,1992,NA,1.5,1.13320798673593,1.43322731969571,1.84351085411351,0.933485487336859,FALSE,1.32572816900428
"CAN","cpi",0.2,1994,3,1994,NA,0,0.891686155471582,0.944811040043297,0.161630694655448,0.202109657487191,FALSE,1.87826353661205
"CAN","cpi",0.2,1994,3,1994,NA,0.5,0.77943309666547,0.977920409829954,0.161630694655448,-0.572639707462777,FALSE,1.74299331818954
"CAN","cpi",0.2,1994,3,1993,NA,1,1.23274976141727,1.5072411096843,0.161630694655448,1.14110533076836,FALSE,2.95228901517159
"CAN","cpi",0.2,1994,3,1993,NA,1.5,1.84630680795119,2.12079815621821,0.161630694655448,1.65023462295923,FALSE,4.48618163150637
"CAN","cpi",0.2,1995,3,1995,NA,0,1.08051831689612,1.1340382337393,2.11688403676572,2.14851249512314,FALSE,2.51063442440921
"CAN","cpi",0.2,1995,3,1995,NA,0.5,2.48501698039805,2.68015949965303,2.11688403676572,2.60072443309243,FALSE,1.11547487833581
"CAN","cpi",0.2,1995,3,1994,NA,1,1.70044815989257,1.89559067914755,2.11688403676572,1.43373972642191,FALSE,0.748375913300391
"CAN","cpi",0.2,1995,3,1994,NA,1.5,-1.0029846302005,-0.807842110945517,2.11688403676572,-1.26611333424577,FALSE,7.50695788853306
"CAN","cpi",0.2,1996,3,1996,NA,0,1.40025666251811,1.46882872155235,1.55309584667184,1.43665270425039,FALSE,0.279239871832976
"CAN","cpi",0.2,1996,3,1996,NA,0.5,2.09879741577098,2.4683994857777,1.55309584667184,1.23276330365037,FALSE,1.73385599275456
"CAN","cpi",0.2,1996,3,1995,NA,1,0.780214771997938,1.14981684200465,1.55309584667184,0.729753259393914,FALSE,1.37779958167469
"CAN","cpi",0.2,1996,3,1995,NA,1.5,2.33296607914881,2.70256814915552,1.55309584667184,2.31904839186543,FALSE,2.31927765119912
"CAN","cpi",0.2,1997,3,1997,NA,0,1.33119867574619,1.39138544815247,1.60528783555959,1.67949478723595,FALSE,0.594942740924094
"CAN","cpi",0.2,1997,3,1997,NA,0.5,2.3825055617632,2.74370683787111,1.60528783555959,1.93291992098407,FALSE,2.30424559161694
"CAN","cpi",0.2,1997,3,1996,NA,1,0.834533689684286,1.19573496579219,1.60528783555959,0.614630451620954,FALSE,1.38508345052641
"CAN","cpi",0.2,1997,3,1996,NA,1.5,0.920212397688957,1.28141367379686,1.60528783555959,0.962161564198873,FALSE,1.17088668051473
"CAN","cpi",0.2,1998,3,1998,NA,0,1.10131356710869,1.15095144489446,0.988908029337191,0.967063680387792,FALSE,0.330651722214513
"CAN","cpi",0.2,1998,3,1998,NA,0.5,1.95746512833593,2.29450315774252,0.988908029337191,1.34897459866337,FALSE,2.75843077690343
"CAN","cpi",0.2,1998,3,1997,NA,1,1.05375832114626,1.39079635055284,0.988908029337191,0.792689959246129,FALSE,0.49916375892925
"CAN","cpi",0.2,1998,3,1997,NA,1.5,1.26682547138506,1.60386350079165,0.988908029337191,1.28384000376946,FALSE,1.03183163452627
"CAN","cpi",0.2,1999,3,1999,NA,0,1.20060173343792,1.25177453113517,1.7107350135213,1.76864633894604,FALSE,1.19857400366256
"CAN","cpi",0.2,1999,3,1999,NA,0.5,1.28920373025161,1.54774086686004,1.7107350135213,0.732099710600531,FALSE,0.66602250326157
"CAN","cpi",0.2,1999,3,1998,NA,1,0.664492030575369,0.923029167183798,1.7107350135213,0.369052571959629,FALSE,2.22780175245218
"CAN","cpi",0.2,1999,3,1998,NA,1.5,1.29068453476593,1.54922167137435,1.7107350135213,1.26847007023129,FALSE,0.662320491975783
"CAN","cpi",0.2,2000,3,2000,NA,0,1.72439977472267,1.79731503846755,2.6718361971244,2.70257810674034,FALSE,2.259218160387
"CAN","cpi",0.2,2000,3,2000,NA,0.5,2.40395423906247,2.80096226018062,2.6718361971244,1.95948305880876,TRUE,0.397008021118149
"CAN","cpi",0.2,2000,3,1999,NA,1,2.37825371808244,2.77526173920059,2.6718361971244,2.16154661985999,TRUE,0.397008021118149
"CAN","cpi",0.2,2000,3,1999,NA,1.5,0.471137708474239,0.868145729592387,2.6718361971244,0.50278387806376,FALSE,4.90623418994818
"CAN","cpi",0.2,2001,3,2001,NA,0,2.02340886232456,2.09458428546604,2.47906219852806,2.73154549386087,FALSE,1.03237020579654
"CAN","cpi",0.2,2001,3,2001,NA,0.5,2.52521814428422,3.00967593978261,2.47906219852806,1.65861828263926,FALSE,0.599847659888779
"CAN","cpi",0.2,2001,3,2000,NA,1,2.93121068698478,3.48808967824756,2.47906219852806,2.84133895788986,FALSE,1.68725021240457
"CAN","cpi",0.2,2001,3,2000,NA,1.5,0.921717701480957,1.47859669274373,2.47906219852806,1.14191354447969,FALSE,3.0580427557236
"CAN","cpi",0.2,2002,3,2002,NA,0,1.81598984306105,1.88779388023208,2.20880570551249,2.31282527465204,FALSE,0.87433360037204
"CAN","cpi",0.2,2002,3,2002,NA,0.5,2.19982830532037,2.63664578533861,2.20880570551249,1.24731948634093,TRUE,0.436817480018238
"CAN","cpi",0.2,2002,3,2001,NA,1,0.984284197776843,1.43706843371718,2.20880570551249,0.695491540886875,FALSE,2.3821274154286
"CAN","cpi",0.2,2002,3,2001,NA,1.5,0.360134967040685,0.812919202981022,2.20880570551249,0.47606161882134,FALSE,3.942500492269
"CAN","cpi",0.2,2003,3,2003,NA,0,1.86893321478407,1.95124552998864,2.71189071546809,2.75460397277825,FALSE,1.9839252789032
"CAN","cpi",0.2,2003,3,2003,NA,0.5,4.1952777504854,4.64194085964816,2.71189071546809,4.16096970792426,FALSE,4.15513069670604
"CAN","cpi",0.2,2003,3,2002,NA,1,3.30794789670698,3.75461100586973,2.71189071546809,3.27791908188471,FALSE,1.93680606225998
"CAN","cpi",0.2,2003,3,2002,NA,1.5,1.35537023551819,1.80203334468094,2.71189071546809,1.51830012756901,FALSE,2.72130653613063
"CAN","cpi",0.2,2004,3,2004,NA,0,1.68527667931408,1.75868783045629,1.83151661303942,1.76153103901938,FALSE,0.255483107600039
"CAN","cpi",0.2,2004,3,2004,NA,0.5,2.36988741678686,2.81244099531327,1.83151661303942,1.38945604480572,FALSE,1.788480587895
"CAN","cpi",0.2,2004,3,2003,NA,1,1.23664850363896,1.67920208216537,1.83151661303942,1.01874619159597,FALSE,0.823339905711539
"CAN","cpi",0.2,2004,3,2003,NA,1.5,2.72586412381722,3.16841770234364,1.83151661303942,2.99105359104411,FALSE,2.67842235547092
"CAN","cpi",0.2,2005,3,2005,NA,0,1.64144511698562,1.70328646922032,2.18071628336509,2.35062481142317,FALSE,1.25541588759663
"CAN","cpi",0.2,2005,3,2005,NA,0.5,2.09516518513124,2.44320235338578,2.18071628336509,1.4552837212303,TRUE,0.348037168254545
"CAN","cpi",0.2,2005,3,2004,NA,1,1.10811844296607,1.45615561122062,2.18071628336509,0.79648671202377,FALSE,2.15943884861573
"CAN","cpi",0.2,2005,3,2004,NA,1.5,1.09132496372181,1.43936213197635,2.18071628336509,1.13680951350797,FALSE,2.20142254672639
"CAN","cpi",0.2,2006,3,2006,NA,0,1.63285247850564,1.70156291618468,1.97519342012289,2.06448042324351,FALSE,0.752786697524553
"CAN","cpi",0.2,2006,3,2006,NA,0.5,2.46313804148634,2.83848577766369,1.97519342012289,1.77073314120205,FALSE,1.59520928958599
"CAN","cpi",0.2,2006,3,2005,NA,1,2.75914841023205,3.1344961464094,1.97519342012289,2.58808204718941,FALSE,2.33523521145027
"CAN","cpi",0.2,2006,3,2005,NA,1.5,0.796015023097176,1.17136275927453,1.97519342012289,0.762075268916728,FALSE,2.38492438829825
"CAN","cpi",0.2,2007,3,2007,NA,0,1.58576430862274,1.65528682633892,2.10062087284572,2.10807340507977,FALSE,1.18285763398318
"CAN","cpi",0.2,2007,3,2007,NA,0.5,2.55694377870031,2.92698060047161,2.10062087284572,2.09760271424675,FALSE,1.51084408640776
"CAN","cpi",0.2,2007,3,2006,NA,1,0.828571291822527,1.19860811359383,2.10062087284572,0.438862458623872,FALSE,2.62506871990104
"CAN","cpi",0.2,2007,3,2006,NA,1.5,1.06102057093389,1.43105739270519,2.10062087284572,1.08089197775225,FALSE,2.04394552212262
"CAN","cpi",0.2,2008,3,2008,NA,0,1.90015943764726,1.97759302282866,2.31447335265955,2.9146675338117,FALSE,0.919634409758628
"CAN","cpi",0.2,2008,3,2008,NA,0.5,1.85946967112502,2.21708522645616,2.31447335265955,1.04562745221765,FALSE,0.601085870839613
"CAN","cpi",0.2,2008,3,2007,NA,1,0.78945319854954,1.14706875388068,2.31447335265955,0.365030180386173,FALSE,3.27612705227832
"CAN","cpi",0.2,2008,3,2007,NA,1.5,1.8761052198222,2.23372077515334,2.31447335265955,2.04107389452134,FALSE,0.55949699909667
"CAN","cpi",0.2,2009,3,2009,NA,0,1.06462920823498,1.11496879019604,0.284533874408197,0.272618836216429,FALSE,2.00057791652802
"CAN","cpi",0.2,2009,3,2009,NA,0.5,0.687421153608805,1.00300006139196,0.284533874408197,-0.807426338518035,FALSE,1.32279710578468
"CAN","cpi",0.2,2009,3,2008,NA,1,3.39002716089641,3.74476473209045,0.284533874408197,3.28355694764985,FALSE,8.11847078741457
"CAN","cpi",0.2,2009,3,2008,NA,1.5,0.842731397243002,1.19746896843703,0.284533874408197,0.703376955238912,FALSE,1.75023137828104
"CAN","cpi",0.2,2010,3,2010,NA,0,0.975115975292657,1.01111114341122,1.75525687020327,1.72708036400674,FALSE,1.89635948509869
"CAN","cpi",0.2,2010,3,2010,NA,0.5,1.58160423226194,1.73046983131502,1.75525687020327,1.42243266198166,FALSE,0.210833196273707
"CAN","cpi",0.2,2010,3,2009,NA,1,0.88068465879634,1.02955025784942,1.75525687020327,0.515829437079458,FALSE,1.96313212993771
"CAN","cpi",0.2,2010,3,2009,NA,1.5,-0.239352870288413,-0.0904872712353321,1.75525687020327,-0.666399632006793,FALSE,4.76322595264959
"CAN","cpi",0.2,2011,3,2011,NA,0,1.77217866745478,1.8484669445447,2.85717434028225,2.82871118728348,FALSE,2.59805676643378
"CAN","cpi",0.2,2011,3,2011,NA,0.5,2.83024571970085,3.20273935959183,2.85717434028225,2.59305645945043,TRUE,0.372493639890979
"CAN","cpi",0.2,2011,3,2010,NA,1,1.90122948915491,2.27372312904589,2.85717434028225,1.58194849312145,FALSE,1.83112166798186
"CAN","cpi",0.2,2011,3,2010,NA,1.5,1.08541653816469,1.45791017805566,2.85717434028225,1.00866231757724,FALSE,3.87065404545743
"CAN","cpi",0.2,2012,3,2012,NA,0,1.63779460464001,1.7141907292916,1.50118536134935,1.46681751445377,FALSE,0.417919232878256
"CAN","cpi",0.2,2012,3,2012,NA,0.5,2.49433671606166,2.9796009152135,1.50118536134935,1.63866597060755,FALSE,2.96814258593262
"CAN","cpi",0.2,2012,3,2011,NA,1,1.33777791212828,1.82304211128011,1.50118536134935,0.848240548987433,TRUE,0.485264199151837
"CAN","cpi",0.2,2012,3,2011,NA,1.5,1.69496336340698,2.18022756255882,1.50118536134935,1.68384299188515,FALSE,0.969709204295927
"CAN","cpi",0.2,2013,3,2013,NA,0,1.09964230959296,1.15175124228008,0.931270594714462,1.03083115414128,FALSE,0.473038219883364
"CAN","cpi",0.2,2013,3,2013,NA,0.5,1.62673396274319,1.90585994044701,0.931270594714462,1.00184063196526,FALSE,2.01778439777564
"CAN","cpi",0.2,2013,3,2012,NA,1,0.30877699961289,0.587902977316713,0.931270594714462,-0.272545990872386,FALSE,1.13754502119819
"CAN","cpi",0.2,2013,3,2012,NA,1.5,1.08981449404921,1.36894047175303,0.931270594714462,0.958608804136071,FALSE,0.675485726040683
"CAN","cpi",0.2,2014,3,2014,NA,0,1.25364140276489,1.30726732345652,1.87639912240215,1.98613278510701,FALSE,1.47645541805571
"CAN","cpi",0.2,2014,3,2014,NA,0.5,2.06393035850932,2.31753599841554,1.87639912240215,1.95223885123801,FALSE,0.722433730174151
"CAN","cpi",0.2,2014,3,2013,NA,1,1.10628448484922,1.35989012475543,1.87639912240215,0.688658687283847,FALSE,1.54487813402301
"CAN","cpi",0.2,2014,3,2013,NA,1.5,1.0196868792506,1.27329251915681,1.87639912240215,0.891594199884501,FALSE,1.76137214801956
"CAN","cpi",0.2,2015,3,2015,NA,0,1.27134282930096,1.33600588139739,1.11090953952792,1.24641866377254,FALSE,0.465746276529043
"CAN","cpi",0.2,2015,3,2015,NA,0.5,1.13966062792486,1.47485615161382,1.11090953952792,0.198117162089698,FALSE,0.407073244681317
"CAN","cpi",0.2,2015,3,2014,NA,1,1.08276120008724,1.4179567237762,1.11090953952792,0.532106072596766,TRUE,0.335195523688961
"CAN","cpi",0.2,2015,3,2014,NA,1.5,1.84413632090605,2.17933184459501,1.11090953952792,1.81035920235268,FALSE,2.1682624771343
"CAN","cpi",0.2,2016,3,2016,NA,0,1.11023666632604,1.16513351843216,1.41168586698797,1.44184957394589,FALSE,0.671277723495627
"CAN","cpi",0.2,2016,3,2016,NA,0.5,1.34242991551484,1.6357406730823,1.41168586698797,0.843100047406122,TRUE,0.293310757567463
"CAN","cpi",0.2,2016,3,2015,NA,1,1.60287194361209,1.89618270117955,1.41168586698797,1.23484853770273,FALSE,0.771275949127767
"CAN","cpi",0.2,2016,3,2015,NA,1.5,0.329195613597857,0.62250637116532,1.41168586698797,0.107462752177283,FALSE,2.26625949712408
"CAN","cpi",0.2,2017,3,2017,NA,0,1.22534471938699,1.28387076194867,1.57888581671161,1.51739925639673,FALSE,0.796063679469029
"CAN","cpi",0.2,2017,3,2017,NA,0.5,2.15150054805505,2.47264325284325,1.57888581671161,1.88170269277887,FALSE,1.75267953314679
"CAN","cpi",0.2,2017,3,2016,NA,1,0.911626492588673,1.23276919737687,1.57888581671161,0.418338346755244,FALSE,1.18643425312505
"CAN","cpi",0.2,2017,3,2016,NA,1.5,0.668533304097724,0.989676008885919,1.57888581671161,0.52557608733729,FALSE,1.79416722435243
"CAN","cpi",0.2,2018,3,2018,NA,0,1.5771596713203,1.64846635879395,2.23316270166586,2.40611378585155,FALSE,1.53304754465342
"CAN","cpi",0.2,2018,3,2018,NA,0.5,2.6725778626237,3.01206809537411,2.23316270166586,2.62207020824204,FALSE,1.43802813514502
"CAN","cpi",0.2,2018,3,2017,NA,1,0.93440069749805,1.27389093024846,2.23316270166586,0.40411310060617,FALSE,2.7376696612939
"CAN","cpi",0.2,2018,3,2017,NA,1.5,1.46282358737262,1.80231382012303,2.23316270166586,1.53787524714926,FALSE,1.41661243660749
"CAN","cpi",0.2,2019,3,2019,NA,0,1.6281319793372,1.71068680342622,1.91921619871868,2.01142839895124,FALSE,0.603878312320176
"CAN","cpi",0.2,2019,3,2019,NA,0.5,2.07906505265968,2.50884546420876,1.91921619871868,1.51883708040586,FALSE,0.829402546401579
"CAN","cpi",0.2,2019,3,2018,NA,1,1.92360822147005,2.35338863301914,1.91921619871868,1.41942984101848,FALSE,0.440760468427517
"CAN","cpi",0.2,2019,3,2018,NA,1.5,1.89868827088704,2.32846868243612,1.91921619871868,2.06105171090012,TRUE,0.429780411549084
"CAN","cpi",0.2,2020,3,2020,NA,0,1.10246851036224,1.16537868033845,0.71139989671781,0.726179852791075,FALSE,1.04058170408728
"CAN","cpi",0.2,2020,3,2020,NA,0.5,1.69327530815512,2.05707830764535,0.71139989671781,1.07225945048052,FALSE,2.8184915280835
"CAN","cpi",0.2,2020,3,2019,NA,1,1.53927009566347,1.9030730951537,0.71139989671781,1.01913964327806,FALSE,2.43347849685438
"CAN","cpi",0.2,2020,3,2019,NA,1.5,1.2759499167433,1.63975291623353,0.71139989671781,1.22761645350518,FALSE,1.77517804955396
"CAN","cpi",0.2,2021,3,2021,NA,0,1.62507821185746,1.68846844811511,3.31148121717802,3.30988753190892,FALSE,4.12092215891494
"CAN","cpi",0.2,2021,3,2021,NA,0.5,2.25041917529832,2.55247994616675,3.31148121717802,2.4899040786607,FALSE,2.19956394839662
"CAN","cpi",0.2,2021,3,2020,NA,1,1.47491219109862,1.77697296196706,3.31148121717802,1.1979067045331,FALSE,4.13833140889584
"CAN","cpi",0.2,2021,3,2020,NA,1.5,0.783341766818773,1.08540253768721,3.31148121717802,0.670626810990653,FALSE,5.86725746959547
"CAN","cpi",0.2,2022,3,2022,NA,0,3.4486276662782,3.60882174169886,6.50977236228281,6.54555789178856,FALSE,7.41257062688054
"CAN","cpi",0.2,2022,3,2022,NA,0.5,5.20746197507358,6.01490014520979,6.50977236228281,5.96468998606203,FALSE,2.04461871281877
"CAN","cpi",0.2,2022,3,2021,NA,1,3.65270391816776,4.46014208830398,6.50977236228281,3.42105264822981,FALSE,5.9315138550833
"CAN","cpi",0.2,2022,3,2021,NA,1.5,1.63286711433617,2.44030528447239,6.50977236228281,1.93276265883962,FALSE,10.9811058646623
"CAN","cpi",0.2,2023,3,2023,NA,0,3.51895612652134,3.70544767971881,3.78831288758619,3.97188685244318,FALSE,0.393654572865924
"CAN","cpi",0.2,2023,3,2023,NA,0.5,4.15800837020278,5.23655737436626,3.78831288758619,2.8392001035463,FALSE,2.00278771070495
"CAN","cpi",0.2,2023,3,2022,NA,1,3.6152278640097,4.69377686817317,3.78831288758619,2.86884991489758,TRUE,1.07854900416348
"CAN","cpi",0.2,2023,3,2022,NA,1.5,3.37791274202496,4.45646174618843,3.78831288758619,4.03317247515909,TRUE,1.07854900416348
"CAN","cpi",0.2,2024,3,2023,NA,1,3.44493654686066,4.11370102639049,NA,2.89946754179362,NA,NA
"CAN","cpi",0.2,2024,3,2023,NA,1.5,1.1250079719791,1.79377245150893,NA,1.17991651782151,NA,NA
"CAN","cpi",0.3,1952,3,1952,NA,0,-30.2333531516507,-20.5090601951436,2.55562336095485,2.50792675283471,FALSE,75.6233888310741
"CAN","cpi",0.3,1952,3,1952,NA,0.5,-22.797777195576,-3.67924591197112,2.55562336095485,3.80942800622696,FALSE,36.9324434919648
"CAN","cpi",0.3,1952,3,1951,NA,1,-14.0018436798594,5.11668760374553,2.55562336095485,6.36946346746546,TRUE,19.1185312836049
"CAN","cpi",0.3,1952,3,1951,NA,1.5,-81.1111398431381,-61.9926085595332,2.55562336095485,4.80604275648344,FALSE,203.542051056428
"CAN","cpi",0.3,1953,3,1953,NA,0,-2.47013793693555,-1.17586876470095,-1.01492775838436,-1.00118391953201,FALSE,1.75410061885342
"CAN","cpi",0.3,1953,3,1953,NA,0.5,-16.3393425257743,-14.0798314181549,-1.01492775838436,-1.88711612688489,FALSE,39.5878072783923
"CAN","cpi",0.3,1953,3,1952,NA,1,-15.9353579285388,-13.6758468209193,-1.01492775838436,-0.873617238258229,FALSE,38.4335655720051
"CAN","cpi",0.3,1953,3,1952,NA,1.5,-20.0657773365165,-17.8062662288971,-1.01492775838436,0.432272395627528,FALSE,50.2347638805129
"CAN","cpi",0.3,1954,3,1954,NA,0,1.31829463578136,0.394382222462244,0.644425455961438,0.831821956393317,FALSE,1.71583733902121
"CAN","cpi",0.3,1954,3,1954,NA,0.5,2.21663593128224,1.29272351796313,0.644425455961438,-0.141712452464762,FALSE,3.5681175161689
"CAN","cpi",0.3,1954,3,1953,NA,1,11.274010307883,10.3500978945639,0.644425455961438,2.12291681679911,FALSE,29.4463300207424
"CAN","cpi",0.3,1954,3,1953,NA,1.5,-0.180250177476695,-1.10416259079581,0.644425455961438,-1.28741438714058,FALSE,4.07205343455873
"CAN","cpi",0.3,1955,3,1955,NA,0,0.438464257229928,0.556701698565513,0.173649026558865,0.10295813188439,FALSE,0.874852386110051
"CAN","cpi",0.3,1955,3,1955,NA,0.5,-0.849014769057966,-0.45335265552859,0.173649026558865,-0.548848324097393,FALSE,2.1870954909221
"CAN","cpi",0.3,1955,3,1954,NA,1,5.37344852856249,8.15208524111079,0.173649026558865,2.19101630104756,FALSE,17.6352067182729
"CAN","cpi",0.3,1955,3,1954,NA,1.5,-9.58418807863677,-6.80555136608848,0.173649026558865,-0.815294949881493,FALSE,22.7192092629693
"CAN","cpi",0.3,1956,3,1956,NA,0,0.988553655184357,1.11576604359914,1.32752769429961,1.46434436590257,FALSE,0.732245676130412
"CAN","cpi",0.3,1956,3,1956,NA,0.5,-0.157241872883895,-0.0300294844691149,1.32752769429961,-0.485738076612692,FALSE,4.00594718489685
"CAN","cpi",0.3,1956,3,1955,NA,1,1.04422748493937,2.0654556654013,1.32752769429961,0.557995939500226,TRUE,1.02122818046193
"CAN","cpi",0.3,1956,3,1955,NA,1.5,-5.14735641561436,-4.12612823515243,1.32752769429961,-0.793756041684752,FALSE,16.6031022646106
"CAN","cpi",0.3,1957,3,1957,NA,0,1.84673431993923,2.29333329369266,3.24684755852518,3.35523637829212,FALSE,3.17092544470349
"CAN","cpi",0.3,1957,3,1957,NA,0.5,2.78571825478923,4.51895025174988,3.24684755852518,2.12793087018929,TRUE,1.73323199696065
"CAN","cpi",0.3,1957,3,1956,NA,1,6.35711952288521,10.3138433607176,3.24684755852518,4.42886834530761,FALSE,12.8432151645754
"CAN","cpi",0.3,1957,3,1956,NA,1.5,-11.6700643608115,-7.71334052297905,3.24684755852518,-0.785064469253982,FALSE,35.2715469278445
"CAN","cpi",0.3,1958,3,1958,NA,0,1.83396363449014,2.13809916777953,2.33186388641149,2.20013349321115,FALSE,0.857749015094981
"CAN","cpi",0.3,1958,3,1958,NA,0.5,3.13361882363374,4.99339430505775,2.33186388641149,2.0126030377883,FALSE,4.15050387348758
"CAN","cpi",0.3,1958,3,1957,NA,1,-0.505121127751889,3.74801060908626,2.33186388641149,2.83859761398538,TRUE,4.25313173683815
"CAN","cpi",0.3,1958,3,1957,NA,1.5,-18.080620627243,-13.8274888904049,2.33186388641149,0.366312073207214,FALSE,50.4227110991706
"CAN","cpi",0.3,1959,3,1959,NA,0,1.29350535478362,1.48781676250899,1.19382698397654,1.18954599151176,FALSE,0.47910675288845
"CAN","cpi",0.3,1959,3,1959,NA,0.5,1.50988206104052,2.29723725764582,1.19382698397654,0.545308327160925,FALSE,1.69036970250239
"CAN","cpi",0.3,1959,3,1958,NA,1,-0.996525051223198,1.21868818771896,1.19382698397654,1.13295114249046,TRUE,2.21521323894216
"CAN","cpi",0.3,1959,3,1958,NA,1.5,-12.1508524352499,-9.7299828688153,1.19382698397654,0.717422088079289,FALSE,33.6317548601255
"CAN","cpi",0.3,1960,3,1960,NA,0,0.968864454249908,1.10285775803055,1.34209404870695,1.02361304259477,FALSE,0.817525562856079
"CAN","cpi",0.3,1960,3,1960,NA,0.5,1.44388728231444,1.98586293453895,1.34209404870695,0.648611007713657,FALSE,0.832813462531624
"CAN","cpi",0.3,1960,3,1959,NA,1,2.18179624978238,3.84733524441075,1.34209404870695,2.37666873185636,FALSE,4.06468814055816
"CAN","cpi",0.3,1960,3,1959,NA,1.5,-6.52996036810565,-4.86442137347727,1.34209404870695,-0.349092179567277,FALSE,19.398440200869
"CAN","cpi",0.3,1961,3,1961,NA,0,1.01304238011363,1.22234847960339,1.00921348094007,1.00921348094007,FALSE,0.220245811414208
"CAN","cpi",0.3,1961,3,1961,NA,0.5,1.86945183768113,2.29872247000648,1.00921348094007,1.00921348094007,FALSE,2.88709450872837
"CAN","cpi",0.3,1961,3,1960,NA,1,-0.663041336723024,-0.233770704397678,1.00921348094007,0.0537704626035329,FALSE,3.98065401900463
"CAN","cpi",0.3,1961,3,1960,NA,1.5,-5.84961854724742,-5.42034791492208,1.00921348094007,-0.332316386156399,FALSE,18.7994460490743
"CAN","cpi",0.3,1962,3,1962,NA,0,0.962799289009252,1.10058810514935,1.04957947883042,1.0653801125483,TRUE,0.137788816140095
"CAN","cpi",0.3,1962,3,1962,NA,0.5,0.839059164069793,0.976847980209888,1.04957947883042,0,FALSE,0.34559309791303
"CAN","cpi",0.3,1962,3,1961,NA,1,-0.108466228727584,0.0293225874125106,1.04957947883042,0,FALSE,3.05280850590554
"CAN","cpi",0.3,1962,3,1961,NA,1.5,-3.81491976733589,-3.6771309511958,1.04957947883042,0,FALSE,13.6426757590721
"CAN","cpi",0.3,1963,3,1963,NA,0,1.25249031310935,1.4310330209482,1.60677118395228,1.83024954277348,FALSE,0.680651744993375
"CAN","cpi",0.3,1963,3,1963,NA,0.5,1.56578885407128,1.9558739766418,1.60677118395228,0.836828714617504,TRUE,0.390085122570516
"CAN","cpi",0.3,1963,3,1962,NA,1,1.60873596304107,1.99882108561158,1.60677118395228,1.60935100695326,FALSE,0.395698777109896
"CAN","cpi",0.3,1963,3,1962,NA,1.5,-3.08918050309313,-2.69909538052261,1.60677118395228,0,FALSE,12.6925610210702
"CAN","cpi",0.3,1964,3,1964,NA,0,1.41544340121473,1.61127666202766,1.88764670034376,1.95194648443024,FALSE,0.985461941716077
"CAN","cpi",0.3,1964,3,1964,NA,0.5,2.04463194742609,2.58076639443357,1.88764670034376,1.27307816843398,FALSE,0.984663724385561
"CAN","cpi",0.3,1964,3,1963,NA,1,2.9153379416837,3.62548348985315,1.88764670034376,3.20172332637508,FALSE,3.64640623771215
"CAN","cpi",0.3,1964,3,1963,NA,1.5,-3.84750194781815,-3.1373563996487,1.88764670034376,0,FALSE,15.0672972624336
"CAN","cpi",0.3,1965,3,1965,NA,0,1.64641593919975,1.78448238297058,2.29538304394236,2.29800189469823,FALSE,1.5977826179759
"CAN","cpi",0.3,1965,3,1965,NA,0.5,2.40238734571901,2.54045378948984,2.29538304394236,1.39443218256826,FALSE,0.443793020275547
"CAN","cpi",0.3,1965,3,1964,NA,1,1.35274733302549,1.49081377679632,2.29538304394236,1.48078368039448,FALSE,2.43683577847379
"CAN","cpi",0.3,1965,3,1964,NA,1.5,-3.62831603401767,-3.49024959024684,2.29538304394236,0.293257399533461,FALSE,16.6684453985971
"CAN","cpi",0.3,1966,3,1966,NA,0,2.25356261848845,2.4922463028992,3.72486065470629,3.77511268244847,FALSE,3.76043897528815
"CAN","cpi",0.3,1966,3,1966,NA,0.5,4.20196274393321,4.49620161233058,3.72486065470629,3.37743719728421,FALSE,1.65738769476001
"CAN","cpi",0.3,1966,3,1965,NA,1,1.90074162379803,2.1949804921954,3.72486065470629,1.98486973144544,FALSE,4.66532504699992
"CAN","cpi",0.3,1966,3,1965,NA,1.5,-3.70156417599103,-3.40732530759366,3.72486065470629,0.578640834001038,FALSE,20.6719130463972
"CAN","cpi",0.3,1967,3,1967,NA,0,2.6644917018701,2.76857114654994,3.49360316391996,3.68375770714608,FALSE,2.17559949430848
"CAN","cpi",0.3,1967,3,1967,NA,0.5,3.77317046306091,3.87724990774075,3.49360316391996,2.11054708048259,FALSE,0.902843156511127
"CAN","cpi",0.3,1967,3,1966,NA,1,1.98131652848208,2.08539597316192,3.49360316391996,2.02003307533501,FALSE,4.12752856113138
"CAN","cpi",0.3,1967,3,1966,NA,1.5,-4.50464218575554,-4.40056274107571,3.49360316391996,1.71558536379673,FALSE,22.6588391732389
"CAN","cpi",0.3,1968,3,1968,NA,0,2.64768524922165,2.93501228851392,3.95128347779386,4.07085717819357,FALSE,3.19095900866351
"CAN","cpi",0.3,1968,3,1968,NA,0.5,4.56264023182817,5.38247884249433,3.95128347779386,3.50732233276501,FALSE,2.56657219362135
"CAN","cpi",0.3,1968,3,1967,NA,1,3.6052794550542,4.42511806572036,3.95128347779386,3.66303679301692,TRUE,0.81983861066616
"CAN","cpi",0.3,1968,3,1967,NA,1.5,-4.53922670393476,-3.7193880932686,3.95128347779386,0.834881519045053,FALSE,22.736043099416
"CAN","cpi",0.3,1969,3,1969,NA,0,2.91473581624707,3.19574006221667,4.42679496126681,4.52532640008253,FALSE,3.79830395754144
"CAN","cpi",0.3,1969,3,1969,NA,0.5,4.13997322856359,4.71398994405789,4.42679496126681,2.69090620784681,TRUE,0.574016715494299
"CAN","cpi",0.3,1969,3,1968,NA,1,4.126555233224,4.7005719487183,4.42679496126681,4.0779393276339,TRUE,0.574016715494299
"CAN","cpi",0.3,1969,3,1968,NA,1.5,-3.93773828783698,-3.36372157234268,4.42679496126681,1.61221871335458,FALSE,22.83263538295
"CAN","cpi",0.3,1970,3,1970,NA,0,2.71934427432448,2.93400419417125,3.28128405769805,3.55878605435979,FALSE,1.2068881013519
"CAN","cpi",0.3,1970,3,1970,NA,0.5,5.22216594697187,5.95653547747423,3.28128405769805,3.74969277403504,FALSE,6.27974635699901
"CAN","cpi",0.3,1970,3,1969,NA,1,3.13066596640307,3.86503549690543,3.28128405769805,3.11186608282608,TRUE,0.734369530502363
"CAN","cpi",0.3,1970,3,1969,NA,1.5,-5.42529307181958,-4.69092354131722,3.28128405769805,0.764941977259638,FALSE,23.5121055276888
"CAN","cpi",0.3,1971,3,1971,NA,0,2.14302232376507,2.34432037987485,2.64123406634756,2.81514553288871,FALSE,1.04962287460324
"CAN","cpi",0.3,1971,3,1971,NA,0.5,2.57833304723119,3.14193473386886,2.64123406634756,1.11673730766521,TRUE,0.563601686637664
"CAN","cpi",0.3,1971,3,1970,NA,1,1.89964246144895,2.81985796510261,2.64123406634756,1.92043450460395,TRUE,0.920215503653662
"CAN","cpi",0.3,1971,3,1970,NA,1.5,-1.89599591485476,-0.975780411201097,2.64123406634756,1.70194075200601,FALSE,11.2545425823641
"CAN","cpi",0.3,1972,3,1972,NA,0,2.75957661585005,2.99105647961552,4.83230569625923,5.04828762155974,FALSE,5.49219191131893
"CAN","cpi",0.3,1972,3,1972,NA,0.5,4.65701522050792,5.79735654864225,4.83230569625923,4.09602385359717,TRUE,1.14034132813433
"CAN","cpi",0.3,1972,3,1971,NA,1,4.1889580849821,5.76804067475216,4.83230569625923,4.16812111633716,TRUE,1.57908258977006
"CAN","cpi",0.3,1972,3,1971,NA,1.5,-1.97903129135727,-0.399948701587215,4.83230569625923,0.692030005351089,FALSE,16.5283808693313
"CAN","cpi",0.3,1973,3,1973,NA,0,4.07654019723485,4.46259670450956,7.12388603531779,7.25096132226983,FALSE,7.98974030958393
"CAN","cpi",0.3,1973,3,1973,NA,0.5,6.44773944958149,7.97442634065777,7.12388603531779,5.30446017290082,TRUE,1.52668689107628
"CAN","cpi",0.3,1973,3,1972,NA,1,4.67357097195253,6.87071013817513,7.12388603531779,4.92276035792265,FALSE,2.92049887234448
"CAN","cpi",0.3,1973,3,1972,NA,1.5,-2.58592610331543,-0.388786937092831,7.12388603531779,1.79187879074203,FALSE,23.6619190873958
"CAN","cpi",0.3,1974,3,1974,NA,0,5.67747633281662,6.19210489058121,10.2717243737774,10.148911210151,FALSE,12.1706842240395
"CAN","cpi",0.3,1974,3,1974,NA,0.5,9.3225390775172,11.4166749549868,10.2717243737774,7.90446289245049,TRUE,2.09413587746958
"CAN","cpi",0.3,1974,3,1973,NA,1,6.85463082880289,9.55737229466734,10.2717243737774,7.30476096756609,FALSE,4.74374740617896
"CAN","cpi",0.3,1974,3,1973,NA,1.5,-4.01940082605274,-1.31665936018829,10.2717243737774,2.5663290958369,FALSE,35.812409277195
"CAN","cpi",0.3,1975,3,1975,NA,0,6.37969748449948,7.00667590048002,10.0232981493341,10.1746571103793,FALSE,9.24589912699226
"CAN","cpi",0.3,1975,3,1975,NA,0.5,11.1971434543828,12.395775201782,10.0232981493341,8.07152306914465,FALSE,4.55247547610961
"CAN","cpi",0.3,1975,3,1974,NA,1,7.0605349670652,8.25916671446442,10.0232981493341,7.8187778356914,FALSE,6.23900727559837
"CAN","cpi",0.3,1975,3,1974,NA,1.5,-8.28888278528677,-7.09025103788755,10.0232981493341,3.64914274700436,FALSE,50.0944865680326
"CAN","cpi",0.3,1976,3,1976,NA,0,5.34853394904101,5.88708302762731,7.22784311401172,7.18995143043805,FALSE,4.36929218254174
"CAN","cpi",0.3,1976,3,1976,NA,0.5,9.02346006469685,11.4174303315317,7.22784311401172,6.61333364285308,FALSE,7.52430441164953
"CAN","cpi",0.3,1976,3,1975,NA,1,6.21600443228438,8.60997469911925,7.22784311401172,8.584971075903,TRUE,2.39397026683487
"CAN","cpi",0.3,1976,3,1975,NA,1.5,-8.88440558237734,-6.49043531554247,7.22784311401172,3.14738569995591,FALSE,41.5890514941326
"CAN","cpi",0.3,1977,3,1977,NA,0,4.73541916632062,5.19550608665605,7.58101410153764,7.50176944503946,FALSE,7.2758241057114
"CAN","cpi",0.3,1977,3,1977,NA,0.5,7.8880933742697,10.1822628924318,7.58101410153764,6.40571638826874,FALSE,3.17153886882516
"CAN","cpi",0.3,1977,3,1976,NA,1,2.40725160891234,4.70142112707448,7.58101410153764,4.04909286077014,FALSE,10.5215780166283
"CAN","cpi",0.3,1977,3,1976,NA,1.5,-6.12813802379247,-3.83396850563033,7.58101410153764,2.59432747727492,FALSE,34.9084055386421
"CAN","cpi",0.3,1978,3,1978,NA,0,5.15969004569649,5.69471431399706,8.50208927062595,8.59104847384149,FALSE,8.55609557295454
"CAN","cpi",0.3,1978,3,1978,NA,0.5,8.63244304455362,11.2441981556092,8.50208927062595,7.34113908733495,FALSE,2.98419446513461
"CAN","cpi",0.3,1978,3,1977,NA,1,3.42346575327027,6.80674578677278,8.50208927062595,5.87902868518151,FALSE,8.22711855879727
"CAN","cpi",0.3,1978,3,1977,NA,1.5,-4.60538634317494,-1.22210630967243,8.50208927062595,3.89293485842214,FALSE,31.1666959772122
"CAN","cpi",0.3,1979,3,1979,NA,0,5.40886439498529,5.91013251223574,8.65147652410481,8.48651410143776,FALSE,8.33367957973351
"CAN","cpi",0.3,1979,3,1979,NA,0.5,9.11380913896294,11.7249509173518,8.65147652410481,7.46186747064873,FALSE,3.93209210655496
"CAN","cpi",0.3,1979,3,1978,NA,1,4.32900151140561,7.72792496696808,8.65147652410481,6.93686058379669,FALSE,6.03764219023884
"CAN","cpi",0.3,1979,3,1978,NA,1.5,-4.02612767753202,-0.177158997204425,8.65147652410481,3.9179710204728,FALSE,29.073641598354
"CAN","cpi",0.3,1980,3,1980,NA,0,5.72044928830206,6.30753911502576,9.5171912664748,9.43711128155219,FALSE,9.75752454514953
"CAN","cpi",0.3,1980,3,1980,NA,0.5,9.4657160310665,12.2474253855435,9.5171912664748,7.89144076485851,TRUE,2.78170935447702
"CAN","cpi",0.3,1980,3,1979,NA,1,3.13456288921615,5.91627224369317,9.5171912664748,5.69387794711803,FALSE,13.0700494195674
"CAN","cpi",0.3,1980,3,1979,NA,1.5,-1.24110289847474,1.54060645600227,9.5171912664748,4.27199048256738,FALSE,25.5719516701128
"CAN","cpi",0.3,1981,3,1981,NA,0,6.66265861282754,7.35360316960048,11.5813425032741,11.617538759154,FALSE,12.7701997958405
"CAN","cpi",0.3,1981,3,1981,NA,0.5,12.1359712001704,15.475843982821,11.5813425032741,11.3038259100907,FALSE,4.92452620235428
"CAN","cpi",0.3,1981,3,1980,NA,1,4.45678635771281,8.60112165458885,11.5813425032741,8.22922472590444,FALSE,12.6592520074054
"CAN","cpi",0.3,1981,3,1980,NA,1.5,-0.635895372601806,3.50843992427424,11.5813425032741,4.54818367546621,FALSE,27.2097712368758
"CAN","cpi",0.3,1982,3,1982,NA,0,6.69834156508889,7.4298777270614,10.1124203763629,10.1863972123348,FALSE,8.39594373140551
"CAN","cpi",0.3,1982,3,1982,NA,0.5,11.966368420574,15.0354701861377,10.1124203763629,9.38011590167964,FALSE,8.36609617759536
"CAN","cpi",0.3,1982,3,1981,NA,1,4.74843189535947,8.2787801411176,10.1124203763629,8.92774959502704,FALSE,8.76932034645911
"CAN","cpi",0.3,1982,3,1981,NA,1.5,4.15658605673736,7.68693430249548,10.1124203763629,7.65688060941457,FALSE,10.460308456808
"CAN","cpi",0.3,1983,3,1983,NA,0,4.90665908823372,5.42832267502074,5.67091787896303,5.79231449937116,FALSE,1.21479274090785
"CAN","cpi",0.3,1983,3,1983,NA,0.5,7.94124223232525,9.83390959004085,5.67091787896303,4.48935486750539,FALSE,8.37930836732194
"CAN","cpi",0.3,1983,3,1982,NA,1,3.67077948015888,6.36238909237013,5.67091787896303,6.68360843662591,TRUE,2.69160961221125
"CAN","cpi",0.3,1983,3,1982,NA,1.5,2.83641015245274,5.52801976466399,5.67091787896303,5.80492936344428,FALSE,3.09988993877994
"CAN","cpi",0.3,1984,3,1984,NA,0,3.17915361962814,3.51375036953045,4.19799576814029,4.1863442377944,FALSE,2.28958360307327
"CAN","cpi",0.3,1984,3,1984,NA,0.5,6.06849537567711,7.53688992458958,4.19799576814029,4.37368919035215,FALSE,6.81267914187483
"CAN","cpi",0.3,1984,3,1983,NA,1,3.67515148933532,5.14354603824779,4.19799576814029,4.8252398586334,TRUE,1.46839454891247
"CAN","cpi",0.3,1984,3,1983,NA,1.5,-1.08422531350118,0.384169235411286,4.19799576814029,1.63651850095104,FALSE,12.365041785281
"CAN","cpi",0.3,1985,3,1985,NA,0,2.71040584950722,2.97402981398831,3.86444262005169,3.87488963413478,FALSE,2.80766055323361
"CAN","cpi",0.3,1985,3,1985,NA,0.5,4.83616916325872,6.12560815619076,3.86444262005169,3.66954460168274,FALSE,4.06580054495212
"CAN","cpi",0.3,1985,3,1984,NA,1,1.54106758975377,2.85563752526094,3.86444262005169,2.51760914226531,FALSE,4.1968702063379
"CAN","cpi",0.3,1985,3,1984,NA,1.5,1.73461943412611,3.04918936963328,3.86444262005169,2.74468923002786,FALSE,3.64386493670264
"CAN","cpi",0.3,1986,3,1986,NA,0,2.69488611432241,2.95682716339694,4.08685396749431,4.09009381020777,FALSE,3.49058906078129
"CAN","cpi",0.3,1986,3,1986,NA,0.5,5.09187304600351,6.22544276209045,4.08685396749431,4.18867743652029,FALSE,4.0050527975418
"CAN","cpi",0.3,1986,3,1985,NA,1,2.1846623671028,3.31823208318975,4.08685396749431,2.96346536694636,FALSE,3.32963224267141
"CAN","cpi",0.3,1986,3,1985,NA,1.5,2.04490646816823,3.17847618425518,4.08685396749431,2.65645514502224,FALSE,3.72893481105589
"CAN","cpi",0.3,1987,3,1987,NA,0,2.83497161621655,3.09584055172031,4.23980729277887,4.30382748919395,FALSE,3.52934533852821
"CAN","cpi",0.3,1987,3,1987,NA,0.5,4.66784629204472,5.78698335614583,4.23980729277887,3.60745044359556,FALSE,2.34210563343211
"CAN","cpi",0.3,1987,3,1986,NA,1,2.77919945815294,3.89833652225405,4.23980729277887,3.48954394276064,FALSE,2.09476783702917
"CAN","cpi",0.3,1987,3,1986,NA,1.5,2.77387051034163,3.89300757444274,4.23980729277887,3.05061614822702,FALSE,2.10999340220434
"CAN","cpi",0.3,1988,3,1988,NA,0,2.77172032500896,3.00538264061484,3.92899537638065,3.96651200874969,FALSE,2.87255584636534
"CAN","cpi",0.3,1988,3,1988,NA,0.5,4.45193953681766,5.54048388166843,3.92899537638065,3.27588434563216,FALSE,2.58267051752793
"CAN","cpi",0.3,1988,3,1987,NA,1,2.62436077780903,3.7129051226598,3.92899537638065,3.36557853238272,FALSE,1.70594506976749
"CAN","cpi",0.3,1988,3,1987,NA,1.5,1.80918469617248,2.89772904102325,3.92899537638065,2.22890665988493,FALSE,4.03501958872908
"CAN","cpi",0.3,1989,3,1989,NA,0,3.02613822510952,3.25049894378315,4.82821664544208,4.96224122245117,FALSE,4.73212558055627
"CAN","cpi",0.3,1989,3,1989,NA,0.5,5.06911366380545,6.03970873046885,4.82821664544208,4.15246181762677,FALSE,1.65887226198732
"CAN","cpi",0.3,1989,3,1988,NA,1,2.54556190325422,3.51615696991762,4.82821664544208,3.35061776773985,FALSE,4.71933699673328
"CAN","cpi",0.3,1989,3,1988,NA,1.5,1.88320978391625,2.85380485057965,4.82821664544208,2.03293210635829,FALSE,6.61177162341318
"CAN","cpi",0.3,1990,3,1990,NA,0,3.10126825559832,3.36345023346789,4.64347549432717,4.49116732458404,FALSE,3.91939700889608
"CAN","cpi",0.3,1990,3,1990,NA,0.5,5.87836888394522,6.99732403596046,4.64347549432717,4.80635133900141,FALSE,4.64722197949538
"CAN","cpi",0.3,1990,3,1989,NA,1,3.71399306456985,4.83294821658509,4.64347549432717,4.45332930526201,TRUE,1.11895515201525
"CAN","cpi",0.3,1990,3,1989,NA,1.5,2.75397959809902,3.87293475011426,4.64347549432717,2.93994143296931,FALSE,3.3205001354807
"CAN","cpi",0.3,1991,3,1991,NA,0,3.43695772135056,3.72120521501988,5.4258100696218,5.5966415351231,FALSE,5.15454707824623
"CAN","cpi",0.3,1991,3,1991,NA,0.5,8.21500974877071,9.31136307522196,5.4258100696218,8.0424604401558,FALSE,9.06549526687672
"CAN","cpi",0.3,1991,3,1990,NA,1,2.3259220709135,3.42227539736476,5.4258100696218,3.00766385389873,FALSE,6.82073810432851
"CAN","cpi",0.3,1991,3,1990,NA,1.5,3.57247412283357,4.66882744928482,5.4258100696218,3.42461322750937,FALSE,3.25916081312833
"CAN","cpi",0.3,1992,3,1992,NA,0,2.24480032055316,2.45932112209655,1.47496888572843,1.46118300949616,FALSE,2.41403918675689
"CAN","cpi",0.3,1992,3,1992,NA,0.5,3.32920043019071,4.27597658574001,1.47496888572843,1.2379681755847,FALSE,6.24458056829866
"CAN","cpi",0.3,1992,3,1991,NA,1,1.29421267348817,2.24098882903747,1.47496888572843,1.8723365291461,TRUE,0.946776155549297
"CAN","cpi",0.3,1992,3,1991,NA,1.5,8.18646437164576,9.13324052719506,1.47496888572843,6.89933696838937,FALSE,20.1224775438845
"CAN","cpi",0.3,1993,3,1993,NA,0,1.30270617475068,1.40787132590537,1.84351085411351,1.80220567555903,FALSE,1.34984951746366
"CAN","cpi",0.3,1993,3,1993,NA,0.5,2.63240957239987,3.13715133792598,1.84351085411351,2.21818498229346,FALSE,2.75873810348712
"CAN","cpi",0.3,1993,3,1992,NA,1,1.3806123496069,1.88535411513301,1.84351085411351,1.3520429918812,TRUE,0.504741765526111
"CAN","cpi",0.3,1993,3,1992,NA,1.5,0.996127543665791,1.5008693091919,1.84351085411351,0.933485487336859,FALSE,1.48371760815928
"CAN","cpi",0.3,1994,3,1994,NA,0,0.88004080726857,0.961248690365692,0.161630694655448,0.202109657487191,FALSE,2.1338082048489
"CAN","cpi",0.3,1994,3,1994,NA,0.5,0.690932283162024,1.01294375406281,0.161630694655448,-0.572639707462777,FALSE,1.83430172377672
"CAN","cpi",0.3,1994,3,1993,NA,1,1.19085056299861,1.66432843795901,0.161630694655448,1.14110533076836,FALSE,3.41410607022658
"CAN","cpi",0.3,1994,3,1993,NA,1.5,1.75301445522513,2.22649233018552,0.161630694655448,1.65023462295923,FALSE,5.0202886194452
"CAN","cpi",0.3,1995,3,1995,NA,0,1.06509869107963,1.14276033738174,2.11688403676572,2.14851249512314,FALSE,2.8608722159706
"CAN","cpi",0.3,1995,3,1995,NA,0.5,2.44438029342581,2.73808579401384,2.11688403676572,2.60072443309243,FALSE,1.22940909104543
"CAN","cpi",0.3,1995,3,1994,NA,1,1.66349698372856,1.95720248431659,2.11688403676572,1.43373972642191,FALSE,0.749938507585523
"CAN","cpi",0.3,1995,3,1994,NA,1.5,-1.07440013469083,-0.780694634102797,2.11688403676572,-1.26611333424577,FALSE,8.57250170306949
"CAN","cpi",0.3,1996,3,1996,NA,0,1.37780129781009,1.48354345790646,1.55309584667184,1.43665270425039,FALSE,0.304463270854597
"CAN","cpi",0.3,1996,3,1996,NA,0.5,1.95751336954096,2.60402204091874,1.55309584667184,1.23276330365037,FALSE,1.80198730814668
"CAN","cpi",0.3,1996,3,1995,NA,1,0.63669028480204,1.30867422472666,1.55309584667184,0.729753259393914,FALSE,1.37033143119658
"CAN","cpi",0.3,1996,3,1995,NA,1.5,2.18728802197848,2.8592719619031,1.55309584667184,2.31904839186543,FALSE,2.48396158365788
"CAN","cpi",0.3,1997,3,1997,NA,0,1.3084896005715,1.40334830772294,1.60528783555959,1.67949478723595,FALSE,0.671828786684728
"CAN","cpi",0.3,1997,3,1997,NA,0.5,2.25399867243798,2.81009245759571,1.60528783555959,1.93291992098407,FALSE,2.40955331909598
"CAN","cpi",0.3,1997,3,1996,NA,1,0.684435723349026,1.24052950850676,1.60528783555959,0.614630451620954,FALSE,1.59826043388012
"CAN","cpi",0.3,1997,3,1996,NA,1.5,0.882962175862396,1.43905596102013,1.60528783555959,0.962161564198873,FALSE,1.03104199812763
"CAN","cpi",0.3,1998,3,1998,NA,0,1.08475198145211,1.16205407780356,0.988908029337191,0.967063680387792,FALSE,0.351141959536939
"CAN","cpi",0.3,1998,3,1998,NA,0.5,1.81538863586134,2.36756393940004,0.988908029337191,1.34897459866337,FALSE,2.91354846503627
"CAN","cpi",0.3,1998,3,1997,NA,1,0.94054056885597,1.49271587239468,0.988908029337191,0.792689959246129,TRUE,0.552175303538707
"CAN","cpi",0.3,1998,3,1997,NA,1.5,1.1601172366641,1.71229254020281,0.988908029337191,1.28384000376946,FALSE,1.04134446732988
"CAN","cpi",0.3,1999,3,1999,NA,0,1.18130910334076,1.2607236407943,1.7107350135213,1.76864633894604,FALSE,1.36516131667352
"CAN","cpi",0.3,1999,3,1999,NA,0.5,1.2218320089748,1.61339462180393,1.7107350135213,0.732099710600531,FALSE,0.669678017735885
"CAN","cpi",0.3,1999,3,1998,NA,1,0.595176790458683,0.986739403287821,1.7107350135213,0.369052571959629,FALSE,2.4601214992105
"CAN","cpi",0.3,1999,3,1998,NA,1.5,1.23952467236102,1.63108728519016,1.7107350135213,1.26847007023129,FALSE,0.619127550918099
"CAN","cpi",0.3,2000,3,2000,NA,0,1.70374865030296,1.80872459145498,2.6718361971244,2.70257810674034,FALSE,2.5710091002075
"CAN","cpi",0.3,2000,3,2000,NA,0.5,2.24260431118698,2.89562747135595,2.6718361971244,1.95948305880876,TRUE,0.653023160168978
"CAN","cpi",0.3,2000,3,1999,NA,1,2.26427442066067,2.91729758082965,2.6718361971244,2.16154661985999,TRUE,0.653023160168978
"CAN","cpi",0.3,2000,3,1999,NA,1.5,0.370729987062921,1.0237531472319,2.6718361971244,0.50278387806376,FALSE,5.36183187414755
"CAN","cpi",0.3,2001,3,2001,NA,0,1.99121849424263,2.11399284965808,2.47906219852806,2.73154549386087,FALSE,1.16582963790112
"CAN","cpi",0.3,2001,3,2001,NA,0.5,2.33376144303619,3.12412111700709,2.47906219852806,1.65861828263926,TRUE,0.790359673970904
"CAN","cpi",0.3,2001,3,2000,NA,1,2.78406505473917,3.62874173984883,2.47906219852806,2.84133895788986,FALSE,1.71611341714139
"CAN","cpi",0.3,2001,3,2000,NA,1.5,0.864656146752911,1.70933283186258,2.47906219852806,1.14191354447969,FALSE,3.04390344701106
"CAN","cpi",0.3,2002,3,2002,NA,0,1.78935077204403,1.90154165407461,2.20880570551249,2.31282527465204,FALSE,0.99008817185309
"CAN","cpi",0.3,2002,3,2002,NA,0.5,2.01540036164949,2.69032630332866,2.20880570551249,1.24731948634093,TRUE,0.674925941679168
"CAN","cpi",0.3,2002,3,2001,NA,1,0.811802699992338,1.48672864167151,2.20880570551249,0.695491540886875,FALSE,2.73800326693911
"CAN","cpi",0.3,2002,3,2001,NA,1.5,0.382010400001412,1.05693634168058,2.20880570551249,0.47606161882134,FALSE,3.96598126691319
"CAN","cpi",0.3,2003,3,2003,NA,0,1.8459976037133,1.97300339055162,2.71189071546809,2.75460397277825,FALSE,2.2381124294568
"CAN","cpi",0.3,2003,3,2003,NA,0.5,4.02451070524114,4.76887119246023,2.71189071546809,4.16096970792426,FALSE,4.49470331514208
"CAN","cpi",0.3,2003,3,2002,NA,1,3.1838586247396,3.92821911195869,2.71189071546809,3.27791908188471,FALSE,2.09284022799484
"CAN","cpi",0.3,2003,3,2002,NA,1.5,1.24628303676052,1.99064352397961,2.71189071546809,1.51830012756901,FALSE,2.80506674861475
"CAN","cpi",0.3,2004,3,2004,NA,0,1.66415129101016,1.76955303132206,1.83151661303942,1.76153103901938,FALSE,0.282440545218638
"CAN","cpi",0.3,2004,3,2004,NA,0.5,2.15456274166578,2.90909187527433,1.83151661303942,1.38945604480572,FALSE,1.677518072541
"CAN","cpi",0.3,2004,3,2003,NA,1,1.08594963133898,1.84047876494754,1.83151661303942,1.01874619159597,TRUE,0.754529133608555
"CAN","cpi",0.3,2004,3,2003,NA,1.5,2.61569003220564,3.37021916581419,1.83151661303942,2.99105359104411,FALSE,2.99502461694059
"CAN","cpi",0.3,2005,3,2005,NA,0,1.61547178619038,1.71588500838088,2.18071628336509,2.35062481142317,FALSE,1.42850257928824
"CAN","cpi",0.3,2005,3,2005,NA,0.5,1.94822196855733,2.53072105136585,2.18071628336509,1.4552837212303,TRUE,0.582499082808513
"CAN","cpi",0.3,2005,3,2004,NA,1,0.965444943622149,1.54794402643066,2.18071628336509,0.79648671202377,FALSE,2.39041981690688
"CAN","cpi",0.3,2005,3,2004,NA,1.5,1.0480804816639,1.63057956447241,2.18071628336509,1.13680951350797,FALSE,2.15431827964474
"CAN","cpi",0.3,2006,3,2006,NA,0,1.60490007008935,1.71762051365229,1.97519342012289,2.06448042324351,FALSE,0.848643033478925
"CAN","cpi",0.3,2006,3,2006,NA,0.5,2.25831032569305,2.94423384400904,1.97519342012289,1.77073314120205,FALSE,1.49482896280217
