isdrw/probabilistic-benchmark-forecasts/results/bayesian_quantile_regression/bqr_prediction_rw_2026-02-20_11-40-32.csv
"country","target","tau","target_year","target_quarter","forecast_year","forecast_quarter","horizon","lower_bound","upper_bound","truth_value","prediction","covered","IS"
"CAN","cpi",0.1,1952,3,1952,NA,0,-26.3533208169283,-26.2595111950675,2.55562336095485,2.49651395855886,FALSE,64.1274419685772
"CAN","cpi",0.1,1952,3,1952,NA,0.5,-14.5615553021211,-11.2710067814572,2.55562336095485,3.9078404779387,FALSE,34.0163932815796
"CAN","cpi",0.1,1952,3,1951,NA,1,6.67843916842412,9.96898768908803,2.55562336095485,8.88778808098424,FALSE,12.4523614261512
"CAN","cpi",0.1,1952,3,1951,NA,1.5,-29.6000611584045,-25.0749039302612,2.55562336095485,10.076419411745,FALSE,65.9263289864013
"CAN","cpi",0.1,1953,3,1953,NA,0,0.199553635764563,-1.11666481678902,-1.01492775838436,-0.954275034924989,FALSE,1.60871144200994
"CAN","cpi",0.1,1953,3,1953,NA,0.5,-15.1360981766501,-16.4523166292037,-1.01492775838436,-2.19876634474816,FALSE,32.9890901492672
"CAN","cpi",0.1,1953,3,1952,NA,1,-13.4708022623455,-14.7870207148991,-1.01492775838436,-1.18145267469342,FALSE,29.2884325619237
"CAN","cpi",0.1,1953,3,1952,NA,1.5,-19.2148100592663,-17.1473576327928,-1.01492775838436,0.93216905581622,FALSE,37.9172965918256
"CAN","cpi",0.1,1954,3,1954,NA,0,0.896028703770514,0.763323606151598,0.644425455961438,0.879731201855888,FALSE,0.426413230845698
"CAN","cpi",0.1,1954,3,1954,NA,0.5,1.09950350478481,0.966798407165892,0.644425455961438,-0.358875738913824,FALSE,0.878579455321907
"CAN","cpi",0.1,1954,3,1953,NA,1,10.9082648810881,11.8268620250995,0.644425455961438,3.38326531029323,FALSE,23.7271291998484
"CAN","cpi",0.1,1954,3,1953,NA,1.5,-6.76935437568677,-5.85075723167539,0.644425455961438,-2.85717744192413,FALSE,15.352336449871
"CAN","cpi",0.1,1955,3,1955,NA,0,0.456495312484307,0.491299118411534,0.173649026558865,0.115254687233858,FALSE,0.663351107983765
"CAN","cpi",0.1,1955,3,1955,NA,0.5,-1.23711335589494,-0.957308842672431,0.173649026558865,-0.770970046821609,FALSE,2.79304422262539
"CAN","cpi",0.1,1955,3,1954,NA,1,9.78302081291437,10.323550632398,0.173649026558865,3.47019599757395,FALSE,21.8946893447181
"CAN","cpi",0.1,1955,3,1954,NA,1.5,-10.8844294596012,-10.3438996401176,0.173649026558865,-1.89562740163941,FALSE,23.9128601898758
"CAN","cpi",0.1,1956,3,1956,NA,0,1.01486856428056,1.07155459799369,1.32752769429961,1.56059797998755,FALSE,0.625515136615169
"CAN","cpi",0.1,1956,3,1956,NA,0.5,-0.396896806086664,-0.340210772373524,1.32752769429961,-0.709146002056511,FALSE,3.76277151520899
"CAN","cpi",0.1,1956,3,1955,NA,1,1.86782189852728,1.97776225098367,1.32752769429961,0.884549626974225,FALSE,1.31059413962899
"CAN","cpi",0.1,1956,3,1955,NA,1.5,-6.36801958301203,-6.25807923055564,1.32752769429961,-1.89150615642833,FALSE,16.9668446299125
"CAN","cpi",0.1,1957,3,1957,NA,0,1.91463497108027,2.0731022412488,3.24684755852518,3.4151370317006,FALSE,2.76679019744937
"CAN","cpi",0.1,1957,3,1957,NA,0.5,3.43856464245608,4.02452156840562,3.24684755852518,2.23982631608766,FALSE,1.01199489024043
"CAN","cpi",0.1,1957,3,1956,NA,1,11.0966801179849,12.7064650773385,3.24684755852518,6.98754636690555,FALSE,19.0538573137085
"CAN","cpi",0.1,1957,3,1956,NA,1.5,-11.2751107088967,-9.66532574954313,3.24684755852518,-1.88668623310337,FALSE,30.3035034217276
"CAN","cpi",0.1,1958,3,1958,NA,0,1.82610495796188,1.90386507133653,2.33186388641149,2.22387249143335,FALSE,1.028868591319
"CAN","cpi",0.1,1958,3,1958,NA,0.5,3.9920667111786,4.57612508987386,2.33186388641149,2.22839060734872,FALSE,4.27339798928884
"CAN","cpi",0.1,1958,3,1957,NA,1,2.69844236640512,4.2765929884205,2.33186388641149,4.42088197051908,FALSE,2.39276946644567
"CAN","cpi",0.1,1958,3,1957,NA,1.5,-12.9727282331846,-11.3945776111692,2.33186388641149,0.91301479707402,FALSE,32.0813539499724
"CAN","cpi",0.1,1959,3,1959,NA,0,1.28837941356727,1.36450013230994,1.19382698397654,1.24991216431293,FALSE,0.286237228944293
"CAN","cpi",0.1,1959,3,1959,NA,0.5,1.64393272721231,1.95825359313097,1.19382698397654,0.437839731590327,FALSE,1.31455585088704
"CAN","cpi",0.1,1959,3,1958,NA,1,0.292214179434238,0.92215409955974,1.19382698397654,1.75862762885946,FALSE,1.23365744105173
"CAN","cpi",0.1,1959,3,1958,NA,1.5,-7.31393084635749,-6.68399092623198,1.19382698397654,1.77407172713766,FALSE,18.1362019428111
"CAN","cpi",0.1,1960,3,1960,NA,0,0.956389746954129,0.99903754211619,1.34209404870695,1.02361304259477,FALSE,0.804995587585976
"CAN","cpi",0.1,1960,3,1960,NA,0.5,1.48129220611,1.66327478618905,1.34209404870695,0.53898348018166,FALSE,0.491311818752488
"CAN","cpi",0.1,1960,3,1959,NA,1,3.92548805953508,4.36393875686711,1.34209404870695,3.95759373689442,FALSE,6.1793262769501
"CAN","cpi",0.1,1960,3,1959,NA,1.5,-5.07253293094027,-4.63408223360824,1.34209404870695,-0.873476815404885,FALSE,13.7188424358102
"CAN","cpi",0.1,1961,3,1961,NA,0,1.01053529424822,1.0808567828953,1.00921348094007,1.00921348094007,FALSE,0.073258851554073
"CAN","cpi",0.1,1961,3,1961,NA,0.5,1.94449145399351,2.17803442966249,1.00921348094007,1.00921348094007,FALSE,2.31193847134329
"CAN","cpi",0.1,1961,3,1960,NA,1,-0.70536084077188,-0.417318874385852,1.00921348094007,0.0537704626035329,FALSE,3.4581138671103
"CAN","cpi",0.1,1961,3,1960,NA,1.5,-5.03202819453148,-4.54162467243619,1.00921348094007,-0.862181798940035,FALSE,12.825599418487
"CAN","cpi",0.1,1962,3,1962,NA,0,0.973592694078101,1.02889614629736,1.04957947883042,1.10232402731478,FALSE,0.10126641340382
"CAN","cpi",0.1,1962,3,1962,NA,0.5,0.900787183469117,0.991662336145373,1.04957947883042,0,FALSE,0.219579914198572
"CAN","cpi",0.1,1962,3,1961,NA,1,-0.177557652214537,-0.086682499538281,1.04957947883042,0,FALSE,2.61590177127336
"CAN","cpi",0.1,1962,3,1961,NA,1.5,-2.78153324614894,-2.69065809347269,1.04957947883042,0,FALSE,8.40251420223871
"CAN","cpi",0.1,1963,3,1963,NA,0,1.28768974971842,1.35265071877547,1.60677118395228,1.91491729531202,FALSE,0.629673113894417
"CAN","cpi",0.1,1963,3,1963,NA,0.5,1.61614385143382,1.79306563500921,1.60677118395228,0.836828714617504,FALSE,0.197749933534367
"CAN","cpi",0.1,1963,3,1962,NA,1,2.20066417410446,2.48271173869092,1.60677118395228,2.56411490415144,FALSE,1.60180976492463
"CAN","cpi",0.1,1963,3,1962,NA,1.5,-2.11166260056315,-1.82961503597669,1.60677118395228,0,FALSE,7.91846138665084
"CAN","cpi",0.1,1964,3,1964,NA,0,1.42776885027366,1.49649282771762,1.88764670034376,1.98877256446048,FALSE,0.937954805502055
"CAN","cpi",0.1,1964,3,1964,NA,0.5,2.27828444111382,2.48823996139868,1.88764670034376,1.38369006227607,FALSE,1.07803938866277
"CAN","cpi",0.1,1964,3,1963,NA,1,4.2763009755027,4.66558995672306,1.88764670034376,5.39044290347256,FALSE,5.69740959268466
"CAN","cpi",0.1,1964,3,1963,NA,1.5,-2.63902432921973,-2.24973534799937,1.88764670034376,0,FALSE,9.58347131087176
"CAN","cpi",0.1,1965,3,1965,NA,0,1.60381377864211,1.68419442918541,2.29538304394236,2.34557047418999,FALSE,1.4385775722254
"CAN","cpi",0.1,1965,3,1965,NA,0.5,2.52789029500932,2.72317730264647,2.29538304394236,1.61079447956654,FALSE,0.711969787785964
"CAN","cpi",0.1,1965,3,1964,NA,1,1.80747021273554,2.20676349280848,2.29538304394236,2.42518862179847,FALSE,0.596225615926001
"CAN","cpi",0.1,1965,3,1964,NA,1.5,-1.62828859042553,-1.14939377639303,2.29538304394236,0.818102552316399,FALSE,8.13395441477781
"CAN","cpi",0.1,1966,3,1966,NA,0,2.24981100507067,2.33776836011203,3.72486065470629,3.82010987863709,FALSE,3.17038467636194
"CAN","cpi",0.1,1966,3,1966,NA,0.5,4.57104967050758,4.81771818316961,3.72486065470629,3.99123398895563,FALSE,2.12708854777601
"CAN","cpi",0.1,1966,3,1965,NA,1,2.60526256642925,2.85193107909127,3.72486065470629,3.20722068745854,FALSE,2.18651201402874
"CAN","cpi",0.1,1966,3,1965,NA,1.5,-0.706962397537214,-0.460293884875189,3.72486065470629,1.60663824631958,FALSE,9.5470119339542
"CAN","cpi",0.1,1967,3,1967,NA,0,2.5893602496581,2.67617965401611,3.49360316391996,3.76768849328632,FALSE,1.90331609303323
"CAN","cpi",0.1,1967,3,1967,NA,0.5,3.82052911531822,3.99322237723004,3.49360316391996,2.4074547441976,FALSE,0.899195376130172
"CAN","cpi",0.1,1967,3,1966,NA,1,2.60527870041283,2.95334402321225,3.49360316391996,3.18103323070284,FALSE,1.54864119103877
"CAN","cpi",0.1,1967,3,1966,NA,1.5,2.10573668464998,2.45380200744939,3.49360316391996,4.65128160487248,FALSE,2.65873455940068
"CAN","cpi",0.1,1968,3,1968,NA,0,2.65309707303154,2.7526225206103,3.95128347779386,4.17287945672396,FALSE,2.76321646354222
"CAN","cpi",0.1,1968,3,1968,NA,0.5,5.03876684460486,5.31800537744798,3.95128347779386,4.07097205779852,FALSE,2.69586823686758
"CAN","cpi",0.1,1968,3,1967,NA,1,5.25176958668917,5.83486554798486,3.95128347779386,5.84521682123848,FALSE,3.47306509217417
"CAN","cpi",0.1,1968,3,1967,NA,1.5,0.336800994734938,0.919896956030626,3.95128347779386,2.25565858240226,FALSE,7.31951045410287
"CAN","cpi",0.1,1969,3,1969,NA,0,2.91329626780555,3.01991814639615,4.42679496126681,4.59520664360618,FALSE,3.23301480052541
"CAN","cpi",0.1,1969,3,1969,NA,0.5,4.3221414137737,4.56731541394361,4.42679496126681,2.96612019395715,TRUE,0.245174000169907
"CAN","cpi",0.1,1969,3,1968,NA,1,5.83254272196281,6.78049423118973,4.42679496126681,6.72487630040807,FALSE,4.0718354218847
"CAN","cpi",0.1,1969,3,1968,NA,1.5,2.96966206673505,3.91761357596197,4.42679496126681,4.31664452944541,FALSE,2.07946569879325
"CAN","cpi",0.1,1970,3,1970,NA,0,2.670815465877,2.77713182446223,3.28128405769805,3.60761538249925,FALSE,1.22665465466482
"CAN","cpi",0.1,1970,3,1970,NA,0.5,5.66387474818057,5.93534869400261,3.28128405769805,4.36016077421692,FALSE,5.56611992467209
"CAN","cpi",0.1,1970,3,1969,NA,1,4.1509133907654,4.95925527524449,3.28128405769805,4.91369447805135,FALSE,2.74085151351765
"CAN","cpi",0.1,1970,3,1969,NA,1.5,0.579408217951139,1.38775010243023,3.28128405769805,2.07973847283129,FALSE,5.01619511840758
"CAN","cpi",0.1,1971,3,1971,NA,0,2.13493842951801,2.23098580170471,2.64123406634756,2.91872900980337,FALSE,1.00771018250415
"CAN","cpi",0.1,1971,3,1971,NA,0.5,2.84814573708995,2.9947201715488,2.64123406634756,1.38357105636307,FALSE,0.606378147219709
"CAN","cpi",0.1,1971,3,1970,NA,1,2.82928660599573,3.46550240359391,2.64123406634756,3.17686610979278,FALSE,1.05411033014967
"CAN","cpi",0.1,1971,3,1970,NA,1.5,4.49503258698524,5.68851851481735,2.64123406634756,4.62066312326275,FALSE,5.31303819591584
"CAN","cpi",0.1,1972,3,1972,NA,0,2.78355039517859,2.88302802117682,4.83230569625923,5.17210692165851,FALSE,4.43120579284803
"CAN","cpi",0.1,1972,3,1972,NA,0.5,5.23984912571645,5.60518476114213,4.83230569625923,4.76224255478946,FALSE,1.27098770088616
"CAN","cpi",0.1,1972,3,1971,NA,1,6.51530430252955,7.16664572902158,4.83230569625923,6.83863498061675,FALSE,4.39133832931496
"CAN","cpi",0.1,1972,3,1971,NA,1.5,1.84223280434027,2.4935742308323,4.83230569625923,1.95441162589064,FALSE,5.8485224607741
"CAN","cpi",0.1,1973,3,1973,NA,0,4.13249036534864,4.27133747719614,7.12388603531779,7.41057825703995,FALSE,6.47784390767339
"CAN","cpi",0.1,1973,3,1973,NA,0.5,7.29885121579989,7.74920698235986,7.12388603531779,6.24191401313708,FALSE,0.839167278742419
"CAN","cpi",0.1,1973,3,1972,NA,1,7.19458263115076,8.42352288005361,7.12388603531779,8.12590883681935,FALSE,1.38604379519834
"CAN","cpi",0.1,1973,3,1972,NA,1.5,5.40130107277488,6.63024132167772,7.12388603531779,4.96130694391223,FALSE,2.32592850143632
"CAN","cpi",0.1,1974,3,1974,NA,0,5.68380813728609,5.91175663645682,10.2717243737774,10.2919804098732,FALSE,9.91676569321651
"CAN","cpi",0.1,1974,3,1974,NA,0.5,10.3217904312005,11.0993845010442,10.2717243737774,9.01679902243293,FALSE,0.888851975228297
"CAN","cpi",0.1,1974,3,1973,NA,1,10.1843591201061,11.7553561580353,10.2717243737774,11.5076386824751,TRUE,1.57099703792918
"CAN","cpi",0.1,1974,3,1973,NA,1.5,8.24749450323882,10.2997460229042,10.2717243737774,7.03851017911898,TRUE,2.05225151966539
"CAN","cpi",0.1,1975,3,1975,NA,0,6.32635104057671,6.62209098547152,10.0232981493341,10.3166994702432,FALSE,7.85397808681169
"CAN","cpi",0.1,1975,3,1975,NA,0.5,11.5481653865287,12.4369611808919,10.0232981493341,8.87817825771755,FALSE,4.27738965479562
"CAN","cpi",0.1,1975,3,1974,NA,1,8.64440747303205,10.4029589322386,10.0232981493341,11.6634485116586,TRUE,1.75855145920656
"CAN","cpi",0.1,1975,3,1974,NA,1.5,9.65734738981081,12.5062237245464,10.0232981493341,9.09165939347615,TRUE,2.84887633473562
"CAN","cpi",0.1,1976,3,1976,NA,0,5.30751000629549,5.5080663374805,7.22784311401172,7.25911367403926,FALSE,4.02228250125438
"CAN","cpi",0.1,1976,3,1976,NA,0.5,10.1740844379024,10.9491278665491,7.22784311401172,7.22502565269042,FALSE,7.32224637062597
"CAN","cpi",0.1,1976,3,1975,NA,1,7.85641158172757,9.36052100681141,7.22784311401172,12.4780790437784,FALSE,2.90092824223018
"CAN","cpi",0.1,1976,3,1975,NA,1.5,6.16742032958029,8.06092024196337,7.22784311401172,7.18586013837568,TRUE,1.89349991238309
"CAN","cpi",0.1,1977,3,1977,NA,0,4.67604115295773,4.89761675168388,7.58101410153764,7.59139014959698,FALSE,6.1846808206234
"CAN","cpi",0.1,1977,3,1977,NA,0.5,9.0200493221391,9.73767628030327,7.58101410153764,7.25038656554249,FALSE,3.91548300394519
"CAN","cpi",0.1,1977,3,1976,NA,1,3.32847623365598,4.71049339522473,7.58101410153764,5.92994518665441,FALSE,7.76095206448633
"CAN","cpi",0.1,1977,3,1976,NA,1.5,5.1995250613536,6.99390531072538,7.58101410153764,5.68954314963938,FALSE,3.09906645117681
"CAN","cpi",0.1,1978,3,1978,NA,0,5.12669027097745,5.34816730644593,8.50208927062595,8.68881076810062,FALSE,7.23019251142408
"CAN","cpi",0.1,1978,3,1978,NA,0.5,9.92684914418902,10.6367827725311,8.50208927062595,8.11208508764938,FALSE,3.87606668070451
"CAN","cpi",0.1,1978,3,1977,NA,1,4.99642810171977,6.30923606995117,8.50208927062595,8.34671923233743,FALSE,6.18581508084201
"CAN","cpi",0.1,1978,3,1977,NA,1.5,8.58183613643999,10.0307360939121,8.50208927062595,8.21410731625775,FALSE,1.62611521483667
"CAN","cpi",0.1,1979,3,1979,NA,0,5.31658899190605,5.54109654558808,8.65147652410481,8.56136533364911,FALSE,7.13646306149699
"CAN","cpi",0.1,1979,3,1979,NA,0.5,10.5019105014359,11.1493709236873,8.65147652410481,8.23092589685401,FALSE,4.75953592743166
"CAN","cpi",0.1,1979,3,1978,NA,1,5.84529917455682,6.86229829573723,8.65147652410481,9.66481845899329,FALSE,4.99295073977503
"CAN","cpi",0.1,1979,3,1978,NA,1.5,8.88377278633329,10.1138285550812,8.65147652410481,7.91014806370246,FALSE,1.7462696848112
"CAN","cpi",0.1,1980,3,1980,NA,0,5.64122572428264,5.86706746607678,9.5171912664748,9.53576705858497,FALSE,8.33722796490085
"CAN","cpi",0.1,1980,3,1980,NA,0.5,10.7981912116976,11.6473278972169,9.5171912664748,8.6434746104286,FALSE,3.69580323045888
"CAN","cpi",0.1,1980,3,1979,NA,1,3.70460713913637,4.68731263069032,9.5171912664748,7.78967249140325,FALSE,11.7157691266306
"CAN","cpi",0.1,1980,3,1979,NA,1.5,9.35874598977885,10.8834371165938,9.5171912664748,8.29781572565185,TRUE,1.52469112681496
"CAN","cpi",0.1,1981,3,1981,NA,0,6.56975238712494,6.86517490873676,11.5813425032741,11.7120328235834,FALSE,10.7757949539171
"CAN","cpi",0.1,1981,3,1981,NA,0.5,13.9635635251803,14.9375503543928,11.5813425032741,12.3296185245412,FALSE,6.26781132233729
"CAN","cpi",0.1,1981,3,1980,NA,1,6.02824646710221,7.44116692600289,11.5813425032741,11.0356264341109,FALSE,10.6133106306146
"CAN","cpi",0.1,1981,3,1980,NA,1.5,9.19944821575957,10.6529442379992,11.5813425032741,8.52474858684185,FALSE,3.51660327840612
"CAN","cpi",0.1,1982,3,1982,NA,0,6.54304477789091,6.89086672727586,10.1124203763629,10.253224031375,FALSE,7.50683005846737
"CAN","cpi",0.1,1982,3,1982,NA,0.5,13.2754821695616,14.2926455735945,10.1124203763629,10.1221315066235,FALSE,8.04618961114104
"CAN","cpi",0.1,1982,3,1981,NA,1,4.76971348058817,6.76756820538346,10.1124203763629,11.652777546881,FALSE,9.43085954919415
"CAN","cpi",0.1,1982,3,1981,NA,1.5,14.4809952802201,17.563767217889,10.1124203763629,13.2139534836213,FALSE,12.7907161684626
"CAN","cpi",0.1,1983,3,1983,NA,0,4.7724692469847,5.0204692222544,5.67091787896303,5.84362752346853,FALSE,1.69344143462222
"CAN","cpi",0.1,1983,3,1983,NA,0.5,8.6228208773961,9.29076235527558,5.67091787896303,4.70635148143536,FALSE,7.22772591884184
"CAN","cpi",0.1,1983,3,1982,NA,1,3.64125321858551,5.18081270281913,5.67091787896303,8.61437359933683,FALSE,2.62868209788674
"CAN","cpi",0.1,1983,3,1982,NA,1.5,10.7111127223224,12.250672206556,5.67091787896303,9.84330302935538,FALSE,12.7399924694766
"CAN","cpi",0.1,1984,3,1984,NA,0,3.10076418010436,3.24872747575922,4.19799576814029,4.21315663178917,FALSE,2.25744838983501
"CAN","cpi",0.1,1984,3,1984,NA,0.5,6.643779305465,7.08104296405357,4.19799576814029,4.73004206452632,FALSE,5.87233818597681
"CAN","cpi",0.1,1984,3,1983,NA,1,3.33890958084233,3.97678159774264,4.19799576814029,6.30529961834119,FALSE,1.12945906222841
"CAN","cpi",0.1,1984,3,1983,NA,1.5,2.5434551338623,3.18132715076261,4.19799576814029,2.81189439817776,FALSE,2.89713561107293
"CAN","cpi",0.1,1985,3,1985,NA,0,2.6496666787866,2.77924742454222,3.86444262005169,3.90546894544143,FALSE,2.54112562466556
"CAN","cpi",0.1,1985,3,1985,NA,0.5,5.42177331064461,5.79674346927636,3.86444262005169,4.0117649915267,FALSE,3.835705026616
"CAN","cpi",0.1,1985,3,1984,NA,1,1.16182791582181,2.05059042536227,3.86444262005169,3.28942198062367,FALSE,4.91954516440584
"CAN","cpi",0.1,1985,3,1984,NA,1.5,5.73306453488933,6.62182704442978,3.86444262005169,4.67970369844593,FALSE,5.04125565362409
"CAN","cpi",0.1,1986,3,1986,NA,0,2.66516205919455,2.78553191703701,4.08685396749431,4.12727747445429,FALSE,3.01219663663646
"CAN","cpi",0.1,1986,3,1986,NA,0.5,5.57010238915389,5.97637121781701,4.08685396749431,4.57514120825518,FALSE,3.70237643235108
"CAN","cpi",0.1,1986,3,1985,NA,1,2.0017108290054,2.56390270165897,4.08685396749431,3.84501750700332,FALSE,3.94652801895433
"CAN","cpi",0.1,1986,3,1985,NA,1.5,5.43738002076246,5.99957189341603,4.08685396749431,4.51624000588938,FALSE,3.56336087991613
"CAN","cpi",0.1,1987,3,1987,NA,0,2.80418809497361,2.93777998671427,4.23980729277887,4.3376164199738,FALSE,3.02698590521755
"CAN","cpi",0.1,1987,3,1987,NA,0.5,5.10680441748769,5.52979189474184,4.23980729277887,3.8898385702312,FALSE,2.34964775438486
"CAN","cpi",0.1,1987,3,1986,NA,1,2.84296537883834,3.34465526489369,4.23980729277887,4.56284936423577,FALSE,2.49091661468909
"CAN","cpi",0.1,1987,3,1986,NA,1.5,6.16412768967809,6.66581757573343,4.23980729277887,5.15474659430673,FALSE,4.77795743472028
"CAN","cpi",0.1,1988,3,1988,NA,0,2.75686505233808,2.86532511378522,3.92899537638065,4.00028299604827,FALSE,2.47217175610366
"CAN","cpi",0.1,1988,3,1988,NA,0.5,4.86287626158871,5.25676485233522,3.92899537638065,3.53181278911538,FALSE,2.46917944676441
"CAN","cpi",0.1,1988,3,1987,NA,1,2.60197509236742,3.08333909328766,3.92899537638065,4.34173286045961,FALSE,2.36060018557134
"CAN","cpi",0.1,1988,3,1987,NA,1.5,4.4913252544425,4.97268925536274,3.92899537638065,3.76612293581706,FALSE,1.73098595216878
"CAN","cpi",0.1,1989,3,1989,NA,0,3.0124421443783,3.10798876016719,4.82821664544208,5.00606812502784,FALSE,3.91827524973308
"CAN","cpi",0.1,1989,3,1989,NA,0.5,5.45669579445635,5.75554413192249,4.82821664544208,4.51521437972404,FALSE,1.69546866860896
"CAN","cpi",0.1,1989,3,1988,NA,1,2.92064916922637,3.2194975066925,4.82821664544208,4.3270389784901,FALSE,3.87377975690964
"CAN","cpi",0.1,1989,3,1988,NA,1.5,4.06101904105757,4.35986737852371,4.82821664544208,3.42699250808196,FALSE,1.33962448617362
"CAN","cpi",0.1,1990,3,1990,NA,0,3.07436844731185,3.19292598008676,4.64347549432717,4.52171223749059,FALSE,3.3420008977536
"CAN","cpi",0.1,1990,3,1990,NA,0.5,6.21594890859042,6.73154147183874,4.64347549432717,5.22335253259958,FALSE,4.00997792827777
"CAN","cpi",0.1,1990,3,1989,NA,1,3.87724550208352,4.51251680760152,4.64347549432717,5.7236432392913,FALSE,0.926290609352781
"CAN","cpi",0.1,1990,3,1989,NA,1.5,5.83920221510759,6.47447352062559,4.64347549432717,4.92041342133377,FALSE,3.29244179614116
"CAN","cpi",0.1,1991,3,1991,NA,0,3.41012068246306,3.52304718530404,5.4258100696218,5.6161816682171,FALSE,4.34128846799155
"CAN","cpi",0.1,1991,3,1991,NA,0.5,8.6542448181711,9.19477783512095,5.4258100696218,8.8240510060175,FALSE,7.71483245817052
"CAN","cpi",0.1,1991,3,1990,NA,1,2.36423137670803,2.90476439365789,5.4258100696218,3.89170713423419,FALSE,6.1428567413141
"CAN","cpi",0.1,1991,3,1990,NA,1.5,6.67029673489205,7.2108297518419,5.4258100696218,5.70462042447442,FALSE,3.30605893977263
"CAN","cpi",0.1,1992,3,1992,NA,0,2.20512894370369,2.32476337272185,1.47496888572843,1.47544467241393,FALSE,1.74221233562984
"CAN","cpi",0.1,1992,3,1992,NA,0.5,3.68780114295667,3.97516731494675,1.47496888572843,1.36069384263819,FALSE,5.20477118805283
"CAN","cpi",0.1,1992,3,1991,NA,1,1.46473571021049,1.81437592111018,1.47496888572843,2.43500720778875,TRUE,0.349640210899688
"CAN","cpi",0.1,1992,3,1991,NA,1.5,13.6212656835028,13.9709058944025,1.47496888572843,11.2072976243743,FALSE,27.3414108726205
"CAN","cpi",0.1,1993,3,1993,NA,0,1.29487882728079,1.34017144024125,1.84351085411351,1.81496037239602,FALSE,1.16382464378771
"CAN","cpi",0.1,1993,3,1993,NA,0.5,2.86041524125642,3.03439292915926,1.84351085411351,2.43338635087472,FALSE,2.43376521488708
"CAN","cpi",0.1,1993,3,1992,NA,1,1.38663873324811,1.56061642115096,1.84351085411351,1.76228766319361,FALSE,0.802631983375186
"CAN","cpi",0.1,1993,3,1992,NA,1.5,2.04982530532052,2.22380299322337,1.84351085411351,1.598750613598,FALSE,0.632454246140648
"CAN","cpi",0.1,1994,3,1994,NA,0,0.871396330319282,0.902251942164483,0.161630694655448,0.220147227157928,FALSE,1.60811257998706
"CAN","cpi",0.1,1994,3,1994,NA,0.5,0.692828305169265,0.797837296471501,0.161630694655448,-0.741542526043691,FALSE,1.28544812577738
"CAN","cpi",0.1,1994,3,1993,NA,1,1.14766963148694,1.36530907152262,0.161630694655448,1.50794631797803,FALSE,2.40883707743899
"CAN","cpi",0.1,1994,3,1993,NA,1.5,3.32077849651818,3.53841793655387,0.161630694655448,2.81797717341095,FALSE,7.23796788861954
"CAN","cpi",0.1,1995,3,1995,NA,0,1.06986445230297,1.09683243865099,2.11688403676572,2.15484685959489,FALSE,2.29374931549185
"CAN","cpi",0.1,1995,3,1995,NA,0.5,2.62880858148483,2.76123345673458,2.11688403676572,2.90883921660758,FALSE,1.27003497462556
"CAN","cpi",0.1,1995,3,1994,NA,1,1.71777908255103,1.85020395780078,2.11688403676572,1.95173420121315,FALSE,0.725047272949611
"CAN","cpi",0.1,1995,3,1994,NA,1.5,-1.96429015852564,-1.83186528327589,2.11688403676572,-2.17983456081826,FALSE,8.90742336423109
"CAN","cpi",0.1,1996,3,1996,NA,0,1.36742416953392,1.41429238788784,1.55309584667184,1.44166889374788,FALSE,0.355320348985039
"CAN","cpi",0.1,1996,3,1996,NA,0.5,2.19769392348922,2.41732428466597,1.55309584667184,1.36236766996786,FALSE,1.65207053188203
"CAN","cpi",0.1,1996,3,1995,NA,1,0.589619976736623,0.873938002782831,1.55309584667184,0.911474268150699,FALSE,1.7935576791329
"CAN","cpi",0.1,1996,3,1995,NA,1.5,4.41681986132125,4.70113788736746,1.55309584667184,3.98784768949811,FALSE,6.64814916971156
"CAN","cpi",0.1,1997,3,1997,NA,0,1.30062294247879,1.34328076936276,1.60528783555959,1.68811714545079,FALSE,0.624895751765818
"CAN","cpi",0.1,1997,3,1997,NA,0.5,2.49078857470766,2.69345671072302,1.60528783555959,2.10620867662285,FALSE,2.1704475563444
"CAN","cpi",0.1,1997,3,1996,NA,1,0.707633251166506,0.910301387181868,1.60528783555959,0.758460286059383,FALSE,1.74708246574364
"CAN","cpi",0.1,1997,3,1996,NA,1.5,1.90809269278267,2.11076082879803,1.60528783555959,1.66287852692671,FALSE,0.875567818733313
"CAN","cpi",0.1,1998,3,1998,NA,0,1.07915385524075,1.10787681009107,0.988908029337191,0.970744023070627,FALSE,0.229269234636006
"CAN","cpi",0.1,1998,3,1998,NA,0.5,2.06516714698619,2.27144221581208,0.988908029337191,1.52096865004292,FALSE,2.59796199693478
"CAN","cpi",0.1,1998,3,1997,NA,1,0.980828392066879,1.18710346089276,0.988908029337191,1.03996058978499,TRUE,0.206275068825885
"CAN","cpi",0.1,1998,3,1997,NA,1.5,2.37579851693269,2.58207358575857,0.988908029337191,2.22059574107629,FALSE,3.28825393014921
"CAN","cpi",0.1,1999,3,1999,NA,0,1.1903883735117,1.21989543959784,1.7107350135213,1.79141464940687,FALSE,1.12026167480493
"CAN","cpi",0.1,1999,3,1999,NA,0.5,1.33513739884231,1.4834211360575,1.7107350135213,0.800552372711202,FALSE,0.653425687134735
"CAN","cpi",0.1,1999,3,1998,NA,1,0.598293496547135,0.746577233762319,1.7107350135213,0.474525424909611,FALSE,2.29085658112402
"CAN","cpi",0.1,1999,3,1998,NA,1.5,2.33775163247468,2.48603536968987,1.7107350135213,2.19776497346126,FALSE,1.54165400155605
"CAN","cpi",0.1,2000,3,2000,NA,0,1.70943944542525,1.75073371702444,2.6718361971244,2.73388860624727,FALSE,2.08818867182132
"CAN","cpi",0.1,2000,3,2000,NA,0.5,2.4893044585324,2.74453570861591,2.6718361971244,2.11525832235237,TRUE,0.255231250083519
"CAN","cpi",0.1,2000,3,1999,NA,1,2.35844697189459,2.63258107302939,2.6718361971244,2.81438082878813,FALSE,0.361367710234819
"CAN","cpi",0.1,2000,3,1999,NA,1.5,1.05240283183641,1.32653693297121,2.6718361971244,0.872413614651861,FALSE,3.26368802147521
"CAN","cpi",0.1,2001,3,2001,NA,0,1.98897223890275,2.03298286427646,2.47906219852806,2.73506715681632,FALSE,1.03529803482171
"CAN","cpi",0.1,2001,3,2001,NA,0.5,2.58225000266625,2.83703878390464,2.47906219852806,1.72363549629744,FALSE,0.484095012656581
"CAN","cpi",0.1,2001,3,2000,NA,1,3.10696866380819,3.36175744504658,2.47906219852806,3.73995761394105,FALSE,1.65013648186089
"CAN","cpi",0.1,2001,3,2000,NA,1.5,2.14462643135639,2.39941521259478,2.47906219852806,1.98299961497232,FALSE,0.431782083312353
"CAN","cpi",0.1,2002,3,2002,NA,0,1.7930298239846,1.8439012623728,2.20880570551249,2.3500140093739,FALSE,0.861770200920841
"CAN","cpi",0.1,2002,3,2002,NA,0.5,2.40630732503516,2.59447784843626,2.20880570551249,1.47074452365548,FALSE,0.627063011229266
"CAN","cpi",0.1,2002,3,2001,NA,1,0.820858132312704,1.09730652560946,2.20880570551249,0.79597273109289,FALSE,2.74644657085904
"CAN","cpi",0.1,2002,3,2001,NA,1.5,1.02213286298164,1.2985812562784,2.20880570551249,0.827019109774735,FALSE,2.29916939159473
"CAN","cpi",0.1,2003,3,2003,NA,0,1.84807407179618,1.89577213579783,2.71189071546809,2.76866538316948,FALSE,1.86129490771333
"CAN","cpi",0.1,2003,3,2003,NA,0.5,4.44996749200123,4.71093104508504,2.71189071546809,4.59645517963757,FALSE,4.12335638982412
"CAN","cpi",0.1,2003,3,2002,NA,1,3.55210116739093,3.86747270142182,2.71189071546809,4.33746529644743,FALSE,2.1825058716372
"CAN","cpi",0.1,2003,3,2002,NA,1.5,2.73788912310145,3.05326065713234,2.71189071546809,2.71468890277684,FALSE,0.373145773216137
"CAN","cpi",0.1,2004,3,2004,NA,0,1.66288796581107,1.70861380902888,1.83151661303942,1.7684769390021,FALSE,0.31884318546346
"CAN","cpi",0.1,2004,3,2004,NA,0.5,2.49518572075699,2.7241862157705,1.83151661303942,1.5625176897836,FALSE,1.70382073438589
"CAN","cpi",0.1,2004,3,2003,NA,1,1.35953969486309,1.59242537368243,1.83151661303942,1.41754396673829,FALSE,0.764199544057109
"CAN","cpi",0.1,2004,3,2003,NA,1.5,5.30172120909277,5.53460688791211,1.83151661303942,5.32651436309904,FALSE,7.94445144782677
"CAN","cpi",0.1,2005,3,2005,NA,0,1.62856742803919,1.66431996273935,2.18071628336509,2.38196957660787,FALSE,1.18329991386847
"CAN","cpi",0.1,2005,3,2005,NA,0.5,2.18935710322973,2.37873995550454,2.18071628336509,1.57253942332725,FALSE,0.208584674196237
"CAN","cpi",0.1,2005,3,2004,NA,1,1.05803637126406,1.25210184248163,2.18071628336509,0.993232956459974,FALSE,2.25765311762526
"CAN","cpi",0.1,2005,3,2004,NA,1.5,2.1834848876373,2.37755035885488,2.18071628336509,2.05989686108521,FALSE,0.200217925155825
"CAN","cpi",0.1,2006,3,2006,NA,0,1.6135325722095,1.65750002103811,1.97519342012289,2.0667253719809,FALSE,0.749952780128113
"CAN","cpi",0.1,2006,3,2006,NA,0.5,2.55877462822394,2.78444252126059,1.97519342012289,1.93779395271753,FALSE,1.52251502215011
"CAN","cpi",0.1,2006,3,2005,NA,1,2.9027480164206,3.19120232077188,1.97519342012289,3.47726378201784,FALSE,2.34968674056843
"CAN","cpi",0.1,2006,3,2005,NA,1.5,1.54913479393828,1.83758909828957,1.97519342012289,1.38669164389589,FALSE,0.5942416862031
"CAN","cpi",0.1,2007,3,2007,NA,0,1.56626457791128,1.60335132887865,2.10062087284572,2.10807340507977,FALSE,1.14213018200531
"CAN","cpi",0.1,2007,3,2007,NA,0.5,2.78447240651197,2.9974508499879,2.10062087284572,2.41912196921498,FALSE,1.73264851828981
"CAN","cpi",0.1,2007,3,2006,NA,1,0.692751556854358,0.92699739721912,2.10062087284572,0.502333085291807,FALSE,2.84229800842388
"CAN","cpi",0.1,2007,3,2006,NA,1.5,2.04159207726302,2.27583791762778,2.10062087284572,1.9704266811846,TRUE,0.234245840364762
"CAN","cpi",0.1,2008,3,2008,NA,0,1.89005125844689,1.93373964877283,2.31447335265955,2.95401501251803,FALSE,0.889763287851982
"CAN","cpi",0.1,2008,3,2008,NA,0.5,1.94746462365709,2.15693989748785,2.31447335265955,1.1596607753752,FALSE,0.559549618656757
"CAN","cpi",0.1,2008,3,2007,NA,1,0.690707844930554,0.900183118761312,2.31447335265955,0.365030180386173,FALSE,3.35234246027129
"CAN","cpi",0.1,2008,3,2007,NA,1.5,3.59321897211671,3.80269424594746,2.31447335265955,3.74970428078329,FALSE,3.05113220595777
"CAN","cpi",0.1,2009,3,2009,NA,0,1.05195110337052,1.0793679415144,0.284533874408197,0.277323060325678,FALSE,1.73278845806015
"CAN","cpi",0.1,2009,3,2009,NA,0.5,0.621600251459528,0.843542958414662,0.284533874408197,-0.926841850998946,FALSE,0.970979100402535
"CAN","cpi",0.1,2009,3,2008,NA,1,3.73171774433522,4.01496277572241,0.284533874408197,4.39167027484448,FALSE,7.94365363122502
"CAN","cpi",0.1,2009,3,2008,NA,1.5,1.50830692785622,1.79155195924341,0.284533874408197,1.30718110670587,FALSE,3.00274070571613
"CAN","cpi",0.1,2010,3,2010,NA,0,0.975391193198254,0.992323024062516,1.75525687020327,1.74893097969613,FALSE,1.71234037784372
"CAN","cpi",0.1,2010,3,2010,NA,0.5,1.6842589699503,1.77084838063507,1.75525687020327,1.60514557059791,TRUE,0.0865894106847769
"CAN","cpi",0.1,2010,3,2009,NA,1,0.842783120296879,0.929372530981655,1.75525687020327,0.646877121410091,FALSE,1.92188794228837
"CAN","cpi",0.1,2010,3,2009,NA,1.5,-0.691762143626539,-0.605172732941763,1.75525687020327,-1.29107136836179,FALSE,5.33198852878485
"CAN","cpi",0.1,2011,3,2011,NA,0,1.76776815378716,1.80798385600725,2.85717434028225,2.83658425111878,FALSE,2.37175011172009
"CAN","cpi",0.1,2011,3,2011,NA,0.5,2.99828094385957,3.21116929610263,2.85717434028225,2.89516877702572,FALSE,0.526458582414896
"CAN","cpi",0.1,2011,3,2010,NA,1,2.08422132464344,2.3116783999436,2.85717434028225,2.19120159589417,FALSE,1.43967027605271
"CAN","cpi",0.1,2011,3,2010,NA,1.5,2.10844883579573,2.33590591109588,2.85717434028225,1.9636150267392,FALSE,1.38583136238097
"CAN","cpi",0.1,2012,3,2012,NA,0,1.61745547556385,1.65861978634385,1.50118536134935,1.46012306845465,FALSE,0.299542342367781
"CAN","cpi",0.1,2012,3,2012,NA,0.5,2.59258391543454,2.87700134253309,1.50118536134935,1.81318735388827,FALSE,2.70974754728787
"CAN","cpi",0.1,2012,3,2011,NA,1,1.35401624593141,1.64122711062095,1.50118536134935,1.0674603716489,TRUE,0.28721086468954
"CAN","cpi",0.1,2012,3,2011,NA,1.5,3.31530889412742,3.60251975881697,1.50118536134935,3.26492178435033,FALSE,4.31859649308527
"CAN","cpi",0.1,2013,3,2013,NA,0,1.08929639423093,1.12072418377261,0.931270594714462,1.03964630394149,FALSE,0.3825962329116
"CAN","cpi",0.1,2013,3,2013,NA,0.5,1.73720798170395,1.89208848122341,0.931270594714462,1.16522799725517,FALSE,1.94585247060721
"CAN","cpi",0.1,2013,3,2012,NA,1,0.12166619889091,0.276546698410372,0.931270594714462,-0.4587869493051,FALSE,1.60982249130633
"CAN","cpi",0.1,2013,3,2012,NA,1.5,2.05405967193321,2.20894017145267,0.931270594714462,1.87018597092114,FALSE,2.64996733778334
"CAN","cpi",0.1,2014,3,2014,NA,0,1.24539704612333,1.27595060660461,1.87639912240215,1.98941686448128,FALSE,1.36488359558693
"CAN","cpi",0.1,2014,3,2014,NA,0.5,2.26251324157126,2.43091193676512,1.87639912240215,2.28534818047506,FALSE,1.0264300711252
"CAN","cpi",0.1,2014,3,2013,NA,1,1.11808626585076,1.28648496104462,1.87639912240215,0.933988257976399,FALSE,1.47931905376614
"CAN","cpi",0.1,2014,3,2013,NA,1.5,1.83670461351392,2.00510330870778,1.87639912240215,1.74432822228681,TRUE,0.168398695193859
"CAN","cpi",0.1,2015,3,2015,NA,0,1.26451045346369,1.29764083573907,1.11090953952792,1.2616807067513,FALSE,0.3744657465771
"CAN","cpi",0.1,2015,3,2015,NA,0.5,1.15310111195069,1.34674720237382,1.11090953952792,0.218363095132572,FALSE,0.287405140251517
"CAN","cpi",0.1,2015,3,2014,NA,1,1.01638083817092,1.21002692859405,1.11090953952792,0.62327975322943,TRUE,0.193646090423128
"CAN","cpi",0.1,2015,3,2014,NA,1.5,3.52813557050806,3.72178166093118,1.11090953952792,3.54844533129153,FALSE,5.56525949260121
"CAN","cpi",0.1,2016,3,2016,NA,0,1.10462352212388,1.13314399613774,1.41168586698797,1.44403049252289,FALSE,0.647502409236585
"CAN","cpi",0.1,2016,3,2016,NA,0.5,1.404653242979,1.58473442183732,1.41168586698797,0.943700860843074,TRUE,0.18008117885832
"CAN","cpi",0.1,2016,3,2015,NA,1,1.68851526099696,1.86859643985528,1.41168586698797,1.65805837950254,FALSE,0.795257609989419
"CAN","cpi",0.1,2016,3,2015,NA,1.5,0.590144073242382,0.770225252100702,1.41168586698797,0.212753204814446,FALSE,1.60554921194113
"CAN","cpi",0.1,2017,3,2017,NA,0,1.22047936542304,1.25238586089856,1.57888581671161,1.52172534057668,FALSE,0.75746195283785
"CAN","cpi",0.1,2017,3,2017,NA,0.5,2.30564377651358,2.49316662598876,1.57888581671161,2.17995751143343,FALSE,1.802540537924
"CAN","cpi",0.1,2017,3,2016,NA,1,0.837891418517405,1.02541426799258,1.57888581671161,0.478660156386378,FALSE,1.41745962440636
"CAN","cpi",0.1,2017,3,2016,NA,1.5,1.28546812179224,1.47299097126741,1.57888581671161,1.04780579189651,FALSE,0.422844728240064
"CAN","cpi",0.1,2018,3,2018,NA,0,1.57484531997676,1.61352035827236,2.23316270166586,2.42606863838048,FALSE,1.41565802361449
"CAN","cpi",0.1,2018,3,2018,NA,0.5,2.87356229263403,3.0821024684408,2.23316270166586,3.02101124054505,FALSE,1.63165037795826
"CAN","cpi",0.1,2018,3,2017,NA,1,0.911811958560413,1.12035213436718,2.23316270166586,0.52369802733857,FALSE,2.68145254758161
"CAN","cpi",0.1,2018,3,2017,NA,1.5,2.9341002335021,3.14264040930886,2.23316270166586,3.08408184322128,FALSE,1.76617913544285
"CAN","cpi",0.1,2019,3,2019,NA,0,1.6234347345271,1.66246567132061,1.91921619871868,2.02292335146186,FALSE,0.609587664344776
"CAN","cpi",0.1,2019,3,2019,NA,0.5,2.20658039854396,2.47740458401375,1.91921619871868,1.7605507439285,FALSE,0.909411296192633
"CAN","cpi",0.1,2019,3,2018,NA,1,2.05083429371697,2.32165847918677,1.91921619871868,1.97136692329685,FALSE,0.56330884102155
"CAN","cpi",0.1,2019,3,2018,NA,1.5,3.89752914947183,4.16835333494163,1.91921619871868,4.13001487917394,FALSE,4.66707518714346
"CAN","cpi",0.1,2020,3,2020,NA,0,1.10368361139289,1.12950569528178,0.71139989671781,0.748237853268385,FALSE,0.897563672055737
"CAN","cpi",0.1,2020,3,2020,NA,0.5,1.70449352373429,1.96055851669905,0.71139989671781,1.20638084891419,FALSE,2.46293971966805
"CAN","cpi",0.1,2020,3,2019,NA,1,1.54242513933585,1.79849013230061,0.71139989671781,1.33625965438418,FALSE,2.10278775433818
"CAN","cpi",0.1,2020,3,2019,NA,1.5,2.49630056110478,2.75236555406954,0.71139989671781,2.47827605395127,FALSE,4.2225109138247
"CAN","cpi",0.1,2021,3,2021,NA,0,1.62591860574742,1.67256215698423,3.31148121717802,3.36073739108717,FALSE,3.68868590722302
"CAN","cpi",0.1,2021,3,2021,NA,0.5,2.41041379595706,2.60667292400232,3.31148121717802,2.87786599282032,FALSE,1.76249977954683
"CAN","cpi",0.1,2021,3,2020,NA,1.5,1.46541849953816,1.66167762758342,3.31148121717802,1.36315122932478,FALSE,3.86248932714438
"CAN","cpi",0.1,2022,3,2022,NA,0,3.44274998657737,3.52757341689376,6.50977236228281,6.58141742776733,FALSE,6.71193219784762
"CAN","cpi",0.1,2022,3,2022,NA,0.5,5.53520671694862,6.0699117766717,6.50977236228281,6.74293883776587,FALSE,1.51217302774777
"CAN","cpi",0.1,2022,3,2021,NA,1,4.14144475832581,4.67614981804889,6.50977236228281,4.82564214996571,FALSE,4.60942182468735
"CAN","cpi",0.1,2022,3,2021,NA,1.5,3.71282891294133,4.2475339726644,6.50977236228281,3.93575064315212,FALSE,5.56190148109732
"CAN","cpi",0.1,2023,3,2023,NA,0,3.50328006498533,3.6079253700263,3.78831288758619,4.01453285616146,FALSE,0.50550645517406
"CAN","cpi",0.1,2023,3,2023,NA,0.5,4.21886320236653,4.91392430665755,3.78831288758619,3.07888421739245,FALSE,1.65183958158067
"CAN","cpi",0.1,2023,3,2022,NA,1,3.86955289950038,4.5646140037914,3.78831288758619,3.85673280569707,FALSE,0.875594464100319
"CAN","cpi",0.1,2023,3,2022,NA,1.5,7.3724662336121,8.06752733790312,3.78831288758619,8.07292283446253,FALSE,8.65984631768193
"CAN","cpi",0.1,2024,3,2023,NA,1,3.87119573254459,4.27965779296303,NA,4.07504753996503,NA,NA
"CAN","cpi",0.1,2024,3,2023,NA,1.5,2.53588357289293,2.94434563331136,NA,2.41529048319689,NA,NA
"CAN","cpi",0.2,1952,3,1952,NA,0,-21.9094258449624,-12.5206577382239,2.55562336095485,2.49651395855886,FALSE,47.0794708546853
"CAN","cpi",0.2,1952,3,1952,NA,0.5,-17.317115702397,-7.92834759565851,2.55562336095485,3.9078404779387,FALSE,35.5986954982719
"CAN","cpi",0.2,1952,3,1951,NA,1,8.89212147641032,18.2808895831488,2.55562336095485,8.88778808098424,FALSE,25.2300133953772
"CAN","cpi",0.2,1952,3,1951,NA,1.5,-22.1311798100667,-12.7424117033283,2.55562336095485,10.076419411745,FALSE,47.6338557674462
"CAN","cpi",0.2,1953,3,1953,NA,0,-0.456499263885322,-1.30281631617336,-1.01492775838436,-0.954275034924989,FALSE,1.26947557843205
"CAN","cpi",0.2,1953,3,1953,NA,0.5,-15.1042317749725,-15.9505488272605,-1.01492775838436,-2.19876634474816,FALSE,36.4927356199024
"CAN","cpi",0.2,1953,3,1952,NA,1,-13.5450031077755,-14.3913201600635,-1.01492775838436,-1.18145267469342,FALSE,32.5946639519099
"CAN","cpi",0.2,1953,3,1952,NA,1.5,-17.724560074686,-16.8631331072686,-1.01492775838436,0.93216905581622,FALSE,40.481940339628
"CAN","cpi",0.2,1954,3,1954,NA,0,0.894226173140187,0.725118043813147,0.644425455961438,0.879731201855888,FALSE,0.455393663619832
"CAN","cpi",0.2,1954,3,1954,NA,0.5,1.03035465272346,0.861246523396424,0.644425455961438,-0.358875738913824,FALSE,0.795714862578024
"CAN","cpi",0.2,1954,3,1953,NA,1,10.7510911370141,11.2623318836383,0.644425455961438,3.38326531029323,FALSE,25.7779049492559
"CAN","cpi",0.2,1954,3,1953,NA,1.5,-5.93121792355501,-5.41997717693079,0.644425455961438,-2.85717744192413,FALSE,15.6722473288548
"CAN","cpi",0.2,1955,3,1955,NA,0,0.47267998013539,0.465694419388061,0.173649026558865,0.115254687233858,FALSE,0.740591823193983
"CAN","cpi",0.2,1955,3,1955,NA,0.5,-0.92776952829703,-0.934755089044358,0.173649026558865,-0.770970046821609,FALSE,2.76402472826073
"CAN","cpi",0.2,1955,3,1954,NA,1,8.47633657143754,10.1873983545722,0.173649026558865,3.47019599757395,FALSE,22.4677806453313
"CAN","cpi",0.2,1955,3,1954,NA,1.5,-11.3173593820596,-9.60629759892493,0.173649026558865,-1.89562740163941,FALSE,26.1609283468441
"CAN","cpi",0.2,1956,3,1956,NA,0,1.06093015096101,1.02284894067088,1.32752769429961,1.56059797998755,FALSE,0.723615673781699
"CAN","cpi",0.2,1956,3,1956,NA,0.5,-0.391657723093542,-0.429738933383675,1.32752769429961,-0.709146002056511,FALSE,4.35508535891807
"CAN","cpi",0.2,1956,3,1955,NA,1,1.70137464286467,2.20741417908061,1.32752769429961,0.884549626974225,FALSE,1.44065690762859
"CAN","cpi",0.2,1956,3,1955,NA,1.5,-6.76636274267913,-6.26032320646318,1.32752769429961,-1.89150615642833,FALSE,19.4756667881229
"CAN","cpi",0.2,1957,3,1957,NA,0,1.83569331692027,2.10371662274549,3.24684755852518,3.4151370317006,FALSE,3.12585064527444
"CAN","cpi",0.2,1957,3,1957,NA,0.5,3.13363412567699,4.47232194159963,3.24684755852518,2.23982631608766,TRUE,1.33868781592264
"CAN","cpi",0.2,1957,3,1956,NA,1,10.0730442605481,13.5346297678155,3.24684755852518,6.98754636690555,FALSE,20.5270772623247
"CAN","cpi",0.2,1957,3,1956,NA,1.5,-11.6569745503198,-8.19538904305238,3.24684755852518,-1.88668623310337,FALSE,32.0671770112113
"CAN","cpi",0.2,1958,3,1958,NA,0,1.77607992083975,1.97229015007508,2.33186388641149,2.22387249143335,FALSE,1.09514457007636
"CAN","cpi",0.2,1958,3,1958,NA,0.5,3.65603966403084,5.02460638349952,2.33186388641149,2.22839060734872,FALSE,4.67900616351706
"CAN","cpi",0.2,1958,3,1957,NA,1,1.91274977983849,4.95206427239296,2.33186388641149,4.42088197051908,TRUE,3.03931449255447
"CAN","cpi",0.2,1958,3,1957,NA,1.5,-13.2049242440402,-10.1656097514857,2.33186388641149,0.91301479707402,FALSE,34.2829985872974
"CAN","cpi",0.2,1959,3,1959,NA,0,1.25974657001318,1.40835388388297,1.19382698397654,1.24991216431293,FALSE,0.313406278961391
"CAN","cpi",0.2,1959,3,1959,NA,0.5,1.51967765247844,2.08386039492974,1.19382698397654,0.437839731590327,FALSE,1.37880941370605
"CAN","cpi",0.2,1959,3,1958,NA,1,-0.296329078719648,1.19706845673025,1.19382698397654,1.75862762885946,TRUE,1.4933975354499
"CAN","cpi",0.2,1959,3,1958,NA,1.5,-7.45009548637704,-5.95669795092714,1.19382698397654,1.77407172713766,FALSE,19.3697098727091
"CAN","cpi",0.2,1960,3,1960,NA,0,0.922505679256217,1.03468394857031,1.34209404870695,1.02361304259477,FALSE,0.880703519655697
"CAN","cpi",0.2,1960,3,1960,NA,0.5,1.4432518980245,1.75770176402648,1.34209404870695,0.53898348018166,FALSE,0.567344489295856
"CAN","cpi",0.2,1960,3,1959,NA,1,3.25625656413477,4.81050001587347,1.34209404870695,3.95759373689442,FALSE,6.33964974030825
"CAN","cpi",0.2,1960,3,1959,NA,1.5,-6.00202525719112,-4.44778180545241,1.34209404870695,-0.873476815404885,FALSE,16.0289330871371
"CAN","cpi",0.2,1961,3,1961,NA,0,0.979541863135266,1.11280348012669,1.00921348094007,1.00921348094007,TRUE,0.133261616991419
"CAN","cpi",0.2,1961,3,1961,NA,0.5,1.90129606930648,2.23535936843076,1.00921348094007,1.00921348094007,FALSE,2.5642697700403
"CAN","cpi",0.2,1961,3,1960,NA,1,-0.725598510164918,-0.306787123273847,1.00921348094007,0.0537704626035329,FALSE,3.70881289742587
"CAN","cpi",0.2,1961,3,1960,NA,1.5,-5.03268312373769,-4.61387173684662,1.00921348094007,-0.862181798940035,FALSE,14.4765244313578
"CAN","cpi",0.2,1962,3,1962,NA,0,0.947541479142816,1.07135139147873,1.04957947883042,1.10232402731478,TRUE,0.123809912335913
"CAN","cpi",0.2,1962,3,1962,NA,0.5,0.815631942981021,1.0328927053521,1.04957947883042,0,FALSE,0.258977696066874
"CAN","cpi",0.2,1962,3,1961,NA,1,-0.234023589864996,-0.0167628274939216,1.04957947883042,0,FALSE,2.88311652818192
"CAN","cpi",0.2,1962,3,1961,NA,1.5,-2.94124732098326,-2.72398655861219,1.04957947883042,0,FALSE,9.65117585597758
"CAN","cpi",0.2,1963,3,1963,NA,0,1.25366035094044,1.39880132635246,1.60677118395228,1.91491729531202,FALSE,0.665065619411582
"CAN","cpi",0.2,1963,3,1963,NA,0.5,1.5696460778885,1.87330889659314,1.60677118395228,0.836828714617504,TRUE,0.303662818704638
"CAN","cpi",0.2,1963,3,1962,NA,1,2.00347788535559,2.64041755023328,1.60677118395228,2.56411490415144,FALSE,1.62870641838596
"CAN","cpi",0.2,1963,3,1962,NA,1.5,-2.30043483628665,-1.66349517140895,1.60677118395228,0,FALSE,8.81260555328079
"CAN","cpi",0.2,1964,3,1964,NA,0,1.38989251899704,1.55479493491367,1.88764670034376,1.98877256446048,FALSE,0.997031829491855
"CAN","cpi",0.2,1964,3,1964,NA,0.5,2.21773843875343,2.56668494607604,1.88764670034376,1.38369006227607,FALSE,1.17417585334679
"CAN","cpi",0.2,1964,3,1963,NA,1,4.30995447467895,5.04185889550881,1.88764670034376,5.39044290347256,FALSE,6.78767385666784
"CAN","cpi",0.2,1964,3,1963,NA,1.5,-2.69919324641286,-1.967288825583,1.88764670034376,0,FALSE,10.3692432356468
"CAN","cpi",0.2,1965,3,1965,NA,0,1.57534614915311,1.72833491441658,2.29538304394236,2.34557047418999,FALSE,1.57060908907791
"CAN","cpi",0.2,1965,3,1965,NA,0.5,2.47410282583171,2.82415998941579,2.29538304394236,1.61079447956654,FALSE,0.796856618307463
"CAN","cpi",0.2,1965,3,1964,NA,1,1.72131113659092,2.15213543270625,2.29538304394236,2.42518862179847,FALSE,0.788943324205587
"CAN","cpi",0.2,1965,3,1964,NA,1.5,-1.63084270353357,-1.20001840741824,2.29538304394236,0.818102552316399,FALSE,9.16932792451682
"CAN","cpi",0.2,1966,3,1966,NA,0,2.21292399545062,2.39783258439387,3.72486065470629,3.82010987863709,FALSE,3.5024787647243
"CAN","cpi",0.2,1966,3,1966,NA,0.5,4.43704419899018,4.9355302679607,3.72486065470629,3.99123398895563,FALSE,2.27894492968025
"CAN","cpi",0.2,1966,3,1965,NA,1,2.34948882120705,3.18362397260274,3.72486065470629,3.20722068745854,FALSE,2.18722685665457
"CAN","cpi",0.2,1966,3,1965,NA,1.5,-1.0047599278489,-0.170624776453208,3.72486065470629,1.60663824631958,FALSE,10.5728487292944
"CAN","cpi",0.2,1967,3,1967,NA,0,2.52978617081121,2.73685891290981,3.49360316391996,3.76768849328632,FALSE,2.09893336962398
"CAN","cpi",0.2,1967,3,1967,NA,0.5,3.71613380313485,4.15272971644705,3.49360316391996,2.4074547441976,FALSE,0.992922511349431
"CAN","cpi",0.2,1967,3,1966,NA,1,2.35002605830408,3.14824895398016,3.49360316391996,3.18103323070284,FALSE,1.66160842052559
"CAN","cpi",0.2,1967,3,1966,NA,1.5,1.93171011339137,2.72993300906745,3.49360316391996,4.65128160487248,FALSE,2.70739828280735
"CAN","cpi",0.2,1968,3,1968,NA,0,2.59584388601749,2.78805719188097,3.95128347779386,4.17287945672396,FALSE,3.1002790206457
"CAN","cpi",0.2,1968,3,1968,NA,0.5,4.89136498075268,5.46813470545545,3.95128347779386,4.07097205779852,FALSE,2.92697348209983
"CAN","cpi",0.2,1968,3,1967,NA,1,4.80896018608243,6.09219612405946,3.95128347779386,5.84521682123848,FALSE,3.42742770869846
"CAN","cpi",0.2,1968,3,1967,NA,1.5,0.205958792552931,1.48919473052997,3.95128347779386,2.25565858240226,FALSE,7.43845780613676
"CAN","cpi",0.2,1969,3,1969,NA,0,2.86431712324957,3.05865136763632,4.42679496126681,4.59520664360618,FALSE,3.61469322846298
"CAN","cpi",0.2,1969,3,1969,NA,0.5,4.23450570492043,4.78127318942779,4.42679496126681,2.96612019395715,TRUE,0.54676748450736
"CAN","cpi",0.2,1969,3,1968,NA,1,5.37720894229929,7.19180737542163,4.42679496126681,6.72487630040807,FALSE,4.19063338570352
"CAN","cpi",0.2,1969,3,1968,NA,1.5,2.78708236643114,4.60168079955349,4.42679496126681,4.31664452944541,TRUE,1.81459843312235
"CAN","cpi",0.2,1970,3,1970,NA,0,2.63500122380194,2.80662627435677,3.28128405769805,3.60761538249925,FALSE,1.35826950890802
"CAN","cpi",0.2,1970,3,1970,NA,0.5,5.50354469440104,6.19735146746152,3.28128405769805,4.36016077421692,FALSE,6.24945836481797
"CAN","cpi",0.2,1970,3,1969,NA,1,3.82880480458641,5.50845534429035,3.28128405769805,4.91369447805135,FALSE,3.04845240692484
"CAN","cpi",0.2,1970,3,1969,NA,1.5,-0.169699109408586,1.50995143029535,3.28128405769805,2.07973847283129,FALSE,6.10798210821068
"CAN","cpi",0.2,1971,3,1971,NA,0,2.09084007871063,2.26003780983728,2.64123406634756,2.91872900980337,FALSE,1.12218837240236
"CAN","cpi",0.2,1971,3,1971,NA,0.5,2.77521334543017,3.15908617854782,2.64123406634756,1.38357105636307,FALSE,0.718821030824168
"CAN","cpi",0.2,1971,3,1970,NA,1,2.41759010541096,3.72762913760776,2.64123406634756,3.17686610979278,TRUE,1.31003903219679
"CAN","cpi",0.2,1971,3,1970,NA,1.5,4.41520608080668,5.97994683755604,2.64123406634756,4.62066312326275,FALSE,5.99967079289716
"CAN","cpi",0.2,1972,3,1972,NA,0,2.72258936266424,2.90032780059758,4.83230569625923,5.17210692165851,FALSE,5.00768317708746
"CAN","cpi",0.2,1972,3,1972,NA,0.5,5.14480657828128,5.90870745581603,4.83230569625923,4.76224255478946,FALSE,1.54515308258988
"CAN","cpi",0.2,1972,3,1971,NA,1,6.0397510043603,7.68042516431775,4.83230569625923,6.83863498061675,FALSE,4.65928743021012
"CAN","cpi",0.2,1972,3,1971,NA,1.5,1.38833868279545,3.0290128427529,4.83230569625923,1.95441162589064,FALSE,6.14890629372328
"CAN","cpi",0.2,1973,3,1973,NA,0,4.05691951573495,4.32721516444384,7.12388603531779,7.41057825703995,FALSE,7.26197282589376
"CAN","cpi",0.2,1973,3,1973,NA,0.5,7.06624270029108,8.02155055314772,7.12388603531779,6.24191401313708,TRUE,0.955307852856638
"CAN","cpi",0.2,1973,3,1972,NA,1,6.63494984685626,9.20743574736766,7.12388603531779,8.12590883681935,TRUE,2.57248590051141
"CAN","cpi",0.2,1973,3,1972,NA,1.5,4.96181850701058,7.53430440752199,7.12388603531779,4.96130694391223,TRUE,2.57248590051141
"CAN","cpi",0.2,1974,3,1974,NA,0,5.57993027200065,6.0153061120204,10.2717243737774,10.2919804098732,FALSE,11.0764214944123
"CAN","cpi",0.2,1974,3,1974,NA,0.5,10.0706645444125,11.5457736859131,10.2717243737774,9.01679902243293,TRUE,1.47510914150064
"CAN","cpi",0.2,1974,3,1973,NA,1,9.03287059996929,12.3743408599936,10.2717243737774,11.5076386824751,TRUE,3.34147026002433
"CAN","cpi",0.2,1974,3,1973,NA,1.5,7.43386105369697,10.7753313137213,10.2717243737774,7.03851017911898,TRUE,3.34147026002433
"CAN","cpi",0.2,1975,3,1975,NA,0,6.22750559984716,6.70584859454289,10.0232981493341,10.3166994702432,FALSE,8.7719668816738
"CAN","cpi",0.2,1975,3,1975,NA,0.5,11.1626440681534,12.8272645748857,10.0232981493341,8.87817825771755,FALSE,4.51298530378045
"CAN","cpi",0.2,1975,3,1974,NA,1,7.37615858864375,10.2842034154893,10.0232981493341,11.6634485116586,TRUE,2.90804482684559
"CAN","cpi",0.2,1975,3,1974,NA,1.5,9.33340349271802,13.6558169795218,10.0232981493341,9.09165939347615,TRUE,4.32241348680375
"CAN","cpi",0.2,1976,3,1976,NA,0,5.17091933462958,5.62102985356508,7.22784311401172,7.25911367403926,FALSE,4.46714367005209
"CAN","cpi",0.2,1976,3,1976,NA,0.5,9.58352976558045,11.4684888798912,7.22784311401172,7.22502565269042,FALSE,7.77417574323259
"CAN","cpi",0.2,1976,3,1975,NA,1,7.06972760897891,9.59855035419933,7.22784311401172,12.4780790437784,TRUE,2.52882274522041
"CAN","cpi",0.2,1976,3,1975,NA,1.5,5.64503397708568,8.17385672230609,7.22784311401172,7.18586013837568,TRUE,2.52882274522041
"CAN","cpi",0.2,1977,3,1977,NA,0,4.59443289529066,4.95762794167341,7.58101410153764,7.59139014959698,FALSE,6.92166044604334
"CAN","cpi",0.2,1977,3,1977,NA,0.5,8.60783362099717,10.0867550426077,7.58101410153764,7.25038656554249,FALSE,4.04597022025938
"CAN","cpi",0.2,1977,3,1976,NA,1,2.92328814872939,4.94517293515764,7.58101410153764,5.92994518665441,FALSE,8.61148770237826
"CAN","cpi",0.2,1977,3,1976,NA,1.5,4.33538936114211,7.6737882127959,7.58101410153764,5.68954314963938,TRUE,3.33839885165379
"CAN","cpi",0.2,1978,3,1978,NA,0,5.05367332004371,5.43225833304772,8.50208927062595,8.68881076810062,FALSE,8.05316235694958
"CAN","cpi",0.2,1978,3,1978,NA,0.5,9.55614817054753,11.118331472935,8.50208927062595,8.11208508764938,FALSE,4.19733055219144
"CAN","cpi",0.2,1978,3,1977,NA,1,4.62322454742931,6.77338392423938,8.50208927062595,8.34671923233743,FALSE,6.47192274277648
"CAN","cpi",0.2,1978,3,1977,NA,1.5,7.59688563033847,11.435991597564,8.50208927062595,8.21410731625775,TRUE,3.83910596722556
"CAN","cpi",0.2,1979,3,1979,NA,0,5.1929848197997,5.66699469829208,8.65147652410481,8.56136533364911,FALSE,7.93521444302421
"CAN","cpi",0.2,1979,3,1979,NA,0.5,10.0891740878235,11.7332955386498,8.65147652410481,8.23092589685401,FALSE,5.23836536012292
"CAN","cpi",0.2,1979,3,1978,NA,1,5.38982002890561,7.70707473825347,8.65147652410481,9.66481845899329,FALSE,4.67825917397621
"CAN","cpi",0.2,1979,3,1978,NA,1.5,7.78174414264218,11.0002748222566,8.65147652410481,7.91014806370246,TRUE,3.2185306796144
"CAN","cpi",0.2,1980,3,1980,NA,0,5.52553312627026,5.99281674737082,9.5171912664748,9.53576705858497,FALSE,9.27821991886051
"CAN","cpi",0.2,1980,3,1980,NA,0.5,10.3137243251957,12.0166213336525,9.5171912664748,8.6434746104286,FALSE,3.69422965525912
"CAN","cpi",0.2,1980,3,1979,NA,1,3.12774294954039,5.54517017055233,9.5171912664748,7.78967249140325,FALSE,12.3474799608181
"CAN","cpi",0.2,1980,3,1979,NA,1.5,8.18737102779694,11.6904405333668,9.5171912664748,8.29781572565185,TRUE,3.50306950556987
"CAN","cpi",0.2,1981,3,1981,NA,0,6.4342674585028,6.97821336672668,11.5813425032741,11.7120328235834,FALSE,12.0517687495925
"CAN","cpi",0.2,1981,3,1981,NA,0.5,13.4316423047685,15.3519181841427,11.5813425032741,12.3296185245412,FALSE,6.54602538311016
"CAN","cpi",0.2,1981,3,1980,NA,1,4.8928333108797,7.95365250896682,11.5813425032741,11.0356264341109,FALSE,12.1300441838554
"CAN","cpi",0.2,1981,3,1980,NA,1.5,8.86317150809201,11.9937972428852,11.5813425032741,8.52474858684185,TRUE,3.13062573479315
"CAN","cpi",0.2,1982,3,1982,NA,0,6.46563258718722,7.06873628464342,10.1124203763629,10.253224031375,FALSE,8.21231392675501
"CAN","cpi",0.2,1982,3,1982,NA,0.5,12.5423144682093,14.7624361283843,10.1124203763629,10.1221315066235,FALSE,8.29485688979094
"CAN","cpi",0.2,1982,3,1981,NA,1,3.98410353090221,7.67731446654052,10.1124203763629,11.652777546881,FALSE,9.78097571019438
"CAN","cpi",0.2,1982,3,1981,NA,1.5,13.8364783494909,17.5561339623089,10.1124203763629,13.2139534836213,FALSE,13.0298005456379
"CAN","cpi",0.2,1983,3,1983,NA,0,4.67558149623859,5.10742579073472,5.67091787896303,5.84362752346853,FALSE,1.84057451506692
"CAN","cpi",0.2,1983,3,1983,NA,0.5,8.30104995159367,9.53715230414934,5.67091787896303,4.70635148143536,FALSE,7.81143253413225
"CAN","cpi",0.2,1983,3,1982,NA,1,2.37874780112728,5.39543630363337,5.67091787896303,8.61437359933683,FALSE,3.70539244083025
"CAN","cpi",0.2,1983,3,1982,NA,1.5,9.83495655910193,12.851645061608,5.67091787896303,9.84330302935538,FALSE,13.4267852028533
"CAN","cpi",0.2,1984,3,1984,NA,0,3.01947753547255,3.33691851068017,4.19799576814029,4.21315663178917,FALSE,2.47013411885791
"CAN","cpi",0.2,1984,3,1984,NA,0.5,6.38175253183998,7.37214216097013,4.19799576814029,4.73004206452632,FALSE,6.44978153837937
"CAN","cpi",0.2,1984,3,1983,NA,1,2.87617820917722,4.43936832817261,4.19799576814029,6.30529961834119,TRUE,1.56319011899539
"CAN","cpi",0.2,1984,3,1983,NA,1.5,1.98047634778399,3.54366646677938,4.19799576814029,2.81189439817776,FALSE,3.19901337239766
"CAN","cpi",0.2,1985,3,1985,NA,0,2.59027509953046,2.85413110690662,3.86444262005169,3.90546894544143,FALSE,2.78963479023884
"CAN","cpi",0.2,1985,3,1985,NA,0.5,5.14214589664008,5.988569457059,3.86444262005169,4.0117649915267,FALSE,4.04068175188989
"CAN","cpi",0.2,1985,3,1984,NA,1,1.12696443031335,2.38412631397648,3.86444262005169,3.28942198062367,FALSE,4.95795264885116
"CAN","cpi",0.2,1985,3,1984,NA,1.5,5.62853079337891,6.88953341873258,3.86444262005169,4.67970369844593,FALSE,5.67122305867172
"CAN","cpi",0.2,1986,3,1986,NA,0,2.58797557354983,2.82996931439864,4.08685396749431,4.12727747445429,FALSE,3.38420537358798
"CAN","cpi",0.2,1986,3,1986,NA,0.5,5.33462740911212,6.20000002136849,4.08685396749431,4.57514120825518,FALSE,3.98480621630089
"CAN","cpi",0.2,1986,3,1985,NA,1,1.71072328539523,2.97470125010417,4.08685396749431,3.84501750700332,FALSE,4.04435975818429
"CAN","cpi",0.2,1986,3,1985,NA,1.5,5.10951988490949,6.37349784961843,4.08685396749431,4.51624000588938,FALSE,3.8206427582469
"CAN","cpi",0.2,1987,3,1987,NA,0,2.73886298610007,2.97586199221888,4.23980729277887,4.3376164199738,FALSE,3.39686225751878
"CAN","cpi",0.2,1987,3,1987,NA,0.5,4.83576655769098,5.70701174832581,4.23980729277887,3.8898385702312,FALSE,2.3611433529151
"CAN","cpi",0.2,1987,3,1986,NA,1,2.43892777008047,3.69257245098175,4.23980729277887,4.56284936423577,FALSE,2.62173178539409
"CAN","cpi",0.2,1987,3,1986,NA,1.5,5.90794895305932,7.16159363396059,4.23980729277887,5.15474659430673,FALSE,5.4239988316024
"CAN","cpi",0.2,1988,3,1988,NA,0,2.67996263639834,2.90418107733153,3.92899537638065,4.00028299604827,FALSE,2.786254188556
"CAN","cpi",0.2,1988,3,1988,NA,0.5,4.62207047609741,5.44682993148338,3.92899537638065,3.53181278911538,FALSE,2.55744720467785
"CAN","cpi",0.2,1988,3,1987,NA,1,2.37393355294361,3.40169321994801,3.92899537638065,4.34173286045961,FALSE,2.34601505808601
"CAN","cpi",0.2,1988,3,1987,NA,1.5,4.1364535363263,5.1642132033307,3.92899537638065,3.76612293581706,FALSE,1.54640506686851
"CAN","cpi",0.2,1989,3,1989,NA,0,2.94379924047761,3.15142553921813,4.82821664544208,5.00606812502784,FALSE,4.39960406430039
"CAN","cpi",0.2,1989,3,1989,NA,0.5,5.216731121909,5.97890487623112,4.82821664544208,4.51521437972404,FALSE,1.73345994548944
"CAN","cpi",0.2,1989,3,1988,NA,1,2.57634293522843,3.33851668955055,4.82821664544208,4.3270389784901,FALSE,4.48642364405093
"CAN","cpi",0.2,1989,3,1988,NA,1.5,3.8517443085717,4.61391806289382,4.82821664544208,3.42699250808196,FALSE,1.29792021069275
"CAN","cpi",0.2,1990,3,1990,NA,0,3.01723456790538,3.23769835374463,4.64347549432717,4.52171223749059,FALSE,3.73490663729559
"CAN","cpi",0.2,1990,3,1990,NA,0.5,6.05515783418346,6.95536743605176,4.64347549432717,5.22335253259958,FALSE,4.42941545150904
"CAN","cpi",0.2,1990,3,1989,NA,1,3.47997613246841,4.57329383068202,4.64347549432717,5.7236432392913,FALSE,1.26877185732648
"CAN","cpi",0.2,1990,3,1989,NA,1.5,5.545737780402,6.63905547861561,4.64347549432717,4.92041342133377,FALSE,3.34897341340068
"CAN","cpi",0.2,1991,3,1991,NA,0,3.34140011943795,3.58548119938477,5.4258100696218,5.6161816682171,FALSE,4.84490325553939
"CAN","cpi",0.2,1991,3,1991,NA,0.5,8.51307850692213,9.39819630538834,5.4258100696218,8.8240510060175,FALSE,8.60328889171705
"CAN","cpi",0.2,1991,3,1990,NA,1,2.21340168039034,3.09851947885655,5.4258100696218,3.89170713423419,FALSE,6.70334427537932
"CAN","cpi",0.2,1991,3,1990,NA,1.5,6.57621652074621,7.46133431921242,5.4258100696218,5.70462042447442,FALSE,3.76113392627724
"CAN","cpi",0.2,1992,3,1992,NA,0,2.15251078281039,2.34407331783991,1.47496888572843,1.47544467241393,FALSE,1.88541727773441
"CAN","cpi",0.2,1992,3,1992,NA,0.5,3.3817550246647,4.11826344644867,1.47496888572843,1.36069384263819,FALSE,5.50347376912464
"CAN","cpi",0.2,1992,3,1991,NA,1,0.997950367508513,2.08860208694893,1.47496888572843,2.43500720778875,TRUE,1.09065171944042
"CAN","cpi",0.2,1992,3,1991,NA,1.5,13.2101207245317,14.3437096594588,1.47496888572843,11.2072976243743,FALSE,30.4714685319352
"CAN","cpi",0.2,1993,3,1993,NA,0,1.27132873508051,1.35972681574976,1.84351085411351,1.81496037239602,FALSE,1.29785817657863
"CAN","cpi",0.2,1993,3,1993,NA,0.5,2.71548622351956,3.129210042251,1.84351085411351,2.43338635087472,FALSE,2.59366224224655
"CAN","cpi",0.2,1993,3,1992,NA,1,1.23966419382614,1.65338801255758,1.84351085411351,1.76228766319361,FALSE,0.889030922621265
"CAN","cpi",0.2,1993,3,1992,NA,1.5,1.9681522977174,2.38187611644884,1.84351085411351,1.598750613598,FALSE,0.725327427741164
"CAN","cpi",0.2,1994,3,1994,NA,0,0.845383870665451,0.917281783127338,0.161630694655448,0.220147227157928,FALSE,1.7812808524869
"CAN","cpi",0.2,1994,3,1994,NA,0.5,0.571321015482051,0.842434940279131,0.161630694655448,-0.741542526043691,FALSE,1.29533972686359
"CAN","cpi",0.2,1994,3,1993,NA,1,1.02963162211607,1.43119828723361,0.161630694655448,1.50794631797803,FALSE,2.57156898376909
"CAN","cpi",0.2,1994,3,1993,NA,1.5,3.23352308740236,3.6350897525199,0.161630694655448,2.81797717341095,FALSE,8.08129764698482
"CAN","cpi",0.2,1995,3,1995,NA,0,1.05214421157458,1.11003023371101,2.11688403676572,2.15484685959489,FALSE,2.57502052977319
"CAN","cpi",0.2,1995,3,1995,NA,0.5,2.62718151082641,2.82136061886537,2.11688403676572,2.90883921660758,FALSE,1.46992279319069
"CAN","cpi",0.2,1995,3,1994,NA,1,1.70744197241809,1.90162108045705,2.11688403676572,1.95173420121315,FALSE,0.732336498810622
"CAN","cpi",0.2,1995,3,1994,NA,1.5,-1.9221400616653,-1.72796095362634,2.11688403676572,-2.17983456081826,FALSE,9.80629158401909
"CAN","cpi",0.2,1996,3,1996,NA,0,1.3377544770234,1.43232133756712,1.55309584667184,1.44166889374788,FALSE,0.396503133305525
"CAN","cpi",0.2,1996,3,1996,NA,0.5,2.07303955367989,2.53112296569676,1.55309584667184,1.36236766996786,FALSE,1.75794267953698
"CAN","cpi",0.2,1996,3,1995,NA,1,0.477386358106168,1.02905582150353,1.55309584667184,0.911474268150699,FALSE,1.86176952631815
"CAN","cpi",0.2,1996,3,1995,NA,1.5,4.26933949838416,4.82100896178152,1.55309584667184,3.98784768949811,FALSE,7.34227859267815
"CAN","cpi",0.2,1997,3,1997,NA,0,1.28087784773617,1.36134052912185,1.60528783555959,1.68811714545079,FALSE,0.690330947480036
"CAN","cpi",0.2,1997,3,1997,NA,0.5,2.3854784666177,2.79948621530964,1.60528783555959,2.10620867662285,FALSE,2.3644843263372
"CAN","cpi",0.2,1997,3,1996,NA,1,0.614519226419027,1.03054825024461,1.60528783555959,0.758460286059383,FALSE,1.85287798711304
"CAN","cpi",0.2,1997,3,1996,NA,1.5,1.80815972810566,2.22418875193124,1.60528783555959,1.66287852692671,FALSE,0.923208755190743
"CAN","cpi",0.2,1998,3,1998,NA,0,1.05651217009855,1.12219257030077,0.988908029337191,0.970744023070627,FALSE,0.234690752105621
"CAN","cpi",0.2,1998,3,1998,NA,0.5,1.93034990682763,2.36604174528921,0.988908029337191,1.52096865004292,FALSE,2.78929653218767
"CAN","cpi",0.2,1998,3,1997,NA,1,0.873829555199353,1.30952139366093,0.988908029337191,1.03996058978499,TRUE,0.43569183846158
"CAN","cpi",0.2,1998,3,1997,NA,1.5,2.32452007537327,2.76021191383485,0.988908029337191,2.22059574107629,FALSE,3.77472195355179
"CAN","cpi",0.2,1999,3,1999,NA,0,1.16933975327315,1.23540861738778,1.7107350135213,1.79141464940687,FALSE,1.25438485444841
"CAN","cpi",0.2,1999,3,1999,NA,0.5,1.23182628244866,1.55860492314941,1.7107350135213,0.800552372711202,FALSE,0.707103866630461
"CAN","cpi",0.2,1999,3,1998,NA,1,0.503617643900401,0.830396284601151,1.7107350135213,0.474525424909611,FALSE,2.52762546300111
"CAN","cpi",0.2,1999,3,1998,NA,1.5,2.29033718397758,2.61711582467833,1.7107350135213,2.19776497346126,FALSE,1.77578406684145
"CAN","cpi",0.2,2000,3,2000,NA,0,1.6823766488661,1.77394339775497,2.6718361971244,2.73388860624727,FALSE,2.33629874731245
"CAN","cpi",0.2,2000,3,2000,NA,0.5,2.35331625945415,2.82922577776268,2.6718361971244,2.11525832235237,TRUE,0.47590951830853
"CAN","cpi",0.2,2000,3,1999,NA,1,2.2626496501451,2.73855916845363,2.6718361971244,2.81438082878813,TRUE,0.47590951830853
"CAN","cpi",0.2,2000,3,1999,NA,1.5,1.01454553951962,1.49045505782815,2.6718361971244,0.872413614651861,FALSE,3.42936236654916
"CAN","cpi",0.2,2001,3,2001,NA,0,1.95750664525765,2.05239387114351,2.47906219852806,2.73506715681632,FALSE,1.16155804434724
"CAN","cpi",0.2,2001,3,2001,NA,0.5,2.36475576880262,2.97425889673873,2.47906219852806,1.72363549629744,TRUE,0.609503127936117
"CAN","cpi",0.2,2001,3,2000,NA,1,2.88598619802132,3.56817872397983,2.47906219852806,3.73995761394105,FALSE,1.69950252469164
"CAN","cpi",0.2,2001,3,2000,NA,1.5,1.96606271947734,2.64825524543584,2.47906219852806,1.98299961497232,TRUE,0.682192525958508
"CAN","cpi",0.2,2002,3,2002,NA,0,1.76642836356671,1.85846944563948,2.20880570551249,2.3500140093739,FALSE,0.967881731755281
"CAN","cpi",0.2,2002,3,2002,NA,0.5,2.19637774641556,2.71202692946989,2.20880570551249,1.47074452365548,TRUE,0.515649183054339
"CAN","cpi",0.2,2002,3,2001,NA,1,0.707189293665923,1.22283847672026,2.20880570551249,0.79597273109289,FALSE,2.9805672550349
"CAN","cpi",0.2,2002,3,2001,NA,1.5,0.922551432621856,1.43820061567619,2.20880570551249,0.827019109774735,FALSE,2.44216190764507
"CAN","cpi",0.2,2003,3,2003,NA,0,1.81772879932544,1.92120656633336,2.71189071546809,2.76866538316948,FALSE,2.08018813984475
"CAN","cpi",0.2,2003,3,2003,NA,0.5,4.29036627268899,4.84718325190956,2.71189071546809,4.59645517963757,FALSE,4.50300587227282
"CAN","cpi",0.2,2003,3,2002,NA,1,3.41188392034279,4.01377289438115,2.71189071546809,4.33746529644743,FALSE,2.3518719862251
"CAN","cpi",0.2,2003,3,2002,NA,1.5,2.64040337273431,3.24229234677266,2.71189071546809,2.71468890277684,TRUE,0.601888974038359
"CAN","cpi",0.2,2004,3,2004,NA,0,1.62604577738799,1.72079395467713,1.83151661303942,1.7684769390021,FALSE,0.371554823194867
"CAN","cpi",0.2,2004,3,2004,NA,0.5,2.31383539872708,2.8693307347425,1.83151661303942,1.5625176897836,FALSE,1.76129230023457
"CAN","cpi",0.2,2004,3,2003,NA,1,1.18296388657726,1.73845922259268,1.83151661303942,1.41754396673829,FALSE,0.788138812132278
"CAN","cpi",0.2,2004,3,2003,NA,1.5,5.17448071585931,5.72997605187473,1.83151661303942,5.32651436309904,FALSE,8.91290559306514
"CAN","cpi",0.2,2005,3,2005,NA,0,1.60480815741373,1.68324340455142,2.18071628336509,2.38196957660787,FALSE,1.32211744417188
"CAN","cpi",0.2,2005,3,2005,NA,0.5,2.03343019827485,2.45120264773303,2.18071628336509,1.57253942332725,TRUE,0.417772449458186
"CAN","cpi",0.2,2005,3,2004,NA,1,0.974995869802189,1.39276831926037,2.18071628336509,0.993232956459974,FALSE,2.38764235971998
"CAN","cpi",0.2,2005,3,2004,NA,1.5,2.12563782384983,2.54341027330802,2.18071628336509,2.05989686108521,TRUE,0.417772449458186
"CAN","cpi",0.2,2006,3,2006,NA,0,1.58135667784193,1.66724961948918,1.97519342012289,2.0667253719809,FALSE,0.855752443231513
"CAN","cpi",0.2,2006,3,2006,NA,0.5,2.38045860664572,2.87794547814905,1.97519342012289,1.93779395271753,FALSE,1.51064983781042
"CAN","cpi",0.2,2006,3,2005,NA,1,2.85471980507999,3.35220667658332,1.97519342012289,3.47726378201784,FALSE,2.6963028338961
"CAN","cpi",0.2,2006,3,2005,NA,1.5,1.53127490678192,2.02876177828525,1.97519342012289,1.38669164389589,TRUE,0.497486871503332
"CAN","cpi",0.2,2007,3,2007,NA,0,1.54274275603964,1.62141561503558,2.10062087284572,2.10807340507977,FALSE,1.2766860035213
"CAN","cpi",0.2,2007,3,2007,NA,0.5,2.62564127532527,3.07342685701903,2.10062087284572,2.41912196921498,FALSE,1.76033658789264
"CAN","cpi",0.2,2007,3,2006,NA,1,0.614171267976837,1.0619568496706,2.10062087284572,0.502333085291807,FALSE,3.04444563963158
"CAN","cpi",0.2,2007,3,2006,NA,1.5,2.0342790958557,2.48206467754946,2.10062087284572,1.9704266811846,TRUE,0.447785581693759
"CAN","cpi",0.2,2008,3,2008,NA,0,1.86595675896273,1.95756944847943,2.31447335265955,2.95401501251803,FALSE,0.983872449967007
"CAN","cpi",0.2,2008,3,2008,NA,0.5,1.76502748386837,2.23099194426589,2.31447335265955,1.1596607753752,FALSE,0.674667981381676
"CAN","cpi",0.2,2008,3,2007,NA,1,0.549322937463605,1.01528739786113,2.31447335265955,0.365030180386173,FALSE,3.71392934739358
"CAN","cpi",0.2,2008,3,2007,NA,1.5,3.53978472007277,4.0057491804703,2.31447335265955,3.74970428078329,FALSE,3.52924287893058
"CAN","cpi",0.2,2009,3,2009,NA,0,1.02518992643335,1.08897804967579,0.284533874408197,0.277323060325678,FALSE,1.91542825330532
"CAN","cpi",0.2,2009,3,2009,NA,0.5,0.450422678359874,0.901077247516795,0.284533874408197,-0.926841850998946,FALSE,0.865376579036112
"CAN","cpi",0.2,2009,3,2008,NA,1,3.65283412350569,4.13497939978738,0.284533874408197,4.39167027484448,FALSE,8.90289589902543
"CAN","cpi",0.2,2009,3,2008,NA,1.5,1.52271397030355,2.00485924658524,0.284533874408197,1.30718110670587,FALSE,3.57759551602008
"CAN","cpi",0.2,2010,3,2010,NA,0,0.964680459416047,1.00516777579524,1.75525687020327,1.74893097969613,FALSE,1.91571005239928
"CAN","cpi",0.2,2010,3,2010,NA,0.5,1.63937886233341,1.79794461177431,1.75525687020327,1.60514557059791,TRUE,0.158565749440907
"CAN","cpi",0.2,2010,3,2009,NA,1,0.834173210337374,0.992738959778282,1.75525687020327,0.646877121410091,FALSE,2.06486052550338
"CAN","cpi",0.2,2010,3,2009,NA,1.5,-0.708829426529336,-0.550263677088429,1.75525687020327,-1.29107136836179,FALSE,5.92236711767016
"CAN","cpi",0.2,2011,3,2011,NA,0,1.7311630004265,1.82324467018434,2.85717434028225,2.83658425111878,FALSE,2.67690584500261
"CAN","cpi",0.2,2011,3,2011,NA,0.5,2.84416235366668,3.3164160163224,2.85717434028225,2.89516877702572,TRUE,0.472253662655715
"CAN","cpi",0.2,2011,3,2010,NA,1,2.00883764131859,2.4810913039743,2.85717434028225,2.19120159589417,FALSE,1.41246125342557
"CAN","cpi",0.2,2011,3,2010,NA,1.5,2.03890809547348,2.5111617581292,2.85717434028225,1.9636150267392,FALSE,1.33728511803833
"CAN","cpi",0.2,2012,3,2012,NA,0,1.5927686351022,1.67766721294561,1.50118536134935,1.46012306845465,FALSE,0.313856762225551
"CAN","cpi",0.2,2012,3,2012,NA,0.5,2.38105948900949,3.01940628605314,1.50118536134935,1.81318735388827,FALSE,2.83803211619402
"CAN","cpi",0.2,2012,3,2011,NA,1,1.14592406853389,1.78427086557754,1.50118536134935,1.0674603716489,TRUE,0.638346797043652
"CAN","cpi",0.2,2012,3,2011,NA,1.5,3.24303414467719,3.88138094172084,1.50118536134935,3.26492178435033,FALSE,4.99296875536326
"CAN","cpi",0.2,2013,3,2013,NA,0,1.07196191020307,1.13534246312503,0.931270594714462,1.03964630394149,FALSE,0.415108841643473
"CAN","cpi",0.2,2013,3,2013,NA,0.5,1.5933845187256,1.94678839005335,0.931270594714462,1.16522799725517,FALSE,2.0086886813556
"CAN","cpi",0.2,2013,3,2012,NA,1,0.034668194710864,0.388072066038609,0.931270594714462,-0.4587869493051,FALSE,1.71140019301738
"CAN","cpi",0.2,2013,3,2012,NA,1.5,1.99185152307484,2.34525539440259,0.931270594714462,1.87018597092114,FALSE,3.00485619222869
"CAN","cpi",0.2,2014,3,2014,NA,0,1.22542854852053,1.28774604264636,1.87639912240215,1.98941686448128,FALSE,1.5339501935153
"CAN","cpi",0.2,2014,3,2014,NA,0.5,2.12993433239812,2.4614363735588,1.87639912240215,2.28534818047506,FALSE,0.965340066150598
"CAN","cpi",0.2,2014,3,2013,NA,1,1.06081770954192,1.39231975070261,1.87639912240215,0.933988257976399,FALSE,1.54170047040954
"CAN","cpi",0.2,2014,3,2013,NA,1.5,1.80732038189653,2.13882242305722,1.87639912240215,1.74432822228681,TRUE,0.331502041160681
"CAN","cpi",0.2,2015,3,2015,NA,0,1.24747842870838,1.31492614258686,1.11090953952792,1.2616807067513,FALSE,0.408869936829632
"CAN","cpi",0.2,2015,3,2015,NA,0.5,1.00618481258061,1.43797965678076,1.11090953952792,0.218363095132572,TRUE,0.431794844200153
"CAN","cpi",0.2,2015,3,2014,NA,1,0.900130996341042,1.3319258405412,1.11090953952792,0.62327975322943,TRUE,0.431794844200153
"CAN","cpi",0.2,2015,3,2014,NA,1.5,3.41383275442024,3.87328998703463,1.11090953952792,3.54844533129153,FALSE,6.21676526984521
"CAN","cpi",0.2,2016,3,2016,NA,0,1.08800167558859,1.14652290065848,1.41168586698797,1.44403049252289,FALSE,0.721428640893605
"CAN","cpi",0.2,2016,3,2016,NA,0.5,1.29974182954304,1.63677393131582,1.41168586698797,0.943700860843074,TRUE,0.337032101772782
"CAN","cpi",0.2,2016,3,2015,NA,1,1.62279833078302,1.9598304325558,1.41168586698797,1.65805837950254,FALSE,0.864813261260411
"CAN","cpi",0.2,2016,3,2015,NA,1.5,0.555679023256119,0.892711125028901,1.41168586698797,0.212753204814446,FALSE,1.63446895667044
"CAN","cpi",0.2,2017,3,2017,NA,0,1.20099368191724,1.26486691675356,1.57888581671161,1.52172534057668,FALSE,0.848920484731448
"CAN","cpi",0.2,2017,3,2017,NA,0.5,2.19521053118417,2.55879416399148,1.57888581671161,2.17995751143343,FALSE,1.90439541898871
"CAN","cpi",0.2,2017,3,2016,NA,1,0.756503146321634,1.12008677912894,1.57888581671161,0.478660156386378,FALSE,1.51058122676398
"CAN","cpi",0.2,2017,3,2016,NA,1.5,1.26534164374953,1.62892527655684,1.57888581671161,1.04780579189651,TRUE,0.36358363280731
"CAN","cpi",0.2,2018,3,2018,NA,0,1.55572499801492,1.63200364719947,2.23316270166586,2.42606863838048,FALSE,1.57917628535053
"CAN","cpi",0.2,2018,3,2018,NA,0.5,2.74103495863011,3.16286885150339,2.23316270166586,3.02101124054505,FALSE,1.69151453528391
"CAN","cpi",0.2,2018,3,2017,NA,1,0.807975187525164,1.22980908039844,2.23316270166586,0.52369802733857,FALSE,2.93021794604182
"CAN","cpi",0.2,2018,3,2017,NA,1.5,2.86715211917524,3.28898601204852,2.23316270166586,3.08408184322128,FALSE,2.00680743664674
"CAN","cpi",0.2,2019,3,2019,NA,0,1.59618929782175,1.68825657147772,1.91921619871868,2.02292335146186,FALSE,0.669466341758379
"CAN","cpi",0.2,2019,3,2019,NA,0.5,2.01253600257492,2.57160855289709,1.91921619871868,1.7605507439285,FALSE,0.792372059962769
"CAN","cpi",0.2,2019,3,2018,NA,1,1.96419360381925,2.52326615414142,1.91921619871868,1.97136692329685,FALSE,0.671516063073591
"CAN","cpi",0.2,2019,3,2018,NA,1.5,3.80230748990928,4.41126691511728,1.91921619871868,4.13001487917394,FALSE,5.3166876531845
"CAN","cpi",0.2,2020,3,2020,NA,0,1.08457685269722,1.1486874652586,0.71139989671781,0.748237853268385,FALSE,0.997053002509896
"CAN","cpi",0.2,2020,3,2020,NA,0.5,1.5841658057968,2.06143836968472,0.71139989671781,1.20638084891419,FALSE,2.6591873365854
"CAN","cpi",0.2,2020,3,2019,NA,1,1.47125787515243,1.94853043904035,0.71139989671781,1.33625965438418,FALSE,2.37691750997446
"CAN","cpi",0.2,2020,3,2019,NA,1.5,2.44907224945379,2.92634481334171,0.71139989671781,2.47827605395127,FALSE,4.82145344572786
"CAN","cpi",0.2,2021,3,2021,NA,0,1.61516478660949,1.68407685461729,3.31148121717802,3.36073739108717,FALSE,4.13742297440963
"CAN","cpi",0.2,2021,3,2021,NA,0.5,2.29635587107702,2.69257400319526,3.31148121717802,2.87786599282032,FALSE,1.94348616707515
"CAN","cpi",0.2,2021,3,2020,NA,1,1.65504604505494,2.05126417717318,3.31148121717802,1.80567605729774,FALSE,3.54676073213036
"CAN","cpi",0.2,2021,3,2020,NA,1.5,1.41572812970799,1.81194626182623,3.31148121717802,1.36315122932478,FALSE,4.14505552049772
"CAN","cpi",0.2,2022,3,2022,NA,0,3.40141750637057,3.57382066455182,6.50977236228281,6.58141742776733,FALSE,7.51228240250874
"CAN","cpi",0.2,2022,3,2022,NA,0.5,5.27663993089897,6.30108054514644,6.50977236228281,6.74293883776587,FALSE,1.5461701570884
"CAN","cpi",0.2,2022,3,2021,NA,1,4.01738735073632,5.04182796498379,6.50977236228281,4.82564214996571,FALSE,4.69430160749502
"CAN","cpi",0.2,2022,3,2021,NA,1.5,3.50005989105383,4.5245005053013,6.50977236228281,3.93575064315212,FALSE,5.98762025670124
"CAN","cpi",0.2,2023,3,2023,NA,0,3.45767404932537,3.64708784801489,3.78831288758619,4.01453285616146,FALSE,0.542476397617773
"CAN","cpi",0.2,2023,3,2023,NA,0.5,3.78305931144194,5.18117115078063,3.78831288758619,3.07888421739245,TRUE,1.39811183933869
"CAN","cpi",0.2,2023,3,2022,NA,1,3.57502998018941,4.97314181952809,3.78831288758619,3.85673280569707,TRUE,1.39811183933869
"CAN","cpi",0.2,2023,3,2022,NA,1.5,7.15027157884969,8.54838341818838,3.78831288758619,8.07292283446253,FALSE,9.80300856749744
"CAN","cpi",0.2,2024,3,2023,NA,1,3.70392906714658,4.55882759439706,NA,4.07504753996503,NA,NA
"CAN","cpi",0.2,2024,3,2023,NA,1.5,2.45659013366202,3.3114886609125,NA,2.41529048319689,NA,NA
"CAN","cpi",0.3,1952,3,1952,NA,0,-30.630516647653,-19.722882958999,2.55562336095485,2.49651395855886,FALSE,74.5605088885222
"CAN","cpi",0.3,1952,3,1952,NA,0.5,-21.1939782193237,-4.16140871499398,2.55562336095485,3.9078404779387,FALSE,36.2240897213264
"CAN","cpi",0.3,1952,3,1951,NA,1,-2.37089995224662,14.6616695520831,2.55562336095485,8.88778808098424,TRUE,17.0325695043297
"CAN","cpi",0.3,1952,3,1951,NA,1.5,-37.9413816715705,-20.9088121672408,2.55562336095485,10.076419411745,FALSE,84.073813870603
"CAN","cpi",0.3,1953,3,1953,NA,0,-1.35859733211042,-0.543661414249839,-1.01492775838436,-0.954275034924989,TRUE,0.814935917860578
"CAN","cpi",0.3,1953,3,1953,NA,0.5,-17.5076704161426,-14.8857803946815,-1.01492775838436,-2.19876634474816,FALSE,42.2528975537386
"CAN","cpi",0.3,1953,3,1952,NA,1,-15.8261231486467,-13.2042331271855,-1.01492775838436,-1.18145267469342,FALSE,37.4484767894645
"CAN","cpi",0.3,1953,3,1952,NA,1.5,-18.7987932493006,-16.1769032278395,-1.01492775838436,0.93216905581622,FALSE,45.9418199341901
"CAN","cpi",0.3,1954,3,1954,NA,0,1.22772362652962,0.384095924069283,0.644425455961438,0.879731201855888,FALSE,1.56673716171206
"CAN","cpi",0.3,1954,3,1954,NA,0.5,1.56896830882017,0.72534060635983,0.644425455961438,-0.358875738913824,FALSE,1.79792330570746
"CAN","cpi",0.3,1954,3,1953,NA,1,12.4227325078251,11.5791048053648,0.644425455961438,3.38326531029323,FALSE,32.8086781600074
"CAN","cpi",0.3,1954,3,1953,NA,1.5,-5.39572831549714,-6.23935601795748,0.644425455961438,-2.85717744192413,FALSE,18.8243193658794
"CAN","cpi",0.3,1955,3,1955,NA,0,0.433313810060315,0.524548340039624,0.173649026558865,0.115254687233858,FALSE,0.833133911412023
"CAN","cpi",0.3,1955,3,1955,NA,0.5,-1.07488704216692,-0.983652512187614,0.173649026558865,-0.770970046821609,FALSE,3.39781035496925
"CAN","cpi",0.3,1955,3,1954,NA,1,7.5455978749786,10.7852037238756,0.173649026558865,3.47019599757395,FALSE,24.3023168443819
"CAN","cpi",0.3,1955,3,1954,NA,1.5,-11.4870439220505,-8.24743807315357,0.173649026558865,-1.89562740163941,FALSE,27.2998547052182
"CAN","cpi",0.3,1956,3,1956,NA,0,1.03772363868066,1.06247580703033,1.32752769429961,1.56059797998755,FALSE,0.782043274833326
"CAN","cpi",0.3,1956,3,1956,NA,0.5,-0.430856488939441,-0.40610432058977,1.32752769429961,-0.709146002056511,FALSE,4.97798649660504
"CAN","cpi",0.3,1956,3,1955,NA,1,1.38866066310833,2.56507333786538,1.32752769429961,0.884549626974225,FALSE,1.35107829992482
"CAN","cpi",0.3,1956,3,1955,NA,1.5,-6.86835587942542,-5.69194320466836,1.32752769429961,-1.89150615642833,FALSE,21.2320438146655
"CAN","cpi",0.3,1957,3,1957,NA,0,1.78362567416184,2.22924104727565,3.24684755852518,3.4151370317006,FALSE,3.35306254811245
"CAN","cpi",0.3,1957,3,1957,NA,0.5,2.94133834630543,4.72073220890011,3.24684755852518,2.23982631608766,TRUE,1.77939386259468
"CAN","cpi",0.3,1957,3,1956,NA,1,9.07115532983121,14.5405914344245,3.24684755852518,6.98754636690555,FALSE,22.110315451182
"CAN","cpi",0.3,1957,3,1956,NA,1.5,-12.6063619655722,-7.13692586097891,3.24684755852518,-1.88668623310337,FALSE,35.1373601603192
"CAN","cpi",0.3,1958,3,1958,NA,0,1.71324388679081,2.05151245915825,2.33186388641149,2.22387249143335,FALSE,1.13927265023384
"CAN","cpi",0.3,1958,3,1958,NA,0.5,3.43537252917613,5.36625829593022,2.33186388641149,2.22839060734872,FALSE,5.0837676032245
"CAN","cpi",0.3,1958,3,1957,NA,1,0.965469215018464,5.56803137527893,2.33186388641149,4.42088197051908,TRUE,4.60256216026046
"CAN","cpi",0.3,1958,3,1957,NA,1.5,-13.8577156166953,-9.25515345643482,2.33186388641149,0.91301479707402,FALSE,37.7083259969642
"CAN","cpi",0.3,1959,3,1959,NA,0,1.23010304586951,1.44503747372029,1.19382698397654,1.24991216431293,FALSE,0.318580318973546
"CAN","cpi",0.3,1959,3,1959,NA,0.5,1.44439113281837,2.19963486196443,1.19382698397654,0.437839731590327,FALSE,1.47114129726558
"CAN","cpi",0.3,1959,3,1958,NA,1,-0.539439507946098,1.73432415040695,1.19382698397654,1.75862762885946,TRUE,2.27376365835305
"CAN","cpi",0.3,1959,3,1958,NA,1.5,-7.97736061357218,-5.70359695521913,1.19382698397654,1.77407172713766,FALSE,21.9806891989121
"CAN","cpi",0.3,1960,3,1960,NA,0,0.904951988103014,1.056579174297,1.34209404870695,1.02361304259477,FALSE,0.967383970222419
"CAN","cpi",0.3,1960,3,1960,NA,0.5,1.36322467379956,1.87648923751635,1.34209404870695,0.53898348018166,FALSE,0.573637778267108
"CAN","cpi",0.3,1960,3,1959,NA,1,3.25059782930442,5.59918007406954,1.34209404870695,3.95759373689442,FALSE,7.80145018932932
"CAN","cpi",0.3,1960,3,1959,NA,1.5,-6.33600192692062,-3.9874196821555,1.34209404870695,-0.873476815404885,FALSE,17.5757643329436
"CAN","cpi",0.3,1961,3,1961,NA,0,0.954006770867708,1.18177247700297,1.00921348094007,1.00921348094007,TRUE,0.227765706135258
"CAN","cpi",0.3,1961,3,1961,NA,0.5,1.82734997821821,2.38451033027318,1.00921348094007,1.00921348094007,FALSE,2.89469320142108
"CAN","cpi",0.3,1961,3,1960,NA,1,-0.925688474989174,-0.264202867520555,1.00921348094007,0.0537704626035329,FALSE,4.29981803164184
"CAN","cpi",0.3,1961,3,1960,NA,1.5,-5.57071243261199,-4.66566557044453,1.00921348094007,-0.862181798940035,FALSE,17.1189870089806
"CAN","cpi",0.3,1962,3,1962,NA,0,0.925448713058918,1.09689422174077,1.04957947883042,1.10232402731478,TRUE,0.171445508681853
"CAN","cpi",0.3,1962,3,1962,NA,0.5,0.783776765303425,1.0863522884414,1.04957947883042,0,TRUE,0.302575523137973
"CAN","cpi",0.3,1962,3,1961,NA,1,-0.367084743864953,0.0702831262148624,1.04957947883042,0,FALSE,3.23535744898139
"CAN","cpi",0.3,1962,3,1961,NA,1.5,-3.03010603395781,-2.59273816387799,1.04957947883042,0,FALSE,10.8439897063895
"CAN","cpi",0.3,1963,3,1963,NA,0,1.22831841732204,1.4304876709432,1.60677118395228,1.91491729531202,FALSE,0.705836433647116
"CAN","cpi",0.3,1963,3,1963,NA,0.5,1.53366376861781,1.97286509737263,1.60677118395228,0.836828714617504,TRUE,0.439201328754822
"CAN","cpi",0.3,1963,3,1962,NA,1,1.97617101672473,2.80109234241127,1.60677118395228,2.56411490415144,FALSE,1.88034941932211
"CAN","cpi",0.3,1963,3,1962,NA,1.5,-2.42602919588411,-1.60110787019758,1.60677118395228,0,FALSE,9.990290051829
"CAN","cpi",0.3,1964,3,1964,NA,0,1.35276062244352,1.59299902315196,1.88764670034376,1.98877256446048,FALSE,1.08208890697073
"CAN","cpi",0.3,1964,3,1964,NA,0.5,2.14335748906298,2.69679930348369,1.88764670034376,1.38369006227607,FALSE,1.28404406790419
"CAN","cpi",0.3,1964,3,1963,NA,1,3.99443949011393,5.39391222906078,1.88764670034376,5.39044290347256,FALSE,7.41888070971877
"CAN","cpi",0.3,1964,3,1963,NA,1.5,-3.11263940081488,-1.71316666186803,1.88764670034376,0,FALSE,11.6875109166948
"CAN","cpi",0.3,1965,3,1965,NA,0,1.54817658125882,1.788948557474,2.29538304394236,2.34557047418999,FALSE,1.68772765183905
"CAN","cpi",0.3,1965,3,1965,NA,0.5,2.3648839249913,2.94479400916181,2.29538304394236,1.61079447956654,FALSE,0.778484030024621
"CAN","cpi",0.3,1965,3,1964,NA,1,1.63416832375261,2.21407840792312,2.29538304394236,2.42518862179847,FALSE,0.812209044225474
"CAN","cpi",0.3,1965,3,1964,NA,1.5,-1.84484881685978,-1.26493873268927,2.29538304394236,0.818102552316399,FALSE,10.7522580174037
"CAN","cpi",0.3,1966,3,1966,NA,0,2.1606986889957,2.45253609095181,3.72486065470629,3.82010987863709,FALSE,3.92705044125463
"CAN","cpi",0.3,1966,3,1966,NA,0.5,4.40458893304594,5.13489298738372,3.72486065470629,3.99123398895563,FALSE,2.67238484959393
"CAN","cpi",0.3,1966,3,1965,NA,1,2.29001985423083,3.29972410069657,3.72486065470629,3.20722068745854,FALSE,2.22438011506494
"CAN","cpi",0.3,1966,3,1965,NA,1.5,-1.21572823613337,-0.20602398966763,3.72486065470629,1.60663824631958,FALSE,12.2408032303912
"CAN","cpi",0.3,1967,3,1967,NA,0,2.48529335094634,2.79514699276357,3.49360316391996,3.76768849328632,FALSE,2.30544270226406
"CAN","cpi",0.3,1967,3,1967,NA,0.5,3.60101249233154,4.36424114570057,3.49360316391996,2.4074547441976,FALSE,1.0701124488307
"CAN","cpi",0.3,1967,3,1966,NA,1,2.11968665676121,3.32643770878268,3.49360316391996,3.18103323070284,FALSE,1.68436663812798
"CAN","cpi",0.3,1967,3,1966,NA,1.5,1.57663709297099,2.78338814499246,3.49360316391996,4.65128160487248,FALSE,3.23593682038576
"CAN","cpi",0.3,1968,3,1968,NA,0,2.54737940918376,2.8750190947695,3.95128347779386,4.17287945672396,FALSE,3.40268077994105
"CAN","cpi",0.3,1968,3,1968,NA,0.5,4.79821315808064,5.82684925331292,3.95128347779386,4.07097205779852,FALSE,3.44843518176595
"CAN","cpi",0.3,1968,3,1967,NA,1,4.4103651670437,6.81777912414065,3.95128347779386,5.84521682123848,FALSE,3.71907592638221
"CAN","cpi",0.3,1968,3,1967,NA,1.5,-0.536833801616076,1.87058015548088,3.95128347779386,2.25565858240226,FALSE,8.35228059227689
"CAN","cpi",0.3,1969,3,1969,NA,0,2.78677852497283,3.12804993304052,4.42679496126681,4.59520664360618,FALSE,4.05197148871425
"CAN","cpi",0.3,1969,3,1969,NA,0.5,4.15618238481997,5.0285285343154,4.42679496126681,2.96612019395715,TRUE,0.872346149495431
"CAN","cpi",0.3,1969,3,1968,NA,1,4.69528377980783,7.63124239171995,4.42679496126681,6.72487630040807,FALSE,3.70306952202932
"CAN","cpi",0.3,1969,3,1968,NA,1.5,2.27120131633417,5.20715992824629,4.42679496126681,4.31664452944541,TRUE,2.93595861191212
"CAN","cpi",0.3,1970,3,1970,NA,0,2.58209682905338,2.85127017698701,3.28128405769805,3.60761538249925,FALSE,1.49778443567944
"CAN","cpi",0.3,1970,3,1970,NA,0.5,5.33846503169795,6.59522449939006,3.28128405769805,4.36016077421692,FALSE,7.13441939340612
"CAN","cpi",0.3,1970,3,1969,NA,1,3.41385065028009,5.78803802874087,3.28128405769805,4.91369447805135,FALSE,2.75294907155233
"CAN","cpi",0.3,1970,3,1969,NA,1.5,-0.327828943025345,2.04635843543543,3.28128405769805,2.07973847283129,FALSE,5.90254629921111
"CAN","cpi",0.3,1971,3,1971,NA,0,2.05578682539043,2.30051707196674,2.64123406634756,2.91872900980337,FALSE,1.21820737337866
"CAN","cpi",0.3,1971,3,1971,NA,0.5,2.68166768683792,3.29643932592292,2.64123406634756,1.38357105636307,FALSE,0.730296269057452
"CAN","cpi",0.3,1971,3,1970,NA,1,1.99233908381459,4.21840696337175,2.64123406634756,3.17686610979278,TRUE,2.22606787955716
"CAN","cpi",0.3,1971,3,1970,NA,1.5,4.34960499354867,6.77264999743736,2.64123406634756,4.62066312326275,FALSE,7.30410479589185
"CAN","cpi",0.3,1972,3,1972,NA,0,2.6651193972163,2.97429554175655,4.83230569625923,5.17210692165851,FALSE,5.61777658597647
"CAN","cpi",0.3,1972,3,1972,NA,0.5,5.00047330064365,6.21476352792449,4.83230569625923,4.76224255478946,FALSE,1.69476909695061
"CAN","cpi",0.3,1972,3,1971,NA,1,5.51314530438982,8.04448540193101,4.83230569625923,6.83863498061675,FALSE,4.47659612077145
"CAN","cpi",0.3,1972,3,1971,NA,1.5,1.17709829571311,3.7084383932543,4.83230569625923,1.95441162589064,FALSE,5.74238953469813
"CAN","cpi",0.3,1973,3,1973,NA,0,3.93261663267043,4.39539502617656,7.12388603531779,7.41057825703995,FALSE,8.2584669910525
"CAN","cpi",0.3,1973,3,1973,NA,0.5,6.94177357587935,8.55359944456021,7.12388603531779,6.24191401313708,TRUE,1.61182586868086
"CAN","cpi",0.3,1973,3,1972,NA,1,5.76654872613298,9.6315577079754,7.12388603531779,8.12590883681935,TRUE,3.86500898184242
"CAN","cpi",0.3,1973,3,1972,NA,1.5,4.43532197132516,8.37942607913752,7.12388603531779,4.96130694391223,TRUE,3.94410410781236
"CAN","cpi",0.3,1974,3,1974,NA,0,5.44623346919657,6.08008230753459,10.2717243737774,10.2919804098732,FALSE,12.6099690276033
"CAN","cpi",0.3,1974,3,1974,NA,0.5,9.86919311123758,12.1290264260584,10.2717243737774,9.01679902243293,TRUE,2.25983331482087
"CAN","cpi",0.3,1974,3,1973,NA,1,8.08142975746786,13.57693385973,10.2717243737774,11.5076386824751,TRUE,5.49550410226211
"CAN","cpi",0.3,1974,3,1973,NA,1.5,6.78398302000784,12.3611362176072,10.2717243737774,7.03851017911898,TRUE,5.57715319759932
"CAN","cpi",0.3,1975,3,1975,NA,0,6.05829221225303,6.84179213843276,10.0232981493341,10.3166994702432,FALSE,9.87351710018362
"CAN","cpi",0.3,1975,3,1975,NA,0.5,10.7334789502342,13.3897244708201,10.0232981493341,8.87817825771755,FALSE,4.68533352315757
"CAN","cpi",0.3,1975,3,1974,NA,1,6.58107038682496,12.1875989501065,10.0232981493341,11.6634485116586,TRUE,5.60652856328149
"CAN","cpi",0.3,1975,3,1974,NA,1.5,8.09727778417665,13.7038063474581,10.0232981493341,9.09165939347615,TRUE,5.60652856328149
"CAN","cpi",0.3,1976,3,1976,NA,0,5.04409488116117,5.6905878465873,7.22784311401172,7.25911367403926,FALSE,5.03865087235303
"CAN","cpi",0.3,1976,3,1976,NA,0.5,9.21686884491603,11.6797151309287,7.22784311401172,7.22502565269042,FALSE,8.1457769457393
"CAN","cpi",0.3,1976,3,1975,NA,1,6.44005485118772,10.5350489475501,7.22784311401172,12.4780790437784,TRUE,4.09499409636237
"CAN","cpi",0.3,1976,3,1975,NA,1.5,4.75877163659066,8.85376573295303,7.22784311401172,7.18586013837568,TRUE,4.09499409636237
"CAN","cpi",0.3,1977,3,1977,NA,0,4.50178203034357,5.06633543473801,7.58101410153764,7.59139014959698,FALSE,7.74934959525053
"CAN","cpi",0.3,1977,3,1977,NA,0.5,8.14577857282865,10.5174911700066,7.58101410153764,7.25038656554249,FALSE,3.98532537229515
"CAN","cpi",0.3,1977,3,1976,NA,1,2.28463659940717,5.16140441326105,7.58101410153764,5.92994518665441,FALSE,9.78993835178701
"CAN","cpi",0.3,1977,3,1976,NA,1.5,3.278124856697,7.97762948378227,7.58101410153764,5.68954314963938,TRUE,4.69950462708528
"CAN","cpi",0.3,1978,3,1978,NA,0,4.9004379653988,5.55836419468027,8.50208927062595,8.68881076810062,FALSE,9.06856930341197
"CAN","cpi",0.3,1978,3,1978,NA,0.5,8.97137231253111,11.4603118078333,8.50208927062595,8.11208508764938,FALSE,3.82974818645982
"CAN","cpi",0.3,1978,3,1977,NA,1,3.68004854332133,7.48452420560662,8.50208927062595,8.34671923233743,FALSE,6.71180441948336
"CAN","cpi",0.3,1978,3,1977,NA,1.5,6.60712553966924,12.2409026677619,8.50208927062595,8.21410731625775,TRUE,5.63377712809268
"CAN","cpi",0.3,1979,3,1979,NA,0,5.09884548349415,5.74560164159402,8.65147652410481,8.56136533364911,FALSE,8.94925582241641
"CAN","cpi",0.3,1979,3,1979,NA,0.5,9.3606633818153,11.9600438896701,8.65147652410481,8.23092589685401,FALSE,4.62562867274197
"CAN","cpi",0.3,1979,3,1978,NA,1,4.51160128295849,8.035824704151,8.65147652410481,9.66481845899329,FALSE,5.28322862106054
"CAN","cpi",0.3,1979,3,1978,NA,1.5,5.98696501659881,11.3248982960321,8.65147652410481,7.91014806370246,TRUE,5.3379332794333
"CAN","cpi",0.3,1980,3,1980,NA,0,5.43869772428693,6.11692117212723,9.5171912664748,9.53576705858497,FALSE,10.3932808602619
"CAN","cpi",0.3,1980,3,1980,NA,0.5,9.64112858111756,12.4651226537137,9.5171912664748,8.6434746104286,FALSE,3.17810068586118
"CAN","cpi",0.3,1980,3,1979,NA,1,2.28937173429255,6.25200777144248,9.5171912664748,7.78967249140325,FALSE,13.2917317372423
"CAN","cpi",0.3,1980,3,1979,NA,1.5,7.14351900024083,12.1090780093962,9.5171912664748,8.29781572565185,TRUE,4.96555900915538
"CAN","cpi",0.3,1981,3,1981,NA,0,6.310628270439,7.16072329052462,11.5813425032741,11.7120328235834,FALSE,13.4804356279414
"CAN","cpi",0.3,1981,3,1981,NA,0.5,12.515508124021,15.834320400425,11.5813425032741,12.3296185245412,FALSE,5.98785690710926
"CAN","cpi",0.3,1981,3,1980,NA,1,4.42322066071886,8.93713188486886,11.5813425032741,11.0356264341109,FALSE,12.0687987053079
"CAN","cpi",0.3,1981,3,1980,NA,1.5,6.81085033752044,13.0978746976939,11.5813425032741,8.52474858684185,TRUE,6.28702436017347
"CAN","cpi",0.3,1982,3,1982,NA,0,6.29559439899373,7.19852399720452,10.1124203763629,10.253224031375,FALSE,9.22834782437771
"CAN","cpi",0.3,1982,3,1982,NA,0.5,12.2003099555746,15.357019410879,10.1124203763629,10.1221315066235,FALSE,9.122108253052
"CAN","cpi",0.3,1982,3,1981,NA,1,3.05799678374212,8.82772668335722,10.1124203763629,11.652777546881,FALSE,9.44028330820289
"CAN","cpi",0.3,1982,3,1981,NA,1.5,12.6372779052079,19.4412007284516,10.1124203763629,13.2139534836213,FALSE,14.0178014770864
"CAN","cpi",0.3,1983,3,1983,NA,0,4.53470269754404,5.26600326870138,5.67091787896303,5.84362752346853,FALSE,1.88819945761921
"CAN","cpi",0.3,1983,3,1983,NA,0.5,7.77196373399868,9.88179260279515,5.67091787896303,4.70635148143536,FALSE,8.11281702604118
"CAN","cpi",0.3,1983,3,1982,NA,1,1.52222162916643,6.40549165160845,5.67091787896303,8.61437359933683,TRUE,4.88327002244202
"CAN","cpi",0.3,1983,3,1982,NA,1.5,8.4106500683661,13.2939200908081,5.67091787896303,9.84330302935538,FALSE,12.7110762778793
"CAN","cpi",0.3,1984,3,1984,NA,0,2.97846566363773,3.40065229506352,4.19799576814029,4.21315663178917,FALSE,2.70031084021656
"CAN","cpi",0.3,1984,3,1984,NA,0.5,6.01911834669661,7.62971651970716,4.19799576814029,4.73004206452632,FALSE,6.81380554031432
"CAN","cpi",0.3,1984,3,1983,NA,1,2.68723945270393,4.90479565028267,4.19799576814029,6.30529961834119,TRUE,2.21755619757874
"CAN","cpi",0.3,1984,3,1983,NA,1.5,1.69131712788397,3.90887332546271,4.19799576814029,2.81189439817776,FALSE,3.04362031951467
"CAN","cpi",0.3,1985,3,1985,NA,0,2.53831989837951,2.89535605362344,3.86444262005169,3.90546894544143,FALSE,3.12585491646751
"CAN","cpi",0.3,1985,3,1985,NA,0.5,4.87768372934768,6.23474821240906,3.86444262005169,4.0117649915267,FALSE,4.25203908104991
"CAN","cpi",0.3,1985,3,1984,NA,1,0.572003310635275,2.84543660867595,3.86444262005169,3.28942198062367,FALSE,5.1848790448285
"CAN","cpi",0.3,1985,3,1984,NA,1.5,4.9580370323271,7.43315440360582,3.86444262005169,4.67970369844593,FALSE,5.59967283492274
"CAN","cpi",0.3,1986,3,1986,NA,0,2.5443095351897,2.89045998314308,4.08685396749431,4.12727747445429,FALSE,3.76441897467118
"CAN","cpi",0.3,1986,3,1986,NA,0.5,5.04599838324466,6.47165932556071,4.08685396749431,4.57514120825518,FALSE,4.16607355874562
"CAN","cpi",0.3,1986,3,1985,NA,1,1.44702379219234,3.22646323314996,4.08685396749431,3.84501750700332,FALSE,4.23769868194148
"CAN","cpi",0.3,1986,3,1985,NA,1.5,4.87122730793231,6.65066674888992,4.08685396749431,4.51624000588938,FALSE,4.02050612792331
"CAN","cpi",0.3,1987,3,1987,NA,0,2.67254030825937,3.02490030675486,4.23980729277887,4.3376164199738,FALSE,3.82352281570694
"CAN","cpi",0.3,1987,3,1987,NA,0.5,4.54326505311365,5.95538342608919,4.23980729277887,3.8898385702312,FALSE,2.27914054536061
"CAN","cpi",0.3,1987,3,1986,NA,1,2.07615349214773,4.01210568103478,4.23980729277887,4.56284936423577,FALSE,2.58652822244159
"CAN","cpi",0.3,1987,3,1986,NA,1.5,5.58116708658007,7.51711927546712,4.23980729277887,5.15474659430673,FALSE,5.76840874260476
"CAN","cpi",0.3,1988,3,1988,NA,0,2.61796148510066,2.94335742648536,3.92899537638065,4.00028299604827,FALSE,3.14150436965697
"CAN","cpi",0.3,1988,3,1988,NA,0.5,4.31313251210048,5.68829183520856,3.92899537638065,3.53181278911538,FALSE,2.4726939965933
"CAN","cpi",0.3,1988,3,1987,NA,1,2.07729989778084,3.56635869035797,3.92899537638065,4.34173286045961,FALSE,2.5251636097848
"CAN","cpi",0.3,1988,3,1987,NA,1.5,3.87901388504447,5.36807267762159,3.92899537638065,3.76612293581706,TRUE,1.48905879257712
"CAN","cpi",0.3,1989,3,1989,NA,0,2.8675849566828,3.18575278523402,4.82821664544208,5.00606812502784,FALSE,5.01092171485996
"CAN","cpi",0.3,1989,3,1989,NA,0.5,4.98022144047073,6.29152365148621,4.82821664544208,4.51521437972404,FALSE,1.74560162538305
"CAN","cpi",0.3,1989,3,1988,NA,1,2.10333634808005,3.41463855909554,4.82821664544208,4.3270389784901,FALSE,5.35009674343417
"CAN","cpi",0.3,1989,3,1988,NA,1.5,3.65477993602883,4.96608214704432,4.82821664544208,3.42699250808196,TRUE,1.31130221101548
"CAN","cpi",0.3,1990,3,1990,NA,0,2.94555173824391,3.28115924126841,4.64347549432717,4.52171223749059,FALSE,4.22793965462096
"CAN","cpi",0.3,1990,3,1990,NA,0.5,5.81216336478161,7.2365396715641,4.64347549432717,5.22335253259958,FALSE,4.7634845080809
"CAN","cpi",0.3,1990,3,1989,NA,1,3.16612214536334,4.89019288914516,4.64347549432717,5.7236432392913,TRUE,1.72407074378182
"CAN","cpi",0.3,1990,3,1989,NA,1.5,5.19463451189096,6.91870525567279,4.64347549432717,4.92041342133377,FALSE,3.29881079396409
"CAN","cpi",0.3,1991,3,1991,NA,0,3.26202870275604,3.63184992167223,5.4258100696218,5.6161816682171,FALSE,5.49542164162924
"CAN","cpi",0.3,1991,3,1991,NA,0.5,8.23773740176512,9.90750027546036,5.4258100696218,8.8240510060175,FALSE,9.70384096553332
"CAN","cpi",0.3,1991,3,1990,NA,1,1.80387290628362,3.47363577997886,5.4258100696218,3.89170713423419,FALSE,7.24740370124648
"CAN","cpi",0.3,1991,3,1990,NA,1.5,6.12795617358982,7.79771904728506,5.4258100696218,5.70462042447442,FALSE,3.67589459931816
"CAN","cpi",0.3,1992,3,1992,NA,0,2.1006766530765,2.38340478874569,1.47496888572843,1.47544467241393,FALSE,2.07046461380653
"CAN","cpi",0.3,1992,3,1992,NA,0.5,3.10134626206956,4.3286121486079,1.47496888572843,1.36069384263819,FALSE,5.87405839037014
"CAN","cpi",0.3,1992,3,1991,NA,1,0.427626219150421,2.4372240202182,1.47496888572843,2.43500720778875,TRUE,2.00959780106778
"CAN","cpi",0.3,1992,3,1991,NA,1.5,12.4207777822643,14.8532797761584,1.47496888572843,11.2072976243743,FALSE,33.7062416982823
"CAN","cpi",0.3,1993,3,1993,NA,0,1.2401895509236,1.37415425503139,1.84351085411351,1.81496037239602,FALSE,1.47498355862814
"CAN","cpi",0.3,1993,3,1993,NA,0.5,2.6309766877801,3.28696703820373,1.84351085411351,2.43338635087472,FALSE,2.90589273232817
"CAN","cpi",0.3,1993,3,1992,NA,1,1.10777276711157,1.7637631175352,1.84351085411351,1.76228766319361,FALSE,0.883841026361657
"CAN","cpi",0.3,1993,3,1992,NA,1.5,1.80413162400533,2.46012197442895,1.84351085411351,1.598750613598,TRUE,0.655990350423626
"CAN","cpi",0.3,1994,3,1994,NA,0,0.826634436596572,0.93451936503813,0.161630694655448,0.220147227157928,FALSE,2.00789561970191
"CAN","cpi",0.3,1994,3,1994,NA,0.5,0.43383841052907,0.888691104964019,0.161630694655448,-0.741542526043691,FALSE,1.23258902550244
"CAN","cpi",0.3,1994,3,1993,NA,1,0.856136672347062,1.61227193323879,0.161630694655448,1.50794631797803,FALSE,2.74043805429634
"CAN","cpi",0.3,1994,3,1993,NA,1.5,3.03774504277924,3.79388030367096,0.161630694655448,2.81797717341095,FALSE,8.9736048269597
"CAN","cpi",0.3,1995,3,1995,NA,0,1.03290254513522,1.12441894745759,2.11688403676572,2.15484685959489,FALSE,2.92713094320273
"CAN","cpi",0.3,1995,3,1995,NA,0.5,2.61926071693732,2.88681358132789,2.11688403676572,2.90883921660758,FALSE,1.70291480773801
"CAN","cpi",0.3,1995,3,1994,NA,1,1.66558995402802,1.9331428184186,2.11688403676572,1.95173420121315,FALSE,0.792527773953775
"CAN","cpi",0.3,1995,3,1994,NA,1.5,-1.97813669991953,-1.71058383552895,2.11688403676572,-2.17983456081826,FALSE,11.2031753566611
"CAN","cpi",0.3,1996,3,1996,NA,0,1.30598755760673,1.44805298307955,1.55309584667184,1.44166889374788,FALSE,0.442187892879367
"CAN","cpi",0.3,1996,3,1996,NA,0.5,1.87355167240425,2.65043536467324,1.55309584667184,1.36236766996786,FALSE,1.69247176579015
"CAN","cpi",0.3,1996,3,1995,NA,1,0.194858727039208,1.24876773081615,1.55309584667184,0.911474268150699,FALSE,1.92341790622178
"CAN","cpi",0.3,1996,3,1995,NA,1.5,4.00653200574856,5.0604410095255,1.55309584667184,3.98784768949811,FALSE,8.06372660113898
"CAN","cpi",0.3,1997,3,1997,NA,0,1.25464416079157,1.38176412069934,1.60528783555959,1.68811714545079,FALSE,0.765759145222765
"CAN","cpi",0.3,1997,3,1997,NA,0.5,2.19666266123567,2.89515329065717,1.60528783555959,2.10620867662285,FALSE,2.38813298849602
"CAN","cpi",0.3,1997,3,1996,NA,1,0.397592285285371,1.09608291470687,1.60528783555959,0.758460286059383,FALSE,2.15336183185784
"CAN","cpi",0.3,1997,3,1996,NA,1.5,1.66971861603157,2.36820924545307,1.60528783555959,1.66287852692671,FALSE,0.882578573627143
"CAN","cpi",0.3,1998,3,1998,NA,0,1.03574191010395,1.13727398950811,0.988908029337191,0.970744023070627,FALSE,0.235343167309183
"CAN","cpi",0.3,1998,3,1998,NA,0.5,1.77199448608541,2.46105154952617,0.988908029337191,1.52096865004292,FALSE,2.92644693986425
"CAN","cpi",0.3,1998,3,1997,NA,1,0.690327898981679,1.37938496242244,0.988908029337191,1.03996058978499,TRUE,0.689057063440757
"CAN","cpi",0.3,1998,3,1997,NA,1.5,2.17641487432061,2.86547193776137,0.988908029337191,2.22059574107629,FALSE,4.08193376339339
"CAN","cpi",0.3,1999,3,1999,NA,0,1.1468255611505,1.24994649907182,1.7107350135213,1.79141464940687,FALSE,1.41965955063411
"CAN","cpi",0.3,1999,3,1999,NA,0.5,1.12275349724158,1.63820363096816,1.7107350135213,0.800552372711202,FALSE,0.722682655306962
"CAN","cpi",0.3,1999,3,1998,NA,1,0.374965840247379,0.890415973973959,1.7107350135213,0.474525424909611,FALSE,2.85921881814754
"CAN","cpi",0.3,1999,3,1998,NA,1.5,2.18310581068548,2.70732021431626,1.7107350135213,2.19776497346126,FALSE,1.8738452526713
"CAN","cpi",0.3,2000,3,2000,NA,0,1.6578545051384,1.7926265908288,2.6718361971244,2.73388860624727,FALSE,2.64679953224925
"CAN","cpi",0.3,2000,3,2000,NA,0.5,2.14309618073006,2.92183135794478,2.6718361971244,2.11525832235237,TRUE,0.778735177214727
"CAN","cpi",0.3,2000,3,1999,NA,1,2.13798753975731,2.91672271697204,2.6718361971244,2.81438082878813,TRUE,0.778735177214727
"CAN","cpi",0.3,2000,3,1999,NA,1.5,0.853979028186016,1.63271420540074,2.6718361971244,0.872413614651861,FALSE,3.74765515356803
"CAN","cpi",0.3,2001,3,2001,NA,0,1.91659241842354,2.07239697255406,2.47906219852806,2.73506715681632,FALSE,1.31770519977054
"CAN","cpi",0.3,2001,3,2001,NA,0.5,2.15817017915162,3.1022336556462,2.47906219852806,1.72363549629744,TRUE,0.944063476494573
"CAN","cpi",0.3,2001,3,2000,NA,1,2.72747943301247,3.75298512643196,2.47906219852806,3.73995761394105,FALSE,1.73526922051779
"CAN","cpi",0.3,2001,3,2000,NA,1.5,1.86057665024725,2.88608234366674,2.47906219852806,1.98299961497232,TRUE,1.02550569341949
"CAN","cpi",0.3,2002,3,2002,NA,0,1.73209963689046,1.87971474414568,2.20880570551249,2.3500140093739,FALSE,1.08787499687467
"CAN","cpi",0.3,2002,3,2002,NA,0.5,1.99697769931864,2.77627214946563,2.20880570551249,1.47074452365548,TRUE,0.779294450146989
"CAN","cpi",0.3,2002,3,2001,NA,1,0.529272606180548,1.30856705632754,2.20880570551249,0.79597273109289,FALSE,3.3514048763897
"CAN","cpi",0.3,2002,3,2001,NA,1.5,0.923127165260514,1.7024216154075,2.20880570551249,0.827019109774735,FALSE,2.22610613616123
"CAN","cpi",0.3,2003,3,2003,NA,0,1.79011095049877,1.94519178620971,2.71189071546809,2.76866538316948,FALSE,2.34564920502059
"CAN","cpi",0.3,2003,3,2003,NA,0.5,4.05026127773643,4.96613272824906,2.71189071546809,4.59645517963757,FALSE,4.73978734270789
"CAN","cpi",0.3,2003,3,2002,NA,1,3.26823625708021,4.18410770759284,2.71189071546809,4.33746529644743,FALSE,2.50543014083298
"CAN","cpi",0.3,2003,3,2002,NA,1.5,2.51266538879891,3.42853683931154,2.71189071546809,2.71468890277684,TRUE,0.915871450512626
"CAN","cpi",0.3,2004,3,2004,NA,0,1.59754393493069,1.73554486731511,1.83151661303942,1.7684769390021,FALSE,0.412205920168176
"CAN","cpi",0.3,2004,3,2004,NA,0.5,2.05864912782017,2.95272278443144,1.83151661303942,1.5625176897836,FALSE,1.54302369884198
"CAN","cpi",0.3,2004,3,2003,NA,1,0.998142539179032,1.90371958636904,1.83151661303942,1.41754396673829,TRUE,0.905577047190012
"CAN","cpi",0.3,2004,3,2003,NA,1.5,4.82335722989251,6.00539513061422,1.83151661303942,5.32651436309904,FALSE,9.73015394887339
"CAN","cpi",0.3,2005,3,2005,NA,0,1.56980030529277,1.69876035746068,2.18071628336509,2.38196957660787,FALSE,1.50597698332336
"CAN","cpi",0.3,2005,3,2005,NA,0.5,1.84442134065407,2.54392662416568,2.18071628336509,1.57253942332725,TRUE,0.699505283511605
"CAN","cpi",0.3,2005,3,2004,NA,1,0.763235012236465,1.46274029574807,2.18071628336509,0.993232956459974,FALSE,2.75086524813167
"CAN","cpi",0.3,2005,3,2004,NA,1.5,1.99961164395569,2.72180224639841,2.18071628336509,2.05989686108521,TRUE,0.722190602442722
"CAN","cpi",0.3,2006,3,2006,NA,0,1.54641521421641,1.68768946679432,1.97519342012289,2.0667253719809,FALSE,0.962714119230958
"CAN","cpi",0.3,2006,3,2006,NA,0.5,2.19986302377193,2.95762733455964,1.97519342012289,1.93779395271753,FALSE,1.39967746407069
"CAN","cpi",0.3,2006,3,2005,NA,1,2.76506928610045,3.54428848721322,1.97519342012289,3.47726378201784,FALSE,3.03600738962009
"CAN","cpi",0.3,2006,3,2005,NA,1.5,1.43281063824308,2.21202983935586,1.97519342012289,1.38669164389589,TRUE,0.779219201112774
