isdrw/probabilistic-benchmark-forecasts/results/linear_quantile_regression_lag/ldr_lag_prediction_rw_2026-02-18_16-02-44.csv
"country","target","tau","target_year","target_quarter","forecast_year","forecast_quarter","horizon","lower_bound","upper_bound","truth_value","prediction","covered","IS"
"CAN","cpi",0.1,1952,3,1952,NA,0,2.64527271745819,2.64527271745819,2.55562336095485,2.49651395855886,FALSE,0.199220792229653
"CAN","cpi",0.1,1952,3,1952,NA,0.5,4.64708352400922,4.64708352400922,2.55562336095485,3.9078404779387,FALSE,4.64768925123195
"CAN","cpi",0.1,1952,3,1951,NA,1,5.05153570664352,5.05153570664352,2.55562336095485,8.88778808098424,FALSE,5.54647187930816
"CAN","cpi",0.1,1952,3,1951,NA,1.5,-2.08456555426656,-2.08456555426656,2.55562336095485,10.076419411745,FALSE,10.3115309227142
"CAN","cpi",0.1,1953,3,1953,NA,0,-0.556020721546925,-0.556020721546925,-1.01492775838436,-0.954275034924989,FALSE,1.01979341519431
"CAN","cpi",0.1,1953,3,1953,NA,0.5,1.50845601208407,1.50845601208407,-1.01492775838436,-2.19876634474816,FALSE,5.60751948992986
"CAN","cpi",0.1,1953,3,1952,NA,1,-0.689158425295828,-0.689158425295828,-1.01492775838436,-1.18145267469342,FALSE,0.723931851307854
"CAN","cpi",0.1,1953,3,1952,NA,1.5,-13.5792327892636,0.941707713831397,-1.01492775838436,0.93216905581622,TRUE,14.520940503095
"CAN","cpi",0.1,1954,3,1954,NA,0,0.820656900003211,0.851973103533284,0.644425455961438,0.879731201855888,FALSE,0.422941634734013
"CAN","cpi",0.1,1954,3,1954,NA,0.5,0.783953483158414,0.815269686688487,0.644425455961438,-0.358875738913824,FALSE,0.341378486190019
"CAN","cpi",0.1,1954,3,1953,NA,1,8.39158532723371,8.42290153076379,0.644425455961438,3.38326531029323,FALSE,17.2472270285796
"CAN","cpi",0.1,1954,3,1953,NA,1.5,-4.7680330677025,-4.73671686417242,0.644425455961438,-2.85717744192413,FALSE,11.989410248272
"CAN","cpi",0.1,1955,3,1955,NA,0,0.0302371640604617,0.0218443182572527,0.173649026558865,0.115254687233858,FALSE,0.328950950422596
"CAN","cpi",0.1,1955,3,1955,NA,0.5,0.366637052278032,0.366637052278032,0.173649026558865,-0.770970046821609,FALSE,0.428862279375926
"CAN","cpi",0.1,1955,3,1954,NA,1,1.85743803045856,5.76139303252045,0.173649026558865,3.47019599757395,FALSE,7.64570834406122
"CAN","cpi",0.1,1955,3,1954,NA,1.5,0.616391034529434,4.52034603659132,0.173649026558865,-1.89562740163941,FALSE,4.88782613088537
"CAN","cpi",0.1,1956,3,1956,NA,0,1.66370761080511,1.38319085198213,1.32752769429961,1.56059797998755,FALSE,0.466549722300365
"CAN","cpi",0.1,1956,3,1956,NA,0.5,0.503630473192846,0.223113714369863,1.32752769429961,-0.709146002056511,FALSE,2.17373652990978
"CAN","cpi",0.1,1956,3,1955,NA,1,-0.136922516917931,-0.417439275740914,1.32752769429961,0.884549626974225,FALSE,3.59718761904484
"CAN","cpi",0.1,1956,3,1955,NA,1.5,-1.12473590136594,-1.40525266018892,1.32752769429961,-1.89150615642833,FALSE,5.79232847337375
"CAN","cpi",0.1,1957,3,1957,NA,0,3.33062197186126,3.33062197186126,3.24684755852518,3.4151370317006,FALSE,0.186165362969066
"CAN","cpi",0.1,1957,3,1957,NA,0.5,3.13432875327049,3.13432875327049,3.24684755852518,2.23982631608766,FALSE,0.250041789454857
"CAN","cpi",0.1,1957,3,1956,NA,1,2.04414186838083,5.35246150799622,3.24684755852518,6.98754636690555,TRUE,3.30831963961538
"CAN","cpi",0.1,1957,3,1956,NA,1.5,1.47983707595405,5.04848771065464,3.24684755852518,-1.88668623310337,TRUE,3.56865063470059
"CAN","cpi",0.1,1958,3,1958,NA,0,2.13047015133532,2.1514069819905,2.33186388641149,2.22387249143335,FALSE,0.42195217381293
"CAN","cpi",0.1,1958,3,1958,NA,0.5,3.0539702704701,3.07490710112528,2.33186388641149,2.22839060734872,FALSE,1.62561768411877
"CAN","cpi",0.1,1958,3,1957,NA,1,1.71724074830726,1.73817757896245,2.33186388641149,4.42088197051908,FALSE,1.3402397360975
"CAN","cpi",0.1,1958,3,1957,NA,1.5,2.94814085578628,3.02620176136707,2.33186388641149,0.91301479707402,FALSE,1.44756528196921
"CAN","cpi",0.1,1959,3,1959,NA,0,1.18383602092464,1.18383602092464,1.19382698397654,1.24991216431293,FALSE,0.0222021401153283
"CAN","cpi",0.1,1959,3,1959,NA,0.5,1.4341820407046,1.4341820407046,1.19382698397654,0.437839731590327,FALSE,0.534122348284586
"CAN","cpi",0.1,1959,3,1958,NA,1,0.493282487974563,1.45984917461516,1.19382698397654,1.75862762885946,TRUE,0.966566686640599
"CAN","cpi",0.1,1959,3,1958,NA,1.5,-0.979298228458659,0.344586894642878,1.19382698397654,1.77407172713766,FALSE,3.21108532162079
"CAN","cpi",0.1,1960,3,1960,NA,0,0.93869052227951,0.950230672898538,1.34209404870695,1.02361304259477,FALSE,0.882347652415503
"CAN","cpi",0.1,1960,3,1960,NA,0.5,1.46845095216564,1.53150214579059,1.34209404870695,0.53898348018166,FALSE,0.343844312422037
"CAN","cpi",0.1,1960,3,1959,NA,1,2.08591717311134,2.14896836673629,1.34209404870695,3.95759373689442,FALSE,1.71599147007915
"CAN","cpi",0.1,1960,3,1959,NA,1.5,1.49731310749791,1.78500015162464,1.34209404870695,-0.873476815404885,FALSE,0.632618285884418
"CAN","cpi",0.1,1961,3,1961,NA,0,0.929626659720791,0.935320278529003,1.00921348094007,1.00921348094007,FALSE,0.169900735277254
"CAN","cpi",0.1,1961,3,1961,NA,0.5,1.87222916529251,1.87792278410073,1.00921348094007,1.00921348094007,FALSE,1.92350625070253
"CAN","cpi",0.1,1961,3,1960,NA,1,-0.0977450361381466,0.48328076044239,1.00921348094007,0.0537704626035329,FALSE,1.74976517546427
"CAN","cpi",0.1,1961,3,1960,NA,1.5,1.49134909156907,2.0723748881496,1.00921348094007,-0.862181798940035,FALSE,1.65243826464497
"CAN","cpi",0.1,1962,3,1962,NA,0,1.03212117289848,1.09248211177432,1.04957947883042,1.10232402731478,TRUE,0.0603609388758422
"CAN","cpi",0.1,1962,3,1962,NA,0.5,0.880889019735939,0.941249958611781,1.04957947883042,0,FALSE,0.301093206028363
"CAN","cpi",0.1,1962,3,1961,NA,1,0.643102823791078,0.977611965777392,1.04957947883042,0,FALSE,0.494436948770811
"CAN","cpi",0.1,1962,3,1961,NA,1.5,0.346413335433903,0.763106231038697,1.04957947883042,0,FALSE,1.05330011291972
"CAN","cpi",0.1,1963,3,1963,NA,0,1.84266242603412,1.85934360372247,1.60677118395228,1.91491729531202,FALSE,0.540883937870207
"CAN","cpi",0.1,1963,3,1963,NA,0.5,1.7325321156608,1.81245824913891,1.60677118395228,0.836828714617504,FALSE,0.359394870608145
"CAN","cpi",0.1,1963,3,1962,NA,1,1.67042771345182,1.75035384692993,1.60677118395228,2.56411490415144,FALSE,0.221385087921522
"CAN","cpi",0.1,1963,3,1962,NA,1.5,0.800083321198201,0.880009454676312,1.60677118395228,0,FALSE,1.69495219853583
"CAN","cpi",0.1,1964,3,1964,NA,0,1.92000758101382,1.94028188747236,1.88764670034376,1.98877256446048,FALSE,0.0921873746142297
"CAN","cpi",0.1,1964,3,1964,NA,0.5,2.17029000011136,2.22064763756867,1.88764670034376,1.38369006227607,FALSE,0.678453859163083
"CAN","cpi",0.1,1964,3,1963,NA,1,2.6227780947552,2.70300121074929,1.88764670034376,5.39044290347256,FALSE,1.7138484369084
"CAN","cpi",0.1,1964,3,1963,NA,1.5,1.28183864125674,1.49343025132965,1.88764670034376,0,FALSE,1.0876281634376
"CAN","cpi",0.1,1965,3,1965,NA,0,2.27123340142226,2.29932715677056,2.29538304394236,2.34557047418999,TRUE,0.0280937553483005
"CAN","cpi",0.1,1965,3,1965,NA,0.5,2.28610866011996,2.42746560216401,2.29538304394236,1.61079447956654,TRUE,0.141356942044055
"CAN","cpi",0.1,1965,3,1964,NA,1,1.48576082225424,1.64511958341985,2.29538304394236,2.42518862179847,FALSE,1.60438867343786
"CAN","cpi",0.1,1965,3,1964,NA,1.5,1.22065096522192,1.38000972638753,2.29538304394236,0.818102552316399,FALSE,2.19352168906523
"CAN","cpi",0.1,1966,3,1966,NA,0,3.75862785753831,3.77012076575936,3.72486065470629,3.82010987863709,FALSE,0.0865311367366539
"CAN","cpi",0.1,1966,3,1966,NA,0.5,4.4672906770655,4.64677926948072,3.72486065470629,3.99123398895563,FALSE,1.82933308654679
"CAN","cpi",0.1,1966,3,1965,NA,1,1.66040576947696,1.83989436189218,3.72486065470629,3.20722068745854,FALSE,4.36830257644658
"CAN","cpi",0.1,1966,3,1965,NA,1.5,1.14991877001833,1.32940736243355,3.72486065470629,1.60663824631958,FALSE,5.50271813079908
"CAN","cpi",0.1,1967,3,1967,NA,0,3.72296914139706,3.73754025392183,3.49360316391996,3.76768849328632,FALSE,0.524273284696107
"CAN","cpi",0.1,1967,3,1967,NA,0.5,2.90337255578081,2.93110477843194,3.49360316391996,2.4074547441976,FALSE,1.27772863484672
"CAN","cpi",0.1,1967,3,1966,NA,1,1.79035844790178,1.81809067055291,3.49360316391996,3.18103323070284,FALSE,3.75109331902235
"CAN","cpi",0.1,1967,3,1966,NA,1.5,0.89231059939509,0.920042822046218,3.49360316391996,4.65128160487248,FALSE,5.74675520459278
"CAN","cpi",0.1,1968,3,1968,NA,0,4.09289762521196,4.13806693265413,3.95128347779386,4.17287945672396,FALSE,0.359867412815735
"CAN","cpi",0.1,1968,3,1968,NA,0.5,4.39807338352904,4.51066488070918,3.95128347779386,4.07097205779852,FALSE,1.10545795436943
"CAN","cpi",0.1,1968,3,1967,NA,1,2.46054966465249,2.65778421829586,3.95128347779386,5.84521682123848,FALSE,3.0716773525278
"CAN","cpi",0.1,1968,3,1967,NA,1.5,1.70702701691512,1.90426157055848,3.95128347779386,2.25565858240226,FALSE,4.74617212527752
"CAN","cpi",0.1,1969,3,1969,NA,0,4.51920204894004,4.55805531490397,4.42679496126681,4.59520664360618,FALSE,0.244202349682205
"CAN","cpi",0.1,1969,3,1969,NA,0.5,3.28360630624636,3.43126513625651,4.42679496126681,2.96612019395715,FALSE,2.35994733003305
"CAN","cpi",0.1,1969,3,1968,NA,1,2.86566510596354,3.01332393597369,4.42679496126681,6.72487630040807,FALSE,3.28870555288376
"CAN","cpi",0.1,1969,3,1968,NA,1.5,1.27750030780949,1.81503345612365,4.42679496126681,4.31664452944541,FALSE,6.34144760418786
"CAN","cpi",0.1,1970,3,1970,NA,0,3.53625119666826,3.54596628426503,3.28128405769805,3.60761538249925,FALSE,0.5763087297528
"CAN","cpi",0.1,1970,3,1970,NA,0.5,4.57974468534233,4.69111438252977,3.28128405769805,4.36016077421692,FALSE,2.99683775861918
"CAN","cpi",0.1,1970,3,1969,NA,1,2.29705415207462,2.40842384926207,3.28128405769805,4.91369447805135,FALSE,2.05105904926739
"CAN","cpi",0.1,1970,3,1969,NA,1.5,2.44263845133118,2.55400814851862,3.28128405769805,2.07973847283129,FALSE,1.72753838425283
"CAN","cpi",0.1,1971,3,1971,NA,0,2.80998840810454,2.85109646190634,2.64123406634756,2.91872900980337,FALSE,0.41611770215063
"CAN","cpi",0.1,1971,3,1971,NA,0.5,1.96842178258413,2.07609706834373,2.64123406634756,1.38357105636307,FALSE,1.36353528132367
"CAN","cpi",0.1,1971,3,1970,NA,1,1.83920895254321,1.94688423830281,2.64123406634756,3.17686610979278,FALSE,1.65067490363682
"CAN","cpi",0.1,1971,3,1970,NA,1.5,0.880668739678097,1.45365479831779,2.64123406634756,4.62066312326275,FALSE,3.21205109870585
"CAN","cpi",0.1,1972,3,1972,NA,0,4.95454560942325,5.06146371374725,4.83230569625923,5.17210692165851,FALSE,0.378562355799591
"CAN","cpi",0.1,1972,3,1972,NA,0.5,4.84345595729063,4.97970684116284,4.83230569625923,4.76224255478946,FALSE,0.161029241719766
"CAN","cpi",0.1,1972,3,1971,NA,1,3.0563611082947,3.19261199216691,4.83230569625923,6.83863498061675,FALSE,3.78001467074403
"CAN","cpi",0.1,1972,3,1971,NA,1.5,1.82173992618353,2.29274130956958,4.83230569625923,1.95441162589064,FALSE,6.11447779825194
"CAN","cpi",0.1,1973,3,1973,NA,0,7.13813958298956,7.13827508349995,7.12388603531779,7.41057825703995,FALSE,0.0318100508921082
"CAN","cpi",0.1,1973,3,1973,NA,0.5,6.00637988481463,6.30871832156796,7.12388603531779,6.24191401313708,FALSE,2.11382224508628
"CAN","cpi",0.1,1973,3,1972,NA,1,3.4877039388168,4.91489268593088,7.12388603531779,8.12590883681935,FALSE,6.33606285686277
"CAN","cpi",0.1,1973,3,1972,NA,1.5,1.92582035894221,3.35300910605629,7.12388603531779,4.96130694391223,FALSE,9.80691525658408
"CAN","cpi",0.1,1974,3,1974,NA,0,9.92008472142003,9.91527405806825,10.2717243737774,10.2919804098732,FALSE,0.787301149335268
"CAN","cpi",0.1,1974,3,1974,NA,0.5,8.35307595635943,8.84104265927261,10.2717243737774,9.01679902243293,FALSE,3.66725940181275
"CAN","cpi",0.1,1974,3,1973,NA,1,4.83999148190753,6.19556882400582,10.2717243737774,11.5076386824751,FALSE,10.4137007860352
"CAN","cpi",0.1,1974,3,1973,NA,1.5,3.18488933357278,4.54046667567107,10.2717243737774,7.03851017911898,FALSE,14.0917055601124
"CAN","cpi",0.1,1975,3,1975,NA,0,10.0261325266056,10.2375570579615,10.0232981493341,10.3166994702432,FALSE,0.217723147514712
"CAN","cpi",0.1,1975,3,1975,NA,0.5,8.73779359597083,9.05951344014542,10.0232981493341,8.87817825771755,FALSE,2.46346364237171
"CAN","cpi",0.1,1975,3,1974,NA,1,6.26773964168289,6.65605414208071,10.0232981493341,11.6634485116586,FALSE,7.87107896096095
"CAN","cpi",0.1,1975,3,1974,NA,1.5,5.45981052867377,6.40736884120467,10.0232981493341,9.09165939347615,FALSE,8.98295677504079
"CAN","cpi",0.1,1976,3,1976,NA,0,7.09940281572928,7.08838945885698,7.22784311401172,7.25911367403926,FALSE,0.298883654582659
"CAN","cpi",0.1,1976,3,1976,NA,0.5,7.52952806118533,7.51851470431303,7.22784311401172,7.22502565269042,FALSE,0.659397636846834
"CAN","cpi",0.1,1976,3,1975,NA,1,8.79392881407562,10.145666478281,7.22784311401172,12.4780790437784,FALSE,4.83192810879182
"CAN","cpi",0.1,1976,3,1975,NA,1.5,5.49038213393988,6.84211979814526,7.22784311401172,7.18586013837568,FALSE,2.20890058835306
"CAN","cpi",0.1,1977,3,1977,NA,0,7.35835360460925,7.5098016637321,7.58101410153764,7.59139014959698,FALSE,0.309697920912944
"CAN","cpi",0.1,1977,3,1977,NA,0.5,7.30516881827357,7.60073434028527,7.58101410153764,7.25038656554249,TRUE,0.295565522011701
"CAN","cpi",0.1,1977,3,1976,NA,1,3.58511336974482,4.23182389775574,7.58101410153764,5.92994518665441,FALSE,8.08935542530405
"CAN","cpi",0.1,1977,3,1976,NA,1.5,4.62826986644304,5.55738350814298,7.58101410153764,5.68954314963938,FALSE,5.42607051591031
"CAN","cpi",0.1,1978,3,1978,NA,0,8.45819010571112,8.55673586483084,8.50208927062595,8.68881076810062,TRUE,0.0985457591197232
"CAN","cpi",0.1,1978,3,1978,NA,0.5,8.34600846678192,8.44455422590165,8.50208927062595,8.11208508764938,FALSE,0.226401414062609
"CAN","cpi",0.1,1978,3,1977,NA,1,5.55857049560939,6.1915926703029,8.50208927062595,8.34671923233743,FALSE,5.76745906430028
"CAN","cpi",0.1,1978,3,1977,NA,1.5,5.59144390277335,6.22446607746686,8.50208927062595,8.21410731625775,FALSE,5.69440704838036
"CAN","cpi",0.1,1979,3,1979,NA,0,8.41479965231987,8.45796045127088,8.65147652410481,8.56136533364911,FALSE,0.473196516359736
"CAN","cpi",0.1,1979,3,1979,NA,0.5,8.46768358275741,8.51084438170842,8.65147652410481,8.23092589685401,FALSE,0.355676670942992
"CAN","cpi",0.1,1979,3,1978,NA,1,7.27742063190665,8.30395794390669,8.65147652410481,9.66481845899329,FALSE,1.79880082355141
"CAN","cpi",0.1,1979,3,1978,NA,1.5,6.44913338949605,7.9167662290304,8.65147652410481,7.91014806370246,FALSE,3.10032238414415
"CAN","cpi",0.1,1980,3,1980,NA,0,9.35371117272507,9.44343772583676,9.5171912664748,9.53576705858497,FALSE,0.253623310085109
"CAN","cpi",0.1,1980,3,1980,NA,0.5,8.89752001502417,8.98724656813586,9.5171912664748,8.6434746104286,FALSE,1.26738143830933
"CAN","cpi",0.1,1980,3,1979,NA,1,7.10446443570424,7.60508740187163,9.5171912664748,7.78967249140325,FALSE,4.74974266528554
"CAN","cpi",0.1,1980,3,1979,NA,1.5,6.5678955661926,8.63939841702028,9.5171912664748,8.29781572565185,FALSE,4.02215362739326
"CAN","cpi",0.1,1981,3,1981,NA,0,11.5909455680657,11.6694143021722,11.5813425032741,11.7120328235834,FALSE,0.0998088780877073
"CAN","cpi",0.1,1981,3,1981,NA,0.5,12.3836055546647,12.4620742887713,11.5813425032741,12.3296185245412,FALSE,1.86127551497452
"CAN","cpi",0.1,1981,3,1980,NA,1,9.22178335420623,9.37366046423924,11.5813425032741,11.0356264341109,FALSE,5.05783719677723
"CAN","cpi",0.1,1981,3,1980,NA,1.5,8.31140102538734,9.35555788259513,11.5813425032741,8.52474858684185,FALSE,5.99034490316115
"CAN","cpi",0.1,1982,3,1982,NA,0,10.1965133522132,10.2002826055197,10.1124203763629,10.253224031375,FALSE,0.19064253297378
"CAN","cpi",0.1,1982,3,1982,NA,0.5,10.2222945238653,10.3573400825128,10.1124203763629,10.1221315066235,FALSE,0.3792103308749
"CAN","cpi",0.1,1982,3,1981,NA,1,10.8802865998411,11.0897368977512,10.1124203763629,11.652777546881,FALSE,1.91581968341707
"CAN","cpi",0.1,1982,3,1981,NA,1.5,11.6163349332624,11.8257852311725,10.1124203763629,13.2139534836213,FALSE,3.5514826465756
"CAN","cpi",0.1,1983,3,1983,NA,0,5.80262680065949,5.82946646754615,5.67091787896303,5.84362752346853,FALSE,0.319526159545451
"CAN","cpi",0.1,1983,3,1983,NA,0.5,5.10693348775332,5.14581085753889,5.67091787896303,4.70635148143536,FALSE,1.20578186183922
"CAN","cpi",0.1,1983,3,1982,NA,1,8.48453662232744,8.68370591243471,5.67091787896303,8.61437359933683,FALSE,6.45165538647262
"CAN","cpi",0.1,1983,3,1982,NA,1.5,8.55653215268521,9.62759769869583,5.67091787896303,9.84330302935538,FALSE,7.48354170983769
"CAN","cpi",0.1,1984,3,1984,NA,0,4.11548326028236,4.15509258878645,4.19799576814029,4.21315663178917,FALSE,0.134949727068175
"CAN","cpi",0.1,1984,3,1984,NA,0.5,5.24369353399335,5.35771178958171,4.19799576814029,4.73004206452632,FALSE,2.43779106859516
"CAN","cpi",0.1,1984,3,1983,NA,1,5.10632698189533,5.60800724113534,4.19799576814029,6.30529961834119,FALSE,2.52019406758455
"CAN","cpi",0.1,1984,3,1983,NA,1.5,4.40737812924894,6.40590966378841,4.19799576814029,2.81189439817776,FALSE,2.46382567033648
"CAN","cpi",0.1,1985,3,1985,NA,0,3.78455554536044,3.83106850268805,3.86444262005169,3.90546894544143,FALSE,0.120677662580148
"CAN","cpi",0.1,1985,3,1985,NA,0.5,4.53023165831461,4.62906219080352,3.86444262005169,4.0117649915267,FALSE,1.57836172862874
"CAN","cpi",0.1,1985,3,1984,NA,1,3.11982856206316,3.46751680537943,3.86444262005169,3.28942198062367,FALSE,1.22974560925463
"CAN","cpi",0.1,1985,3,1984,NA,1.5,4.34773527796179,4.69542352127807,3.86444262005169,4.67970369844593,FALSE,1.42167192756094
"CAN","cpi",0.1,1986,3,1986,NA,0,4.05885783291767,4.00221293580969,4.08685396749431,4.12727747445429,FALSE,0.13144628441339
"CAN","cpi",0.1,1986,3,1986,NA,0.5,5.14024596496317,5.08360106785519,4.08685396749431,4.57514120825518,FALSE,2.28422620837838
"CAN","cpi",0.1,1986,3,1985,NA,1,3.52685441100523,3.47020951389725,4.08685396749431,3.84501750700332,FALSE,1.31367611088548
"CAN","cpi",0.1,1986,3,1985,NA,1.5,3.9699928249941,3.91334792788612,4.08685396749431,4.51624000588938,FALSE,0.328924079799118
"CAN","cpi",0.1,1987,3,1987,NA,0,4.23872447876959,4.2634519323868,4.23980729277887,4.3376164199738,TRUE,0.0247274536172135
"CAN","cpi",0.1,1987,3,1987,NA,0.5,4.41837273991162,4.49834605234281,4.23980729277887,3.8898385702312,FALSE,0.476785417170632
"CAN","cpi",0.1,1987,3,1986,NA,1,3.93049830982888,4.0755697016744,4.23980729277887,4.56284936423577,FALSE,0.510043816522124
"CAN","cpi",0.1,1987,3,1986,NA,1.5,4.2438938076243,4.38896519946982,4.23980729277887,5.15474659430673,FALSE,0.154152535946479
"CAN","cpi",0.1,1988,3,1988,NA,0,3.90945713767788,3.93006259801837,3.92899537638065,4.00028299604827,TRUE,0.0206054603404873
"CAN","cpi",0.1,1988,3,1988,NA,0.5,4.0738756405475,4.1576169981383,3.92899537638065,3.53181278911538,FALSE,0.405697500183785
"CAN","cpi",0.1,1988,3,1987,NA,1,3.81091900527946,4.16466914761566,3.92899537638065,4.34173286045961,TRUE,0.3537501423362
"CAN","cpi",0.1,1988,3,1987,NA,1.5,3.93468995254044,4.47837961340018,3.92899537638065,3.76612293581706,FALSE,0.556344274548157
"CAN","cpi",0.1,1989,3,1989,NA,0,4.89358498498533,4.9132576752727,4.82821664544208,5.00606812502784,FALSE,0.164935667050155
"CAN","cpi",0.1,1989,3,1989,NA,0.5,4.99171064430321,5.07558929539239,4.82821664544208,4.51521437972404,FALSE,0.447198648558355
"CAN","cpi",0.1,1989,3,1988,NA,1,3.64703745860762,3.99830911866664,4.82821664544208,4.3270389784901,FALSE,2.19551060844887
"CAN","cpi",0.1,1989,3,1988,NA,1.5,3.71526941220632,4.19682283532405,4.82821664544208,3.42699250808196,FALSE,1.88465077893557
"CAN","cpi",0.1,1990,3,1990,NA,0,4.43200572642489,4.44969873381089,4.64347549432717,4.52171223749059,FALSE,0.448308030755504
"CAN","cpi",0.1,1990,3,1990,NA,0.5,5.50190304626878,5.723372511616,4.64347549432717,5.22335253259958,FALSE,2.12908624743969
"CAN","cpi",0.1,1990,3,1989,NA,1,4.59376917963073,5.03160968312472,4.64347549432717,5.7236432392913,TRUE,0.437840503493991
"CAN","cpi",0.1,1990,3,1989,NA,1.5,4.48612614222579,4.97846725524087,4.64347549432717,4.92041342133377,TRUE,0.492341113015083
"CAN","cpi",0.1,1991,3,1991,NA,0,5.50543645781179,5.52284270626274,5.4258100696218,5.6161816682171,FALSE,0.194353777762048
"CAN","cpi",0.1,1991,3,1991,NA,0.5,8.77973488718254,8.99493449721933,5.4258100696218,8.8240510060175,FALSE,7.66836587128289
"CAN","cpi",0.1,1991,3,1990,NA,1,3.91732666300699,4.13252627304377,5.4258100696218,3.89170713423419,FALSE,3.08916360243239
"CAN","cpi",0.1,1991,3,1990,NA,1.5,4.65506242292524,4.87026203296203,5.4258100696218,5.70462042447442,FALSE,1.44975080261405
"CAN","cpi",0.1,1992,3,1992,NA,0,1.61654118886392,1.29413791391567,1.47496888572843,1.47544467241393,FALSE,0.394048447158968
"CAN","cpi",0.1,1992,3,1992,NA,0.5,2.28805309099625,1.965649816048,1.47496888572843,1.36069384263819,FALSE,1.48445051453579
"CAN","cpi",0.1,1992,3,1991,NA,1,3.98892238368152,3.66651910873328,1.47496888572843,2.43500720778875,FALSE,5.2641600538364
"CAN","cpi",0.1,1992,3,1991,NA,1.5,6.13830376024171,5.81590048529346,1.47496888572843,11.2072976243743,FALSE,10.040563112859
"CAN","cpi",0.1,1993,3,1993,NA,0,1.72299786919106,1.73643773817813,1.84351085411351,1.81496037239602,FALSE,0.251380126621257
"CAN","cpi",0.1,1993,3,1993,NA,0.5,3.04167528384132,3.05511515282839,1.84351085411351,2.43338635087472,FALSE,2.67602749060443
"CAN","cpi",0.1,1993,3,1992,NA,1,1.66030083821464,1.67374070720171,1.84351085411351,1.76228766319361,FALSE,0.390706862124409
"CAN","cpi",0.1,1993,3,1992,NA,1.5,1.89203218965612,1.90547205864319,1.84351085411351,1.598750613598,FALSE,0.121265059081752
"CAN","cpi",0.1,1994,3,1994,NA,0,0.208782919984536,0.157166778744486,0.161630694655448,0.220147227157928,FALSE,0.06308639484895
"CAN","cpi",0.1,1994,3,1994,NA,0.5,0.199214700265954,0.147598559025904,0.161630694655448,-0.741542526043691,FALSE,0.06308639484895
"CAN","cpi",0.1,1994,3,1993,NA,1,1.75761308060276,1.70599693936271,0.161630694655448,1.50794631797803,FALSE,3.49501138308732
"CAN","cpi",0.1,1994,3,1993,NA,1.5,2.00707682823457,1.95546068699452,0.161630694655448,2.81797717341095,FALSE,4.04937526671355
"CAN","cpi",0.1,1995,3,1995,NA,0,2.03369265293415,2.05733766983442,2.11688403676572,2.15484685959489,FALSE,0.155970276747586
"CAN","cpi",0.1,1995,3,1995,NA,0.5,3.40590248282922,3.526051004996,2.11688403676572,2.90883921660758,FALSE,2.98463395786345
"CAN","cpi",0.1,1995,3,1994,NA,1,0.945502169315619,1.43889593587033,2.11688403676572,1.95173420121315,FALSE,2.00003399076668
"CAN","cpi",0.1,1995,3,1994,NA,1.5,0.686362736566088,1.2969566953108,2.11688403676572,-2.17983456081826,FALSE,2.43265471753342
"CAN","cpi",0.1,1996,3,1996,NA,0,1.44412314221981,1.31863517606302,1.55309584667184,1.44166889374788,FALSE,0.39553574630726
"CAN","cpi",0.1,1996,3,1996,NA,0.5,2.10959629888323,1.98410833272645,1.55309584667184,1.36236766996786,FALSE,1.11117970542408
"CAN","cpi",0.1,1996,3,1995,NA,1,1.62932284665587,1.50383488049909,1.55309584667184,0.911474268150699,FALSE,0.153374180858289
"CAN","cpi",0.1,1996,3,1995,NA,1.5,2.15099777874149,2.02550981258471,1.55309584667184,3.98784768949811,FALSE,1.20318299399799
"CAN","cpi",0.1,1997,3,1997,NA,0,1.60997537396794,1.6320594149368,1.60528783555959,1.68811714545079,FALSE,0.0325007929874151
"CAN","cpi",0.1,1997,3,1997,NA,0.5,2.67900957740607,2.73973278586106,1.60528783555959,2.10620867662285,FALSE,2.44677152366938
"CAN","cpi",0.1,1997,3,1996,NA,1,1.22961623772073,1.29033944617572,1.60528783555959,0.758460286059383,FALSE,0.760608518196922
"CAN","cpi",0.1,1997,3,1996,NA,1.5,1.72380351818172,1.78452672663671,1.60528783555959,1.66287852692671,FALSE,0.324091392059712
"CAN","cpi",0.1,1998,3,1998,NA,0,0.903688739461842,0.928339652464583,0.988908029337191,0.970744023070627,FALSE,0.15924730605298
"CAN","cpi",0.1,1998,3,1998,NA,0.5,2.09940984569444,2.20610603495982,0.988908029337191,1.52096865004292,FALSE,2.5744780033926
"CAN","cpi",0.1,1998,3,1997,NA,1,1.36820075937519,1.49949600606497,0.988908029337191,1.03996058978499,FALSE,0.974167980107563
"CAN","cpi",0.1,1998,3,1997,NA,1.5,1.47225957801759,1.60355482470737,0.988908029337191,2.22059574107629,FALSE,1.20540979931288
"CAN","cpi",0.1,1999,3,1999,NA,0,1.7020986185702,1.72595355135881,1.7107350135213,1.79141464940687,TRUE,0.0238549327886113
"CAN","cpi",0.1,1999,3,1999,NA,0.5,1.42382788860854,1.53758269599033,1.7107350135213,0.800552372711202,FALSE,0.498537735228373
"CAN","cpi",0.1,1999,3,1998,NA,1,0.838913959169819,0.952668766551608,1.7107350135213,0.474525424909611,FALSE,1.79834646731443
"CAN","cpi",0.1,1999,3,1998,NA,1.5,0.719634741833187,0.833389549214976,1.7107350135213,2.19776497346126,FALSE,2.06341139472917
"CAN","cpi",0.1,2000,3,2000,NA,0,2.63475910169063,2.66104993355122,2.6718361971244,2.73388860624727,FALSE,0.0502603064676498
"CAN","cpi",0.1,2000,3,2000,NA,0.5,2.6110796966318,2.73040575668031,2.6718361971244,2.11525832235237,TRUE,0.119326060048504
"CAN","cpi",0.1,2000,3,1999,NA,1,2.09222301814833,2.39536488675542,2.6718361971244,2.81438082878813,FALSE,0.917522558315928
"CAN","cpi",0.1,2000,3,1999,NA,1.5,1.99358484549191,2.296726714099,2.6718361971244,0.872413614651861,FALSE,1.13671849755242
"CAN","cpi",0.1,2001,3,2001,NA,0,2.65099876473975,2.67504789034754,2.47906219852806,2.73506715681632,FALSE,0.406130383855973
"CAN","cpi",0.1,2001,3,2001,NA,0.5,2.32801445549172,2.42370358251435,2.47906219852806,1.72363549629744,FALSE,0.218708273719776
"CAN","cpi",0.1,2001,3,2000,NA,1,2.92720287853388,3.21215897520436,2.47906219852806,3.73995761394105,FALSE,1.28082427446119
"CAN","cpi",0.1,2001,3,2000,NA,1.5,2.81219280508972,3.0971489017602,2.47906219852806,1.98299961497232,FALSE,1.02524633347417
"CAN","cpi",0.1,2002,3,2002,NA,0,2.27155826520434,2.29437342474114,2.20880570551249,2.3500140093739,FALSE,0.162265292185354
"CAN","cpi",0.1,2002,3,2002,NA,0.5,2.12135312622927,2.17817186547148,2.20880570551249,1.47074452365548,FALSE,0.124893939333339
"CAN","cpi",0.1,2002,3,2001,NA,1,1.67645271125577,1.73327145049797,2.20880570551249,0.79597273109289,FALSE,1.11356152816335
"CAN","cpi",0.1,2002,3,2001,NA,1.5,3.00894921831363,3.23165270268496,2.20880570551249,0.827019109774735,FALSE,2.00080017948499
"CAN","cpi",0.1,2003,3,2003,NA,0,2.67657445583372,2.69211883895056,2.71189071546809,2.76866538316948,FALSE,0.059481886489119
"CAN","cpi",0.1,2003,3,2003,NA,0.5,4.83569782397221,4.9393639926361,2.71189071546809,4.59645517963757,FALSE,4.82323752089527
"CAN","cpi",0.1,2003,3,2002,NA,1,2.97111417170729,3.28438200251472,2.71189071546809,4.33746529644743,FALSE,0.88931995578343
"CAN","cpi",0.1,2003,3,2002,NA,1.5,1.98515712251298,2.29842495332042,2.71189071546809,2.71468890277684,FALSE,1.23208063558004
"CAN","cpi",0.1,2004,3,2004,NA,0,1.75401249704076,1.6791605824105,1.83151661303942,1.7684769390021,FALSE,0.263717042322897
"CAN","cpi",0.1,2004,3,2004,NA,0.5,2.26322144388023,2.18836952924997,1.83151661303942,1.5625176897836,FALSE,0.884492153904867
"CAN","cpi",0.1,2004,3,2003,NA,1,2.13279175179455,2.0579398371643,1.83151661303942,1.41754396673829,FALSE,0.594648393714475
"CAN","cpi",0.1,2004,3,2003,NA,1.5,2.30473302076318,2.22988110613292,1.83151661303942,5.32651436309904,FALSE,0.976740102533649
"CAN","cpi",0.1,2005,3,2005,NA,0,2.29263159709284,2.31710039652969,2.18071628336509,2.38196957660787,FALSE,0.273169496609623
"CAN","cpi",0.1,2005,3,2005,NA,0.5,2.12341688160938,2.20878631729125,2.18071628336509,1.57253942332725,TRUE,0.0853694356818693
"CAN","cpi",0.1,2005,3,2004,NA,1,1.44338690109064,1.57881602562976,2.18071628336509,0.993232956459974,FALSE,1.47298525283985
"CAN","cpi",0.1,2005,3,2004,NA,1.5,1.81325820740888,1.94868733194799,2.18071628336509,2.05989686108521,FALSE,0.651049016577114
"CAN","cpi",0.1,2006,3,2006,NA,0,1.98994185167221,2.01221507768634,1.97519342012289,2.0667253719809,FALSE,0.0550475183459572
"CAN","cpi",0.1,2006,3,2006,NA,0.5,2.47300550224602,2.54292485467365,1.97519342012289,1.93779395271753,FALSE,1.17616842381238
"CAN","cpi",0.1,2006,3,2005,NA,1,2.57065662378816,2.8928047579993,1.97519342012289,3.47726378201784,FALSE,1.64539969791175
"CAN","cpi",0.1,2006,3,2005,NA,1.5,2.39326747873225,2.71541561294339,1.97519342012289,1.38669164389589,FALSE,1.2512015977875
"CAN","cpi",0.1,2007,3,2007,NA,0,2.02713588385936,2.04041556240822,2.10062087284572,2.10807340507977,FALSE,0.147069257298864
"CAN","cpi",0.1,2007,3,2007,NA,0.5,2.84381139026959,2.94845213710711,2.10062087284572,2.41912196921498,FALSE,1.75617523000167
"CAN","cpi",0.1,2007,3,2006,NA,1,1.33919806687857,1.47754096494195,2.10062087284572,0.502333085291807,FALSE,1.52296491562732
"CAN","cpi",0.1,2007,3,2006,NA,1.5,1.98789097994581,2.16107406719241,2.10062087284572,1.9704266811846,TRUE,0.1731830872466
"CAN","cpi",0.1,2008,3,2008,NA,0,2.88261688066181,2.85586028545209,2.31447335265955,2.95401501251803,FALSE,1.23578457812863
"CAN","cpi",0.1,2008,3,2008,NA,0.5,1.82324798017021,1.79649138496048,2.31447335265955,1.1596607753752,FALSE,1.12431444412154
"CAN","cpi",0.1,2008,3,2007,NA,1,1.44928077732176,1.42252418211203,2.31447335265955,0.365030180386173,FALSE,1.95535267267365
"CAN","cpi",0.1,2008,3,2007,NA,1.5,1.78095932118737,1.75420272597765,2.31447335265955,3.74970428078329,FALSE,1.21828924186117
"CAN","cpi",0.1,2009,3,2009,NA,0,0.242785382242294,0.25005432394131,0.284533874408197,0.277323060325678,FALSE,0.0838901649587651
"CAN","cpi",0.1,2009,3,2009,NA,0.5,0.0386282821478714,0.0724741468558378,0.284533874408197,-0.926841850998946,FALSE,0.50508970371321
"CAN","cpi",0.1,2009,3,2008,NA,1,2.90577526828993,3.28487288098491,0.284533874408197,4.39167027484448,FALSE,6.20407848798772
"CAN","cpi",0.1,2009,3,2008,NA,1.5,2.43519629692014,2.81429390961512,0.284533874408197,1.30718110670587,FALSE,5.1583474404993
"CAN","cpi",0.1,2010,3,2010,NA,0,1.64604367343855,1.67482643738098,1.75525687020327,1.74893097969613,FALSE,0.207517059103082
"CAN","cpi",0.1,2010,3,2010,NA,0.5,2.07055682546245,2.15612305876659,1.75525687020327,1.60514557059791,FALSE,0.786232800546751
"CAN","cpi",0.1,2010,3,2009,NA,1,0.563565835835877,0.811179584066224,1.75525687020327,0.646877121410091,FALSE,2.34556327297934
"CAN","cpi",0.1,2010,3,2009,NA,1.5,0.762279564272428,1.19063455870729,1.75525687020327,-1.29107136836179,FALSE,1.68307124220371
"CAN","cpi",0.1,2011,3,2011,NA,0,2.74110633787114,2.76381951082566,2.85717434028225,2.83658425111878,FALSE,0.230168349524712
"CAN","cpi",0.1,2011,3,2011,NA,0.5,3.21403366717271,3.31217466304243,2.85717434028225,2.89516877702572,FALSE,0.891161722292971
"CAN","cpi",0.1,2011,3,2010,NA,1,1.95047440763791,2.07167325249918,2.85717434028225,2.19120159589417,FALSE,1.86675681771253
"CAN","cpi",0.1,2011,3,2010,NA,1.5,1.83433953271648,1.95553837757775,2.85717434028225,1.9636150267392,FALSE,2.12483431753792
"CAN","cpi",0.1,2012,3,2012,NA,0,1.41658478001899,1.43521040722554,1.50118536134935,1.46012306845465,FALSE,0.165236636370566
"CAN","cpi",0.1,2012,3,2012,NA,0.5,2.36364496747179,2.45322872276962,1.50118536134935,1.81318735388827,FALSE,2.00616065779215
"CAN","cpi",0.1,2012,3,2011,NA,1,2.17295725337578,2.33612144722759,1.50118536134935,1.0674603716489,FALSE,1.65599062057722
"CAN","cpi",0.1,2012,3,2011,NA,1.5,2.7798713908214,2.9430355846732,1.50118536134935,3.26492178435033,FALSE,3.00468870378969
"CAN","cpi",0.1,2013,3,2013,NA,0,0.985957621836694,1.00580396955918,0.931270594714462,1.03964630394149,FALSE,0.141373074660776
"CAN","cpi",0.1,2013,3,2013,NA,0.5,1.70449469771452,1.8053121893479,0.931270594714462,1.16522799725517,FALSE,1.81909327607795
"CAN","cpi",0.1,2013,3,2012,NA,1,0.845279621190565,0.94609711282394,0.931270594714462,-0.4587869493051,TRUE,0.100817491633374
"CAN","cpi",0.1,2013,3,2012,NA,1.5,1.66473211156311,1.76554960319649,0.931270594714462,1.87018597092114,FALSE,1.73073197351926
"CAN","cpi",0.1,2014,3,2014,NA,0,1.90281627028015,1.93123143770329,1.87639912240215,1.98941686448128,FALSE,0.0871199404853623
"CAN","cpi",0.1,2014,3,2014,NA,0.5,2.61695979037127,2.697424449257,1.87639912240215,2.28534818047506,FALSE,1.72615503215044
"CAN","cpi",0.1,2014,3,2013,NA,1,1.12356915582171,1.20403381470744,1.87639912240215,0.933988257976399,FALSE,1.5746097870962
"CAN","cpi",0.1,2014,3,2013,NA,1.5,0.91631177175269,0.996776430638423,1.87639912240215,1.74432822228681,FALSE,2.03518175169402
"CAN","cpi",0.1,2015,3,2015,NA,0,1.21632385248255,1.19950171990109,1.11090953952792,1.2616807067513,FALSE,0.217431896206615
"CAN","cpi",0.1,2015,3,2015,NA,0.5,0.93048824429328,0.913666111711813,1.11090953952792,0.218363095132572,FALSE,0.421496595898764
"CAN","cpi",0.1,2015,3,2014,NA,1,1.52537233095145,1.50855019836998,1.11090953952792,0.62327975322943,FALSE,0.904206292804164
"CAN","cpi",0.1,2015,3,2014,NA,1.5,1.80252878015709,1.78570664757562,1.11090953952792,3.54844533129153,FALSE,1.52010951326114
"CAN","cpi",0.1,2016,3,2016,NA,0,1.36442339508183,1.38647328390956,1.41168586698797,1.44403049252289,FALSE,0.078077851224185
"CAN","cpi",0.1,2016,3,2016,NA,0.5,1.3983903652043,1.59694502160781,1.41168586698797,0.943700860843074,TRUE,0.198554656403509
"CAN","cpi",0.1,2016,3,2015,NA,1,1.36714915107698,1.67900373102456,1.41168586698797,1.65805837950254,TRUE,0.311854579947575
"CAN","cpi",0.1,2016,3,2015,NA,1.5,1.36728051185984,1.72464156240826,1.41168586698797,0.212753204814446,TRUE,0.357361050548421
"CAN","cpi",0.1,2017,3,2017,NA,0,1.44509676746735,1.46805966502312,1.57888581671161,1.52172534057668,FALSE,0.269243234641314
"CAN","cpi",0.1,2017,3,2017,NA,0.5,2.44622812762486,2.56231325500361,1.57888581671161,2.17995751143343,FALSE,2.04351248496374
"CAN","cpi",0.1,2017,3,2016,NA,1,1.17335633845541,1.28944146583416,1.57888581671161,0.478660156386378,FALSE,0.759294795995305
"CAN","cpi",0.1,2017,3,2016,NA,1.5,1.57964222142999,1.76999727958168,1.57888581671161,1.04780579189651,FALSE,0.192035957525861
"CAN","cpi",0.1,2018,3,2018,NA,0,2.33831879376225,2.36783743682802,2.23316270166586,2.42606863838048,FALSE,0.263198847724414
"CAN","cpi",0.1,2018,3,2018,NA,0.5,3.18293317692358,3.21398486740743,2.23316270166586,3.02101124054505,FALSE,2.14165274661212
"CAN","cpi",0.1,2018,3,2017,NA,1,1.31423958851681,1.34529127900067,2.23316270166586,0.52369802733857,FALSE,2.00409929640651
"CAN","cpi",0.1,2018,3,2017,NA,1.5,1.2932063982945,1.32425808877835,2.23316270166586,3.08408184322128,FALSE,2.05083971912276
"CAN","cpi",0.1,2019,3,2019,NA,0,1.96479502860978,1.95413534040181,1.91921619871868,2.02292335146186,FALSE,0.0906266004389173
"CAN","cpi",0.1,2019,3,2019,NA,0.5,2.23009442687492,2.21943473866696,1.91921619871868,1.7605507439285,FALSE,0.680180818805906
"CAN","cpi",0.1,2019,3,2018,NA,1,2.20666611469082,2.19600642648285,1.91921619871868,1.97136692329685,FALSE,0.628117902841225
"CAN","cpi",0.1,2019,3,2018,NA,1.5,1.89044921572023,1.87978952751226,1.91921619871868,4.13001487917394,FALSE,0.0769551366951929
"CAN","cpi",0.1,2020,3,2020,NA,0,0.698563189894587,0.714046242714029,0.71139989671781,0.748237853268385,TRUE,0.0154830528194418
"CAN","cpi",0.1,2020,3,2020,NA,0.5,1.66611720015641,1.79836150755187,0.71139989671781,1.20638084891419,FALSE,2.25383831503679
"CAN","cpi",0.1,2020,3,2019,NA,1,1.72219829579412,1.8712094341153,0.71139989671781,1.33625965438418,FALSE,2.39522980293521
"CAN","cpi",0.1,2020,3,2019,NA,1.5,1.86771100003644,2.0348293977067,0.71139989671781,2.47827605395127,FALSE,2.73669862726722
"CAN","cpi",0.1,2021,3,2021,NA,0,3.22246883286472,3.26322605913713,3.31148121717802,3.36073739108717,FALSE,0.147990910807728
"CAN","cpi",0.1,2021,3,2021,NA,0.5,2.81082635164105,3.0513424941699,3.31148121717802,2.87786599282032,FALSE,0.818602193658013
"CAN","cpi",0.1,2021,3,2020,NA,1,1.25991490556642,1.50043104809527,3.31148121717802,1.80567605729774,FALSE,4.26507207382386
"CAN","cpi",0.1,2021,3,2020,NA,1.5,0.758161610713665,0.998677753242514,3.31148121717802,1.36315122932478,FALSE,5.38007939571887
"CAN","cpi",0.1,2022,3,2022,NA,0,6.42109559792707,6.46179240360555,6.50977236228281,6.58141742776733,FALSE,0.147318936072396
"CAN","cpi",0.1,2022,3,2022,NA,0.5,6.28263964062786,6.5464172720689,6.50977236228281,6.74293883776587,TRUE,0.263777631441039
"CAN","cpi",0.1,2022,3,2021,NA,1,3.6603143832058,4.00736621440056,6.50977236228281,4.82564214996571,FALSE,5.90795438204421
"CAN","cpi",0.1,2022,3,2021,NA,1.5,2.97896572312123,3.32601755431598,6.50977236228281,3.93575064315212,FALSE,7.42206251556548
"CAN","cpi",0.1,2023,3,2023,NA,0,4.00099941180583,3.96185276716301,3.78831288758619,4.01453285616146,FALSE,0.433490075845256
"CAN","cpi",0.1,2023,3,2023,NA,0.5,3.77943615413639,3.74028950949357,3.78831288758619,3.07888421739245,FALSE,0.0675719733407853
"CAN","cpi",0.1,2023,3,2022,NA,1,4.84282386568445,4.80367722104163,3.78831288758619,3.85673280569707,FALSE,2.30421108446442
"CAN","cpi",0.1,2023,3,2022,NA,1.5,5.69776403532978,5.73112755122831,3.78831288758619,8.07292283446253,FALSE,4.27658828866206
"CAN","cpi",0.1,2024,3,2023,NA,1,3.57326248209687,3.87684212462702,NA,4.07504753996503,NA,NA
"CAN","cpi",0.1,2024,3,2023,NA,1.5,3.6911315812814,4.24750782026962,NA,2.41529048319689,NA,NA
"CAN","cpi",0.2,1952,3,1952,NA,0,2.64527271745819,2.64527271745819,2.55562336095485,2.49651395855886,FALSE,0.22412339125836
"CAN","cpi",0.2,1952,3,1952,NA,0.5,4.64708352400923,4.64708352400922,2.55562336095485,3.9078404779387,FALSE,5.22865040763595
"CAN","cpi",0.2,1952,3,1951,NA,1,5.05153570664352,5.05153570664352,2.55562336095485,8.88778808098424,FALSE,6.23978086422168
"CAN","cpi",0.2,1952,3,1951,NA,1.5,-2.08456555426655,-2.08456555426656,2.55562336095485,10.076419411745,FALSE,11.6004722880535
"CAN","cpi",0.2,1953,3,1953,NA,0,-0.429376915196022,-0.682664527897827,-1.01492775838436,-0.954275034924989,FALSE,1.21058949526905
"CAN","cpi",0.2,1953,3,1953,NA,0.5,1.78796144451644,1.53467383181463,-1.01492775838436,-2.19876634474816,FALSE,6.7539353945502
"CAN","cpi",0.2,1953,3,1952,NA,1,-0.335444825973679,-0.588732438675485,-1.01492775838436,-1.18145267469342,FALSE,1.4454197183249
"CAN","cpi",0.2,1953,3,1952,NA,1.5,-13.5792327892636,0.941707713831397,-1.01492775838436,0.93216905581622,TRUE,14.520940503095
"CAN","cpi",0.2,1954,3,1954,NA,0,0.773682594708101,0.898947408828394,0.644425455961438,0.879731201855888,FALSE,0.448407660986951
"CAN","cpi",0.2,1954,3,1954,NA,0.5,1.66930068383078,2.53898978273811,0.644425455961438,-0.358875738913824,FALSE,3.43187716858069
"CAN","cpi",0.2,1954,3,1953,NA,1,7.97239887954508,8.84208797845242,0.644425455961438,3.38326531029323,FALSE,19.1896226578664
"CAN","cpi",0.2,1954,3,1953,NA,1.5,-5.18721951539113,-4.31753041648379,0.644425455961438,-2.85717744192413,FALSE,13.2745787800204
"CAN","cpi",0.2,1955,3,1955,NA,0,0.0302371640604614,0.0218443182572527,0.173649026558865,0.115254687233858,FALSE,0.371118924950822
"CAN","cpi",0.2,1955,3,1955,NA,0.5,0.366637052278032,0.366637052278032,0.173649026558865,-0.770970046821609,FALSE,0.482470064297917
"CAN","cpi",0.2,1955,3,1954,NA,1,1.56912909053388,6.04970197244514,0.173649026558865,3.47019599757395,FALSE,7.96927304184879
"CAN","cpi",0.2,1955,3,1954,NA,1.5,-0.248535785244635,4.23203709666663,0.173649026558865,-1.89562740163941,TRUE,4.48057288191126
"CAN","cpi",0.2,1956,3,1956,NA,0,1.48649029670635,1.57936332558403,1.32752769429961,1.56059797998755,FALSE,0.490279534894537
"CAN","cpi",0.2,1956,3,1956,NA,0.5,0.316935579342511,0.409808608220197,1.32752769429961,-0.709146002056511,FALSE,2.38717074407621
"CAN","cpi",0.2,1956,3,1955,NA,1,-0.323617410768266,-0.23074438189058,1.32752769429961,0.884549626974225,FALSE,3.98855321935315
"CAN","cpi",0.2,1956,3,1955,NA,1.5,-0.574128799566503,-0.0079537352971446,1.32752769429961,-1.89150615642833,FALSE,3.90487863826124
"CAN","cpi",0.2,1957,3,1957,NA,0,3.33606639684473,3.33062197186126,3.24684755852518,3.4151370317006,FALSE,0.217602670815413
"CAN","cpi",0.2,1957,3,1957,NA,0.5,3.03095685925922,3.13432875327049,3.24684755852518,2.23982631608766,FALSE,0.384668907147983
"CAN","cpi",0.2,1957,3,1956,NA,1,2.04414186838083,5.35246150799622,3.24684755852518,6.98754636690555,TRUE,3.30831963961538
"CAN","cpi",0.2,1957,3,1956,NA,1.5,1.24329087896253,5.04848771065463,3.24684755852518,-1.88668623310337,TRUE,3.8051968316921
"CAN","cpi",0.2,1958,3,1958,NA,0,2.08585088849248,2.17234381264569,2.33186388641149,2.22387249143335,FALSE,0.48529310856772
"CAN","cpi",0.2,1958,3,1958,NA,0.5,3.06443868579769,3.16042321119202,2.33186388641149,2.22839060734872,FALSE,1.92742152385984
"CAN","cpi",0.2,1958,3,1957,NA,1,1.10958364502524,2.26765006442265,2.33186388641149,4.42088197051908,FALSE,1.31860097436951
"CAN","cpi",0.2,1958,3,1957,NA,1.5,1.62676664134163,3.02620176136707,2.33186388641149,0.91301479707402,TRUE,1.39943512002545
"CAN","cpi",0.2,1959,3,1959,NA,0,1.10402182933931,1.2828783148204,1.19382698397654,1.24991216431293,TRUE,0.178856485481095
"CAN","cpi",0.2,1959,3,1959,NA,0.5,1.31588465391482,1.56294702807039,1.19382698397654,0.437839731590327,FALSE,0.552206549001266
"CAN","cpi",0.2,1959,3,1958,NA,1,0.493282487974563,1.45984917461516,1.19382698397654,1.75862762885946,TRUE,0.966566686640599
"CAN","cpi",0.2,1959,3,1958,NA,1.5,-0.97929822845866,0.446831497407367,1.19382698397654,1.77407172713766,FALSE,3.29361844228896
"CAN","cpi",0.2,1960,3,1960,NA,0,0.93869052227951,0.950230672898538,1.34209404870695,1.02361304259477,FALSE,0.991198590140062
"CAN","cpi",0.2,1960,3,1960,NA,0.5,1.38925302842417,1.56302774260307,1.34209404870695,0.53898348018166,FALSE,0.291672163471942
"CAN","cpi",0.2,1960,3,1959,NA,1,1.77900578202185,2.21886409892432,1.34209404870695,3.95759373689442,FALSE,1.53213765018972
"CAN","cpi",0.2,1960,3,1959,NA,1.5,1.45362928535111,1.89348760225358,1.34209404870695,-0.873476815404885,FALSE,0.718696408512868
"CAN","cpi",0.2,1961,3,1961,NA,0,0.926779850316685,1.05827666458507,1.00921348094007,1.00921348094007,TRUE,0.131496814268381
"CAN","cpi",0.2,1961,3,1961,NA,0.5,1.80082073238899,1.99400475238758,1.00921348094007,1.00921348094007,FALSE,2.17220214862089
"CAN","cpi",0.2,1961,3,1960,NA,1,-0.283851239432293,0.51868617294869,1.00921348094007,0.0537704626035329,FALSE,2.02885568235944
"CAN","cpi",0.2,1961,3,1960,NA,1.5,1.33267231411459,2.13520972649557,1.00921348094007,-0.862181798940035,FALSE,1.61118449531728
"CAN","cpi",0.2,1962,3,1962,NA,0,1.02106358142158,1.09868444165017,1.04957947883042,1.10232402731478,TRUE,0.0776208602285928
"CAN","cpi",0.2,1962,3,1962,NA,0.5,0.863467622144329,1.06948969691235,1.04957947883042,0,TRUE,0.206022074768017
"CAN","cpi",0.2,1962,3,1961,NA,1,0.0315627043250814,0.539659690832954,1.04957947883042,0,FALSE,1.78289645650153
"CAN","cpi",0.2,1962,3,1961,NA,1.5,0.338901620398358,0.84699860690623,1.04957947883042,0,FALSE,1.01454916631834
"CAN","cpi",0.2,1963,3,1963,NA,0,1.84266242603412,1.90444078720741,1.60677118395228,1.91491729531202,FALSE,0.651506466377876
"CAN","cpi",0.2,1963,3,1963,NA,0.5,1.63178321114204,1.82508393188125,1.60677118395228,0.836828714617504,FALSE,0.255830788713599
"CAN","cpi",0.2,1963,3,1962,NA,1,1.35949464357811,1.63325516763604,1.60677118395228,2.56411490415144,TRUE,0.273760524057939
"CAN","cpi",0.2,1963,3,1962,NA,1.5,0.602424627413302,0.876185151471241,1.60677118395228,0,FALSE,2.10022560526054
"CAN","cpi",0.2,1964,3,1964,NA,0,1.91421441722607,1.98235890826461,1.88764670034376,1.98877256446048,FALSE,0.134563783244318
"CAN","cpi",0.2,1964,3,1964,NA,0.5,2.12798301583181,2.28036202283566,1.88764670034376,1.38369006227607,FALSE,0.753219795723975
"CAN","cpi",0.2,1964,3,1963,NA,1,2.58635911792527,2.73873812492912,1.88764670034376,5.39044290347256,FALSE,1.89916005095763
"CAN","cpi",0.2,1964,3,1963,NA,1.5,1.22873003371413,1.49343025132965,1.88764670034376,0,FALSE,1.2502413401508
"CAN","cpi",0.2,1965,3,1965,NA,0,2.27123340142226,2.29932715677056,2.29538304394236,2.34557047418999,TRUE,0.0280937553483005
"CAN","cpi",0.2,1965,3,1965,NA,0.5,2.25289721261662,2.42746560216401,2.29538304394236,1.61079447956654,TRUE,0.174568389547389
"CAN","cpi",0.2,1965,3,1964,NA,1,1.35706692731642,1.65865263064887,2.29538304394236,2.42518862179847,FALSE,1.89341173656617
"CAN","cpi",0.2,1965,3,1964,NA,1.5,1.07235603536667,1.37394173869912,2.29538304394236,0.818102552316399,FALSE,2.60518896644054
"CAN","cpi",0.2,1966,3,1966,NA,0,3.75146056741426,3.77316834410792,3.72486065470629,3.82010987863709,FALSE,0.0882075584635773
"CAN","cpi",0.2,1966,3,1966,NA,0.5,4.41733334648888,4.63196800963427,3.72486065470629,3.99123398895563,FALSE,1.94581639260187
"CAN","cpi",0.2,1966,3,1965,NA,1,1.6631675449956,1.87780220814099,3.72486065470629,3.20722068745854,FALSE,4.83228077955865
"CAN","cpi",0.2,1966,3,1965,NA,1.5,1.13234573465325,1.34698039779863,3.72486065470629,1.60663824631958,FALSE,6.15933530541452
"CAN","cpi",0.2,1967,3,1967,NA,0,3.70031251073484,3.7399200039236,3.49360316391996,3.76768849328632,FALSE,0.556380860225962
"CAN","cpi",0.2,1967,3,1967,NA,0.5,2.86672870258227,2.96303038732247,3.49360316391996,2.4074547441976,FALSE,1.42273362623393
"CAN","cpi",0.2,1967,3,1966,NA,1,1.71352223115786,1.80982391589806,3.49360316391996,3.18103323070284,FALSE,4.30574980479495
"CAN","cpi",0.2,1967,3,1966,NA,1.5,0.858025868350556,0.954327553090752,3.49360316391996,4.65128160487248,FALSE,6.44449071181321
"CAN","cpi",0.2,1968,3,1968,NA,0,4.09289762521196,4.13806693265413,3.95128347779386,4.17287945672396,FALSE,0.399204675987433
"CAN","cpi",0.2,1968,3,1968,NA,0.5,4.19110108479565,4.69627186447321,3.95128347779386,4.07097205779852,FALSE,1.10471479718205
"CAN","cpi",0.2,1968,3,1967,NA,1,2.1582909944285,2.66346177410606,3.95128347779386,5.84521682123848,FALSE,3.72472503889706
"CAN","cpi",0.2,1968,3,1967,NA,1.5,1.68548310213724,2.1906538818148,3.95128347779386,2.25565858240226,FALSE,4.9067447696252
"CAN","cpi",0.2,1969,3,1969,NA,0,4.507815287355,4.56513670307968,4.42679496126681,4.59520664360618,FALSE,0.259872230945147
"CAN","cpi",0.2,1969,3,1969,NA,0.5,3.07005896820677,3.5041773193709,4.42679496126681,2.96612019395715,FALSE,2.74066245590391
"CAN","cpi",0.2,1969,3,1968,NA,1,2.57539150508201,3.00950985624613,4.42679496126681,6.72487630040807,FALSE,3.97733111371583
"CAN","cpi",0.2,1969,3,1968,NA,1.5,1.27750030780949,1.81503345612365,4.42679496126681,4.31664452944541,FALSE,7.06693691117207
"CAN","cpi",0.2,1970,3,1970,NA,0,3.49690672660858,3.58770236273129,3.28128405769805,3.60761538249925,FALSE,0.629852308399039
"CAN","cpi",0.2,1970,3,1970,NA,0.5,4.5251210466715,4.82158029184499,3.28128405769805,4.36016077421692,FALSE,3.40605171760712
"CAN","cpi",0.2,1970,3,1969,NA,1,2.13707481049292,2.43353405566641,3.28128405769805,4.91369447805135,FALSE,2.41583425025258
"CAN","cpi",0.2,1970,3,1969,NA,1.5,2.34632693764894,2.64278618282243,3.28128405769805,2.07973847283129,FALSE,1.89270393236254
"CAN","cpi",0.2,1971,3,1971,NA,0,2.79852417291994,2.88048020315954,2.64123406634756,2.91872900980337,FALSE,0.475181296670544
"CAN","cpi",0.2,1971,3,1971,NA,0.5,1.81264904867686,2.14036082826656,2.64123406634756,1.38357105636307,FALSE,1.57989487479221
"CAN","cpi",0.2,1971,3,1970,NA,1,1.85713326537495,2.49778276870123,2.64123406634756,3.17686610979278,FALSE,0.999277747442111
"CAN","cpi",0.2,1971,3,1970,NA,1.5,0.731240939297802,1.56771264845667,2.64123406634756,4.62066312326275,FALSE,3.52027525388609
"CAN","cpi",0.2,1972,3,1972,NA,0,4.96024439416448,5.05161211802268,4.83230569625923,5.17210692165851,FALSE,0.411214468621329
"CAN","cpi",0.2,1972,3,1972,NA,0.5,4.56140242222741,5.37106028652473,4.83230569625923,4.76224255478946,TRUE,0.809657864297327
"CAN","cpi",0.2,1972,3,1971,NA,1,3.09165798258181,3.90131584687914,4.83230569625923,6.83863498061675,FALSE,3.13713248774755
"CAN","cpi",0.2,1972,3,1971,NA,1.5,1.44048348588226,2.34184108218195,4.83230569625923,1.95441162589064,FALSE,7.1275191314929
"CAN","cpi",0.2,1973,3,1973,NA,0,7.19133157298294,7.27086346170855,7.12388603531779,7.41057825703995,FALSE,0.24814573288849
"CAN","cpi",0.2,1973,3,1973,NA,0.5,5.95259219009268,6.41396570507008,7.12388603531779,6.24191401313708,FALSE,2.23617434059668
"CAN","cpi",0.2,1973,3,1972,NA,1,3.40663471699948,5.02961530824219,7.12388603531779,8.12590883681935,FALSE,6.85865740893172
"CAN","cpi",0.2,1973,3,1972,NA,1.5,1.64773869348044,3.27071928472315,7.12388603531779,4.96130694391223,FALSE,11.2558974677293
"CAN","cpi",0.2,1974,3,1974,NA,0,9.96637289239166,9.90867863297388,10.2717243737774,10.2919804098732,FALSE,0.849920092591077
"CAN","cpi",0.2,1974,3,1974,NA,0.5,8.26575097464708,9.23685691641506,10.2717243737774,9.01679902243293,FALSE,3.55827458517388
"CAN","cpi",0.2,1974,3,1973,NA,1,4.31485529579677,6.63612592469128,10.2717243737774,11.5076386824751,FALSE,11.4102667516099
"CAN","cpi",0.2,1974,3,1973,NA,1.5,2.52337322383132,4.91736911253522,10.2717243737774,7.03851017911898,FALSE,15.7798840418094
"CAN","cpi",0.2,1975,3,1975,NA,0,10.0715856061411,10.3467263497786,10.0232981493341,10.3166994702432,FALSE,0.3958593856549
"CAN","cpi",0.2,1975,3,1975,NA,0.5,8.14638896536137,9.01466797421546,10.0232981493341,8.87817825771755,FALSE,3.38985444665074
"CAN","cpi",0.2,1975,3,1974,NA,1,4.57717340774164,6.72379410295266,10.0232981493341,11.6634485116586,FALSE,10.3953808111647
"CAN","cpi",0.2,1975,3,1974,NA,1.5,4.3512106789437,6.49783137415471,10.0232981493341,9.09165939347615,FALSE,10.9602876331595
"CAN","cpi",0.2,1976,3,1976,NA,0,7.0910173844191,7.19518561713537,7.22784311401172,7.25911367403926,FALSE,0.185811974907129
"CAN","cpi",0.2,1976,3,1976,NA,0.5,7.26605061447492,8.210810100718,7.22784311401172,7.22502565269042,FALSE,1.04027823740109
"CAN","cpi",0.2,1976,3,1975,NA,1,8.32392594068458,10.3643015172521,7.22784311401172,12.4780790437784,FALSE,4.78058264324969
"CAN","cpi",0.2,1976,3,1975,NA,1.5,5.50586575299478,10.3096737434675,7.22784311401172,7.18586013837568,TRUE,4.80380799047269
"CAN","cpi",0.2,1977,3,1977,NA,0,7.3487130495065,7.5132920912222,7.58101410153764,7.59139014959698,FALSE,0.333884067504309
"CAN","cpi",0.2,1977,3,1977,NA,0.5,7.26255919341343,7.79469638418962,7.58101410153764,7.25038656554249,TRUE,0.53213719077619
"CAN","cpi",0.2,1977,3,1976,NA,1,3.58327294574996,4.57884105525772,7.58101410153764,5.92994518665441,FALSE,8.50100072520757
"CAN","cpi",0.2,1977,3,1976,NA,1.5,4.49756351082558,5.56606122783119,7.58101410153764,5.68954314963938,FALSE,6.10587990127174
"CAN","cpi",0.2,1978,3,1978,NA,0,8.42961079932068,8.60349603794199,8.50208927062595,8.68881076810062,TRUE,0.17388523862131
"CAN","cpi",0.2,1978,3,1978,NA,0.5,8.06556461198486,8.40178117589031,8.50208927062595,8.11208508764938,FALSE,0.586986800744542
"CAN","cpi",0.2,1978,3,1977,NA,1,5.22040250752119,7.36224184377844,8.50208927062595,8.34671923233743,FALSE,4.99145790337602
"CAN","cpi",0.2,1978,3,1977,NA,1.5,4.75690636087907,6.92237053869695,8.50208927062595,8.21410731625775,FALSE,6.11476100764037
"CAN","cpi",0.2,1979,3,1979,NA,0,8.39468845940035,8.48776259322296,8.65147652410481,8.56136533364911,FALSE,0.502358961027244
"CAN","cpi",0.2,1979,3,1979,NA,0.5,8.48953644935477,8.60854193531596,8.65147652410481,8.23092589685401,FALSE,0.226341957933319
"CAN","cpi",0.2,1979,3,1978,NA,1,6.0634555546344,8.28599162596752,8.65147652410481,9.66481845899329,FALSE,3.13624831667634
"CAN","cpi",0.2,1979,3,1978,NA,1.5,6.32131271936972,8.54384879070285,8.65147652410481,7.91014806370246,FALSE,2.49160540483803
"CAN","cpi",0.2,1980,3,1980,NA,0,9.35817518432391,9.52888424740615,9.5171912664748,9.53576705858497,TRUE,0.170709063082235
"CAN","cpi",0.2,1980,3,1980,NA,0.5,8.87109697963048,9.04180604271271,9.5171912664748,8.6434746104286,FALSE,1.35917212248745
"CAN","cpi",0.2,1980,3,1979,NA,1,6.22149645830849,7.45603492317371,9.5171912664748,7.78967249140325,FALSE,6.38742932311794
"CAN","cpi",0.2,1980,3,1979,NA,1.5,6.65486765415618,8.60625399284805,9.5171912664748,8.29781572565185,FALSE,4.22872952275874
"CAN","cpi",0.2,1981,3,1981,NA,0,11.5275690122948,11.6596895438025,11.5813425032741,11.7120328235834,TRUE,0.132120531507777
"CAN","cpi",0.2,1981,3,1981,NA,0.5,12.3668413902132,12.4989619217209,11.5813425032741,12.3296185245412,FALSE,2.09586774885534
"CAN","cpi",0.2,1981,3,1980,NA,1,8.89880205921859,9.7443348865475,11.5813425032741,11.0356264341109,FALSE,5.43805186914551
"CAN","cpi",0.2,1981,3,1980,NA,1.5,7.15059394303588,9.58826366571249,11.5813425032741,8.52474858684185,FALSE,7.42036681658073
"CAN","cpi",0.2,1982,3,1982,NA,0,10.1571230656048,10.2671859178896,10.1124203763629,10.253224031375,FALSE,0.221819575389342
"CAN","cpi",0.2,1982,3,1982,NA,0.5,9.84659362728648,10.4163320746478,10.1124203763629,10.1221315066235,TRUE,0.569738447361352
"CAN","cpi",0.2,1982,3,1981,NA,1,10.5125060444657,12.5944970793837,10.1124203763629,11.652777546881,FALSE,3.08220520517485
"CAN","cpi",0.2,1982,3,1981,NA,1.5,8.93174326457552,11.5956260352622,10.1124203763629,13.2139534836213,TRUE,2.66388277068673
"CAN","cpi",0.2,1983,3,1983,NA,0,5.78230299710197,5.83318485293268,5.67091787896303,5.84362752346853,FALSE,0.32934465117805
"CAN","cpi",0.2,1983,3,1983,NA,0.5,5.09565335979492,5.33118581886509,5.67091787896303,4.70635148143536,FALSE,1.08486260931503
"CAN","cpi",0.2,1983,3,1982,NA,1,8.15500079405776,8.77795469821676,5.67091787896303,8.61437359933683,FALSE,6.83316119189582
"CAN","cpi",0.2,1983,3,1982,NA,1.5,8.46862923239132,10.1391084411929,5.67091787896303,9.84330302935538,FALSE,8.66475759237233
"CAN","cpi",0.2,1984,3,1984,NA,0,4.09422745133251,4.16294121984932,4.19799576814029,4.21315663178917,FALSE,0.156350139244226
"CAN","cpi",0.2,1984,3,1984,NA,0.5,5.17063501153109,5.40585701994093,4.19799576814029,4.73004206452632,FALSE,2.66682011688685
"CAN","cpi",0.2,1984,3,1983,NA,1,5.07637666740482,5.79917045356932,4.19799576814029,6.30529961834119,FALSE,2.91874603432583
"CAN","cpi",0.2,1984,3,1983,NA,1.5,4.24610192976666,6.48594059254819,4.19799576814029,2.81189439817776,FALSE,2.36010406684746
"CAN","cpi",0.2,1985,3,1985,NA,0,3.76172186901795,3.85096173610906,3.86444262005169,3.90546894544143,FALSE,0.122942076947692
"CAN","cpi",0.2,1985,3,1985,NA,0.5,4.520517657877,4.73894340026465,3.86444262005169,4.0117649915267,FALSE,1.85861333695092
"CAN","cpi",0.2,1985,3,1984,NA,1,2.76851160932386,3.54448627873729,3.86444262005169,3.28942198062367,FALSE,1.57586552269944
"CAN","cpi",0.2,1985,3,1984,NA,1.5,3.8923663150057,4.66834098441913,3.86444262005169,4.67970369844593,FALSE,0.845783906798442
"CAN","cpi",0.2,1986,3,1986,NA,0,3.970761748784,4.06524411994422,4.08685396749431,4.12727747445429,FALSE,0.148506990035439
"CAN","cpi",0.2,1986,3,1986,NA,0.5,5.04818583217203,5.24254223213016,4.08685396749431,4.57514120825518,FALSE,2.59768606165243
"CAN","cpi",0.2,1986,3,1985,NA,1,3.3430800707383,3.67230671445799,4.08685396749431,3.84501750700332,FALSE,1.36559477631049
"CAN","cpi",0.2,1986,3,1985,NA,1.5,3.5211512152076,3.8503778589273,4.08685396749431,4.51624000588938,FALSE,0.920416915137229
"CAN","cpi",0.2,1987,3,1987,NA,0,4.18598314643627,4.29147513166228,4.23980729277887,4.3376164199738,TRUE,0.10549198522601
"CAN","cpi",0.2,1987,3,1987,NA,0.5,4.31551434015623,4.58179679039282,4.23980729277887,3.8898385702312,FALSE,0.455550068679982
"CAN","cpi",0.2,1987,3,1986,NA,1,3.6932825240895,4.22573811668831,4.23980729277887,4.56284936423577,FALSE,0.567628532825221
"CAN","cpi",0.2,1987,3,1986,NA,1.5,3.80478861567711,4.33724420827591,4.23980729277887,5.15474659430673,TRUE,0.532455592598806
"CAN","cpi",0.2,1988,3,1988,NA,0,3.87448455193994,3.94488346041628,3.92899537638065,4.00028299604827,TRUE,0.0703989084763368
"CAN","cpi",0.2,1988,3,1988,NA,0.5,3.97502505280062,4.24725155304878,3.92899537638065,3.53181278911538,FALSE,0.387300691298082
"CAN","cpi",0.2,1988,3,1987,NA,1,3.59570546521544,4.26062756793009,3.92899537638065,4.34173286045961,TRUE,0.664922102714647
"CAN","cpi",0.2,1988,3,1987,NA,1.5,3.88966455935483,4.55458666206948,3.92899537638065,3.76612293581706,TRUE,0.664922102714646
"CAN","cpi",0.2,1989,3,1989,NA,0,4.84843110388908,4.93169208135394,4.82821664544208,5.00606812502784,FALSE,0.133797123582372
"CAN","cpi",0.2,1989,3,1989,NA,0.5,4.84803768029614,5.16564159831663,4.82821664544208,4.51521437972404,FALSE,0.367156505155644
"CAN","cpi",0.2,1989,3,1988,NA,1,3.64118885010772,4.08906876044681,4.82821664544208,4.3270389784901,FALSE,2.29574962282726
"CAN","cpi",0.2,1989,3,1988,NA,1.5,3.70990258766715,4.26400759900507,4.82821664544208,3.42699250808196,FALSE,1.96462762743043
"CAN","cpi",0.2,1990,3,1990,NA,0,4.39419309847417,4.46592487446517,4.64347549432717,4.52171223749059,FALSE,0.515608325645995
"CAN","cpi",0.2,1990,3,1990,NA,0.5,5.45616988634256,5.82165668638912,4.64347549432717,5.22335253259958,FALSE,2.39722278008504
"CAN","cpi",0.2,1990,3,1989,NA,1,4.60959840755993,5.17594155062722,4.64347549432717,5.7236432392913,TRUE,0.566343143067284
"CAN","cpi",0.2,1990,3,1989,NA,1.5,4.46145790393327,5.02780104700056,4.64347549432717,4.92041342133377,TRUE,0.566343143067284
"CAN","cpi",0.2,1991,3,1991,NA,0,5.45704406181289,5.54167957205127,5.4258100696218,5.6161816682171,FALSE,0.16272049071611
"CAN","cpi",0.2,1991,3,1991,NA,0.5,8.7317977089488,9.05622021521401,5.4258100696218,8.8240510060175,FALSE,8.58939160458272
"CAN","cpi",0.2,1991,3,1990,NA,1,3.87938866292103,4.20381116918624,5.4258100696218,3.89170713423419,FALSE,3.37941975735409
"CAN","cpi",0.2,1991,3,1990,NA,1.5,4.51597137288137,4.84039387914659,5.4258100696218,5.70462042447442,FALSE,1.78796298245324
"CAN","cpi",0.2,1992,3,1992,NA,0,1.62140213293862,1.28897109804106,1.47496888572843,1.47544467241393,FALSE,0.498646552346329
"CAN","cpi",0.2,1992,3,1992,NA,0.5,2.26827130561418,1.93584027071663,1.47496888572843,1.36069384263819,FALSE,1.65082501481681
"CAN","cpi",0.2,1992,3,1991,NA,1,3.95974078802936,3.62730975313181,1.47496888572843,2.43500720778875,FALSE,5.87949872085477
"CAN","cpi",0.2,1992,3,1991,NA,1.5,5.85204324234102,5.51961220744346,1.47496888572843,11.2072976243743,FALSE,10.6102548566339
"CAN","cpi",0.2,1993,3,1993,NA,0,1.69047931006511,1.75709500659755,1.84351085411351,1.81496037239602,FALSE,0.282655315322341
"CAN","cpi",0.2,1993,3,1993,NA,0.5,2.99212375263758,3.14364269512722,1.84351085411351,2.43338635087472,FALSE,3.02305118879981
"CAN","cpi",0.2,1993,3,1992,NA,1,1.60153610278312,1.75305504527276,1.84351085411351,1.76228766319361,FALSE,0.377658464591516
"CAN","cpi",0.2,1993,3,1992,NA,1.5,2.06846425228032,2.21998319476996,1.84351085411351,1.598750613598,FALSE,0.713902437906659
"CAN","cpi",0.2,1994,3,1994,NA,0,0.183915615484057,0.152104344372086,0.161630694655448,0.220147227157928,FALSE,0.0477169066679563
"CAN","cpi",0.2,1994,3,1994,NA,0.5,0.205303238101947,0.173491966989976,0.161630694655448,-0.741542526043691,FALSE,0.0773700875042776
"CAN","cpi",0.2,1994,3,1993,NA,1,1.75003727269533,1.71822600158336,0.161630694655448,1.50794631797803,FALSE,3.93920517398774
"CAN","cpi",0.2,1994,3,1993,NA,1.5,2.15114109630718,2.11932982519521,0.161630694655448,2.81797717341095,FALSE,4.94196473301735
"CAN","cpi",0.2,1995,3,1995,NA,0,1.99821781442889,2.07431878634391,2.11688403676572,2.15484685959489,FALSE,0.182514097969535
"CAN","cpi",0.2,1995,3,1995,NA,0.5,3.3455427242537,3.63953740412399,2.11688403676572,2.90883921660758,FALSE,3.36564139859026
"CAN","cpi",0.2,1995,3,1994,NA,1,0.727988468541437,1.3939298805921,2.11688403676572,1.95173420121315,FALSE,2.4733268024847
"CAN","cpi",0.2,1995,3,1994,NA,1.5,0.601423590999992,1.39738880961543,2.11688403676572,-2.17983456081826,FALSE,2.59470328649116
"CAN","cpi",0.2,1996,3,1996,NA,0,1.43346024782377,1.32380479174944,1.55309584667184,1.44166889374788,FALSE,0.463572181231678
"CAN","cpi",0.2,1996,3,1996,NA,0.5,2.10801211898989,1.99835666291557,1.55309584667184,1.36236766996786,FALSE,1.2776352247208
"CAN","cpi",0.2,1996,3,1995,NA,1,1.64488603297416,1.53523057689983,1.55309584667184,0.911474268150699,FALSE,0.164483184111492
"CAN","cpi",0.2,1996,3,1995,NA,1.5,2.19820548130214,2.08855002522781,1.55309584667184,3.98784768949811,FALSE,1.50311863050142
"CAN","cpi",0.2,1997,3,1997,NA,0,1.58628488278746,1.64427470705575,1.60528783555959,1.68811714545079,TRUE,0.0579898242682857
"CAN","cpi",0.2,1997,3,1997,NA,0.5,2.62447059366586,2.75885456282149,1.60528783555959,2.10620867662285,FALSE,2.68234086442131
"CAN","cpi",0.2,1997,3,1996,NA,1,1.21167267585434,1.34605664500996,1.60528783555959,0.758460286059383,FALSE,0.782461945529694
"CAN","cpi",0.2,1997,3,1996,NA,1.5,1.84155673492801,1.97594070408363,1.60528783555959,1.66287852692671,FALSE,0.725056217576667
"CAN","cpi",0.2,1998,3,1998,NA,0,0.896105874341129,0.938736337722719,0.988908029337191,0.970744023070627,FALSE,0.168059692417769
"CAN","cpi",0.2,1998,3,1998,NA,0.5,2.05508331283424,2.20133440138913,0.988908029337191,1.52096865004292,FALSE,2.81168929729751
"CAN","cpi",0.2,1998,3,1997,NA,1,1.37865650559155,1.52490759414644,0.988908029337191,1.03996058978499,FALSE,1.12062227919079
"CAN","cpi",0.2,1998,3,1997,NA,1.5,1.71201856565457,1.85826965420946,0.988908029337191,2.22059574107629,FALSE,1.95402742934833
"CAN","cpi",0.2,1999,3,1999,NA,0,1.6845537286852,1.73931518120728,1.7107350135213,1.79141464940687,TRUE,0.0547614525220803
"CAN","cpi",0.2,1999,3,1999,NA,0.5,1.43108191212652,1.50453145316155,1.7107350135213,0.800552372711202,FALSE,0.588958441934389
"CAN","cpi",0.2,1999,3,1998,NA,1,0.870195374144706,0.943644915179735,1.7107350135213,0.474525424909611,FALSE,1.99117478688893
"CAN","cpi",0.2,1999,3,1998,NA,1.5,0.845046711676087,0.918496252711116,1.7107350135213,2.19776497346126,FALSE,2.05404644306048
"CAN","cpi",0.2,2000,3,2000,NA,0,2.62622027341563,2.67554500087129,2.6718361971244,2.73388860624727,TRUE,0.049324727455657
"CAN","cpi",0.2,2000,3,2000,NA,0.5,2.52863471010859,2.78074301487162,2.6718361971244,2.11525832235237,TRUE,0.252108304763024
"CAN","cpi",0.2,2000,3,1999,NA,1,2.00589307849444,2.48862019140795,2.6718361971244,2.81438082878813,FALSE,0.940767127204625
"CAN","cpi",0.2,2000,3,1999,NA,1.5,1.92719384380419,2.4099209567177,2.6718361971244,0.872413614651861,FALSE,1.13751521393026
"CAN","cpi",0.2,2001,3,2001,NA,0,2.64336904668855,2.6846088874905,2.47906219852806,2.73506715681632,FALSE,0.452006961203171
"CAN","cpi",0.2,2001,3,2001,NA,0.5,2.23032683258632,2.46853737121165,2.47906219852806,1.72363549629744,FALSE,0.26452260691637
"CAN","cpi",0.2,2001,3,2000,NA,1,2.81247258320696,3.31628614243536,2.47906219852806,3.73995761394105,FALSE,1.33733952092564
"CAN","cpi",0.2,2001,3,2000,NA,1.5,2.69945175004474,3.22799989589387,2.47906219852806,1.98299961497232,FALSE,1.07952202464082
"CAN","cpi",0.2,2002,3,2002,NA,0,2.25483319568326,2.30315337269642,2.20880570551249,2.3500140093739,FALSE,0.163388902440094
"CAN","cpi",0.2,2002,3,2002,NA,0.5,2.08524319575662,2.22439943569978,2.20880570551249,1.47074452365548,TRUE,0.139156239943157
"CAN","cpi",0.2,2002,3,2001,NA,1,1.66594412205533,1.80510036199848,2.20880570551249,0.79597273109289,FALSE,1.14841959872817
"CAN","cpi",0.2,2002,3,2001,NA,1.5,2.27859214645933,3.45202668805416,2.20880570551249,0.827019109774735,FALSE,1.34790064396194
"CAN","cpi",0.2,2003,3,2003,NA,0,2.65782426928552,2.71209550876107,2.71189071546809,2.76866538316948,TRUE,0.0542712394755451
"CAN","cpi",0.2,2003,3,2003,NA,0.5,4.74130324183611,4.99439047339943,2.71189071546809,4.59645517963757,FALSE,5.32661854748337
"CAN","cpi",0.2,2003,3,2002,NA,1,2.98243230984608,3.25017580609533,2.71189071546809,4.33746529644743,FALSE,0.944097482194231
"CAN","cpi",0.2,2003,3,2002,NA,1.5,2.20598987024693,2.47373336649619,2.71189071546809,2.71468890277684,FALSE,0.863136868679012
"CAN","cpi",0.2,2004,3,2004,NA,0,1.76672179037403,1.65898844190508,1.83151661303942,1.7684769390021,FALSE,0.323587079366909
"CAN","cpi",0.2,2004,3,2004,NA,0.5,2.28893864350264,2.18120529503369,1.83151661303942,1.5625176897836,FALSE,1.03582172768909
"CAN","cpi",0.2,2004,3,2003,NA,1,2.15293965400662,2.04520630553767,1.83151661303942,1.41754396673829,FALSE,0.695824253949039
"CAN","cpi",0.2,2004,3,2003,NA,1.5,2.67925132308146,2.57151797461251,1.83151661303942,5.32651436309904,FALSE,2.01160342663615
"CAN","cpi",0.2,2005,3,2005,NA,0,2.28555403214494,2.32679325838408,2.18071628336509,2.38196957660787,FALSE,0.303333598188769
"CAN","cpi",0.2,2005,3,2005,NA,0.5,2.06836364696601,2.27441848201746,2.18071628336509,1.57253942332725,TRUE,0.206054835051448
"CAN","cpi",0.2,2005,3,2004,NA,1,1.41606283507506,1.65268369921344,2.18071628336509,0.993232956459974,FALSE,1.55670232451751
"CAN","cpi",0.2,2005,3,2004,NA,1.5,1.78231272232979,2.11424155313704,2.18071628336509,2.05989686108521,FALSE,0.498115656377385
"CAN","cpi",0.2,2006,3,2006,NA,0,1.97367137666997,2.02040506397952,1.97519342012289,2.0667253719809,TRUE,0.0467336873095512
"CAN","cpi",0.2,2006,3,2006,NA,0.5,2.39478958882016,2.6084679729106,1.97519342012289,1.93779395271753,FALSE,1.26266880583362
"CAN","cpi",0.2,2006,3,2005,NA,1,2.45869837659406,3.00576132657774,1.97519342012289,3.47726378201784,FALSE,1.75582534116163
"CAN","cpi",0.2,2006,3,2005,NA,1.5,2.16904943213292,2.83907891916086,1.97519342012289,1.38669164389589,FALSE,1.15466951705303
"CAN","cpi",0.2,2007,3,2007,NA,0,2.01032509110914,2.05863038728178,2.10062087284572,2.10807340507977,FALSE,0.153281510082499
"CAN","cpi",0.2,2007,3,2007,NA,0.5,2.81905586400393,3.00424241651171,2.10062087284572,2.41912196921498,FALSE,1.98127403040329
"CAN","cpi",0.2,2007,3,2006,NA,1,1.29837143774968,1.48355799025747,2.10062087284572,0.502333085291807,FALSE,1.72784375897842
"CAN","cpi",0.2,2007,3,2006,NA,1.5,1.91116576686655,2.32907372443668,2.10062087284572,1.9704266811846,TRUE,0.417907957570137
"CAN","cpi",0.2,2008,3,2008,NA,0,2.87883604159643,2.85239700636712,2.31447335265955,2.95401501251803,FALSE,1.38446768711287
"CAN","cpi",0.2,2008,3,2008,NA,0.5,1.82510998871686,1.79867095348756,2.31447335265955,1.1596607753752,FALSE,1.26306696270068
"CAN","cpi",0.2,2008,3,2007,NA,1,1.45864774122361,1.4322087059943,2.31447335265955,0.365030180386173,FALSE,2.17922258143382
"CAN","cpi",0.2,2008,3,2007,NA,1.5,2.07668442981649,2.05024539458718,2.31447335265955,3.74970428078329,FALSE,0.634130859951628
"CAN","cpi",0.2,2009,3,2009,NA,0,0.233227044509433,0.26013819671762,0.284533874408197,0.277323060325678,FALSE,0.0879003464346302
"CAN","cpi",0.2,2009,3,2009,NA,0.5,-0.0638452240203182,0.094562381725117,0.284533874408197,-0.926841850998946,FALSE,0.633336337453136
"CAN","cpi",0.2,2009,3,2008,NA,1,2.85174588817798,3.57147233239256,0.284533874408197,4.39167027484448,FALSE,7.13775647863904
"CAN","cpi",0.2,2009,3,2008,NA,1.5,2.20307527421961,2.92280171843418,0.284533874408197,1.30718110670587,FALSE,5.5160799437431
"CAN","cpi",0.2,2010,3,2010,NA,0,1.63256668924662,1.68564493767817,1.75525687020327,1.74893097969613,FALSE,0.227108079744304
"CAN","cpi",0.2,2010,3,2010,NA,0.5,2.04559757684946,2.24600533414718,1.75525687020327,1.60514557059791,FALSE,0.926259523913197
"CAN","cpi",0.2,2010,3,2009,NA,1,0.550754376098352,0.837958865603702,1.75525687020327,0.646877121410091,FALSE,2.58044950100428
"CAN","cpi",0.2,2010,3,2009,NA,1.5,0.775930838710595,1.28319019383126,1.75525687020327,-1.29107136836179,FALSE,1.68742604605069
"CAN","cpi",0.2,2011,3,2011,NA,0,2.71754705350991,2.77501150067615,2.85717434028225,2.83658425111878,FALSE,0.262871546181483
"CAN","cpi",0.2,2011,3,2011,NA,0.5,3.1541668575522,3.39340685237083,2.85717434028225,2.89516877702572,FALSE,0.981721287993509
"CAN","cpi",0.2,2011,3,2010,NA,1,1.92755356870913,2.24245371888933,2.85717434028225,2.19120159589417,FALSE,1.85170170366249
"CAN","cpi",0.2,2011,3,2010,NA,1.5,1.84406644638798,2.15896659656818,2.85717434028225,1.9636150267392,FALSE,2.06041950946537
"CAN","cpi",0.2,2012,3,2012,NA,0,1.40499255536383,1.44072896734828,1.50118536134935,1.46012306845465,FALSE,0.186877396987112
"CAN","cpi",0.2,2012,3,2012,NA,0.5,2.2544898143154,2.52891513185718,1.50118536134935,1.81318735388827,FALSE,2.15768644995692
"CAN","cpi",0.2,2012,3,2011,NA,1,1.98265869916517,2.2602473030694,1.50118536134935,1.0674603716489,FALSE,1.48127194844379
"CAN","cpi",0.2,2012,3,2011,NA,1.5,2.70712670863599,3.00333831102223,1.50118536134935,3.26492178435033,FALSE,3.31106497060285
"CAN","cpi",0.2,2013,3,2013,NA,0,0.972982562560286,1.02137465562427,0.931270594714462,1.03964630394149,FALSE,0.152672012678546
"CAN","cpi",0.2,2013,3,2013,NA,0.5,1.6093167676875,1.78897043128243,0.931270594714462,1.16522799725517,FALSE,1.87476909602752
"CAN","cpi",0.2,2013,3,2012,NA,1,0.820215229473509,0.999868893068437,0.931270594714462,-0.4587869493051,TRUE,0.179653663594928
"CAN","cpi",0.2,2013,3,2012,NA,1.5,1.69248768833961,1.87214135193454,0.931270594714462,1.87018597092114,FALSE,2.0826963976578
"CAN","cpi",0.2,2014,3,2014,NA,0,1.87807783189315,1.93270926926015,1.87639912240215,1.98941686448128,FALSE,0.0588282110945021
"CAN","cpi",0.2,2014,3,2014,NA,0.5,2.44741819677348,2.67479019475647,1.87639912240215,2.28534818047506,FALSE,1.65491968391132
"CAN","cpi",0.2,2014,3,2013,NA,1,1.10592887115927,1.33330086914225,1.87639912240215,0.933988257976399,FALSE,1.58511763113274
"CAN","cpi",0.2,2014,3,2013,NA,1.5,1.05823692572893,1.28560892371191,1.87639912240215,1.74432822228681,FALSE,1.70434749470859
"CAN","cpi",0.2,2015,3,2015,NA,0,1.18582514375281,1.23236403604542,1.11090953952792,1.2616807067513,FALSE,0.233827902854844
"CAN","cpi",0.2,2015,3,2015,NA,0.5,0.812413010159442,0.919625213385301,1.11090953952792,0.218363095132572,FALSE,0.585423018582399
"CAN","cpi",0.2,2015,3,2014,NA,1,1.46287441235775,1.5700866155836,1.11090953952792,0.62327975322943,FALSE,0.987124385300433
"CAN","cpi",0.2,2015,3,2014,NA,1.5,1.87046573731131,1.97767794053716,1.11090953952792,3.54844533129153,FALSE,2.00610269768433
"CAN","cpi",0.2,2016,3,2016,NA,0,1.34837873594055,1.39845303822673,1.41168586698797,1.44403049252289,FALSE,0.083156374189271
"CAN","cpi",0.2,2016,3,2016,NA,0.5,1.25907844111066,1.63202092688257,1.41168586698797,0.943700860843074,TRUE,0.372942485771903
"CAN","cpi",0.2,2016,3,2015,NA,1,1.35876270125946,1.81757941606751,1.41168586698797,1.65805837950254,TRUE,0.458816714808044
"CAN","cpi",0.2,2016,3,2015,NA,1.5,1.48073968075444,1.93955639556248,1.41168586698797,0.212753204814446,FALSE,0.631451249224224
"CAN","cpi",0.2,2017,3,2017,NA,0,1.42934371845351,1.48083774960808,1.57888581671161,1.52172534057668,FALSE,0.296614198913401
"CAN","cpi",0.2,2017,3,2017,NA,0.5,2.34196362503087,2.63892875025767,1.57888581671161,2.17995751143343,FALSE,2.20465964602495
"CAN","cpi",0.2,2017,3,2016,NA,1,1.0589782176874,1.35594334291419,1.57888581671161,0.478660156386378,FALSE,0.854321309720344
"CAN","cpi",0.2,2017,3,2016,NA,1.5,1.56662342135055,1.97123863416456,1.57888581671161,1.04780579189651,TRUE,0.404615212814006
"CAN","cpi",0.2,2018,3,2018,NA,0,2.31465516394452,2.38050318126134,2.23316270166586,2.42606863838048,FALSE,0.269579173013474
"CAN","cpi",0.2,2018,3,2018,NA,0.5,3.0467662497376,3.24078963739769,2.23316270166586,3.02101124054505,FALSE,2.22803225783944
"CAN","cpi",0.2,2018,3,2017,NA,1,1.24995804947921,1.4439814371393,2.23316270166586,0.52369802733857,FALSE,2.16697654897649
"CAN","cpi",0.2,2018,3,2017,NA,1.5,1.37229200375939,1.56631539141948,2.23316270166586,3.08408184322128,FALSE,1.86114166327605
"CAN","cpi",0.2,2019,3,2019,NA,0,1.93194624154446,1.98384756887622,1.91921619871868,2.02292335146186,FALSE,0.0837264343962056
"CAN","cpi",0.2,2019,3,2019,NA,0.5,2.05277390993492,2.34539452133278,1.91921619871868,1.7605507439285,FALSE,0.626514889438449
"CAN","cpi",0.2,2019,3,2018,NA,1,2.08395836183961,2.37657897323747,1.91921619871868,1.97136692329685,FALSE,0.704476019200174
"CAN","cpi",0.2,2019,3,2018,NA,1.5,1.82070205238936,2.11332266378722,1.91921619871868,4.13001487917394,TRUE,0.29262061139786
"CAN","cpi",0.2,2020,3,2020,NA,0,0.684933893399536,0.729483823240873,0.71139989671781,0.748237853268385,TRUE,0.044549929841337
"CAN","cpi",0.2,2020,3,2020,NA,0.5,1.48254717674995,1.86129347322226,0.71139989671781,1.20638084891419,FALSE,2.30661449655267
"CAN","cpi",0.2,2020,3,2019,NA,1,1.63049858457694,2.00924488104925,0.71139989671781,1.33625965438418,FALSE,2.67649301612014
"CAN","cpi",0.2,2020,3,2019,NA,1.5,1.77207112145389,2.1508174179262,0.71139989671781,2.47827605395127,FALSE,3.03042435831251
"CAN","cpi",0.2,2021,3,2021,NA,0,3.20813450379335,3.28082557835387,3.31148121717802,3.36073739108717,FALSE,0.149330171620905
"CAN","cpi",0.2,2021,3,2021,NA,0.5,2.68154992303902,3.02700045730845,3.31148121717802,2.87786599282032,FALSE,1.05665243394336
"CAN","cpi",0.2,2021,3,2020,NA,1,1.30032566106212,1.64577619533155,3.31148121717802,1.80567605729774,FALSE,4.50971308888562
"CAN","cpi",0.2,2021,3,2020,NA,1.5,0.826753959498878,1.17220449376831,3.31148121717802,1.36315122932478,FALSE,5.69364234279372
"CAN","cpi",0.2,2022,3,2022,NA,0,6.39191448415336,6.48173820333227,6.50977236228281,6.58141742776733,FALSE,0.159909116555268
"CAN","cpi",0.2,2022,3,2022,NA,0.5,6.0716804096785,6.56849669187819,6.50977236228281,6.74293883776587,TRUE,0.496816282199687
"CAN","cpi",0.2,2022,3,2021,NA,1,3.49515282569463,4.14578663033544,6.50977236228281,4.82564214996571,FALSE,6.56059813450924
"CAN","cpi",0.2,2022,3,2021,NA,1.5,2.69409636891851,3.34473017355932,6.50977236228281,3.93575064315212,FALSE,8.56323927644953
"CAN","cpi",0.2,2023,3,2023,NA,0,3.9478232453711,3.99722017946242,3.78831288758619,4.01453285616146,FALSE,0.448172828553587
"CAN","cpi",0.2,2023,3,2023,NA,0.5,3.53666712492387,3.89912401440658,3.78831288758619,3.07888421739245,TRUE,0.362456889482712
"CAN","cpi",0.2,2023,3,2022,NA,1,4.64964168504079,5.0120985745235,3.78831288758619,3.85673280569707,FALSE,2.51577888311921
"CAN","cpi",0.2,2023,3,2022,NA,1.5,4.67473107875693,5.96203052521104,3.78831288758619,8.07292283446253,FALSE,3.50334492438096
"CAN","cpi",0.2,2024,3,2023,NA,1,3.0962960601215,4.01964663320522,NA,4.07504753996503,NA,NA
"CAN","cpi",0.2,2024,3,2023,NA,1.5,3.16384347745333,4.37975451072633,NA,2.41529048319689,NA,NA
"CAN","cpi",0.3,1952,3,1952,NA,0,2.64527271745819,2.64527271745819,2.55562336095485,2.49651395855886,FALSE,0.256141018580984
"CAN","cpi",0.3,1952,3,1952,NA,0.5,4.64708352400923,4.64708352400922,2.55562336095485,3.9078404779387,FALSE,5.97560046586966
"CAN","cpi",0.3,1952,3,1951,NA,1,5.05153570664352,5.05153570664351,2.55562336095485,8.88778808098424,FALSE,7.13117813053906
"CAN","cpi",0.3,1952,3,1951,NA,1.5,-2.08456555426655,-2.08456555426656,2.55562336095485,10.076419411745,FALSE,13.2576826149183
"CAN","cpi",0.3,1953,3,1953,NA,0,-0.418184819094994,-0.677068479847314,-1.01492775838436,-0.954275034924989,FALSE,1.44609616578873
"CAN","cpi",0.3,1953,3,1953,NA,0.5,1.7907594685417,1.53187580778938,-1.01492775838436,-2.19876634474816,FALSE,7.75736555903642
"CAN","cpi",0.3,1953,3,1952,NA,1,-0.332646801948422,-0.591530462700742,-1.01492775838436,-1.18145267469342,FALSE,1.69049050049322
"CAN","cpi",0.3,1953,3,1952,NA,1.5,-13.5792327892636,0.941707713831397,-1.01492775838436,0.93216905581622,TRUE,14.520940503095
"CAN","cpi",0.3,1954,3,1954,NA,0,0.933907086217184,0.73872291731931,0.644425455961438,0.879731201855888,FALSE,0.631906203261401
"CAN","cpi",0.3,1954,3,1954,NA,0.5,2.6568255841578,2.46164141525993,0.644425455961438,-0.358875738913824,FALSE,5.55453048309173
"CAN","cpi",0.3,1954,3,1953,NA,1,9.17208799016349,8.97690382126561,0.644425455961438,3.38326531029323,FALSE,24.1695659288223
"CAN","cpi",0.3,1954,3,1953,NA,1.5,-4.21399956060987,-4.40918372950774,0.644425455961438,-2.85717744192413,FALSE,14.2436992181569
"CAN","cpi",0.3,1955,3,1955,NA,0,-0.0959110498309225,0.0218443182572527,0.173649026558865,0.115254687233858,FALSE,0.551483106092781
"CAN","cpi",0.3,1955,3,1955,NA,0.5,0.219461050145629,0.366637052278032,0.173649026558865,-0.770970046821609,FALSE,0.278067498094587
"CAN","cpi",0.3,1955,3,1954,NA,1,1.14504483763483,6.47378622534418,0.173649026558865,3.47019599757395,FALSE,8.10415799078354
"CAN","cpi",0.3,1955,3,1954,NA,1.5,-1.52078854394176,3.80795284376759,0.173649026558865,-1.89562740163941,TRUE,5.32874138770935
"CAN","cpi",0.3,1956,3,1956,NA,0,1.4686923758972,1.59716124639318,1.32752769429961,1.56059797998755,FALSE,0.531796532203391
"CAN","cpi",0.3,1956,3,1956,NA,0.5,0.288296985712813,0.438447201849895,1.32752769429961,-0.709146002056511,FALSE,2.69038019456483
"CAN","cpi",0.3,1956,3,1955,NA,1,0.172804373243642,3.55958929796136,1.32752769429961,0.884549626974225,TRUE,3.38678492471772
"CAN","cpi",0.3,1956,3,1955,NA,1.5,-1.00630912666085,2.38047579805687,1.32752769429961,-1.89150615642833,TRUE,3.38678492471772
"CAN","cpi",0.3,1957,3,1957,NA,0,3.25246868597416,3.41708205148961,3.24684755852518,3.4151370317006,FALSE,0.180673729655398
"CAN","cpi",0.3,1957,3,1957,NA,0.5,3.03095685925922,3.74642200759582,3.24684755852518,2.23982631608766,TRUE,0.715465148336597
"CAN","cpi",0.3,1957,3,1956,NA,1,1.92415168181447,5.35246150799622,3.24684755852518,6.98754636690555,TRUE,3.42830982618175
"CAN","cpi",0.3,1957,3,1956,NA,1.5,1.24329087896253,5.04848771065463,3.24684755852518,-1.88668623310337,TRUE,3.8051968316921
"CAN","cpi",0.3,1958,3,1958,NA,0,2.08585088849247,2.17234381264569,2.33186388641149,2.22387249143335,FALSE,0.542264563484079
"CAN","cpi",0.3,1958,3,1958,NA,0.5,2.97625696218869,3.16042321119202,2.33186388641149,2.22839060734872,FALSE,2.02528932265247
"CAN","cpi",0.3,1958,3,1957,NA,1,1.10958364502524,2.26765006442265,2.33186388641149,4.42088197051908,FALSE,1.34153448222266
"CAN","cpi",0.3,1958,3,1957,NA,1.5,1.38640524999316,4.27829810657049,2.33186388641149,0.91301479707402,TRUE,2.89189285657733
"CAN","cpi",0.3,1959,3,1959,NA,0,1.08369261561252,1.29984593576438,1.19382698397654,1.24991216431293,TRUE,0.216153320151862
"CAN","cpi",0.3,1959,3,1959,NA,0.5,1.23846275872139,1.56294702807039,1.19382698397654,0.437839731590327,FALSE,0.452015054334285
"CAN","cpi",0.3,1959,3,1958,NA,1,0.250213822620272,1.26865307006733,1.19382698397654,1.75862762885946,TRUE,1.01843924744706
"CAN","cpi",0.3,1959,3,1958,NA,1.5,-0.411230911181204,0.607208336265858,1.19382698397654,1.77407172713766,FALSE,2.69449252662044
"CAN","cpi",0.3,1960,3,1960,NA,0,0.832830253137141,1.05309020359892,1.34209404870695,1.02361304259477,FALSE,1.04598522219902
"CAN","cpi",0.3,1960,3,1960,NA,0.5,1.37999586765515,1.70028835960962,1.34209404870695,0.53898348018166,FALSE,0.428583403235036
"CAN","cpi",0.3,1960,3,1959,NA,1,1.7681604921569,2.34060767630818,1.34209404870695,3.95759373689442,FALSE,1.78977987972257
"CAN","cpi",0.3,1960,3,1959,NA,1.5,1.31019512823736,1.88264231238863,1.34209404870695,-0.873476815404885,TRUE,0.572447184151274
"CAN","cpi",0.3,1961,3,1961,NA,0,0.932126864594131,1.05827666458507,1.00921348094007,1.00921348094007,TRUE,0.126149799990936
"CAN","cpi",0.3,1961,3,1961,NA,0.5,1.77441272259131,1.99400475238758,1.00921348094007,1.00921348094007,FALSE,2.40587557737123
"CAN","cpi",0.3,1961,3,1960,NA,1,-0.213670588855881,0.784616335372865,1.00921348094007,0.0537704626035329,FALSE,1.63999305442076
"CAN","cpi",0.3,1961,3,1960,NA,1.5,1.26163195112788,2.25991887535663,1.00921348094007,-0.862181798940035,FALSE,1.71948255333678
"CAN","cpi",0.3,1962,3,1962,NA,0,1.02106358142158,1.14870447593339,1.04957947883042,1.10232402731478,TRUE,0.127640894511804
"CAN","cpi",0.3,1962,3,1962,NA,0.5,0.859000503210139,1.06948969691235,1.04957947883042,0,TRUE,0.210489193702206
"CAN","cpi",0.3,1962,3,1961,NA,1,0.0315627043250811,0.539659690832954,1.04957947883042,0,FALSE,1.96501066650062
"CAN","cpi",0.3,1962,3,1961,NA,1.5,0.338901620398358,0.846998606906231,1.04957947883042,0,FALSE,1.08689947771983
"CAN","cpi",0.3,1963,3,1963,NA,0,1.83354506924874,1.90444078720741,1.60677118395228,1.91491729531202,FALSE,0.718821104519979
"CAN","cpi",0.3,1963,3,1963,NA,0.5,1.62292524494846,1.84336798945941,1.60677118395228,0.836828714617504,FALSE,0.266597204500028
"CAN","cpi",0.3,1963,3,1962,NA,1,1.37685154510343,1.61589826611072,1.60677118395228,2.56411490415144,TRUE,0.239046721007293
"CAN","cpi",0.3,1963,3,1962,NA,1.5,0.583728774101203,0.822775495108496,1.60677118395228,0,FALSE,2.47903440341811
"CAN","cpi",0.3,1964,3,1964,NA,0,1.91421441722607,1.98235890826461,1.88764670034376,1.98877256446048,FALSE,0.144052253559428
"CAN","cpi",0.3,1964,3,1964,NA,0.5,2.06961272527434,2.31609893701549,1.88764670034376,1.38369006227607,FALSE,0.766389140114224
"CAN","cpi",0.3,1964,3,1963,NA,1,1.70337922088782,2.57397534412003,1.88764670034376,5.39044290347256,TRUE,0.87059612323221
"CAN","cpi",0.3,1964,3,1963,NA,1.5,1.09061095582569,1.9612070790579,1.88764670034376,0,TRUE,0.87059612323221
"CAN","cpi",0.3,1965,3,1965,NA,0,2.24570100961101,2.33838177223639,2.29538304394236,2.34557047418999,TRUE,0.0926807626253741
"CAN","cpi",0.3,1965,3,1965,NA,0.5,2.07557701151259,2.49735220547651,2.29538304394236,1.61079447956654,TRUE,0.421775193963917
"CAN","cpi",0.3,1965,3,1964,NA,1,1.3097914959046,1.73156668986852,2.29538304394236,2.42518862179847,FALSE,2.03267906274632
"CAN","cpi",0.3,1965,3,1964,NA,1.5,1.01631198896212,1.43808718292604,2.29538304394236,0.818102552316399,FALSE,2.87119193972482
"CAN","cpi",0.3,1966,3,1966,NA,0,3.7137101622108,3.80334547282846,3.72486065470629,3.82010987863709,TRUE,0.0896353106176537
"CAN","cpi",0.3,1966,3,1966,NA,0.5,4.39201448086688,4.71583477321568,3.72486065470629,3.99123398895563,FALSE,2.22997408137905
"CAN","cpi",0.3,1966,3,1965,NA,1,1.52172693866529,1.92117785938555,3.72486065470629,3.20722068745854,FALSE,5.55283033592237
"CAN","cpi",0.3,1966,3,1965,NA,1.5,0.926602383394958,1.32605330411523,3.72486065470629,1.60663824631958,FALSE,7.25318620812331
"CAN","cpi",0.3,1967,3,1967,NA,0,3.70031251073484,3.7399200039236,3.49360316391996,3.76768849328632,FALSE,0.630205626945561
"CAN","cpi",0.3,1967,3,1967,NA,0.5,2.69343380852464,2.91917691860434,3.49360316391996,2.4074547441976,FALSE,1.8669609538386
"CAN","cpi",0.3,1967,3,1966,NA,1,1.59873823624544,1.82448134632514,3.49360316391996,3.18103323070284,FALSE,4.99466258892205
"CAN","cpi",0.3,1967,3,1966,NA,1.5,0.429214271351001,0.654957381430705,3.49360316391996,4.65128160487248,FALSE,8.33615963147757
"CAN","cpi",0.3,1968,3,1968,NA,0,4.08205165679953,4.14036667425769,3.95128347779386,4.17287945672396,FALSE,0.431938386045791
"CAN","cpi",0.3,1968,3,1968,NA,0.5,4.033065906519,4.64397967658682,3.95128347779386,4.07097205779852,FALSE,0.844577852139666
"CAN","cpi",0.3,1968,3,1967,NA,1,2.10541949923337,2.71633326930119,3.95128347779386,5.84521682123848,FALSE,4.13934293718973
"CAN","cpi",0.3,1968,3,1967,NA,1.5,1.63261160694211,2.24352537700993,3.95128347779386,2.25565858240226,FALSE,5.49022262945047
"CAN","cpi",0.3,1969,3,1969,NA,0,4.45625762604975,4.56701447717018,4.42679496126681,4.59520664360618,FALSE,0.194935893357395
"CAN","cpi",0.3,1969,3,1969,NA,0.5,3.05409932818292,3.70449391412463,4.42679496126681,2.96612019395715,FALSE,2.7141118634908
"CAN","cpi",0.3,1969,3,1968,NA,1,2.32274146966885,2.97313605561056,4.42679496126681,6.72487630040807,FALSE,4.80370574495959
"CAN","cpi",0.3,1969,3,1968,NA,1.5,1.17974267502206,1.83013726096377,4.42679496126681,4.31664452944541,FALSE,8.06941658680756
"CAN","cpi",0.3,1970,3,1970,NA,0,3.49690672660858,3.5898178564655,3.28128405769805,3.60761538249925,FALSE,0.708975898172728
"CAN","cpi",0.3,1970,3,1970,NA,0.5,4.18611054205142,4.942422803096,3.28128405769805,4.36016077421692,FALSE,3.34153078776851
"CAN","cpi",0.3,1970,3,1969,NA,1,2.2218778057923,2.97819006683688,3.28128405769805,4.91369447805135,FALSE,1.62229509207649
"CAN","cpi",0.3,1970,3,1969,NA,1.5,2.16177645405878,2.91808871510336,3.28128405769805,2.07973847283129,FALSE,1.79401323988654
"CAN","cpi",0.3,1971,3,1971,NA,0,2.77736640988888,2.88859334183663,2.64123406634756,2.91872900980337,FALSE,0.50017648492295
"CAN","cpi",0.3,1971,3,1971,NA,0.5,1.79596388565355,2.26623572554035,2.64123406634756,1.38357105636307,FALSE,1.54169567076454
"CAN","cpi",0.3,1971,3,1970,NA,1,1.7559211361309,2.48269105244027,2.64123406634756,3.17686610979278,FALSE,1.17974995604448
"CAN","cpi",0.3,1971,3,1970,NA,1.5,0.699288418819903,3.34260584524688,2.64123406634756,4.62066312326275,TRUE,2.64331742642697
"CAN","cpi",0.3,1972,3,1972,NA,0,4.96024439416448,5.11419952381711,4.83230569625923,5.17210692165851,FALSE,0.519494266524784
"CAN","cpi",0.3,1972,3,1972,NA,0.5,4.51949003746687,5.43016831612722,4.83230569625923,4.76224255478946,TRUE,0.910678278660347
"CAN","cpi",0.3,1972,3,1971,NA,1,2.83254310115558,4.43820944582923,4.83230569625923,6.83863498061675,FALSE,2.73165563161651
"CAN","cpi",0.3,1972,3,1971,NA,1.5,1.1397711800042,2.74543752467785,4.83230569625923,1.95441162589064,FALSE,7.56814683490617
"CAN","cpi",0.3,1973,3,1973,NA,0,7.1073096778097,7.27281406962243,7.12388603531779,7.41057825703995,TRUE,0.165504391812735
"CAN","cpi",0.3,1973,3,1973,NA,0.5,5.61761649460607,6.68347664216859,7.12388603531779,6.24191401313708,FALSE,2.32417269941739
"CAN","cpi",0.3,1973,3,1972,NA,1,3.38699132477476,5.07619473021405,7.12388603531779,8.12590883681935,FALSE,7.53974999144997
"CAN","cpi",0.3,1973,3,1972,NA,1.5,1.58795195738166,3.27715536282095,7.12388603531779,4.96130694391223,FALSE,12.679862469716
"CAN","cpi",0.3,1974,3,1974,NA,0,9.9454485860737,9.97171681787651,10.2717243737774,10.2919804098732,FALSE,0.883432677233975
"CAN","cpi",0.3,1974,3,1974,NA,0.5,7.71702642497149,9.23685691641505,10.2717243737774,9.01679902243293,FALSE,4.47659465533603
"CAN","cpi",0.3,1974,3,1973,NA,1,4.45936480734133,6.63930684363041,10.2717243737774,11.5076386824751,FALSE,12.5582778367091
"CAN","cpi",0.3,1974,3,1973,NA,1.5,2.31732387693352,4.92466588138302,10.2717243737774,7.03851017911898,FALSE,17.8846519827192
"CAN","cpi",0.3,1975,3,1975,NA,0,10.0715856061411,10.3396781001687,10.0232981493341,10.3166994702432,FALSE,0.406056656333229
"CAN","cpi",0.3,1975,3,1975,NA,0.5,8.02569231605665,9.78880038894261,10.0232981493341,8.87817825771755,FALSE,2.43310167400457
"CAN","cpi",0.3,1975,3,1974,NA,1,4.25333243303178,7.9916373097913,10.0232981493341,11.6634485116586,FALSE,9.54305013259614
"CAN","cpi",0.3,1975,3,1974,NA,1.5,2.69817538785437,7.22617841728637,10.0232981493341,9.09165939347615,FALSE,12.5197736924256
"CAN","cpi",0.3,1976,3,1976,NA,0,7.10015873300731,7.26979042318521,7.22784311401172,7.25911367403926,TRUE,0.169631690177898
"CAN","cpi",0.3,1976,3,1976,NA,0.5,6.94208721409878,8.4130625328419,7.22784311401172,7.22502565269042,TRUE,1.47097531874313
"CAN","cpi",0.3,1976,3,1975,NA,1,5.59970998035663,10.3838086885042,7.22784311401172,12.4780790437784,TRUE,4.78409870814758
"CAN","cpi",0.3,1976,3,1975,NA,1.5,4.52939672322043,10.3536830390742,7.22784311401172,7.18586013837568,TRUE,5.82428631585377
"CAN","cpi",0.3,1977,3,1977,NA,0,7.34562296262087,7.51990021166769,7.58101410153764,7.59139014959698,FALSE,0.348888362960968
"CAN","cpi",0.3,1977,3,1977,NA,0.5,7.26071317582747,8.15620310330098,7.58101410153764,7.25038656554249,TRUE,0.895489927473511
"CAN","cpi",0.3,1977,3,1976,NA,1,3.58327294574996,5.59984135937879,7.58101410153764,5.92994518665441,FALSE,7.67706196265414
"CAN","cpi",0.3,1977,3,1976,NA,1.5,4.34153390026901,7.27660483555237,7.58101410153764,5.68954314963938,FALSE,3.80481169524128
"CAN","cpi",0.3,1978,3,1978,NA,0,8.42961079932068,8.67798672929557,8.50208927062595,8.68881076810062,TRUE,0.248375929974888
"CAN","cpi",0.3,1978,3,1978,NA,0.5,8.02336022917491,8.99049107853837,8.50208927062595,8.11208508764938,TRUE,0.96713084936346
"CAN","cpi",0.3,1978,3,1977,NA,1,5.00001457435166,7.36224184377844,8.50208927062595,8.34671923233743,FALSE,5.6189342032768
"CAN","cpi",0.3,1978,3,1977,NA,1.5,4.54980188044045,7.02435495672998,8.50208927062595,8.21410731625775,FALSE,6.69665111599229
"CAN","cpi",0.3,1979,3,1979,NA,0,8.33030473976789,8.49141924723014,8.65147652410481,8.56136533364911,FALSE,0.618421012818452
"CAN","cpi",0.3,1979,3,1979,NA,0.5,8.12529935155264,8.60614234207161,8.65147652410481,8.23092589685401,FALSE,0.610369224899547
"CAN","cpi",0.3,1979,3,1978,NA,1,5.87159035389739,8.38584011794213,8.65147652410481,9.66481845899329,FALSE,3.27321092450953
"CAN","cpi",0.3,1979,3,1978,NA,1.5,5.75335892999436,8.44497119521527,8.65147652410481,7.91014806370246,FALSE,3.28162749061959
"CAN","cpi",0.3,1980,3,1980,NA,0,9.30199124821967,9.50754385452793,9.5171912664748,9.53576705858497,FALSE,0.233116640442169
"CAN","cpi",0.3,1980,3,1980,NA,0.5,8.85479166500556,9.06034427131382,9.5171912664748,8.6434746104286,FALSE,1.51082973533963
"CAN","cpi",0.3,1980,3,1979,NA,1,5.23858807854727,7.79630238108866,9.5171912664748,7.78967249140325,FALSE,7.47453968935893
"CAN","cpi",0.3,1980,3,1979,NA,1.5,5.84625853748639,8.71778691992645,9.5171912664748,8.29781572565185,FALSE,5.15554080114962
"CAN","cpi",0.3,1981,3,1981,NA,0,11.4952120468551,11.7116652294951,11.5813425032741,11.7120328235834,TRUE,0.216453182640002
"CAN","cpi",0.3,1981,3,1981,NA,0.5,12.3615409800363,13.0643805656825,11.5813425032741,12.3296185245412,FALSE,2.93197809068094
"CAN","cpi",0.3,1981,3,1980,NA,1,7.65391251613875,9.74407756289052,11.5813425032741,11.0356264341109,FALSE,7.33949344784783
"CAN","cpi",0.3,1981,3,1980,NA,1.5,7.1725923501381,9.56695411358364,11.5813425032741,8.52474858684185,FALSE,8.14975716256125
"CAN","cpi",0.3,1982,3,1982,NA,0,10.1332638713162,10.2624553750913,10.1124203763629,10.253224031375,FALSE,0.188744346498682
"CAN","cpi",0.3,1982,3,1982,NA,0.5,9.79055220227736,10.4065396259246,10.1124203763629,10.1221315066235,TRUE,0.615987423647262
"CAN","cpi",0.3,1982,3,1981,NA,1,10.1790066468162,12.4119004705564,10.1124203763629,11.652777546881,FALSE,2.42314031074944
"CAN","cpi",0.3,1982,3,1981,NA,1.5,8.96144385212922,11.1943376758695,10.1124203763629,13.2139534836213,TRUE,2.23289382374024
"CAN","cpi",0.3,1983,3,1983,NA,0,5.78055894080795,5.86259419257516,5.67091787896303,5.84362752346853,FALSE,0.395295428466962
"CAN","cpi",0.3,1983,3,1983,NA,0.5,5.01104299198989,5.35038474420888,5.67091787896303,4.70635148143536,FALSE,1.25515070865942
"CAN","cpi",0.3,1983,3,1982,NA,1,7.94126589908941,9.05796885011913,5.67091787896303,8.61437359933683,FALSE,7.60341157996221
"CAN","cpi",0.3,1983,3,1982,NA,1.5,7.69674129365259,10.0627862671716,5.67091787896303,9.84330302935538,FALSE,8.15411187263204
"CAN","cpi",0.3,1984,3,1984,NA,0,4.09235835109318,4.19314297776638,4.19799576814029,4.21315663178917,FALSE,0.114649742027226
"CAN","cpi",0.3,1984,3,1984,NA,0.5,5.06812929393487,5.54327711144477,4.19799576814029,4.73004206452632,FALSE,2.96124360549442
"CAN","cpi",0.3,1984,3,1983,NA,1,4.6269725479921,5.83100565769581,4.19799576814029,6.30529961834119,FALSE,2.42968105213746
"CAN","cpi",0.3,1984,3,1983,NA,1.5,4.23118199741238,6.3407314874562,4.19799576814029,2.81189439817776,FALSE,2.20436728796408
"CAN","cpi",0.3,1985,3,1985,NA,0,3.75971402118599,3.87133053890305,3.86444262005169,3.90546894544143,TRUE,0.111616517717062
"CAN","cpi",0.3,1985,3,1985,NA,0.5,4.40069334527948,4.73894340026465,3.86444262005169,4.0117649915267,FALSE,1.87039498420741
"CAN","cpi",0.3,1985,3,1984,NA,1,2.56962255198812,3.64733415621908,3.86444262005169,3.28942198062367,FALSE,1.69802150089557
"CAN","cpi",0.3,1985,3,1984,NA,1.5,3.65241372738395,4.7301253316149,3.86444262005169,4.67970369844593,TRUE,1.07771160423096
"CAN","cpi",0.3,1986,3,1986,NA,0,3.96863545124671,4.088034592327,4.08685396749431,4.12727747445429,TRUE,0.119399141080297
"CAN","cpi",0.3,1986,3,1986,NA,0.5,4.90140705261667,5.26034868274277,4.08685396749431,4.57514120825518,FALSE,2.68623615904713
"CAN","cpi",0.3,1986,3,1985,NA,1,2.74203588473404,3.75489650023471,4.08685396749431,3.84501750700332,FALSE,1.96131052195668
"CAN","cpi",0.3,1986,3,1985,NA,1.5,3.4244673941629,4.43732800966357,4.08685396749431,4.51624000588938,TRUE,1.01286061550068
"CAN","cpi",0.3,1987,3,1987,NA,0,4.17864679741659,4.29957313690098,4.23980729277887,4.3376164199738,TRUE,0.120926339484392
"CAN","cpi",0.3,1987,3,1987,NA,0.5,4.20782387855634,4.62589296663198,4.23980729277887,3.8898385702312,TRUE,0.418069088075637
"CAN","cpi",0.3,1987,3,1986,NA,1,3.23723404711627,4.11576375002985,4.23980729277887,4.56284936423577,FALSE,1.23293982505363
"CAN","cpi",0.3,1987,3,1986,NA,1.5,3.5433141677255,4.42184387063908,4.23980729277887,5.15474659430673,TRUE,0.878529702913584
"CAN","cpi",0.3,1988,3,1988,NA,0,3.85313356855588,3.96588249399657,3.92899537638065,4.00028299604827,TRUE,0.112748925440687
"CAN","cpi",0.3,1988,3,1988,NA,0.5,3.89658022613294,4.29447295924848,3.92899537638065,3.53181278911538,TRUE,0.39789273311554
"CAN","cpi",0.3,1988,3,1987,NA,1,3.05441401401507,4.20363391142611,3.92899537638065,4.34173286045961,TRUE,1.14921989741104
"CAN","cpi",0.3,1988,3,1987,NA,1.5,3.62151432623267,4.77073422364371,3.92899537638065,3.76612293581706,TRUE,1.14921989741104
"CAN","cpi",0.3,1989,3,1989,NA,0,4.82941915346021,4.96080227998344,4.82821664544208,5.00606812502784,FALSE,0.134818863717898
"CAN","cpi",0.3,1989,3,1989,NA,0.5,4.79085546692148,5.20491922959117,4.82821664544208,4.51521437972404,TRUE,0.414063762669695
"CAN","cpi",0.3,1989,3,1988,NA,1,3.4232877220839,4.13907456508623,4.82821664544208,4.3270389784901,FALSE,2.68476421544761
"CAN","cpi",0.3,1989,3,1988,NA,1.5,3.4942021559653,4.40522910333791,4.82821664544208,3.42699250808196,FALSE,2.11956278195594
"CAN","cpi",0.3,1990,3,1990,NA,0,4.3756862469388,4.48940731388576,4.64347549432717,4.52171223749059,FALSE,0.553915868208124
"CAN","cpi",0.3,1990,3,1990,NA,0.5,5.41657836766061,5.86179344506228,4.64347549432717,5.22335253259958,FALSE,2.65408042978293
"CAN","cpi",0.3,1990,3,1989,NA,1,4.42749661162888,5.20881421089302,4.64347549432717,5.7236432392913,TRUE,0.78131759926414
"CAN","cpi",0.3,1990,3,1989,NA,1.5,4.22256721231969,5.09909072400904,4.64347549432717,4.92041342133377,TRUE,0.876523511689349
"CAN","cpi",0.3,1991,3,1991,NA,0,5.43899523571719,5.57674327021511,5.4258100696218,5.6161816682171,FALSE,0.175419937627626
"CAN","cpi",0.3,1991,3,1991,NA,0.5,8.54728017786141,9.12029978529895,5.4258100696218,8.8240510060175,FALSE,9.4915056309793
"CAN","cpi",0.3,1991,3,1990,NA,1,3.63253382690811,4.20555343434565,5.4258100696218,3.89170713423419,FALSE,4.05946713679796
"CAN","cpi",0.3,1991,3,1990,NA,1.5,4.2494148322362,4.82243443967375,5.4258100696218,5.70462042447442,FALSE,2.29694997871768
"CAN","cpi",0.3,1992,3,1992,NA,0,1.52542399934572,1.36153285083516,1.47496888572843,1.47544467241393,FALSE,0.304369275805325
"CAN","cpi",0.3,1992,3,1992,NA,0.5,2.22723108614713,2.06333993763657,1.47496888572843,1.36069384263819,FALSE,1.98542942411428
"CAN","cpi",0.3,1992,3,1991,NA,1,3.74135341688616,3.5774622683756,1.47496888572843,2.43500720778875,FALSE,6.31149322622581
"CAN","cpi",0.3,1992,3,1991,NA,1.5,5.89791827601725,5.73402712750669,1.47496888572843,11.2072976243743,FALSE,12.4731071094575
"CAN","cpi",0.3,1993,3,1993,NA,0,1.6619359303731,1.76253514192094,1.84351085411351,1.81496037239602,FALSE,0.33195838924091
"CAN","cpi",0.3,1993,3,1993,NA,0.5,2.92860398232178,3.23153754089963,1.84351085411351,2.43338635087472,FALSE,3.40319963917291
"CAN","cpi",0.3,1993,3,1992,NA,1,1.31187748593123,1.77157956903326,1.84351085411351,1.76228766319361,FALSE,0.665220040474173
"CAN","cpi",0.3,1993,3,1992,NA,1.5,1.73051249713419,2.19021458023621,1.84351085411351,1.598750613598,TRUE,0.459702083102029
"CAN","cpi",0.3,1994,3,1994,NA,0,0.114720247666468,0.186305081786159,0.161630694655448,0.220147227157928,TRUE,0.0715848341196904
"CAN","cpi",0.3,1994,3,1994,NA,0.5,0.0517431895498018,0.297240477217683,0.161630694655448,-0.741542526043691,TRUE,0.245497287667881
"CAN","cpi",0.3,1994,3,1993,NA,1,1.53180537718999,1.77730266485787,0.161630694655448,1.50794631797803,FALSE,4.16028209490943
"CAN","cpi",0.3,1994,3,1993,NA,1.5,2.08655708409856,2.33205437176644,0.161630694655448,2.81797717341095,FALSE,5.74528697179105
"CAN","cpi",0.3,1995,3,1995,NA,0,1.96546574818458,2.08529430511773,2.11688403676572,2.15484685959489,FALSE,0.21008493307025
"CAN","cpi",0.3,1995,3,1995,NA,0.5,3.2013615226141,3.68567140224324,2.11688403676572,2.90883921660758,FALSE,3.5828169820531
"CAN","cpi",0.3,1995,3,1994,NA,1,0.460320754380924,1.35142474530581,2.11688403676572,1.95173420121315,FALSE,3.07813053795318
"CAN","cpi",0.3,1995,3,1994,NA,1.5,0.543002191965391,1.43410618289028,2.11688403676572,-2.17983456081826,FALSE,2.84189785914042
"CAN","cpi",0.3,1996,3,1996,NA,0,1.32097347182071,1.40005391439988,1.55309584667184,1.44166889374788,FALSE,0.516343106213352
"CAN","cpi",0.3,1996,3,1996,NA,0.5,1.8864588923433,2.16492556217313,1.55309584667184,1.36236766996786,FALSE,1.23093251460541
"CAN","cpi",0.3,1996,3,1995,NA,1,1.02152479379357,1.34246410807464,1.55309584667184,0.911474268150699,FALSE,0.922744281701653
"CAN","cpi",0.3,1996,3,1995,NA,1.5,2.15220145922787,2.47314077350894,1.55309584667184,3.98784768949811,FALSE,2.03266963586973
"CAN","cpi",0.3,1997,3,1997,NA,0,1.57069211725456,1.643928409913,1.60528783555959,1.68811714545079,TRUE,0.073236292658434
"CAN","cpi",0.3,1997,3,1997,NA,0.5,2.48636549281066,2.80985708068271,1.60528783555959,2.10620867662285,FALSE,2.84085632287511
"CAN","cpi",0.3,1997,3,1996,NA,1,1.01553898881801,1.4681673889419,1.60528783555959,0.758460286059383,FALSE,0.844401104745874
"CAN","cpi",0.3,1997,3,1996,NA,1.5,1.49705198504608,1.94968038516997,1.60528783555959,1.66287852692671,TRUE,0.452628400123888
"CAN","cpi",0.3,1998,3,1998,NA,0,0.873628773089708,0.933360314183842,0.988908029337191,0.970744023070627,FALSE,0.21843929867513
"CAN","cpi",0.3,1998,3,1998,NA,0.5,1.74748657842944,2.2052435253806,0.988908029337191,1.52096865004292,FALSE,2.62512423007186
"CAN","cpi",0.3,1998,3,1997,NA,1,1.18725934139892,1.64501628835009,0.988908029337191,1.03996058978499,FALSE,1.02447498141326
"CAN","cpi",0.3,1998,3,1997,NA,1.5,1.41281909480456,1.87057604175572,0.988908029337191,2.22059574107629,FALSE,1.66893141971507
"CAN","cpi",0.3,1999,3,1999,NA,0,1.6730768993361,1.76154122716888,1.7107350135213,1.79141464940687,TRUE,0.0884643278327792
"CAN","cpi",0.3,1999,3,1999,NA,0.5,1.12376089266017,1.4547550090332,1.7107350135213,0.800552372711202,FALSE,1.06236555776759
"CAN","cpi",0.3,1999,3,1998,NA,1,0.711475042665576,1.0424691590386,1.7107350135213,0.474525424909611,FALSE,2.24032512918073
"CAN","cpi",0.3,1999,3,1998,NA,1.5,0.842858294239278,1.1738524106123,1.7107350135213,2.19776497346126,FALSE,1.86494441039872
"CAN","cpi",0.3,2000,3,2000,NA,0,2.60284709528989,2.68230612178411,2.6718361971244,2.73388860624727,TRUE,0.0794590264942219
"CAN","cpi",0.3,2000,3,2000,NA,0.5,2.20289219993526,2.82524362004691,2.6718361971244,2.11525832235237,TRUE,0.622351420111656
"CAN","cpi",0.3,2000,3,1999,NA,1,1.94425297132707,2.88019896833462,2.6718361971244,2.81438082878813,TRUE,0.935945997007544
"CAN","cpi",0.3,2000,3,1999,NA,1.5,1.65299663368527,2.58894263069282,2.6718361971244,0.872413614651861,FALSE,1.17278475824063
"CAN","cpi",0.3,2001,3,2001,NA,0,2.62203872087038,2.69386361202327,2.47906219852806,2.73506715681632,FALSE,0.480329240702365
"CAN","cpi",0.3,2001,3,2001,NA,0.5,1.89658273591479,2.51560401045032,2.47906219852806,1.72363549629744,TRUE,0.619021274535537
"CAN","cpi",0.3,2001,3,2000,NA,1,2.67899751807989,3.49348277333994,2.47906219852806,3.73995761394105,FALSE,1.38572902540812
"CAN","cpi",0.3,2001,3,2000,NA,1.5,2.37278124982713,3.4654325823163,2.47906219852806,1.98299961497232,TRUE,1.09265133248916
"CAN","cpi",0.3,2002,3,2002,NA,0,2.24409343788944,2.31007644250331,2.20880570551249,2.3500140093739,FALSE,0.166805097119444
"CAN","cpi",0.3,2002,3,2002,NA,0.5,1.94556409270812,2.27881857567939,2.20880570551249,1.47074452365548,TRUE,0.333254482971274
"CAN","cpi",0.3,2002,3,2001,NA,1,1.09129254698962,1.78362441650135,2.20880570551249,0.79597273109289,FALSE,1.90713555240069
"CAN","cpi",0.3,2002,3,2001,NA,1.5,2.30740882686721,3.66541003543119,2.20880570551249,0.827019109774735,FALSE,1.63972441243461
"CAN","cpi",0.3,2003,3,2003,NA,0,2.63512812229887,2.71749320546557,2.71189071546809,2.76866538316948,TRUE,0.0823650831667049
"CAN","cpi",0.3,2003,3,2003,NA,0.5,4.67495830874388,5.03294424533599,2.71189071546809,4.59645517963757,FALSE,5.96675048880866
"CAN","cpi",0.3,2003,3,2002,NA,1,2.70522990494932,3.55562216268959,2.71189071546809,4.33746529644743,TRUE,0.850392257740264
"CAN","cpi",0.3,2003,3,2002,NA,1.5,1.90500537507217,2.75539763281244,2.71189071546809,2.71468890277684,TRUE,0.850392257740264
"CAN","cpi",0.3,2004,3,2004,NA,0,1.67174138136954,1.73396932514006,1.83151661303942,1.7684769390021,FALSE,0.34093448062584
"CAN","cpi",0.3,2004,3,2004,NA,0.5,1.83929531144314,2.28669053069619,1.83151661303942,1.5625176897836,FALSE,0.469620071835095
"CAN","cpi",0.3,2004,3,2003,NA,1,1.83876349114754,2.28615871040059,1.83151661303942,1.41754396673829,FALSE,0.468100585276238
"CAN","cpi",0.3,2004,3,2003,NA,1.5,2.24342234853114,2.69081756778419,1.83151661303942,5.32651436309904,FALSE,1.62426874922938
"CAN","cpi",0.3,2005,3,2005,NA,0,2.26300023440139,2.33075651988412,2.18071628336509,2.38196957660787,FALSE,0.302853288443585
"CAN","cpi",0.3,2005,3,2005,NA,0.5,1.82974708836876,2.25709489855199,2.18071628336509,1.57253942332725,TRUE,0.42734781018323
"CAN","cpi",0.3,2005,3,2004,NA,1,1.31550883191685,1.74285664210008,2.18071628336509,0.993232956459974,FALSE,1.67837535665469
"CAN","cpi",0.3,2005,3,2004,NA,1.5,1.72022351044291,2.36827372512669,2.18071628336509,2.05989686108521,TRUE,0.648050214683783
"CAN","cpi",0.3,2006,3,2006,NA,0,1.95150009752743,2.02291948405988,1.97519342012289,2.0667253719809,TRUE,0.0714193865324471
"CAN","cpi",0.3,2006,3,2006,NA,0.5,2.11599879059904,2.64166051262724,1.97519342012289,1.93779395271753,FALSE,0.9279627805315
