isdrw/probabilistic-benchmark-forecasts/results/linear_quantile_regression_lag/ldr_lag_prediction_arima_auto_2026-02-18_16-02-44.csv
"country","target","tau","target_year","target_quarter","forecast_year","forecast_quarter","horizon","lower_bound","upper_bound","truth_value","prediction","covered","IS"
"CAN","cpi",0.1,1952,3,1952,NA,0,2.55937454045685,2.55937454045685,2.55562336095485,2.50792675283471,FALSE,0.00833595444889726
"CAN","cpi",0.1,1952,3,1952,NA,0.5,3.70318150168635,3.70318150168635,2.55562336095485,5.20333179389047,FALSE,2.55012920162556
"CAN","cpi",0.1,1952,3,1951,NA,1,2.18247104175346,2.18247104175346,2.55562336095485,8.18998200969936,FALSE,0.829227376003083
"CAN","cpi",0.1,1952,3,1951,NA,1.5,4.8511738265733,4.8511738265733,2.55562336095485,7.55460015368862,FALSE,5.10122325692989
"CAN","cpi",0.1,1953,3,1953,NA,0,-0.551582683029764,-0.551582683029764,-1.01492775838436,-0.954275034924989,FALSE,1.02965572301022
"CAN","cpi",0.1,1953,3,1953,NA,0.5,1.96318276472028,1.96318276472028,-1.01492775838436,-1.88711612688489,FALSE,6.61802338467698
"CAN","cpi",0.1,1953,3,1952,NA,1,-13.6044987031977,-13.6044987031977,-1.01492775838436,-0.873617238258229,FALSE,27.9768243218074
"CAN","cpi",0.1,1953,3,1952,NA,1.5,5.80865924670312,5.80865924670312,-1.01492775838436,5.93557635631702,FALSE,15.1635266779722
"CAN","cpi",0.1,1954,3,1954,NA,0,1.00828909927148,1.12415471094997,0.644425455961438,0.879731201855888,FALSE,0.924451485700803
"CAN","cpi",0.1,1954,3,1954,NA,0.5,1.97600381183901,2.09186942351749,0.644425455961438,-0.358875738913824,FALSE,3.07492862473975
"CAN","cpi",0.1,1954,3,1953,NA,1,8.28930722778098,8.40517283945946,0.644425455961438,3.38326531029323,FALSE,17.1044917712775
"CAN","cpi",0.1,1954,3,1953,NA,1.5,9.44291781966797,9.55878343134646,0.644425455961438,-1.28741438714058,FALSE,19.6680708643597
"CAN","cpi",0.1,1955,3,1955,NA,0,0.0630579747978695,0.0308566125471469,0.173649026558865,0.115254687233858,FALSE,0.285115113330873
"CAN","cpi",0.1,1955,3,1955,NA,0.5,0.918165803511582,0.918165803511581,0.173649026558865,-0.770970046821609,FALSE,1.65448172656159
"CAN","cpi",0.1,1955,3,1954,NA,1,2.24975622101047,2.24975622101047,0.173649026558865,3.47019599757395,FALSE,4.6135715432258
"CAN","cpi",0.1,1955,3,1954,NA,1.5,0.756033845843261,0.756033845843261,0.173649026558865,-1.89562740163941,FALSE,1.29418848729866
"CAN","cpi",0.1,1956,3,1956,NA,0,1.51326067623575,1.60413177325098,1.32752769429961,1.56059797998755,FALSE,0.503611056873323
"CAN","cpi",0.1,1956,3,1956,NA,0.5,0.432562596033791,1.17907466719854,1.32752769429961,-0.709146002056511,FALSE,1.0764076869449
"CAN","cpi",0.1,1956,3,1955,NA,1,-0.218232352014902,0.59896608899572,1.32752769429961,0.884549626974225,FALSE,2.43622423057482
"CAN","cpi",0.1,1956,3,1955,NA,1.5,0.00450547037526394,0.821703911385886,1.32752769429961,-1.89150615642833,FALSE,1.94125129193
"CAN","cpi",0.1,1957,3,1957,NA,0,3.34767845102826,3.34767845102826,3.24684755852518,3.4151370317006,FALSE,0.224068650006856
"CAN","cpi",0.1,1957,3,1957,NA,0.5,3.67136798720942,3.67136798720942,3.24684755852518,2.23982631608766,FALSE,0.943378730409427
"CAN","cpi",0.1,1957,3,1956,NA,1,2.63753903989489,3.76408424211603,3.24684755852518,6.98754636690555,TRUE,1.12654520222114
"CAN","cpi",0.1,1957,3,1956,NA,1.5,0.266766129857397,1.39331133207854,3.24684755852518,-1.88668623310337,FALSE,5.24551459432478
"CAN","cpi",0.1,1958,3,1958,NA,0,2.108133190877,2.17999116232253,2.33186388641149,2.22387249143335,FALSE,0.409352913865443
"CAN","cpi",0.1,1958,3,1958,NA,0.5,2.58673307641784,2.71168394546869,2.33186388641149,2.22839060734872,FALSE,0.691326846842739
"CAN","cpi",0.1,1958,3,1957,NA,1,1.59580233151312,1.72075320056396,2.33186388641149,4.42088197051908,FALSE,1.48297461537868
"CAN","cpi",0.1,1958,3,1957,NA,1.5,1.76741046578123,1.89236133483207,2.33186388641149,0.91301479707402,FALSE,1.10162320589399
"CAN","cpi",0.1,1959,3,1959,NA,0,1.19125166400411,1.19125166400411,1.19382698397654,1.24991216431293,FALSE,0.0057229332720659
"CAN","cpi",0.1,1959,3,1959,NA,0.5,0.950486427635068,1.38156196528231,1.19382698397654,0.437839731590327,TRUE,0.431075537647244
"CAN","cpi",0.1,1959,3,1958,NA,1,0.341506916558687,0.772582454205932,1.19382698397654,1.75862762885946,FALSE,1.36717449269304
"CAN","cpi",0.1,1959,3,1958,NA,1.5,1.20474336338194,1.7831583237637,1.19382698397654,1.77407172713766,FALSE,0.602673581282647
"CAN","cpi",0.1,1960,3,1960,NA,0,0.948831812343266,0.951806005020798,1.34209404870695,1.02361304259477,FALSE,0.87028095642454
"CAN","cpi",0.1,1960,3,1960,NA,0.5,1.47918551298846,1.77262988388912,1.34209404870695,0.53898348018166,FALSE,0.598092069304006
"CAN","cpi",0.1,1960,3,1959,NA,1,1.86122704764448,2.2389936816874,1.34209404870695,3.95759373689442,FALSE,1.53139552057077
"CAN","cpi",0.1,1960,3,1959,NA,1.5,1.29584259903197,1.67360923307489,1.34209404870695,-0.873476815404885,TRUE,0.377766634042919
"CAN","cpi",0.1,1961,3,1961,NA,0,0.936431778023338,0.939366663269192,1.00921348094007,1.00921348094007,FALSE,0.158150035625587
"CAN","cpi",0.1,1961,3,1961,NA,0.5,1.81929421468019,2.08504767492066,1.00921348094007,1.00921348094007,FALSE,2.06593286855185
"CAN","cpi",0.1,1961,3,1960,NA,1,-0.113570208032373,0.382424691351298,1.00921348094007,0.0537704626035329,FALSE,1.88885887624761
"CAN","cpi",0.1,1961,3,1960,NA,1.5,1.27459147224662,1.77058637163029,1.00921348094007,-0.862181798940035,FALSE,1.08572376895378
"CAN","cpi",0.1,1962,3,1962,NA,0,1.03262088226723,1.09530537094308,1.04957947883042,1.10232402731478,TRUE,0.0626844886758455
"CAN","cpi",0.1,1962,3,1962,NA,0.5,0.887741035308665,0.95042552398451,1.04957947883042,0,FALSE,0.283026610555634
"CAN","cpi",0.1,1962,3,1961,NA,1,0.620540619475462,0.683225108151307,1.04957947883042,0,FALSE,0.876805312407196
"CAN","cpi",0.1,1962,3,1961,NA,1.5,1.11000322437759,1.39138558390114,1.04957947883042,0,FALSE,0.415657349628381
"CAN","cpi",0.1,1963,3,1963,NA,0,1.86399827871623,1.86259345502895,1.60677118395228,1.91491729531202,FALSE,0.570210942454821
"CAN","cpi",0.1,1963,3,1963,NA,0.5,1.76353479154312,1.88974729146736,1.60677118395228,0.836828714617504,FALSE,0.474576072348321
"CAN","cpi",0.1,1963,3,1962,NA,1,1.64883684197233,1.77504934189658,1.60677118395228,2.56411490415144,FALSE,0.219691739968804
"CAN","cpi",0.1,1963,3,1962,NA,1.5,1.04777548705009,1.17398798697434,1.60677118395228,0,FALSE,1.08795293765301
"CAN","cpi",0.1,1964,3,1964,NA,0,1.92444260658109,1.94275867201758,1.88764670034376,1.98877256446048,FALSE,0.100084745963887
"CAN","cpi",0.1,1964,3,1964,NA,0.5,2.13061740471522,2.23482278994907,1.88764670034376,1.38369006227607,FALSE,0.644140283837098
"CAN","cpi",0.1,1964,3,1963,NA,1,2.6090314041507,2.71323678938455,1.88764670034376,5.39044290347256,FALSE,1.70728250480483
"CAN","cpi",0.1,1964,3,1963,NA,1.5,1.32018174344646,1.45148240850803,1.88764670034376,0,FALSE,1.10055464691875
"CAN","cpi",0.1,1965,3,1965,NA,0,2.28333532508184,2.3027229545357,2.29538304394236,2.34557047418999,TRUE,0.0193876294538544
"CAN","cpi",0.1,1965,3,1965,NA,0.5,2.21117616862915,2.34319353802552,2.29538304394236,1.61079447956654,TRUE,0.13201736939637
"CAN","cpi",0.1,1965,3,1964,NA,1,1.48147838995747,1.70298551011349,2.29538304394236,2.42518862179847,FALSE,1.53794608422017
"CAN","cpi",0.1,1965,3,1964,NA,1.5,1.26241396722876,1.67598584703077,2.29538304394236,0.818102552316399,FALSE,1.79001009516109
"CAN","cpi",0.1,1966,3,1966,NA,0,3.76869374701171,3.77614956478782,3.72486065470629,3.82010987863709,FALSE,0.104862689565936
"CAN","cpi",0.1,1966,3,1966,NA,0.5,4.57578230853097,4.69469565736563,3.72486065470629,3.99123398895563,FALSE,2.00985035733394
"CAN","cpi",0.1,1966,3,1965,NA,1,1.73754429518281,1.92900482165584,3.72486065470629,3.20722068745854,FALSE,4.18225126658514
"CAN","cpi",0.1,1966,3,1965,NA,1.5,1.25492504992449,1.76844679966487,3.72486065470629,1.60663824631958,FALSE,4.86110809427687
"CAN","cpi",0.1,1967,3,1967,NA,0,3.73390404683291,3.74116797832474,3.49360316391996,3.76768849328632,FALSE,0.541265893520605
"CAN","cpi",0.1,1967,3,1967,NA,0.5,2.20642235678006,2.34201067625513,3.49360316391996,2.4074547441976,FALSE,2.69468273650803
"CAN","cpi",0.1,1967,3,1966,NA,1,1.60324495853961,1.81081629779401,3.49360316391996,3.18103323070284,FALSE,3.94709770842318
"CAN","cpi",0.1,1967,3,1966,NA,1.5,1.17506212970038,2.15127679334628,3.49360316391996,4.65128160487248,FALSE,3.95916215380963
"CAN","cpi",0.1,1968,3,1968,NA,0,4.07616683450607,4.14387121163601,3.95128347779386,4.17287945672396,FALSE,0.345222947601518
"CAN","cpi",0.1,1968,3,1968,NA,0.5,3.78120797466884,3.95849975261594,3.95128347779386,4.07097205779852,TRUE,0.177291777947105
"CAN","cpi",0.1,1968,3,1967,NA,1,2.6219476559922,2.79923943393931,3.95128347779386,5.84521682123848,FALSE,2.73738965317944
"CAN","cpi",0.1,1968,3,1967,NA,1.5,1.86710544326344,2.04439722121054,3.95128347779386,2.25565858240226,FALSE,4.4148167925767
"CAN","cpi",0.1,1969,3,1969,NA,0,4.39049051376475,4.42111476309244,4.42679496126681,4.46896837073893,FALSE,0.043246911937409
"CAN","cpi",0.1,1969,3,1969,NA,0.5,2.77386329922607,2.80448754855377,4.42679496126681,2.96612019395715,FALSE,3.63575183313447
"CAN","cpi",0.1,1969,3,1968,NA,1,2.94717007983443,2.97779432916212,4.42679496126681,6.72487630040807,FALSE,3.25062565400479
"CAN","cpi",0.1,1969,3,1968,NA,1.5,2.1112242052352,2.15279336997767,4.42679496126681,4.31664452944541,FALSE,5.09490603427391
"CAN","cpi",0.1,1970,3,1970,NA,0,3.4488852137091,3.47143533784875,3.28128405769805,3.52697515579364,FALSE,0.39499713749754
"CAN","cpi",0.1,1970,3,1970,NA,0.5,4.16992848353176,4.19247860767141,3.28128405769805,4.65371085276917,FALSE,1.99731551488123
"CAN","cpi",0.1,1970,3,1969,NA,1,2.19996563609099,2.25893508587132,3.28128405769805,4.52747875087707,FALSE,2.33085605383972
"CAN","cpi",0.1,1970,3,1969,NA,1.5,2.00926843771411,2.24122809088553,3.28128405769805,2.07973847283129,FALSE,2.54319513497701
"CAN","cpi",0.1,1971,3,1971,NA,0,2.75201810602145,2.78612162728778,2.64123406634756,2.8393232579169,FALSE,0.280290276097186
"CAN","cpi",0.1,1971,3,1971,NA,0.5,2.18274881361137,2.24319827211897,2.64123406634756,2.06692165705507,FALSE,0.944973445682254
"CAN","cpi",0.1,1971,3,1970,NA,1,1.66214393810168,1.72259339660928,2.64123406634756,2.64105994583495,FALSE,2.10187316903712
"CAN","cpi",0.1,1971,3,1970,NA,1.5,2.06688269232346,2.41114736857503,2.64123406634756,4.63977638900468,FALSE,0.855568449079425
"CAN","cpi",0.1,1972,3,1972,NA,0,4.90448992319363,4.96985282401246,4.83230569625923,5.03048103188219,FALSE,0.225772294006388
"CAN","cpi",0.1,1972,3,1972,NA,0.5,5.03860373493392,5.10396663575275,4.83230569625923,5.06705904355972,FALSE,0.523802986762583
"CAN","cpi",0.1,1972,3,1971,NA,1,2.78673444769428,2.85209734851311,4.83230569625923,5.9169160270675,FALSE,4.46582589581021
"CAN","cpi",0.1,1972,3,1971,NA,1.5,1.9506422329022,2.2153222187915,4.83230569625923,3.09276495441271,FALSE,6.08019882470648
"CAN","cpi",0.1,1973,3,1973,NA,0,6.7409849525492,6.85075481497396,7.12388603531779,6.99264756193144,FALSE,0.716728129855495
"CAN","cpi",0.1,1973,3,1973,NA,0.5,4.57774030072089,4.74472049931398,7.12388603531779,5.47469896411854,FALSE,5.454014723046
"CAN","cpi",0.1,1973,3,1972,NA,1,2.86547373877865,3.03245393737173,7.12388603531779,6.69062283747837,FALSE,9.2590515273621
"CAN","cpi",0.1,1973,3,1972,NA,1.5,2.26377647960331,2.8166874874197,7.12388603531779,4.73174243586486,FALSE,10.1244633364788
"CAN","cpi",0.1,1974,3,1974,NA,0,9.75976139963716,9.92749599205591,10.2717243737774,9.94431520564033,FALSE,0.932686551799877
"CAN","cpi",0.1,1974,3,1974,NA,0.5,6.38698006103084,6.57227219471905,10.2717243737774,8.3378654175141,FALSE,8.40629697604013
"CAN","cpi",0.1,1974,3,1973,NA,1,3.04226418701268,4.62152511418509,10.2717243737774,7.16712422635118,FALSE,14.135259281822
"CAN","cpi",0.1,1974,3,1973,NA,1.5,2.44476616394234,4.39024439958573,10.2717243737774,4.05174749178054,FALSE,15.0154337338471
"CAN","cpi",0.1,1975,3,1975,NA,0,10.1942800132949,10.1636685662662,10.0232981493341,10.0931823619779,FALSE,0.349348250661921
"CAN","cpi",0.1,1975,3,1975,NA,0.5,6.26142305546594,6.69548875775885,10.0232981493341,8.98267476097328,FALSE,7.82919768357129
"CAN","cpi",0.1,1975,3,1974,NA,1,3.39717437423882,5.17431487105426,10.0232981493341,7.7837982223054,FALSE,12.5526588929929
"CAN","cpi",0.1,1975,3,1974,NA,1.5,4.4120692386816,6.18920973549704,10.0232981493341,5.75931605308519,FALSE,10.297336972009
"CAN","cpi",0.1,1976,3,1976,NA,0,7.02126521742017,7.01606170830645,7.22784311401172,7.07277954951717,FALSE,0.465421836897988
"CAN","cpi",0.1,1976,3,1976,NA,0.5,6.58344960188666,8.78386296184822,7.22784311401172,8.59089060438327,TRUE,2.20041335996155
"CAN","cpi",0.1,1976,3,1975,NA,1,6.51537951925435,8.71579287921591,7.22784311401172,10.4141477685142,TRUE,2.20041335996155
"CAN","cpi",0.1,1976,3,1975,NA,1.5,5.88700208512842,8.55686116818412,7.22784311401172,6.43051086134862,TRUE,2.6698590830557
"CAN","cpi",0.1,1977,3,1977,NA,0,7.52770403710143,7.5701711362116,7.58101410153764,7.55301151664772,FALSE,0.066562577612487
"CAN","cpi",0.1,1977,3,1977,NA,0.5,7.40391004887815,7.44637714798833,7.58101410153764,7.98165850021887,FALSE,0.341660329219772
"CAN","cpi",0.1,1977,3,1976,NA,1,3.98675378724543,4.0292208863556,7.58101410153764,3.72134649143602,FALSE,7.93534091062583
"CAN","cpi",0.1,1977,3,1976,NA,1.5,5.29465098400519,5.33711808311537,7.58101410153764,8.00272044475614,FALSE,5.02890269560412
"CAN","cpi",0.1,1978,3,1978,NA,0,8.7115250600481,8.70161388223528,8.50208927062595,8.67127840358843,FALSE,0.455501687569746
"CAN","cpi",0.1,1978,3,1978,NA,0.5,7.75944668590713,7.89648708706289,8.50208927062595,8.3788273181893,FALSE,1.48282303129588
"CAN","cpi",0.1,1978,3,1977,NA,1,5.59154185715242,6.34565741417175,8.50208927062595,7.54783828416051,FALSE,5.54618634913977
"CAN","cpi",0.1,1978,3,1977,NA,1.5,5.36465912483517,6.11877468185451,8.50208927062595,9.72562756342223,FALSE,6.05037019873365
"CAN","cpi",0.1,1979,3,1979,NA,0,8.48918591051984,8.60647952837722,8.65147652410481,8.56376390232469,FALSE,0.217286941696475
"CAN","cpi",0.1,1979,3,1979,NA,0.5,7.38499825692137,7.94989920655539,8.65147652410481,8.29599284966764,FALSE,2.1239616552994
"CAN","cpi",0.1,1979,3,1978,NA,1,6.37453544437601,8.31782190264376,8.65147652410481,9.20311500508918,FALSE,2.68474117262563
"CAN","cpi",0.1,1979,3,1978,NA,1.5,6.08374171024306,8.02702816851081,8.65147652410481,8.55646910152924,FALSE,3.33094947069886
"CAN","cpi",0.1,1980,3,1980,NA,0,9.50391677777248,9.55098925695425,9.5171912664748,9.50406722106931,TRUE,0.0470724791817716
"CAN","cpi",0.1,1980,3,1980,NA,0.5,7.81561914891967,8.5315006882068,9.5171912664748,8.57798914335092,FALSE,2.90630504654934
"CAN","cpi",0.1,1980,3,1979,NA,1,7.19556873959345,8.15461427093568,9.5171912664748,8.17875203710815,FALSE,3.98699441031805
"CAN","cpi",0.1,1980,3,1979,NA,1.5,6.23091493655923,8.15033430671997,9.5171912664748,8.39204766062112,FALSE,4.95687928072702
"CAN","cpi",0.1,1981,3,1981,NA,0,11.7362865573804,11.7752448673248,11.5813425032741,11.7113878984199,FALSE,0.383278430180576
"CAN","cpi",0.1,1981,3,1981,NA,0.5,11.5951653392784,12.2132030604875,11.5813425032741,12.2156196752767,FALSE,0.648755134551889
"CAN","cpi",0.1,1981,3,1980,NA,1,9.11511230831255,9.73315002952175,11.5813425032741,11.0496853423024,FALSE,4.72513210732563
"CAN","cpi",0.1,1981,3,1980,NA,1.5,8.71325700297657,9.33129472418577,11.5813425032741,8.33809792174894,FALSE,5.61814389696113
"CAN","cpi",0.1,1982,3,1982,NA,0,10.2859447865293,10.309428359744,10.1124203763629,10.2566668151097,FALSE,0.409093373584373
"CAN","cpi",0.1,1982,3,1982,NA,0.5,8.83713772407845,9.76223461710437,10.1124203763629,10.1085355973545,FALSE,1.70328746915609
"CAN","cpi",0.1,1982,3,1981,NA,1,11.3127065037091,12.237803396735,10.1124203763629,11.770988683124,FALSE,3.59239939823958
"CAN","cpi",0.1,1982,3,1981,NA,1.5,10.6280968283083,11.5531937213342,10.1124203763629,12.8701250351281,FALSE,2.07104456401557
"CAN","cpi",0.1,1983,3,1983,NA,0,5.68935672510582,5.74783658173691,5.67091787896303,5.7310121416489,FALSE,0.0994550702817247
"CAN","cpi",0.1,1983,3,1983,NA,0.5,4.73287880839865,5.05200421348951,5.67091787896303,4.91343016009654,FALSE,1.69448910614313
"CAN","cpi",0.1,1983,3,1982,NA,1,8.71574358402962,9.51543038376267,5.67091787896303,9.18500149866057,FALSE,7.56596614432546
"CAN","cpi",0.1,1983,3,1982,NA,1.5,8.82469374467908,9.62438054441214,5.67091787896303,9.68672301569366,FALSE,7.80807761243538
"CAN","cpi",0.1,1984,3,1984,NA,0,NA,NA,4.19799576814029,NA,NA,NA
"CAN","cpi",0.1,1984,3,1984,NA,0.5,6.02899381275633,6.30817133227136,4.19799576814029,5.85770686024457,FALSE,4.34806206310624
"CAN","cpi",0.1,1984,3,1983,NA,1,5.05883618728107,5.50327564135641,4.19799576814029,5.76553357996429,FALSE,2.35741816327707
"CAN","cpi",0.1,1984,3,1983,NA,1.5,5.40554704865015,5.84998650272549,4.19799576814029,2.9197996794717,FALSE,3.12788674409727
"CAN","cpi",0.1,1985,3,1985,NA,0,3.77489837210912,3.81159883088253,3.86444262005169,3.85417990135378,FALSE,0.15413110137155
"CAN","cpi",0.1,1985,3,1985,NA,0.5,4.5700260427056,4.77285889287493,3.86444262005169,4.21990042382899,FALSE,1.77079601162246
"CAN","cpi",0.1,1985,3,1984,NA,1,NA,NA,3.86444262005169,NA,NA,NA
"CAN","cpi",0.1,1985,3,1984,NA,1.5,3.58484050095319,3.78767335112252,3.86444262005169,8.62999660305356,FALSE,0.373431225567488
"CAN","cpi",0.1,1986,3,1986,NA,0,3.9543477414213,3.99420309609247,4.08685396749431,4.03771389199993,FALSE,0.245746180008601
"CAN","cpi",0.1,1986,3,1986,NA,0.5,4.70624060007246,4.87152309069629,4.08685396749431,4.38219332503529,FALSE,1.54169722968638
"CAN","cpi",0.1,1986,3,1985,NA,1,3.24157448881066,3.60327738489666,4.08685396749431,3.37849976080849,FALSE,1.43631752408078
"CAN","cpi",0.1,1986,3,1985,NA,1.5,3.55929500094751,3.92099789703351,4.08685396749431,4.95309858900956,FALSE,0.730271941554443
"CAN","cpi",0.1,1987,3,1987,NA,0,NA,NA,4.23980729277887,NA,NA,NA
"CAN","cpi",0.1,1987,3,1987,NA,0.5,4.46054725362605,4.62633097019114,4.23980729277887,4.13342161080085,FALSE,0.656316962892151
"CAN","cpi",0.1,1987,3,1986,NA,1,3.55518669431736,3.87274547060375,4.23980729277887,3.66140988164798,FALSE,1.13325171445333
"CAN","cpi",0.1,1987,3,1986,NA,1.5,3.8842038804286,4.21517669680107,4.23980729277887,4.80242768143514,FALSE,0.385707474100923
"CAN","cpi",0.1,1988,3,1988,NA,0,3.87538961622077,3.90907841336279,3.92899537638065,3.9438316199536,FALSE,0.0779487149594927
"CAN","cpi",0.1,1988,3,1988,NA,0.5,3.72796557482019,3.88132801702645,3.92899537638065,3.35419215340812,FALSE,0.259289907437833
"CAN","cpi",0.1,1988,3,1987,NA,1,NA,NA,3.92899537638065,NA,NA,NA
"CAN","cpi",0.1,1988,3,1987,NA,1.5,4.18312104860249,4.47006670218693,3.92899537638065,3.89461929526446,FALSE,0.851669369632961
"CAN","cpi",0.1,1989,3,1989,NA,0,4.87986038699917,4.92077026186482,4.82821664544208,4.95130318392835,FALSE,0.155673744992523
"CAN","cpi",0.1,1989,3,1989,NA,0.5,4.56102903901755,4.72478313307364,4.82821664544208,4.23024942747073,FALSE,0.393606343763721
"CAN","cpi",0.1,1989,3,1988,NA,1,3.62390450482498,3.99689348787331,4.82821664544208,4.05841794603162,FALSE,2.22037377764559
"CAN","cpi",0.1,1989,3,1988,NA,1.5,3.81454325942603,4.32732940396411,4.82821664544208,2.597843559383,FALSE,1.625868903378
"CAN","cpi",0.1,1990,3,1990,NA,0,4.40627255070938,4.44587125462249,4.64347549432717,4.4746950192663,FALSE,0.47871923659018
"CAN","cpi",0.1,1990,3,1990,NA,0.5,5.18065753724888,5.38297223017831,4.64347549432717,4.96487168902479,FALSE,1.39605256608878
"CAN","cpi",0.1,1990,3,1989,NA,1,4.58581378910386,5.06253105501498,4.64347549432717,5.43871373969076,TRUE,0.476717265911114
"CAN","cpi",0.1,1990,3,1989,NA,1.5,4.67562797752098,5.1523452434321,4.64347549432717,3.3732540002381,FALSE,0.54816722856403
"CAN","cpi",0.1,1991,3,1991,NA,0,5.53908066169281,5.58656946711422,5.4258100696218,5.61053369942382,FALSE,0.299201232245884
"CAN","cpi",0.1,1991,3,1991,NA,0.5,7.84114387210815,8.09868001364082,5.4258100696218,7.82199295477594,FALSE,5.62494459150234
"CAN","cpi",0.1,1991,3,1990,NA,1,3.9597449639253,4.41628534368652,5.4258100696218,3.66716818384097,FALSE,2.69992865961739
"CAN","cpi",0.1,1991,3,1990,NA,1.5,4.3539918569313,4.81053223669252,5.4258100696218,4.82481948664164,FALSE,1.82382445293739
"CAN","cpi",0.1,1992,3,1992,NA,0,NA,NA,1.47496888572843,NA,NA,NA
"CAN","cpi",0.1,1992,3,1992,NA,0.5,NA,NA,1.47496888572843,NA,NA,NA
"CAN","cpi",0.1,1992,3,1991,NA,1,4.16718063314185,4.62093409710623,1.47496888572843,2.76780571233213,FALSE,6.4364462359942
"CAN","cpi",0.1,1992,3,1991,NA,1.5,4.88114143427894,5.33489489824332,1.47496888572843,7.14938182660169,FALSE,8.02302579407661
"CAN","cpi",0.1,1993,3,1993,NA,0,NA,NA,NA,NA,NA,NA
"CAN","cpi",0.1,1993,3,1993,NA,0.5,NA,NA,NA,NA,NA,NA
"CAN","cpi",0.1,1993,3,1992,NA,1,NA,NA,NA,NA,NA,NA
"CAN","cpi",0.1,1993,3,1992,NA,1.5,NA,NA,NA,NA,NA,NA
"CAN","cpi",0.1,1994,3,1994,NA,0,NA,NA,NA,NA,NA,NA
"CAN","cpi",0.1,1994,3,1994,NA,0.5,NA,NA,NA,NA,NA,NA
"CAN","cpi",0.1,1994,3,1993,NA,1,NA,NA,NA,NA,NA,NA
"CAN","cpi",0.1,1994,3,1993,NA,1.5,NA,NA,NA,NA,NA,NA
"CAN","cpi",0.1,1995,3,1995,NA,0,NA,NA,2.11688403676572,NA,NA,NA
"CAN","cpi",0.1,1995,3,1995,NA,0.5,NA,NA,2.11688403676572,2.51937811073084,NA,NA
"CAN","cpi",0.1,1995,3,1994,NA,1,NA,NA,2.11688403676572,0.719396410821945,NA,NA
"CAN","cpi",0.1,1995,3,1994,NA,1.5,NA,NA,2.11688403676572,-1.04654603924828,NA,NA
"CAN","cpi",0.1,1996,3,1996,NA,0,1.34726359595442,1.37834063768023,1.55309584667184,1.42780748357026,FALSE,0.419421950596063
"CAN","cpi",0.1,1996,3,1996,NA,0.5,NA,NA,1.55309584667184,NA,NA,NA
"CAN","cpi",0.1,1996,3,1995,NA,1,NA,NA,1.55309584667184,NA,NA,NA
"CAN","cpi",0.1,1996,3,1995,NA,1.5,2.16900030713542,2.5533610093967,1.55309584667184,2.92232271175447,FALSE,1.75303728106923
"CAN","cpi",0.1,1997,3,1997,NA,0,1.66811618241719,1.67993571426338,1.60528783555959,1.73535847807117,FALSE,0.151438080418632
"CAN","cpi",0.1,1997,3,1997,NA,0.5,2.75667547459965,2.76849500644584,1.60528783555959,2.11078363597796,FALSE,2.57045872971298
"CAN","cpi",0.1,1997,3,1996,NA,1,1.41003380871288,1.65081033379999,1.60528783555959,0.984961337307556,TRUE,0.240776525087107
"CAN","cpi",0.1,1997,3,1996,NA,1.5,NA,NA,1.60528783555959,NA,NA,NA
"CAN","cpi",0.1,1998,3,1998,NA,0,0.953546224177942,0.980314251687756,0.988908029337191,1.0350847138471,FALSE,0.0458653111752245
"CAN","cpi",0.1,1998,3,1998,NA,0.5,2.35186360244913,2.37863162995895,0.988908029337191,1.68533655437107,FALSE,3.05555818998079
"CAN","cpi",0.1,1998,3,1997,NA,1,1.82954815631841,2.02244836962916,0.988908029337191,2.25159584334757,FALSE,2.06098938438013
"CAN","cpi",0.1,1998,3,1997,NA,1.5,1.73918538913369,2.12706920417474,0.988908029337191,2.38987816876076,FALSE,2.05516683681104
"CAN","cpi",0.1,1999,3,1999,NA,0,1.68884069353911,1.71288690265218,1.7107350135213,1.77618438459462,TRUE,0.0240462091130662
"CAN","cpi",0.1,1999,3,1999,NA,0.5,1.74527568156838,1.76932189068145,1.7107350135213,1.0290924799153,FALSE,0.100803249217708
"CAN","cpi",0.1,1999,3,1998,NA,1,1.35903307680013,1.49084749601859,1.7107350135213,1.85177544064205,FALSE,0.620453347002247
"CAN","cpi",0.1,1999,3,1998,NA,1.5,1.09597754873879,1.27565704339731,1.7107350135213,2.94645730787123,FALSE,1.14651942826738
"CAN","cpi",0.1,2000,3,2000,NA,0,2.64379844282497,2.65908865427511,2.6718361971244,2.7102541785615,FALSE,0.0436180844485659
"CAN","cpi",0.1,2000,3,2000,NA,0.5,2.84984567876995,2.92229242792404,2.6718361971244,2.34405201403356,FALSE,0.468023375033096
"CAN","cpi",0.1,2000,3,1999,NA,1,2.14067802193127,2.34071331140708,2.6718361971244,3.07542936781209,FALSE,0.935863924403192
"CAN","cpi",0.1,2000,3,1999,NA,1.5,1.81808626604191,2.24139343348415,2.6718361971244,2.27809035801724,FALSE,1.37984664219835
"CAN","cpi",0.1,2001,3,2001,NA,0,2.71038322638497,2.73212733521676,2.47906219852806,2.77546584984351,FALSE,0.535790837402689
"CAN","cpi",0.1,2001,3,2001,NA,0.5,2.89264666264791,3.01538683655829,2.47906219852806,2.43566755503104,FALSE,1.04181676084337
"CAN","cpi",0.1,2001,3,2000,NA,1,2.84500084757356,3.15731462297878,2.47906219852806,3.68958695319843,FALSE,1.1255107732841
"CAN","cpi",0.1,2001,3,2000,NA,1.5,2.67563121101234,3.07396788469902,2.47906219852806,3.01270789712173,FALSE,0.835156701429518
"CAN","cpi",0.1,2002,3,2002,NA,0,2.20773334812508,2.22645159726011,2.20880570551249,2.27196234986351,TRUE,0.0187182491350315
"CAN","cpi",0.1,2002,3,2002,NA,0.5,2.04494705315557,2.28550126815726,2.20880570551249,1.58345411989126,TRUE,0.240554215001692
"CAN","cpi",0.1,2002,3,2001,NA,1,2.30143747562082,2.60014795238194,2.20880570551249,2.26510423845898,FALSE,0.504558854779646
"CAN","cpi",0.1,2002,3,2001,NA,1.5,2.4702825488739,2.8884341083602,2.20880570551249,3.02058043279009,FALSE,0.999211211400558
"CAN","cpi",0.1,2003,3,2003,NA,0,2.64759374194974,2.66611988144054,2.71189071546809,2.71326702620668,FALSE,0.12023910399647
"CAN","cpi",0.1,2003,3,2003,NA,0.5,4.67930226589482,4.72730617048831,2.71189071546809,4.51432649273496,FALSE,4.42002957220844
"CAN","cpi",0.1,2003,3,2002,NA,1,2.63703544730065,2.88492197211142,2.71189071546809,3.85618281746238,TRUE,0.247886524810774
"CAN","cpi",0.1,2003,3,2002,NA,1.5,2.26633544808798,2.51422197289876,2.71189071546809,2.39402389849184,FALSE,0.687150397187066
"CAN","cpi",0.1,2004,3,2004,NA,0,1.71195338154421,1.73042371214989,1.83151661303942,1.77466852383015,FALSE,0.243121221471311
"CAN","cpi",0.1,2004,3,2004,NA,0.5,2.11314169476041,2.25744635617804,1.83151661303942,1.55260435151936,FALSE,0.770138176353167
"CAN","cpi",0.1,2004,3,2003,NA,1,2.27988057575739,2.42418523717502,1.83151661303942,1.79415792598285,FALSE,1.14066902301312
"CAN","cpi",0.1,2004,3,2003,NA,1.5,2.58612380382016,2.96251262965545,1.83151661303942,4.26699272545716,FALSE,2.05329369423692
"CAN","cpi",0.1,2005,3,2005,NA,0,2.27919888995933,2.29798176446538,2.18071628336509,2.34345353472953,FALSE,0.237633111382143
"CAN","cpi",0.1,2005,3,2005,NA,0.5,2.00867261358337,2.13824647912678,2.18071628336509,1.50321338317329,FALSE,0.223951208295216
"CAN","cpi",0.1,2005,3,2004,NA,1,1.69402652944002,1.83270885394868,2.18071628336509,1.64043962712234,FALSE,0.912032167656236
"CAN","cpi",0.1,2005,3,2004,NA,1.5,1.94951142159634,2.38621140991442,2.18071628336509,2.03393284113233,TRUE,0.436699988318076
"CAN","cpi",0.1,2006,3,2006,NA,0,2.0308489868531,2.04701104653527,1.97519342012289,2.09514376892657,FALSE,0.139841096860428
"CAN","cpi",0.1,2006,3,2006,NA,0.5,2.50699088184275,2.65226296782084,1.97519342012289,2.09436263599022,FALSE,1.32704422313334
"CAN","cpi",0.1,2006,3,2005,NA,1,2.32738260239726,2.47265468837534,1.97519342012289,2.9582912060806,FALSE,0.927914713254467
"CAN","cpi",0.1,2006,3,2005,NA,1.5,2.30379126650165,2.55522906125255,1.97519342012289,1.64885961980806,FALSE,0.981655231148157
"CAN","cpi",0.1,2007,3,2007,NA,0,2.04218878976252,2.05706125006492,2.10062087284572,2.10683622102307,FALSE,0.111671622037508
"CAN","cpi",0.1,2007,3,2007,NA,0.5,2.5571139002805,2.7009631616322,2.10062087284572,2.17629902083353,FALSE,1.15827821120676
"CAN","cpi",0.1,2007,3,2006,NA,1,1.72289231993207,1.87854961847741,2.10062087284572,1.50861692709856,FALSE,0.649148974919365
"CAN","cpi",0.1,2007,3,2006,NA,1.5,2.05888453793912,2.30848125911113,2.10062087284572,2.15918616350405,TRUE,0.249596721172004
"CAN","cpi",0.1,2008,3,2008,NA,0,2.8045871519794,2.82296885860871,2.31447335265955,2.87079455148828,FALSE,1.10752348289564
"CAN","cpi",0.1,2008,3,2008,NA,0.5,1.86858860357162,1.94864069109165,2.31447335265955,1.31005314695267,FALSE,0.89301355767092
"CAN","cpi",0.1,2008,3,2007,NA,1,1.85799594337388,2.10232050389686,2.31447335265955,1.47031049982668,FALSE,0.715775335551185
"CAN","cpi",0.1,2008,3,2007,NA,1.5,2.15944500215598,2.40376956267896,2.31447335265955,2.46453195342394,TRUE,0.244324560522979
"CAN","cpi",0.1,2009,3,2009,NA,0,0.127432132003093,0.137724382070645,0.284533874408197,0.187122346349721,FALSE,0.336535566373224
"CAN","cpi",0.1,2009,3,2009,NA,0.5,0.786616486639065,0.894647888593878,0.284533874408197,-0.0727492620466167,FALSE,1.22377054024563
"CAN","cpi",0.1,2009,3,2008,NA,1,2.70405238739403,2.93552483264514,0.284533874408197,3.81780026356951,FALSE,5.6081802518863
"CAN","cpi",0.1,2009,3,2008,NA,1.5,2.44338569091092,2.67485813616203,0.284533874408197,1.68675152630419,FALSE,5.02892092636827
"CAN","cpi",0.1,2010,3,2010,NA,0,1.54579656320234,1.53755731605519,1.75525687020327,1.6089956646354,FALSE,0.475537539848586
"CAN","cpi",0.1,2010,3,2010,NA,0.5,2.27552117047819,2.26728192333103,1.75525687020327,1.91109502526183,FALSE,1.14790364235266
"CAN","cpi",0.1,2010,3,2009,NA,1,0.733266415392719,0.779782532333014,1.75525687020327,0.992295788494754,FALSE,2.21423686776309
"CAN","cpi",0.1,2010,3,2009,NA,1.5,0.608633058696452,0.761127120460371,1.75525687020327,0.885103052815867,FALSE,2.36167128341481
"CAN","cpi",0.1,2011,3,2011,NA,0,2.79939293312422,2.81701531316656,2.85717434028225,2.86665414062098,FALSE,0.106864662521643
"CAN","cpi",0.1,2011,3,2011,NA,0.5,2.94724904716066,3.10496492665901,2.85717434028225,2.76583381894771,FALSE,0.357881894783711
"CAN","cpi",0.1,2011,3,2010,NA,1,1.65269393436659,1.85044784980946,2.85717434028225,1.39294644169719,FALSE,2.43492389427128
"CAN","cpi",0.1,2011,3,2010,NA,1.5,1.93136029187032,2.12911420731319,2.85717434028225,1.64253060592363,FALSE,1.81566532204077
"CAN","cpi",0.1,2012,3,2012,NA,0,1.46732204327024,1.49223475982972,1.50118536134935,1.52822510849394,FALSE,0.0448029421586529
"CAN","cpi",0.1,2012,3,2012,NA,0.5,2.37840201370952,2.4810177016575,1.50118536134935,1.92429021972789,FALSE,2.05198602652614
"CAN","cpi",0.1,2012,3,2011,NA,1,2.45932907960641,2.77779723320288,1.50118536134935,1.99945242447079,FALSE,2.44767641638995
"CAN","cpi",0.1,2012,3,2011,NA,1.5,2.85338016339345,3.17184831698993,1.50118536134935,2.48150957397962,FALSE,3.32334549147226
"CAN","cpi",0.1,2013,3,2013,NA,0,0.997431133242662,1.00948771260542,0.931270594714462,1.05630513423211,FALSE,0.159079998314313
"CAN","cpi",0.1,2013,3,2013,NA,0.5,1.52099511151912,1.71643485603272,0.931270594714462,1.16963454554932,FALSE,1.50593867074618
"CAN","cpi",0.1,2013,3,2012,NA,1,1.41254888779811,1.60798863231172,0.931270594714462,1.08868089128742,FALSE,1.26494706247727
"CAN","cpi",0.1,2013,3,2012,NA,1.5,1.62823598700226,1.82367573151587,0.931270594714462,2.14573179530527,FALSE,1.74425172737539
"CAN","cpi",0.1,2014,3,2014,NA,0,1.93222549050591,1.94326827778844,1.87639912240215,1.99862849145116,FALSE,0.135101383068657
"CAN","cpi",0.1,2014,3,2014,NA,0.5,1.98736973957244,2.15479644440515,1.87639912240215,1.79231976082687,FALSE,0.414028076322248
"CAN","cpi",0.1,2014,3,2013,NA,1,1.17857754237321,1.36572957713996,1.87639912240215,1.40664989819898,FALSE,1.3219732464605
"CAN","cpi",0.1,2014,3,2013,NA,1.5,1.14855548871916,1.33570752348591,1.87639912240215,1.51436121777893,FALSE,1.38868892124728
"CAN","cpi",0.1,2015,3,2015,NA,0,1.14930534337891,1.16684244191128,1.11090953952792,1.2103065042478,FALSE,0.102861107090131
"CAN","cpi",0.1,2015,3,2015,NA,0.5,0.898205089606144,1.14511454382518,1.11090953952792,0.458547315718059,TRUE,0.246909454219038
"CAN","cpi",0.1,2015,3,2014,NA,1,1.75374697227396,2.000656426493,1.11090953952792,1.57054781428135,FALSE,1.67543708254358
"CAN","cpi",0.1,2015,3,2014,NA,1.5,1.99573632987051,2.24264578408955,1.11090953952792,1.88229109541157,FALSE,2.21319121053592
"CAN","cpi",0.1,2016,3,2016,NA,0,1.35187916004373,1.36317868709676,1.41168586698797,1.41630667471992,FALSE,0.119093260144596
"CAN","cpi",0.1,2016,3,2016,NA,0.5,1.44632504850155,1.65679945988834,1.41168586698797,1.17972158292925,FALSE,0.287450370305865
"CAN","cpi",0.1,2016,3,2015,NA,1,1.40679876495215,1.61727317633894,1.41168586698797,1.8638656605167,TRUE,0.210474411386796
"CAN","cpi",0.1,2016,3,2015,NA,1.5,1.34705432030002,1.55752873168682,1.41168586698797,1.07023002715086,TRUE,0.210474411386796
"CAN","cpi",0.1,2017,3,2017,NA,0,1.4407720910443,1.45573020083851,1.57888581671161,1.50492692646759,FALSE,0.288637256178878
"CAN","cpi",0.1,2017,3,2017,NA,0.5,2.21341673450997,2.43904041990672,1.57888581671161,2.09086618282141,FALSE,1.63569239161533
"CAN","cpi",0.1,2017,3,2016,NA,1,1.34152386114211,1.56714754653886,1.57888581671161,1.14652050352824,FALSE,0.251708730225078
"CAN","cpi",0.1,2017,3,2016,NA,1.5,1.61046189959678,1.83608558499353,1.57888581671161,1.26788084523026,FALSE,0.295792758474898
"CAN","cpi",0.1,2018,3,2018,NA,0,2.34705610614101,2.36398571514841,2.23316270166586,2.41317537496083,FALSE,0.270026063396622
"CAN","cpi",0.1,2018,3,2018,NA,0.5,2.59816916187052,2.80122553724264,2.23316270166586,2.52809119314695,FALSE,1.01418184249359
"CAN","cpi",0.1,2018,3,2017,NA,1,1.45159524100027,1.65465161637239,2.23316270166586,1.16800101916097,FALSE,1.48863656491317
"CAN","cpi",0.1,2018,3,2017,NA,1.5,1.68366714476468,1.8867235201368,2.23316270166586,2.07298402260093,FALSE,0.972921223214477
"CAN","cpi",0.1,2019,3,2019,NA,0,NA,NA,1.91921619871868,NA,NA,NA
"CAN","cpi",0.1,2019,3,2019,NA,0.5,1.78101011184416,2.00523060956736,1.91921619871868,1.47328806303322,TRUE,0.2242204977232
"CAN","cpi",0.1,2019,3,2018,NA,1,2.15123580423969,2.37545630196289,1.91921619871868,2.23470281046333,FALSE,0.739819621103218
"CAN","cpi",0.1,2019,3,2018,NA,1.5,2.29252685336398,2.51674735108718,1.91921619871868,2.32030562567512,FALSE,1.05379973026831
"CAN","cpi",0.1,2020,3,2020,NA,0,0.614625686561426,0.632167658673392,0.71139989671781,0.673588636713597,FALSE,0.193613612210673
"CAN","cpi",0.1,2020,3,2020,NA,0.5,NA,NA,0.71139989671781,NA,NA,NA
"CAN","cpi",0.1,2020,3,2019,NA,1,NA,NA,0.71139989671781,NA,NA,NA
"CAN","cpi",0.1,2020,3,2019,NA,1.5,2.04460749032578,2.22597760551047,0.71139989671781,1.77705491937904,FALSE,3.14405365653573
"CAN","cpi",0.1,2021,3,2021,NA,0,3.16905403978746,3.1901319658551,3.31148121717802,3.2525646654712,FALSE,0.290742929007474
"CAN","cpi",0.1,2021,3,2021,NA,0.5,2.1764286226016,2.37778959353436,3.31148121717802,2.16773480502693,FALSE,2.27623124569646
"CAN","cpi",0.1,2021,3,2020,NA,1,1.11789374349432,1.31925471442708,3.31148121717802,1.61070774476322,FALSE,4.62853097704598
"CAN","cpi",0.1,2021,3,2020,NA,1.5,NA,NA,3.31148121717802,NA,NA,NA
"CAN","cpi",0.1,2022,3,2022,NA,0,6.51496163888254,6.55622136406704,6.50977236228281,6.58682891800883,FALSE,0.0527914509616768
"CAN","cpi",0.1,2022,3,2022,NA,0.5,5.34407800101103,5.49747014789233,6.50977236228281,5.58900513180898,FALSE,2.40295262330459
"CAN","cpi",0.1,2022,3,2021,NA,1,3.08425285849459,3.30962755419739,6.50977236228281,3.35597076522593,FALSE,7.33680760255929
"CAN","cpi",0.1,2022,3,2021,NA,1.5,3.31731636075708,3.58292271483161,6.50977236228281,1.89458222166426,FALSE,6.76971668174387
"CAN","cpi",0.1,2023,3,2023,NA,0,3.90474431388468,3.96604133475093,3.78831288758619,3.96221561415741,FALSE,0.320033523751779
"CAN","cpi",0.1,2023,3,2023,NA,0.5,4.05371426892994,4.22171188461628,3.78831288758619,3.6121970566696,FALSE,0.757778463116898
"CAN","cpi",0.1,2023,3,2022,NA,1,5.45478231575654,5.75641722694234,3.78831288758619,5.4861852561408,FALSE,4.00490030711991
"CAN","cpi",0.1,2023,3,2022,NA,1.5,6.12503700941635,6.52293932406494,3.78831288758619,3.85557075258935,FALSE,5.59062258538227
"CAN","cpi",0.1,2024,3,2023,NA,1,3.73910932447412,3.89935750245359,NA,4.72280809903739,NA,NA
"CAN","cpi",0.1,2024,3,2023,NA,1.5,3.55748291650463,3.71773109448409,NA,4.36705509613113,NA,NA
"CAN","cpi",0.2,1952,3,1952,NA,0,2.55937454045685,2.55937454045685,2.55562336095485,2.50792675283471,FALSE,0.00937794875500941
"CAN","cpi",0.2,1952,3,1952,NA,0.5,3.70318150168635,3.70318150168635,2.55562336095485,5.20333179389047,FALSE,2.86889535182876
"CAN","cpi",0.2,1952,3,1951,NA,1,2.18247104175346,2.18247104175346,2.55562336095485,8.18998200969936,FALSE,0.932880798003468
"CAN","cpi",0.2,1952,3,1951,NA,1.5,4.8511738265733,4.8511738265733,2.55562336095485,7.55460015368862,FALSE,5.73887616404613
"CAN","cpi",0.2,1953,3,1953,NA,0,-0.51030368450195,-0.592861681557577,-1.01492775838436,-0.954275034924989,FALSE,1.1790021876504
"CAN","cpi",0.2,1953,3,1953,NA,0.5,2.0852243272313,2.00266633017567,-1.01492775838436,-1.88711612688489,FALSE,7.66782221698352
"CAN","cpi",0.2,1953,3,1952,NA,1,-13.5632197046699,-13.6457777017255,-1.01492775838436,-0.873617238258229,FALSE,31.4945668612973
"CAN","cpi",0.2,1953,3,1952,NA,1.5,5.93429167535899,5.85173367830336,-1.01492775838436,5.93557635631702,FALSE,17.2904905873027
"CAN","cpi",0.2,1954,3,1954,NA,0,0.834490681753748,1.2979531284677,0.644425455961438,0.879731201855888,FALSE,0.938625511194727
"CAN","cpi",0.2,1954,3,1954,NA,0.5,2.03393661767825,4.77640991192176,0.644425455961438,-0.358875738913824,FALSE,6.21625119853554
"CAN","cpi",0.2,1954,3,1953,NA,1,3.16393617692221,8.05634157052344,0.644425455961438,3.38326531029323,FALSE,11.1911821960032
"CAN","cpi",0.2,1954,3,1953,NA,1.5,4.89934369500278,9.791749088604,0.644425455961438,-1.28741438714058,FALSE,15.5297009912046
"CAN","cpi",0.2,1955,3,1955,NA,0,0.0630579747978694,0.0308566125471469,0.173649026558865,0.115254687233858,FALSE,0.324779672778573
"CAN","cpi",0.2,1955,3,1955,NA,0.5,0.918165803511583,0.918165803511581,0.173649026558865,-0.770970046821609,FALSE,1.86129194238179
"CAN","cpi",0.2,1955,3,1954,NA,1,1.39915663312205,1.53694181437673,0.173649026558865,3.47019599757395,FALSE,3.20155419766264
"CAN","cpi",0.2,1955,3,1954,NA,1.5,1.33106307122233,1.46884825247701,0.173649026558865,-1.89562740163941,FALSE,3.03132029291334
"CAN","cpi",0.2,1956,3,1956,NA,0,1.51326067623575,1.60413177325098,1.32752769429961,1.56059797998755,FALSE,0.555203551855584
"CAN","cpi",0.2,1956,3,1956,NA,0.5,0.432562596033791,1.17907466719854,1.32752769429961,-0.709146002056511,FALSE,1.11764463891741
"CAN","cpi",0.2,1956,3,1955,NA,1,-0.21702587388421,0.597759610865028,1.32752769429961,0.884549626974225,FALSE,2.63920569333569
"CAN","cpi",0.2,1956,3,1955,NA,1.5,0.00812490476733957,0.822910389516578,1.32752769429961,-1.89150615642833,FALSE,2.07632874670681
"CAN","cpi",0.2,1957,3,1957,NA,0,3.36856802102689,3.34767845102826,3.24684755852518,3.4151370317006,FALSE,0.283411586255663
"CAN","cpi",0.2,1957,3,1957,NA,0.5,3.15941791290929,3.67136798720942,3.24684755852518,2.23982631608766,TRUE,0.511950074300127
"CAN","cpi",0.2,1957,3,1956,NA,1,2.46810521142804,3.93351807058288,3.24684755852518,6.98754636690555,TRUE,1.46541285915484
"CAN","cpi",0.2,1957,3,1956,NA,1.5,0.369624980040784,1.83503783919562,3.24684755852518,-1.88668623310337,FALSE,4.99493715747872
"CAN","cpi",0.2,1958,3,1958,NA,0,2.04639126405709,2.17999116232253,2.33186388641149,2.22387249143335,FALSE,0.513281708487846
"CAN","cpi",0.2,1958,3,1958,NA,0.5,2.49679791700671,2.80161910487982,2.33186388641149,2.22839060734872,FALSE,0.71715626436116
"CAN","cpi",0.2,1958,3,1957,NA,1,1.77567265033538,2.08049383820849,2.33186388641149,4.42088197051908,FALSE,0.93324630838061
"CAN","cpi",0.2,1958,3,1957,NA,1.5,1.6774753063701,1.9822964942432,2.33186388641149,0.91301479707402,FALSE,1.17873966829382
"CAN","cpi",0.2,1959,3,1959,NA,0,1.09991721376069,1.29949608410415,1.19382698397654,1.24991216431293,TRUE,0.199578870343458
"CAN","cpi",0.2,1959,3,1959,NA,0.5,0.869613827473131,1.354604431895,1.19382698397654,0.437839731590327,TRUE,0.484990604421869
"CAN","cpi",0.2,1959,3,1958,NA,1,0.314549383171375,0.799539987593244,1.19382698397654,1.75862762885946,FALSE,1.47070809538011
"CAN","cpi",0.2,1959,3,1958,NA,1.5,1.20474336338194,2.26896129460749,1.19382698397654,1.77407172713766,FALSE,1.09150887973905
"CAN","cpi",0.2,1960,3,1960,NA,0,0.948831812343266,0.951806005020798,1.34209404870695,1.02361304259477,FALSE,0.978694301892916
"CAN","cpi",0.2,1960,3,1960,NA,0.5,1.53004387760149,1.95887040580114,1.34209404870695,0.53898348018166,FALSE,0.898701100436004
"CAN","cpi",0.2,1960,3,1959,NA,1,1.83569710056612,2.26452362876577,1.34209404870695,3.95759373689442,FALSE,1.66283415784757
"CAN","cpi",0.2,1960,3,1959,NA,1.5,1.27011112240991,1.69893765060956,1.34209404870695,-0.873476815404885,TRUE,0.42882652819965
"CAN","cpi",0.2,1961,3,1961,NA,0,0.936431778023338,1.05978924618212,1.00921348094007,1.00921348094007,TRUE,0.123357468158778
"CAN","cpi",0.2,1961,3,1961,NA,0.5,1.81929421468019,2.19877582293794,1.00921348094007,1.00921348094007,FALSE,2.40468344260804
"CAN","cpi",0.2,1961,3,1960,NA,1,-0.135684414433274,0.315634062920727,1.00921348094007,0.0537704626035329,FALSE,2.18526702240236
"CAN","cpi",0.2,1961,3,1960,NA,1.5,1.29715368787539,1.74847216522939,1.00921348094007,-0.862181798940035,FALSE,1.17116899469229
"CAN","cpi",0.2,1962,3,1962,NA,0,1.0513116954164,1.09972802461123,1.04957947883042,1.10232402731478,FALSE,0.0527468706597883
"CAN","cpi",0.2,1962,3,1962,NA,0.5,0.847988833862363,1.25567288268341,1.04957947883042,0,TRUE,0.407684048821043
"CAN","cpi",0.2,1962,3,1961,NA,1,-0.135829147185157,0.750024586942799,1.04957947883042,0,FALSE,1.634740963847
"CAN","cpi",0.2,1962,3,1961,NA,1.5,0.871922404591065,1.75777613871902,1.04957947883042,0,TRUE,0.885853734127956
"CAN","cpi",0.2,1963,3,1963,NA,0,1.86399827871623,1.90863340491807,1.60677118395228,1.91491729531202,FALSE,0.687702863111697
"CAN","cpi",0.2,1963,3,1963,NA,0.5,1.75162829537125,1.90165378763923,1.60677118395228,0.836828714617504,FALSE,0.512168270815397
"CAN","cpi",0.2,1963,3,1962,NA,1,1.61095647746481,1.81292970640411,1.60677118395228,2.56411490415144,FALSE,0.21243646272061
"CAN","cpi",0.2,1963,3,1962,NA,1.5,1.09756234772949,1.39544522246503,1.60677118395228,0,FALSE,0.826197778453671
"CAN","cpi",0.2,1964,3,1964,NA,0,1.93256047030233,1.98571799554302,1.88764670034376,1.98877256446048,FALSE,0.165441950137116
"CAN","cpi",0.2,1964,3,1964,NA,0.5,2.10269822380674,2.22605368457527,1.88764670034376,1.38369006227607,FALSE,0.660984269425982
"CAN","cpi",0.2,1964,3,1963,NA,1,2.59865043398982,2.72200589475835,1.88764670034376,5.39044290347256,FALSE,1.90086479488368
"CAN","cpi",0.2,1964,3,1963,NA,1.5,1.30648304557501,1.59402199179261,1.88764670034376,0,FALSE,1.02160071759547
"CAN","cpi",0.2,1965,3,1965,NA,0,2.28333532508184,2.30272295453569,2.29538304394236,2.34557047418999,TRUE,0.0193876294538544
"CAN","cpi",0.2,1965,3,1965,NA,0.5,2.20284630035988,2.37226252180675,2.29538304394236,1.61079447956654,TRUE,0.169416221446878
"CAN","cpi",0.2,1965,3,1964,NA,1,1.30632715656471,1.70298551011349,2.29538304394236,2.42518862179847,FALSE,1.87765218812095
"CAN","cpi",0.2,1965,3,1964,NA,1.5,1.2355435273122,1.67598584703077,2.29538304394236,0.818102552316399,FALSE,1.98893531199753
"CAN","cpi",0.2,1966,3,1966,NA,0,3.76684916884853,3.78181570586127,3.72486065470629,3.82010987863709,FALSE,0.119937822368349
"CAN","cpi",0.2,1966,3,1966,NA,0.5,4.57578230853097,4.67994246470006,3.72486065470629,3.99123398895563,FALSE,2.23146429073079
"CAN","cpi",0.2,1966,3,1965,NA,1,1.48261888818011,1.95499883080001,3.72486065470629,3.20722068745854,FALSE,4.8970345023856
"CAN","cpi",0.2,1966,3,1965,NA,1.5,1.21580074370225,1.82610419692462,3.72486065470629,1.60663824631958,FALSE,5.35719459767655
"CAN","cpi",0.2,1967,3,1967,NA,0,3.69815866811174,3.74559343083766,3.49360316391996,3.76768849328632,FALSE,0.558823523205373
"CAN","cpi",0.2,1967,3,1967,NA,0.5,2.19087786584042,2.41072687624047,3.49360316391996,2.4074547441976,FALSE,2.92703972959878
"CAN","cpi",0.2,1967,3,1966,NA,1,1.60248249953525,1.83950920243116,3.49360316391996,3.18103323070284,FALSE,4.37226160661791
"CAN","cpi",0.2,1967,3,1966,NA,1.5,1.17506212970038,2.15127679334628,3.49360316391996,4.65128160487248,FALSE,4.3320305900801
"CAN","cpi",0.2,1968,3,1968,NA,0,4.07616683450607,4.14387121163601,3.95128347779386,4.17287945672396,FALSE,0.379912768910466
"CAN","cpi",0.2,1968,3,1968,NA,0.5,3.67879240271701,4.06091532456777,3.95128347779386,4.07097205779852,TRUE,0.382122921850758
"CAN","cpi",0.2,1968,3,1967,NA,1,2.35841804590686,2.74054096775761,3.95128347779386,5.84521682123848,FALSE,3.40897919694136
"CAN","cpi",0.2,1968,3,1967,NA,1.5,1.79801319409714,2.18013611594789,3.95128347779386,2.25565858240226,FALSE,4.80999132646566
"CAN","cpi",0.2,1969,3,1969,NA,0,4.34384060673792,4.4458070110962,4.42679496126681,4.46896837073893,TRUE,0.101966404358276
"CAN","cpi",0.2,1969,3,1969,NA,0.5,2.73652326391488,2.83914786810663,4.42679496126681,2.96612019395715,FALSE,4.0717423370922
"CAN","cpi",0.2,1969,3,1968,NA,1,2.90496670422732,3.05755722057443,4.42679496126681,6.72487630040807,FALSE,3.57568486807808
"CAN","cpi",0.2,1969,3,1968,NA,1.5,2.02262119703025,2.29374215471588,4.42679496126681,4.31664452944541,FALSE,5.60375297406296
"CAN","cpi",0.2,1970,3,1970,NA,0,3.45698166576965,3.48760489026696,3.28128405769805,3.52697515579364,FALSE,0.469867244676328
"CAN","cpi",0.2,1970,3,1970,NA,0.5,4.1730309220048,4.20365414650211,3.28128405769805,4.65371085276917,FALSE,2.25999038526418
"CAN","cpi",0.2,1970,3,1969,NA,1,2.04596650826715,2.28157080287701,3.28128405769805,4.52747875087707,FALSE,2.73488743166245
"CAN","cpi",0.2,1970,3,1969,NA,1.5,1.8966640439455,2.46162723765147,3.28128405769805,2.07973847283129,FALSE,2.61410524382242
"CAN","cpi",0.2,1971,3,1971,NA,0,2.73276423850808,2.79286810319728,2.64123406634756,2.8393232579169,FALSE,0.288929295090501
"CAN","cpi",0.2,1971,3,1971,NA,0.5,2.04419211591376,2.25596030930964,2.64123406634756,2.06692165705507,FALSE,1.17495258599069
"CAN","cpi",0.2,1971,3,1970,NA,1,1.44019690388862,1.72897849634308,2.64123406634756,2.64105994583495,FALSE,2.56942051746567
"CAN","cpi",0.2,1971,3,1970,NA,1.5,2.06688269232346,2.54133193194816,2.64123406634756,4.63977638900468,FALSE,0.724204575623213
"CAN","cpi",0.2,1972,3,1972,NA,0,4.83539199748473,4.98663163120637,4.83230569625923,5.03048103188219,FALSE,0.158955386785391
"CAN","cpi",0.2,1972,3,1972,NA,0.5,4.77103697462606,5.02710502224757,4.83230569625923,5.06705904355972,TRUE,0.256068047621513
"CAN","cpi",0.2,1972,3,1971,NA,1,2.70448528041262,2.96055332803413,4.83230569625923,5.9169160270675,FALSE,4.93544896818427
"CAN","cpi",0.2,1972,3,1971,NA,1.5,1.90119122123886,2.37356518068168,4.83230569625923,3.09276495441271,FALSE,6.61922524838669
"CAN","cpi",0.2,1973,3,1973,NA,0,6.7693805576698,6.95678474374862,7.12388603531779,6.99264756193144,FALSE,0.605157415001745
"CAN","cpi",0.2,1973,3,1973,NA,0.5,4.55497761478983,4.78048992539372,7.12388603531779,5.47469896411854,FALSE,6.08400258541406
"CAN","cpi",0.2,1973,3,1972,NA,1,2.90653701739664,4.0756879882879,7.12388603531779,6.69062283747837,FALSE,8.78964608846599
"CAN","cpi",0.2,1973,3,1972,NA,1.5,2.19933681616539,3.36848778705665,7.12388603531779,4.73174243586486,FALSE,10.5576465915441
"CAN","cpi",0.2,1974,3,1974,NA,0,9.68025915667792,9.91851449815565,10.2717243737774,9.94431520564033,FALSE,1.12128003053216
"CAN","cpi",0.2,1974,3,1974,NA,0.5,6.35782737651677,6.5960827179945,10.2717243737774,8.3378654175141,FALSE,9.42735948093502
"CAN","cpi",0.2,1974,3,1973,NA,1,2.86161852376781,4.60888273723242,10.2717243737774,7.16712422635118,FALSE,15.9043683048271
"CAN","cpi",0.2,1974,3,1973,NA,1.5,2.40527878213147,4.53123396897582,10.2717243737774,4.05174749178054,FALSE,16.4771811988483
"CAN","cpi",0.2,1975,3,1975,NA,0,10.0704886199594,10.161365431131,10.0232981493341,10.0931823619779,FALSE,0.208852987734724
"CAN","cpi",0.2,1975,3,1975,NA,0.5,6.36749285000523,8.13455518029162,10.0232981493341,8.98267476097328,FALSE,6.48891975289264
"CAN","cpi",0.2,1975,3,1974,NA,1,3.10303858964466,5.39360903864515,10.0232981493341,7.7837982223054,FALSE,13.8647932257229
"CAN","cpi",0.2,1975,3,1974,NA,1.5,4.0953794456214,7.12697928896054,10.0232981493341,5.75931605308519,FALSE,10.2723969942731
"CAN","cpi",0.2,1976,3,1976,NA,0,6.99489612451219,7.04767602607696,7.22784311401172,7.07277954951717,FALSE,0.503197621401663
"CAN","cpi",0.2,1976,3,1976,NA,0.5,6.07580940393866,9.30974930431619,7.22784311401172,8.59089060438327,TRUE,3.23393990037753
"CAN","cpi",0.2,1976,3,1975,NA,1,4.97406315585782,9.39287406246216,7.22784311401172,10.4141477685142,TRUE,4.41881090660434
"CAN","cpi",0.2,1976,3,1975,NA,1.5,5.49079059779206,9.9096015043964,7.22784311401172,6.43051086134862,TRUE,4.41881090660434
"CAN","cpi",0.2,1977,3,1977,NA,0,7.4691849104501,7.57526030101663,7.58101410153764,7.55301151664772,FALSE,0.120459891869066
"CAN","cpi",0.2,1977,3,1977,NA,0.5,7.13170969473976,8.03571651413166,7.58101410153764,7.98165850021887,TRUE,0.904006819391896
"CAN","cpi",0.2,1977,3,1976,NA,1,3.57416761256863,4.47817443196052,7.58101410153764,3.72134649143602,FALSE,8.6611059933347
"CAN","cpi",0.2,1977,3,1976,NA,1.5,4.59741159610119,5.89852906540607,7.58101410153764,8.00272044475614,FALSE,5.50733005963382
"CAN","cpi",0.2,1978,3,1978,NA,0,8.65465862228579,8.70737435813075,8.50208927062595,8.67127840358843,FALSE,0.434139114994575
"CAN","cpi",0.2,1978,3,1978,NA,0.5,7.75856221005018,8.11257793643406,8.50208927062595,8.3788273181893,FALSE,1.32779406186359
"CAN","cpi",0.2,1978,3,1977,NA,1,5.4420663832047,7.27261693125983,8.50208927062595,7.54783828416051,FALSE,4.90423139647042
"CAN","cpi",0.2,1978,3,1977,NA,1.5,4.74817953947535,6.87993474557409,8.50208927062595,9.72562756342223,FALSE,6.18714151872839
"CAN","cpi",0.2,1979,3,1979,NA,0,8.48628299761192,8.60513632164306,8.65147652410481,8.56376390232469,FALSE,0.234703830185521
"CAN","cpi",0.2,1979,3,1979,NA,0.5,7.38399433566228,8.26409435753776,8.65147652410481,8.29599284966764,FALSE,1.84855543829311
"CAN","cpi",0.2,1979,3,1978,NA,1,6.37203723090397,8.31756868924835,8.65147652410481,9.20311500508918,FALSE,2.78030104548553
"CAN","cpi",0.2,1979,3,1978,NA,1.5,6.07435786027761,8.019889318622,8.65147652410481,8.55646910152924,FALSE,3.52449947205141
"CAN","cpi",0.2,1980,3,1980,NA,0,9.41938104134446,9.55688189014161,9.5171912664748,9.50406722106931,TRUE,0.137500848797146
"CAN","cpi",0.2,1980,3,1980,NA,0.5,7.63972905879152,8.73188366971987,9.5171912664748,8.57798914335092,FALSE,3.05542360281566
"CAN","cpi",0.2,1980,3,1979,NA,1,6.1437892220701,8.31435427297867,9.5171912664748,8.17875203710815,FALSE,5.17765753464888
"CAN","cpi",0.2,1980,3,1979,NA,1.5,6.0971908690782,8.26775591998677,9.5171912664748,8.39204766062112,FALSE,5.29415341712864
"CAN","cpi",0.2,1981,3,1981,NA,0,11.7368584211835,11.7726960971633,11.5813425032741,11.7113878984199,FALSE,0.424627470753236
"CAN","cpi",0.2,1981,3,1981,NA,0.5,11.4519706467147,12.556991704721,11.5813425032741,12.2156196752767,TRUE,1.10502105800627
"CAN","cpi",0.2,1981,3,1980,NA,1,8.67556290283747,10.4458916186282,11.5813425032741,11.0496853423024,FALSE,4.60895592740554
"CAN","cpi",0.2,1981,3,1980,NA,1.5,6.81378652805825,9.55777602544437,11.5813425032741,8.33809792174894,FALSE,7.80290569196055
"CAN","cpi",0.2,1982,3,1982,NA,0,10.2017713508616,10.3427475687323,10.1124203763629,10.2566668151097,FALSE,0.364353654117338
"CAN","cpi",0.2,1982,3,1982,NA,0.5,8.70924523479249,10.1085273121904,10.1124203763629,10.1085355973545,FALSE,1.40901473782924
"CAN","cpi",0.2,1982,3,1981,NA,1,10.7320292749401,12.131311352338,10.1124203763629,11.770988683124,FALSE,2.94830432384084
"CAN","cpi",0.2,1982,3,1981,NA,1.5,10.4315202475552,11.8308023249532,10.1124203763629,12.8701250351281,FALSE,2.19703175537863
"CAN","cpi",0.2,1983,3,1983,NA,0,5.70130694818621,5.7512780930531,5.67091787896303,5.7310121416489,FALSE,0.125943817924827
"CAN","cpi",0.2,1983,3,1983,NA,0.5,3.65780546695228,4.95244922400134,5.67091787896303,4.91343016009654,FALSE,3.09081539445329
"CAN","cpi",0.2,1983,3,1982,NA,1,8.64452022971559,10.2427769334501,5.67091787896303,9.18500149866057,FALSE,9.03226258061585
"CAN","cpi",0.2,1983,3,1982,NA,1.5,8.8054730063246,10.4037297100591,5.67091787896303,9.68672301569366,FALSE,9.4346445221384
"CAN","cpi",0.2,1984,3,1984,NA,0,NA,NA,4.19799576814029,NA,NA,NA
"CAN","cpi",0.2,1984,3,1984,NA,0.5,5.95076085239624,6.40778204479524,4.19799576814029,5.85770686024457,FALSE,4.83893390303888
"CAN","cpi",0.2,1984,3,1983,NA,1,5.00934194072024,5.64883690688861,4.19799576814029,5.76553357996429,FALSE,2.66786039761825
"CAN","cpi",0.2,1984,3,1983,NA,1.5,5.37989997182308,6.01939493799146,4.19799576814029,2.9197996794717,FALSE,3.59425547537537
"CAN","cpi",0.2,1985,3,1985,NA,0,3.75780634756048,3.8244677862447,3.86444262005169,3.85417990135378,FALSE,0.166598523201695
"CAN","cpi",0.2,1985,3,1985,NA,0.5,4.53312933245876,4.80123902349487,3.86444262005169,4.21990042382899,FALSE,1.93982647205378
"CAN","cpi",0.2,1985,3,1984,NA,1,NA,NA,3.86444262005169,NA,NA,NA
"CAN","cpi",0.2,1985,3,1984,NA,1.5,3.20199886933322,3.81606837163022,3.86444262005169,8.62999660305356,FALSE,0.735005123350693
"CAN","cpi",0.2,1986,3,1986,NA,0,3.93620324694794,4.00553859684696,4.08685396749431,4.03771389199993,FALSE,0.2726237765174
"CAN","cpi",0.2,1986,3,1986,NA,0.5,4.70624060007246,4.97511911139578,4.08685396749431,4.38219332503529,FALSE,1.81734509276869
"CAN","cpi",0.2,1986,3,1985,NA,1,3.01013091249678,3.69814697276748,4.08685396749431,3.37849976080849,FALSE,1.65978354708777
"CAN","cpi",0.2,1986,3,1985,NA,1.5,3.35246613375401,4.04048219402471,4.08685396749431,4.95309858900956,FALSE,0.803945493944691
"CAN","cpi",0.2,1987,3,1987,NA,0,NA,NA,4.23980729277887,NA,NA,NA
"CAN","cpi",0.2,1987,3,1987,NA,0.5,4.34610650770617,4.72337941869463,4.23980729277887,4.13342161080085,FALSE,0.643020948306703
"CAN","cpi",0.2,1987,3,1986,NA,1,3.41867633270996,4.08884828851019,4.23980729277887,3.66140988164798,FALSE,1.04756946647193
"CAN","cpi",0.2,1987,3,1986,NA,1.5,3.5852140334741,4.25538598927433,4.23980729277887,4.80242768143514,TRUE,0.670171955800227
"CAN","cpi",0.2,1988,3,1988,NA,0,3.85975613568316,3.91854106553743,3.92899537638065,3.9438316199536,FALSE,0.0849207069623303
"CAN","cpi",0.2,1988,3,1988,NA,0.5,3.61131551934048,3.96269675691831,3.92899537638065,3.35419215340812,TRUE,0.351381237577835
"CAN","cpi",0.2,1988,3,1987,NA,1,NA,NA,3.92899537638065,NA,NA,NA
"CAN","cpi",0.2,1988,3,1987,NA,1.5,3.65247574095599,4.497112390203,3.92899537638065,3.89461929526446,TRUE,0.844636649247013
"CAN","cpi",0.2,1989,3,1989,NA,0,4.85834426163685,4.93146767822624,4.82821664544208,4.95130318392835,FALSE,0.148442457076321
"CAN","cpi",0.2,1989,3,1989,NA,0.5,4.42984163257344,4.82501326829526,4.82821664544208,4.23024942747073,FALSE,0.403180078588858
"CAN","cpi",0.2,1989,3,1988,NA,1,3.47330648945167,4.12583281199037,4.82821664544208,4.05841794603162,FALSE,2.40848590616796
"CAN","cpi",0.2,1989,3,1988,NA,1.5,3.40227483350425,4.35706701765745,4.82821664544208,2.597843559383,FALSE,2.13266625361477
"CAN","cpi",0.2,1990,3,1990,NA,0,4.37769534908656,4.45441216618663,4.64347549432717,4.4746950192663,FALSE,0.549375137451422
"CAN","cpi",0.2,1990,3,1990,NA,0.5,5.03947754364939,5.48871666544198,4.64347549432717,4.96487168902479,FALSE,1.43924424509814
"CAN","cpi",0.2,1990,3,1989,NA,1,4.42694135479399,5.25525065490324,4.64347549432717,5.43871373969076,TRUE,0.828309300109256
"CAN","cpi",0.2,1990,3,1989,NA,1.5,4.30893118770883,5.13724048781808,4.64347549432717,3.3732540002381,TRUE,0.828309300109256
"CAN","cpi",0.2,1991,3,1991,NA,0,5.51743999751951,5.59876389415196,5.4258100696218,5.61053369942382,FALSE,0.310398716376743
"CAN","cpi",0.2,1991,3,1991,NA,0.5,7.63370064309494,8.25857525835374,5.4258100696218,7.82199295477594,FALSE,6.14460104894166
"CAN","cpi",0.2,1991,3,1990,NA,1,3.77987606773968,4.46170386976044,5.4258100696218,3.66716818384097,FALSE,3.09209330167415
"CAN","cpi",0.2,1991,3,1990,NA,1.5,4.16037573015177,4.84220353217252,5.4258100696218,4.82481948664164,FALSE,2.14084414564393
"CAN","cpi",0.2,1992,3,1992,NA,0,NA,NA,1.47496888572843,NA,NA,NA
"CAN","cpi",0.2,1992,3,1992,NA,0.5,NA,NA,1.47496888572843,NA,NA,NA
"CAN","cpi",0.2,1992,3,1991,NA,1,4.17571579890951,4.80566636552911,1.47496888572843,2.76780571233213,FALSE,7.38181784957229
"CAN","cpi",0.2,1992,3,1991,NA,1.5,4.71891409595021,5.34886466256982,1.47496888572843,7.14938182660169,FALSE,8.73981359217406
"CAN","cpi",0.2,1993,3,1993,NA,0,NA,NA,NA,NA,NA,NA
"CAN","cpi",0.2,1993,3,1993,NA,0.5,NA,NA,NA,NA,NA,NA
"CAN","cpi",0.2,1993,3,1992,NA,1,NA,NA,NA,NA,NA,NA
"CAN","cpi",0.2,1993,3,1992,NA,1.5,NA,NA,NA,NA,NA,NA
"CAN","cpi",0.2,1994,3,1994,NA,0,NA,NA,NA,NA,NA,NA
"CAN","cpi",0.2,1994,3,1994,NA,0.5,NA,NA,NA,NA,NA,NA
"CAN","cpi",0.2,1994,3,1993,NA,1,NA,NA,NA,NA,NA,NA
"CAN","cpi",0.2,1994,3,1993,NA,1.5,NA,NA,NA,NA,NA,NA
"CAN","cpi",0.2,1995,3,1995,NA,0,NA,NA,2.11688403676572,NA,NA,NA
"CAN","cpi",0.2,1995,3,1995,NA,0.5,NA,NA,2.11688403676572,2.51937811073084,NA,NA
"CAN","cpi",0.2,1995,3,1994,NA,1,NA,NA,2.11688403676572,0.719396410821945,NA,NA
"CAN","cpi",0.2,1995,3,1994,NA,1.5,NA,NA,2.11688403676572,-1.04654603924828,NA,NA
"CAN","cpi",0.2,1996,3,1996,NA,0,1.33753179076981,1.38759875031623,1.55309584667184,1.42780748357026,FALSE,0.463809700435451
"CAN","cpi",0.2,1996,3,1996,NA,0.5,NA,NA,1.55309584667184,NA,NA,NA
"CAN","cpi",0.2,1996,3,1995,NA,1,NA,NA,1.55309584667184,NA,NA,NA
"CAN","cpi",0.2,1996,3,1995,NA,1.5,2.23149756472711,2.58566714313027,1.55309584667184,2.92232271175447,FALSE,2.05017387354133
"CAN","cpi",0.2,1997,3,1997,NA,0,1.6364283084602,1.68874784814068,1.60528783555959,1.73535847807117,FALSE,0.130170721931993
"CAN","cpi",0.2,1997,3,1997,NA,0.5,2.68864081072185,2.77379243954367,1.60528783555959,2.11078363597796,FALSE,2.79353406672746
"CAN","cpi",0.2,1997,3,1996,NA,1,1.17476002334408,1.71214395396548,1.60528783555959,0.984961337307556,TRUE,0.5373839306214
"CAN","cpi",0.2,1997,3,1996,NA,1.5,NA,NA,1.60528783555959,NA,NA,NA
"CAN","cpi",0.2,1998,3,1998,NA,0,0.944131680543582,0.989097039882446,0.988908029337191,1.0350847138471,TRUE,0.0449653593388644
"CAN","cpi",0.2,1998,3,1998,NA,0.5,2.25594411234385,2.39081851615591,0.988908029337191,1.68533655437107,FALSE,3.3024646113287
"CAN","cpi",0.2,1998,3,1997,NA,1,1.76924618178238,2.04878735570686,0.988908029337191,2.25159584334757,FALSE,2.23038655503745
"CAN","cpi",0.2,1998,3,1997,NA,1.5,1.713598655683,2.16311346061401,0.988908029337191,2.38987816876076,FALSE,2.26124137079553
"CAN","cpi",0.2,1999,3,1999,NA,0,1.67144499570482,1.72317936329445,1.7107350135213,1.77618438459462,TRUE,0.0517343675896371
"CAN","cpi",0.2,1999,3,1999,NA,0.5,1.592320563097,1.78256246903133,1.7107350135213,1.0290924799153,TRUE,0.19024190593433
"CAN","cpi",0.2,1999,3,1998,NA,1,1.20830138720757,1.47928523648105,1.7107350135213,1.85177544064205,FALSE,0.849608291874102
"CAN","cpi",0.2,1999,3,1998,NA,1.5,0.985022183179806,1.50513248036283,1.7107350135213,2.94645730787123,FALSE,1.03411663007919
"CAN","cpi",0.2,2000,3,2000,NA,0,2.60241181782736,2.66523078677429,2.6718361971244,2.7102541785615,FALSE,0.079332494822199
"CAN","cpi",0.2,2000,3,2000,NA,0.5,2.82816131888086,2.97936283835689,2.6718361971244,2.34405201403356,FALSE,0.542014323867182
"CAN","cpi",0.2,2000,3,1999,NA,1,2.03402899260484,2.36647207836683,2.6718361971244,3.07542936781209,FALSE,1.09585338265591
"CAN","cpi",0.2,2000,3,1999,NA,1.5,1.81470356399208,2.27773678697981,2.6718361971244,2.27809035801724,FALSE,1.44828174834921
"CAN","cpi",0.2,2001,3,2001,NA,0,2.68976295947083,2.74148422158923,2.47906219852806,2.77546584984351,FALSE,0.578473164475315
"CAN","cpi",0.2,2001,3,2001,NA,0.5,2.78440257212645,3.07007031565813,2.47906219852806,2.43566755503104,FALSE,1.04901867752765
"CAN","cpi",0.2,2001,3,2000,NA,1,2.79181259692773,3.25626246111373,2.47906219852806,3.68958695319843,FALSE,1.24632586018517
"CAN","cpi",0.2,2001,3,2000,NA,1.5,2.66201201820458,3.12646188239057,2.47906219852806,3.01270789712173,FALSE,0.921824413377285
"CAN","cpi",0.2,2002,3,2002,NA,0,2.1761189527373,2.23567083986121,2.20880570551249,2.27196234986351,TRUE,0.0595518871239165
"CAN","cpi",0.2,2002,3,2002,NA,0.5,2.0399456694365,2.30490701784171,2.20880570551249,1.58345411989126,TRUE,0.264961348405211
"CAN","cpi",0.2,2002,3,2001,NA,1,2.12707696091109,2.63220166054842,2.20880570551249,2.26510423845898,TRUE,0.505124699637332
"CAN","cpi",0.2,2002,3,2001,NA,1.5,2.42908557093005,2.93421027056738,2.20880570551249,3.02058043279009,FALSE,1.05582436318124
"CAN","cpi",0.2,2003,3,2003,NA,0,2.6251294861786,2.67389664491317,2.71189071546809,2.71326702620668,FALSE,0.143752335121871
"CAN","cpi",0.2,2003,3,2003,NA,0.5,4.62528501070532,4.92689232134767,2.71189071546809,4.51432649273496,FALSE,5.08509304873543
"CAN","cpi",0.2,2003,3,2002,NA,1,2.60737808816621,2.92399208908609,2.71189071546809,3.85618281746238,TRUE,0.316614000919871
"CAN","cpi",0.2,2003,3,2002,NA,1.5,2.15153848852199,2.73912823493197,2.71189071546809,2.39402389849184,TRUE,0.587589746409988
"CAN","cpi",0.2,2004,3,2004,NA,0,1.69612800675982,1.74118588562786,1.83151661303942,1.77466852383015,FALSE,0.270884697396946
"CAN","cpi",0.2,2004,3,2004,NA,0.5,1.96098549677251,2.29686696193289,1.83151661303942,1.55260435151936,FALSE,0.659553674493096
"CAN","cpi",0.2,2004,3,2003,NA,1,2.1684973952104,2.64047333879029,1.83151661303942,1.79415792598285,FALSE,1.31442789900733
"CAN","cpi",0.2,2004,3,2003,NA,1.5,2.53457674915577,3.00655269273567,1.83151661303942,4.26699272545716,FALSE,2.22962628387078
"CAN","cpi",0.2,2005,3,2005,NA,0,2.26108950992978,2.29997012669213,2.18071628336509,2.34345353472953,FALSE,0.23981368317408
"CAN","cpi",0.2,2005,3,2005,NA,0.5,1.9432217448903,2.19954832855751,2.18071628336509,1.50321338317329,TRUE,0.256326583667212
"CAN","cpi",0.2,2005,3,2004,NA,1,1.57955520724238,1.98621363573782,2.18071628336509,1.64043962712234,FALSE,0.892915047563615
"CAN","cpi",0.2,2005,3,2004,NA,1.5,1.76213059558227,2.39417686088399,2.18071628336509,2.03393284113233,TRUE,0.632046265301717
"CAN","cpi",0.2,2006,3,2006,NA,0,2.01110312615934,2.0556281822795,1.97519342012289,2.09514376892657,FALSE,0.134299321211295
"CAN","cpi",0.2,2006,3,2006,NA,0.5,2.4382084492596,2.70503656810132,1.97519342012289,2.09436263599022,FALSE,1.4243656916835
"CAN","cpi",0.2,2006,3,2005,NA,1,2.28817250046381,2.64481599430045,1.97519342012289,2.9582912060806,FALSE,1.13909119468896
"CAN","cpi",0.2,2006,3,2005,NA,1.5,2.27479904457187,2.77477777758228,1.97519342012289,1.64885961980806,FALSE,1.24899279413286
"CAN","cpi",0.2,2007,3,2007,NA,0,2.0079579695646,2.0648301049755,2.10062087284572,2.10683622102307,FALSE,0.146349055086447
"CAN","cpi",0.2,2007,3,2007,NA,0.5,2.50587670124348,2.7614291769407,2.10062087284572,2.17629902083353,FALSE,1.26869204669162
"CAN","cpi",0.2,2007,3,2006,NA,1,1.60217600726812,2.08316205025432,2.10062087284572,1.50861692709856,FALSE,0.524633099464707
"CAN","cpi",0.2,2007,3,2006,NA,1.5,1.88730701436513,2.51659711183402,2.10062087284572,2.15918616350405,TRUE,0.629290097468891
"CAN","cpi",0.2,2008,3,2008,NA,0,2.76495049427676,2.83033644756217,2.31447335265955,2.87079455148828,FALSE,1.19157880732843
"CAN","cpi",0.2,2008,3,2008,NA,0.5,1.75516066741483,2.02815156971696,2.31447335265955,1.31005314695267,FALSE,0.988795359658607
"CAN","cpi",0.2,2008,3,2007,NA,1,1.74295768490039,2.1598738973891,2.31447335265955,1.47031049982668,FALSE,0.803414850664832
"CAN","cpi",0.2,2008,3,2007,NA,1.5,2.14518283519918,2.59246587445989,2.31447335265955,2.46453195342394,TRUE,0.447283039260711
"CAN","cpi",0.2,2009,3,2009,NA,0,0.111980988089652,0.149208379134762,0.284533874408197,0.187122346349721,FALSE,0.375541129228699
"CAN","cpi",0.2,2009,3,2009,NA,0.5,0.556521617206381,0.905385820316181,0.284533874408197,-0.0727492620466167,FALSE,1.02883356010526
"CAN","cpi",0.2,2009,3,2008,NA,1,2.64452580790768,2.99339001101748,0.284533874408197,3.81780026356951,FALSE,6.24884403685851
"CAN","cpi",0.2,2009,3,2008,NA,1.5,2.39005999545478,2.89014037573966,0.284533874408197,1.68675152630419,FALSE,5.76389568290134
"CAN","cpi",0.2,2010,3,2010,NA,0,1.51058276173354,1.53675538726972,1.75525687020327,1.6089956646354,FALSE,0.572426332870067
"CAN","cpi",0.2,2010,3,2010,NA,0.5,2.41293943844952,2.4391120639857,1.75525687020327,1.91109502526183,FALSE,1.6703790461518
"CAN","cpi",0.2,2010,3,2009,NA,1,0.701646640309509,0.823095892792495,1.75525687020327,0.992295788494754,FALSE,2.45185169600993
"CAN","cpi",0.2,2010,3,2009,NA,1.5,0.402021459554895,0.786517502988659,1.75525687020327,0.885103052815867,FALSE,2.8063444614703
"CAN","cpi",0.2,2011,3,2011,NA,0,2.77799665935375,2.82833129278201,2.85717434028225,2.86665414062098,FALSE,0.122442252178852
"CAN","cpi",0.2,2011,3,2011,NA,0.5,2.8423616627879,3.21632333615909,2.85717434028225,2.76583381894771,TRUE,0.37396167337119
"CAN","cpi",0.2,2011,3,2010,NA,1,1.54839006219537,1.92235173556656,2.85717434028225,1.39294644169719,FALSE,2.71101818516041
"CAN","cpi",0.2,2011,3,2010,NA,1.5,1.92320042251137,2.35993634257899,2.85717434028225,1.64253060592363,FALSE,1.67983091432576
"CAN","cpi",0.2,2012,3,2012,NA,0,1.46217997202014,1.50463383668856,1.50118536134935,1.52822510849394,TRUE,0.0424538646684196
"CAN","cpi",0.2,2012,3,2012,NA,0.5,2.20646872182576,2.5955726214309,1.50118536134935,1.92429021972789,FALSE,2.15231230079618
"CAN","cpi",0.2,2012,3,2011,NA,1,2.30191830340361,2.84762541267172,1.50118536134935,1.99945242447079,FALSE,2.54753946440376
"CAN","cpi",0.2,2012,3,2011,NA,1.5,2.6641198248732,3.32188944000613,1.50118536134935,2.48150957397962,FALSE,3.56510577394257
"CAN","cpi",0.2,2013,3,2013,NA,0,0.985704161380928,1.01708086852285,0.931270594714462,1.05630513423211,FALSE,0.167460623808084
"CAN","cpi",0.2,2013,3,2013,NA,0.5,1.51143963110744,1.85035304799815,0.931270594714462,1.16963454554932,FALSE,1.78933600787315
"CAN","cpi",0.2,2013,3,2012,NA,1,1.32448922725021,1.66340264414092,0.931270594714462,1.08868089128742,FALSE,1.32195999823008
"CAN","cpi",0.2,2013,3,2012,NA,1.5,1.72643777590992,2.06535119280063,0.931270594714462,2.14573179530527,FALSE,2.32683136987935
"CAN","cpi",0.2,2014,3,2014,NA,0,1.91358593430702,1.952063523495,1.87639912240215,1.99862849145116,FALSE,0.131444618950152
"CAN","cpi",0.2,2014,3,2014,NA,0.5,1.93744816806541,2.23994435465458,1.87639912240215,1.79231976082687,FALSE,0.455118800747319
"CAN","cpi",0.2,2014,3,2013,NA,1,1.11609165515568,1.41858784174485,1.87639912240215,1.40664989819898,FALSE,1.44702438823243
"CAN","cpi",0.2,2014,3,2013,NA,1.5,1.33244225027796,1.63493843686713,1.87639912240215,1.51436121777893,FALSE,0.906147900426727
"CAN","cpi",0.2,2015,3,2015,NA,0,1.12012157249366,1.17303323013764,1.11090953952792,1.2103065042478,FALSE,0.0759417400583289
"CAN","cpi",0.2,2015,3,2015,NA,0.5,0.847276199188077,1.220915090581,1.11090953952792,0.458547315718059,TRUE,0.373638891392928
"CAN","cpi",0.2,2015,3,2014,NA,1,1.64008349801274,2.05279818765969,1.11090953952792,1.57054781428135,FALSE,1.73564958585901
"CAN","cpi",0.2,2015,3,2014,NA,1.5,1.99441683912623,2.45540129681244,1.11090953952792,1.88229109541157,FALSE,2.66975270668199
"CAN","cpi",0.2,2016,3,2016,NA,0,1.31634779779287,1.36803543013706,1.41168586698797,1.41630667471992,FALSE,0.160813724471452
"CAN","cpi",0.2,2016,3,2016,NA,0.5,1.41868840319993,1.7162266864464,1.41168586698797,1.17972158292925,FALSE,0.315044623776378
"CAN","cpi",0.2,2016,3,2015,NA,1,1.36287853138634,1.66041681463281,1.41168586698797,1.8638656605167,TRUE,0.297538283246466
"CAN","cpi",0.2,2016,3,2015,NA,1.5,1.51403827418555,1.81157655743201,1.41168586698797,1.07023002715086,FALSE,0.553419301240419
"CAN","cpi",0.2,2017,3,2017,NA,0,1.40711140536862,1.46348046154567,1.57888581671161,1.50492692646759,FALSE,0.344882444091901
"CAN","cpi",0.2,2017,3,2017,NA,0.5,2.16802270539548,2.47610401581144,1.57888581671161,2.09086618282141,FALSE,1.78092353212564
"CAN","cpi",0.2,2017,3,2016,NA,1,1.28497971944981,1.62200795363573,1.57888581671161,1.14652050352824,TRUE,0.337028234185921
"CAN","cpi",0.2,2017,3,2016,NA,1.5,1.60742090211971,2.07569267333971,1.57888581671161,1.26788084523026,FALSE,0.53960948474024
"CAN","cpi",0.2,2018,3,2018,NA,0,2.30725061882812,2.37370014398418,2.23316270166586,2.41317537496083,FALSE,0.251669318061716
"CAN","cpi",0.2,2018,3,2018,NA,0.5,2.55140360652781,2.84796102281154,2.23316270166586,2.52809119314695,FALSE,1.0921596784386
"CAN","cpi",0.2,2018,3,2017,NA,1,1.40652286809855,1.70308028438228,2.23316270166586,1.16800101916097,FALSE,1.62176345949268
"CAN","cpi",0.2,2018,3,2017,NA,1.5,1.66443745582897,1.96099487211269,2.23316270166586,2.07298402260093,FALSE,0.976976990166641
"CAN","cpi",0.2,2019,3,2019,NA,0,NA,NA,1.91921619871868,NA,NA,NA
"CAN","cpi",0.2,2019,3,2019,NA,0.5,1.71758911680034,2.03997216199771,1.91921619871868,1.47328806303322,TRUE,0.322383045197372
"CAN","cpi",0.2,2019,3,2018,NA,1,2.03692699450314,2.48095871119829,1.91921619871868,2.23470281046333,FALSE,0.738308706156299
"CAN","cpi",0.2,2019,3,2018,NA,1.5,2.12520079613984,2.73660938434085,1.91921619871868,2.32030562567512,FALSE,1.12637008175391
"CAN","cpi",0.2,2020,3,2020,NA,0,0.589580298543665,0.638696040639953,0.71139989671781,0.673588636713597,FALSE,0.230875382290932
"CAN","cpi",0.2,2020,3,2020,NA,0.5,NA,NA,0.71139989671781,NA,NA,NA
"CAN","cpi",0.2,2020,3,2019,NA,1,NA,NA,0.71139989671781,NA,NA,NA
"CAN","cpi",0.2,2020,3,2019,NA,1.5,1.90554638833915,2.28963699451863,0.71139989671781,1.77705491937904,FALSE,3.36945683523282
"CAN","cpi",0.2,2021,3,2021,NA,0,3.1293054243058,3.20200478079887,3.31148121717802,3.2525646654712,FALSE,0.346390447440945
"CAN","cpi",0.2,2021,3,2021,NA,0.5,2.19979679918161,2.39710865180084,3.31148121717802,2.16773480502693,FALSE,2.48324326606219
"CAN","cpi",0.2,2021,3,2020,NA,1,1.11455927135147,1.3118711239707,3.31148121717802,1.61070774476322,FALSE,5.19633708563753
"CAN","cpi",0.2,2021,3,2020,NA,1.5,NA,NA,3.31148121717802,NA,NA,NA
"CAN","cpi",0.2,2022,3,2022,NA,0,6.45257543087166,6.56140218122249,6.50977236228281,6.58682891800883,TRUE,0.10882675035082
"CAN","cpi",0.2,2022,3,2022,NA,0.5,5.23768137558706,5.5568835290573,6.50977236228281,5.58900513180898,FALSE,2.70142423653402
"CAN","cpi",0.2,2022,3,2021,NA,1,2.89728314679735,3.52008692334306,6.50977236228281,3.35597076522593,FALSE,8.09701737389509
"CAN","cpi",0.2,2022,3,2021,NA,1.5,2.84075225543137,3.62944192882353,6.50977236228281,1.89458222166426,FALSE,7.98951575704036
"CAN","cpi",0.2,2023,3,2023,NA,0,3.89205550806274,3.97067905457656,3.78831288758619,3.96221561415741,FALSE,0.3379800977052
"CAN","cpi",0.2,2023,3,2023,NA,0.5,3.90090523709219,4.23847895711523,3.78831288758619,3.6121970566696,FALSE,0.619054593788041
"CAN","cpi",0.2,2023,3,2022,NA,1,5.04340630308631,6.25814415607008,3.78831288758619,5.4861852561408,FALSE,4.35247139173406
"CAN","cpi",0.2,2023,3,2022,NA,1.5,4.93740097825843,6.64836803174321,3.78831288758619,3.85557075258935,FALSE,4.58368728016537
"CAN","cpi",0.2,2024,3,2023,NA,1,3.31652243466321,4.18428866624406,NA,4.72280809903739,NA,NA
"CAN","cpi",0.2,2024,3,2023,NA,1.5,3.04076181416691,3.90852804574776,NA,4.36705509613113,NA,NA
"CAN","cpi",0.3,1952,3,1952,NA,0,2.55937454045685,2.55937454045685,2.55562336095485,2.50792675283471,FALSE,0.0107176557200108
"CAN","cpi",0.3,1952,3,1952,NA,0.5,3.70318150168635,3.70318150168635,2.55562336095485,5.20333179389047,FALSE,3.27873754494715
"CAN","cpi",0.3,1952,3,1951,NA,1,2.18247104175346,2.18247104175346,2.55562336095485,8.18998200969936,FALSE,1.06614948343254
"CAN","cpi",0.3,1952,3,1951,NA,1.5,4.8511738265733,4.8511738265733,2.55562336095485,7.55460015368862,FALSE,6.55871561605271
"CAN","cpi",0.3,1953,3,1953,NA,0,-0.490362703680908,-0.612099436767583,-1.01492775838436,-0.954275034924989,FALSE,1.37702056606605
"CAN","cpi",0.3,1953,3,1953,NA,0.5,2.10481369524682,1.98307696216014,-1.01492775838436,-1.88711612688489,FALSE,8.79181027728813
"CAN","cpi",0.3,1953,3,1952,NA,1,-13.6216361959109,-13.7433729289976,-1.01492775838436,-0.873617238258229,FALSE,36.2452494686655
"CAN","cpi",0.3,1953,3,1952,NA,1.5,5.95388104337451,5.83214431028784,-1.01492775838436,5.93557635631702,FALSE,19.789145557653
"CAN","cpi",0.3,1954,3,1954,NA,0,0.834490681753748,1.2979531284677,0.644425455961438,0.879731201855888,FALSE,1.00650594897769
"CAN","cpi",0.3,1954,3,1954,NA,0.5,2.2807484149184,4.77640991192176,0.644425455961438,-0.358875738913824,FALSE,7.17086995116611
"CAN","cpi",0.3,1954,3,1953,NA,1,2.87303771382542,8.34724003362022,0.644425455961438,3.38326531029323,FALSE,11.8416659136919
"CAN","cpi",0.3,1954,3,1953,NA,1.5,-0.390382688854588,9.50085062550722,0.644425455961438,-1.28741438714058,TRUE,9.89123331436181
"CAN","cpi",0.3,1955,3,1955,NA,0,0.0630579747978694,0.0308566125471469,0.173649026558865,0.115254687233858,FALSE,0.375776963497043
"CAN","cpi",0.3,1955,3,1955,NA,0.5,-0.485202102258738,0.918165803511581,0.173649026558865,-0.770970046821609,TRUE,1.40336790577032
"CAN","cpi",0.3,1955,3,1954,NA,1,0.686342226488303,6.79724120179443,0.173649026558865,3.47019599757395,FALSE,7.57573668939024
"CAN","cpi",0.3,1955,3,1954,NA,1.5,1.96869011225335,9.77272747223277,0.173649026558865,-1.89562740163941,FALSE,12.9327261762494
"CAN","cpi",0.3,1956,3,1956,NA,0,1.51326067623575,1.60413177325098,1.32752769429961,1.56059797998755,FALSE,0.621536759689919
"CAN","cpi",0.3,1956,3,1956,NA,0.5,0.432562596033791,1.17907466719854,1.32752769429961,-0.709146002056511,FALSE,1.17066357716779
"CAN","cpi",0.3,1956,3,1955,NA,1,-0.237530619394868,0.618264356375685,1.32752769429961,0.884549626974225,FALSE,2.88226165555319
"CAN","cpi",0.3,1956,3,1955,NA,1.5,-0.053389331764633,0.80240564400592,1.32752769429961,-1.89150615642833,FALSE,2.35614369089538
"CAN","cpi",0.3,1957,3,1957,NA,0,3.24552705677209,3.44204360606122,3.24684755852518,3.4151370317006,TRUE,0.196516549289133
"CAN","cpi",0.3,1957,3,1957,NA,0.5,3.15941791290929,3.77317550136775,3.24684755852518,2.23982631608766,TRUE,0.613757588458455
"CAN","cpi",0.3,1957,3,1956,NA,1,2.79747787460318,4.92163606010828,3.24684755852518,6.98754636690555,TRUE,2.12415818550511
"CAN","cpi",0.3,1957,3,1956,NA,1.5,0.0402523168656497,2.16441050237076,3.24684755852518,-1.88668623310337,FALSE,5.21683548880345
"CAN","cpi",0.3,1958,3,1958,NA,0,2.04639126405709,2.17999116232253,2.33186388641149,2.22387249143335,FALSE,0.567521967091048
"CAN","cpi",0.3,1958,3,1958,NA,0.5,2.36471443356858,2.8507060652852,2.33186388641149,2.22839060734872,FALSE,0.579850337879729
"CAN","cpi",0.3,1958,3,1957,NA,1,1.07268574150254,2.19788872250533,2.33186388641149,4.42088197051908,FALSE,1.50798916359182
"CAN","cpi",0.3,1958,3,1957,NA,1.5,1.80586749112297,3.22694724571769,2.33186388641149,0.91301479707402,TRUE,1.42107975459472
"CAN","cpi",0.3,1959,3,1959,NA,0,1.04736363688014,1.29949608410415,1.19382698397654,1.24991216431293,TRUE,0.252132447224004
"CAN","cpi",0.3,1959,3,1959,NA,0.5,0.848598406965051,1.37561985240308,1.19382698397654,0.437839731590327,TRUE,0.52702144543803
"CAN","cpi",0.3,1959,3,1958,NA,1,0.335564803679456,0.862586249117486,1.19382698397654,1.75862762885946,FALSE,1.47342354503533
"CAN","cpi",0.3,1959,3,1958,NA,1.5,0.849469671401114,2.26896129460749,1.19382698397654,1.77407172713766,TRUE,1.41949162320637
"CAN","cpi",0.3,1960,3,1960,NA,0,0.80870136333942,1.07384142865961,1.34209404870695,1.02361304259477,FALSE,1.03157612259831
"CAN","cpi",0.3,1960,3,1960,NA,0.5,1.3699205498761,2.00972877041418,1.34209404870695,0.53898348018166,FALSE,0.719312509592782
"CAN","cpi",0.3,1960,3,1959,NA,1,1.71996032378533,2.43459887637006,1.34209404870695,3.95759373689442,FALSE,1.79425648138009
"CAN","cpi",0.3,1960,3,1959,NA,1.5,1.43358734435351,2.14822589693824,1.34209404870695,-0.873476815404885,FALSE,0.976047968717762
"CAN","cpi",0.3,1961,3,1961,NA,0,0.955516187153739,1.05978924618212,1.00921348094007,1.00921348094007,TRUE,0.104273059028376
"CAN","cpi",0.3,1961,3,1961,NA,0.5,1.84536504183176,2.39612834154806,1.00921348094007,1.00921348094007,FALSE,2.93976775940684
"CAN","cpi",0.3,1961,3,1960,NA,1,-0.245329277428407,0.305434022287894,1.00921348094007,0.0537704626035329,FALSE,2.56156175300824
"CAN","cpi",0.3,1961,3,1960,NA,1.5,1.23397973329749,1.78474303301379,1.00921348094007,-0.862181798940035,FALSE,1.19295259216607
"CAN","cpi",0.3,1962,3,1962,NA,0,1.04986451104769,1.15152242686973,1.04957947883042,1.10232402731478,FALSE,0.102472293585673
"CAN","cpi",0.3,1962,3,1962,NA,0.5,0.839830188647726,1.29028362731858,1.04957947883042,0,TRUE,0.450453438670851
"CAN","cpi",0.3,1962,3,1961,NA,1,-0.263059903436427,0.655102490959332,1.04957947883042,0,FALSE,2.04523950259885
"CAN","cpi",0.3,1962,3,1961,NA,1.5,0.84831914888568,1.76648154328144,1.04957947883042,0,TRUE,0.918162394395759
"CAN","cpi",0.3,1963,3,1963,NA,0,1.8640835957732,1.90863340491807,1.60677118395228,1.91491729531202,FALSE,0.779728128633192
"CAN","cpi",0.3,1963,3,1963,NA,0.5,1.71973621442119,2.14171868704677,1.60677118395228,0.836828714617504,FALSE,0.744739702536745
"CAN","cpi",0.3,1963,3,1962,NA,1,0.882001248133684,1.71758114216374,1.60677118395228,2.56411490415144,TRUE,0.835579894030052
"CAN","cpi",0.3,1963,3,1962,NA,1.5,0.884425384065015,1.72000527809507,1.60677118395228,0,TRUE,0.835579894030052
"CAN","cpi",0.3,1964,3,1964,NA,0,1.93584523679704,1.98571799554302,1.88764670034376,1.98877256446048,FALSE,0.187582862898201
"CAN","cpi",0.3,1964,3,1964,NA,0.5,2.11753374523248,2.29741161498249,1.88764670034376,1.38369006227607,FALSE,0.836697998003489
"CAN","cpi",0.3,1964,3,1963,NA,1,2.57576540735793,2.75564327710794,1.88764670034376,5.39044290347256,FALSE,2.14593131836192
"CAN","cpi",0.3,1964,3,1963,NA,1.5,1.27999292668336,1.59402199179261,1.88764670034376,0,FALSE,1.15295680382682
"CAN","cpi",0.3,1965,3,1965,NA,0,2.24081043260758,2.34259121672136,2.29538304394236,2.34557047418999,TRUE,0.101780784113776
"CAN","cpi",0.3,1965,3,1965,NA,0.5,2.07669621828389,2.37226252180675,2.29538304394236,1.61079447956654,TRUE,0.295566303522867
"CAN","cpi",0.3,1965,3,1964,NA,1,0.842998423419941,1.61262603224677,2.29538304394236,2.42518862179847,FALSE,2.72036192795707
"CAN","cpi",0.3,1965,3,1964,NA,1.5,1.08927020503043,1.85889781385727,2.29538304394236,0.818102552316399,FALSE,2.01672826621281
"CAN","cpi",0.3,1966,3,1966,NA,0,3.69791041122959,3.81259253822521,3.72486065470629,3.82010987863709,TRUE,0.114682126995616
"CAN","cpi",0.3,1966,3,1966,NA,0.5,4.55648447895085,4.67994246470006,3.72486065470629,3.99123398895563,FALSE,2.49952605501938
"CAN","cpi",0.3,1966,3,1965,NA,1,1.48261888818011,1.95499883080001,3.72486065470629,3.20722068745854,FALSE,5.52912801092356
"CAN","cpi",0.3,1966,3,1965,NA,1.5,1.21580074370225,2.02160343597059,3.72486065470629,1.60663824631958,FALSE,5.67225188865604
"CAN","cpi",0.3,1967,3,1967,NA,0,3.69815866811174,3.74559343083766,3.49360316391996,3.76768849328632,FALSE,0.631879060416724
"CAN","cpi",0.3,1967,3,1967,NA,0.5,2.18813847834699,2.53241989894797,3.49360316391996,2.4074547441976,FALSE,3.09051932052095
"CAN","cpi",0.3,1967,3,1966,NA,1,1.5315242286666,1.87580564926758,3.49360316391996,3.18103323070284,FALSE,4.96656003389349
"CAN","cpi",0.3,1967,3,1966,NA,1.5,1.08815687409955,2.28709079380844,3.49360316391996,4.65128160487248,FALSE,4.64611212002752
"CAN","cpi",0.3,1968,3,1968,NA,0,4.05004561013925,4.14814584312316,3.95128347779386,4.17287945672396,FALSE,0.380277753970744
"CAN","cpi",0.3,1968,3,1968,NA,0.5,3.61174036783549,4.19265156695715,3.95128347779386,4.07097205779852,TRUE,0.580911199121657
"CAN","cpi",0.3,1968,3,1967,NA,1,2.06884612713274,2.78650213273886,3.95128347779386,5.84521682123848,FALSE,4.04560270576325
"CAN","cpi",0.3,1968,3,1967,NA,1.5,1.55217138349208,2.3824705788177,3.95128347779386,2.25565858240226,FALSE,5.31262176382893
"CAN","cpi",0.3,1969,3,1969,NA,0,4.29618077473878,4.44940716166353,4.42679496126681,4.46896837073893,TRUE,0.153226386924743
"CAN","cpi",0.3,1969,3,1969,NA,0.5,2.58845601398041,2.95470597585425,4.42679496126681,2.96612019395715,FALSE,4.57221849162402
"CAN","cpi",0.3,1969,3,1968,NA,1,2.26710014142524,3.11276740246682,4.42679496126681,6.72487630040807,FALSE,4.60003171475585
"CAN","cpi",0.3,1969,3,1968,NA,1.5,1.31874100130756,2.46716369499248,4.42679496126681,4.31664452944541,FALSE,6.74736916875445
"CAN","cpi",0.3,1970,3,1970,NA,0,3.41535402999571,3.51284424397588,3.28128405769805,3.52697515579364,FALSE,0.480547277687781
"CAN","cpi",0.3,1970,3,1970,NA,0.5,4.20179164872527,4.4063673183363,3.28128405769805,4.65371085276917,FALSE,2.83459735826025
"CAN","cpi",0.3,1970,3,1969,NA,1,2.06395477642004,2.74334036844846,3.28128405769805,4.52747875087707,FALSE,2.21636756131294
"CAN","cpi",0.3,1970,3,1969,NA,1.5,1.87607396766299,2.55545955969141,3.28128405769805,2.07973847283129,FALSE,2.75316987204738
"CAN","cpi",0.3,1971,3,1971,NA,0,2.69838932297188,2.8122441187265,2.64123406634756,2.8393232579169,FALSE,0.277155528966946
"CAN","cpi",0.3,1971,3,1971,NA,0.5,2.02851661030994,2.36080202252418,2.64123406634756,2.06692165705507,FALSE,1.13351982313819
"CAN","cpi",0.3,1971,3,1970,NA,1,1.4398783578129,2.1120174888396,2.64123406634756,2.64105994583495,FALSE,2.18418649533516
"CAN","cpi",0.3,1971,3,1970,NA,1.5,1.98034216967161,2.74994262358319,2.64123406634756,4.63977638900468,TRUE,0.769600453911575
"CAN","cpi",0.3,1972,3,1972,NA,0,4.83539199748473,4.98708318732189,4.83230569625923,5.03048103188219,FALSE,0.160509193338595
"CAN","cpi",0.3,1972,3,1972,NA,0.5,4.64939385502592,5.43386466505536,4.83230569625923,5.06705904355972,TRUE,0.784470810029443
"CAN","cpi",0.3,1972,3,1971,NA,1,2.85288648203928,3.86166854299816,4.83230569625923,5.9169160270675,FALSE,3.78203107027623
"CAN","cpi",0.3,1972,3,1971,NA,1.5,1.66121360535423,2.66999566631311,4.83230569625923,3.09276495441271,FALSE,7.18681071794779
"CAN","cpi",0.3,1973,3,1973,NA,0,6.76575345679208,6.94175620885947,7.12388603531779,6.99264756193144,FALSE,0.69637368480544
"CAN","cpi",0.3,1973,3,1973,NA,0.5,4.55497761478983,4.95162950285282,7.12388603531779,5.47469896411854,FALSE,6.60309912367718
"CAN","cpi",0.3,1973,3,1972,NA,1,2.87007533497589,4.19403655574659,7.12388603531779,6.69062283747837,FALSE,9.69495973383126
"CAN","cpi",0.3,1973,3,1972,NA,1.5,2.09523055132432,3.41919177209503,7.12388603531779,4.73174243586486,FALSE,11.9088019728357
"CAN","cpi",0.3,1974,3,1974,NA,0,9.66661828965398,9.96456267175145,10.2717243737774,9.94431520564033,FALSE,1.17554924502881
"CAN","cpi",0.3,1974,3,1974,NA,0.5,6.36680887041703,6.90367579629307,10.2717243737774,8.3378654175141,FALSE,10.1598628615456
"CAN","cpi",0.3,1974,3,1973,NA,1,2.79572717139926,4.56184340411905,10.2717243737774,7.16712422635118,FALSE,18.0800618603151
"CAN","cpi",0.3,1974,3,1973,NA,1.5,2.32111301078978,5.30480555249359,10.2717243737774,4.05174749178054,FALSE,17.1748891739433
"CAN","cpi",0.3,1975,3,1975,NA,0,10.1156379027859,10.1520561179099,10.0232981493341,10.0931823619779,FALSE,0.300246082129052
"CAN","cpi",0.3,1975,3,1975,NA,0.5,6.04415145138175,9.33570315555862,10.0232981493341,8.98267476097328,FALSE,5.25610882924973
"CAN","cpi",0.3,1975,3,1974,NA,1,2.74280269256734,6.03435439674421,10.0232981493341,7.7837982223054,FALSE,14.6885338544338
"CAN","cpi",0.3,1975,3,1974,NA,1.5,2.827993152022,9.15708282226382,10.0232981493341,5.75931605308519,FALSE,8.80399060472839
"CAN","cpi",0.3,1976,3,1976,NA,0,6.98557717474177,7.12607461175761,7.22784311401172,7.07277954951717,FALSE,0.431264586313288
"CAN","cpi",0.3,1976,3,1976,NA,0.5,6.11724629501365,9.62567790212448,7.22784311401172,8.59089060438327,TRUE,3.50843160711083
"CAN","cpi",0.3,1976,3,1975,NA,1,4.93976059654311,10.5669732810649,7.22784311401172,10.4141477685142,TRUE,5.62721268452182
"CAN","cpi",0.3,1976,3,1975,NA,1.5,4.34359780230138,9.9708104868232,7.22784311401172,6.43051086134862,TRUE,5.62721268452182
"CAN","cpi",0.3,1977,3,1977,NA,0,7.44826186927996,7.57251935715529,7.58101410153764,7.55301151664772,FALSE,0.148528186110628
"CAN","cpi",0.3,1977,3,1977,NA,0.5,6.50677107190797,8.78720446215668,7.58101410153764,7.98165850021887,TRUE,2.28043339024871
"CAN","cpi",0.3,1977,3,1976,NA,1,2.54228605001863,5.38205286278297,7.58101410153764,3.72134649143602,FALSE,9.12251320920626
"CAN","cpi",0.3,1977,3,1976,NA,1.5,4.20662624909565,7.04639306185999,7.58101410153764,8.00272044475614,FALSE,4.36725549755763
"CAN","cpi",0.3,1978,3,1978,NA,0,8.57481097526072,8.70639214292865,8.50208927062595,8.67127840358843,FALSE,0.33935746662443
"CAN","cpi",0.3,1978,3,1978,NA,0.5,6.84135715243301,9.11021961027224,8.50208927062595,8.3788273181893,TRUE,2.26886245783923
"CAN","cpi",0.3,1978,3,1977,NA,1,5.3450459199887,7.61390837782792,8.50208927062595,7.54783828416051,FALSE,4.80652215154786
"CAN","cpi",0.3,1978,3,1977,NA,1.5,4.67514346786262,6.94400592570185,8.50208927062595,9.72562756342223,FALSE,6.72052915762236
"CAN","cpi",0.3,1979,3,1979,NA,0,8.47333905659913,8.60984256510685,8.65147652410481,8.56376390232469,FALSE,0.255457677073318
"CAN","cpi",0.3,1979,3,1979,NA,0.5,7.06160513321275,8.26402344779955,8.65147652410481,8.29599284966764,FALSE,2.3094271040304
"CAN","cpi",0.3,1979,3,1978,NA,1,6.36131365299954,9.21667520066472,8.65147652410481,9.20311500508918,TRUE,2.85536154766518
"CAN","cpi",0.3,1979,3,1978,NA,1.5,5.21106846279597,8.06643001046115,8.65147652410481,8.55646910152924,FALSE,4.52692301521849
"CAN","cpi",0.3,1980,3,1980,NA,0,9.41954974397667,9.55432531095972,9.5171912664748,9.50406722106931,TRUE,0.134775566983052
"CAN","cpi",0.3,1980,3,1980,NA,0.5,7.63884819859237,8.92196903649684,9.5171912664748,8.57798914335092,FALSE,2.98375578069863
"CAN","cpi",0.3,1980,3,1979,NA,1,6.08809103264503,8.92514015419624,9.5171912664748,8.17875203710815,FALSE,4.52862372806137
"CAN","cpi",0.3,1980,3,1979,NA,1.5,6.12478763363674,8.96183675518795,9.5171912664748,8.39204766062112,FALSE,4.42377629665647
"CAN","cpi",0.3,1981,3,1981,NA,0,11.6444258161895,11.7777389484676,11.5813425032741,11.7113878984199,FALSE,0.313551169179116
"CAN","cpi",0.3,1981,3,1981,NA,0.5,11.3118189423143,12.9831924655674,11.5813425032741,12.2156196752767,TRUE,1.67137352325313
"CAN","cpi",0.3,1981,3,1980,NA,1,7.32422072648679,10.5456062879837,11.5813425032741,11.0496853423024,FALSE,6.18063189089807
"CAN","cpi",0.3,1981,3,1980,NA,1.5,6.69606301557538,9.91744857707233,11.5813425032741,8.33809792174894,FALSE,7.97536820778784
"CAN","cpi",0.3,1982,3,1982,NA,0,10.2148030974214,10.3316959530982,10.1124203763629,10.2566668151097,FALSE,0.409414915843758
"CAN","cpi",0.3,1982,3,1982,NA,0.5,8.38945075106709,10.1808346376905,10.1124203763629,10.1085355973545,TRUE,1.79138388662341
"CAN","cpi",0.3,1982,3,1981,NA,1,9.43769202647616,13.0152179261208,10.1124203763629,11.770988683124,TRUE,3.57752589964466
"CAN","cpi",0.3,1982,3,1981,NA,1.5,8.11532613903852,11.6928520386832,10.1124203763629,12.8701250351281,TRUE,3.57752589964466
"CAN","cpi",0.3,1983,3,1983,NA,0,5.62027515827881,5.78120296947409,5.67091787896303,5.7310121416489,TRUE,0.160927811195286
"CAN","cpi",0.3,1983,3,1983,NA,0.5,3.46922844592458,5.05994437823352,5.67091787896303,4.91343016009654,FALSE,3.33635450582184
"CAN","cpi",0.3,1983,3,1982,NA,1,8.21963281905595,10.5973009466632,5.67091787896303,9.18500149866057,FALSE,9.65971081358699
"CAN","cpi",0.3,1983,3,1982,NA,1.5,7.22255258899027,10.2275712073509,5.67091787896303,9.68672301569366,FALSE,7.43826064700992
"CAN","cpi",0.3,1984,3,1984,NA,0,NA,NA,4.19799576814029,NA,NA,NA
"CAN","cpi",0.3,1984,3,1984,NA,0.5,5.72694785975611,6.55161296912677,4.19799576814029,5.85770686024457,FALSE,5.19309965684443
"CAN","cpi",0.3,1984,3,1983,NA,1,4.3317285534265,6.11842476443733,4.19799576814029,5.76553357996429,FALSE,2.16878988325715
"CAN","cpi",0.3,1984,3,1983,NA,1.5,4.324711195738,6.48751842258202,4.19799576814029,2.9197996794717,FALSE,2.52485130569462
"CAN","cpi",0.3,1985,3,1985,NA,0,3.72448453615406,3.8374418105569,3.86444262005169,3.85417990135378,FALSE,0.190102444387972
"CAN","cpi",0.3,1985,3,1985,NA,0.5,4.37330112783082,4.96424893680354,3.86444262005169,4.21990042382899,FALSE,2.04482925977023
"CAN","cpi",0.3,1985,3,1984,NA,1,NA,NA,3.86444262005169,NA,NA,NA
"CAN","cpi",0.3,1985,3,1984,NA,1.5,3.20199886933321,4.03669353354729,3.86444262005169,8.62999660305356,TRUE,0.834694664214075
"CAN","cpi",0.3,1986,3,1986,NA,0,3.9011406416947,4.01718818563,4.08685396749431,4.03771389199993,FALSE,0.315092634976184
"CAN","cpi",0.3,1986,3,1986,NA,0.5,4.5522074405284,5.05471816266224,4.08685396749431,4.38219332503529,FALSE,1.83209207365981
"CAN","cpi",0.3,1986,3,1985,NA,1,2.56049713465904,3.91598454368944,4.08685396749431,3.37849976080849,FALSE,1.8436857627586
"CAN","cpi",0.3,1986,3,1985,NA,1.5,2.96024762833481,4.31573503736521,4.08685396749431,4.95309858900956,TRUE,1.35548740903039
"CAN","cpi",0.3,1987,3,1987,NA,0,NA,NA,4.23980729277887,NA,NA,NA
"CAN","cpi",0.3,1987,3,1987,NA,0.5,4.12824569865852,4.80005382754354,4.23980729277887,4.13342161080085,TRUE,0.671808128885017
"CAN","cpi",0.3,1987,3,1986,NA,1,2.8562020493795,4.22127930562714,4.23980729277887,3.66140988164798,FALSE,1.41801436239545
"CAN","cpi",0.3,1987,3,1986,NA,1.5,3.16434342176618,4.52942067801382,4.23980729277887,4.80242768143514,TRUE,1.36507725624763
"CAN","cpi",0.3,1988,3,1988,NA,0,3.81384893336282,3.92756323144222,3.92899537638065,3.9438316199536,FALSE,0.117806140760636
"CAN","cpi",0.3,1988,3,1988,NA,0.5,3.27667857829893,4.02974670188995,3.92899537638065,3.35419215340812,TRUE,0.753068123591021
"CAN","cpi",0.3,1988,3,1987,NA,1,NA,NA,3.92899537638065,NA,NA,NA
"CAN","cpi",0.3,1988,3,1987,NA,1.5,3.32684342782324,4.79622248618945,3.92899537638065,3.89461929526446,TRUE,1.46937905836621
"CAN","cpi",0.3,1989,3,1989,NA,0,4.84035881597624,4.93266918398441,4.82821664544208,4.95130318392835,FALSE,0.127002283820072
"CAN","cpi",0.3,1989,3,1989,NA,0.5,4.36749489006188,4.89483919948128,4.82821664544208,4.23024942747073,TRUE,0.527344309419398
"CAN","cpi",0.3,1989,3,1988,NA,1,3.03961123092516,4.29660175476056,4.82821664544208,4.05841794603162,FALSE,2.77589021149688
"CAN","cpi",0.3,1989,3,1988,NA,1.5,3.14079162019094,4.66458101669152,4.82821664544208,2.597843559383,FALSE,1.99131976435931
"CAN","cpi",0.3,1990,3,1990,NA,0,4.36699381555784,4.46506967331384,4.64347549432717,4.4746950192663,FALSE,0.607806774936943
"CAN","cpi",0.3,1990,3,1990,NA,0.5,4.94837738680375,5.49245487955356,4.64347549432717,4.96487168902479,FALSE,1.41522575696862
"CAN","cpi",0.3,1990,3,1989,NA,1,3.81405648919728,5.41879850162843,4.64347549432717,5.43871373969076,TRUE,1.60474201243115
"CAN","cpi",0.3,1990,3,1989,NA,1.5,3.85663870469547,5.51044458279559,4.64347549432717,3.3732540002381,TRUE,1.65380587810012
"CAN","cpi",0.3,1991,3,1991,NA,0,5.48872113353302,5.59950347134427,5.4258100696218,5.61053369942382,FALSE,0.290528234700472
"CAN","cpi",0.3,1991,3,1991,NA,0.5,7.13560725872351,8.26364067520353,5.4258100696218,7.82199295477594,FALSE,6.01316824248491
"CAN","cpi",0.3,1991,3,1990,NA,1,3.23198288523828,4.55668737624819,5.4258100696218,3.66716818384097,FALSE,3.80791218636308
"CAN","cpi",0.3,1991,3,1990,NA,1.5,3.84999626757083,5.17470075858074,5.4258100696218,4.82481948664164,FALSE,2.04215966541291
"CAN","cpi",0.3,1992,3,1992,NA,0,NA,NA,1.47496888572843,NA,NA,NA
"CAN","cpi",0.3,1992,3,1992,NA,0.5,NA,NA,1.47496888572843,NA,NA,NA
"CAN","cpi",0.3,1992,3,1991,NA,1,3.48177346593325,4.8360558713506,1.47496888572843,2.76780571233213,FALSE,7.08800977743112
"CAN","cpi",0.3,1992,3,1991,NA,1.5,4.3656602315054,5.71994263692274,1.47496888572843,7.14938182660169,FALSE,9.61340053620867
"CAN","cpi",0.3,1993,3,1993,NA,0,NA,NA,NA,NA,NA,NA
"CAN","cpi",0.3,1993,3,1993,NA,0.5,NA,NA,NA,NA,NA,NA
"CAN","cpi",0.3,1993,3,1992,NA,1,NA,NA,NA,NA,NA,NA
"CAN","cpi",0.3,1993,3,1992,NA,1.5,NA,NA,NA,NA,NA,NA
"CAN","cpi",0.3,1994,3,1994,NA,0,NA,NA,NA,NA,NA,NA
"CAN","cpi",0.3,1994,3,1994,NA,0.5,NA,NA,NA,NA,NA,NA
"CAN","cpi",0.3,1994,3,1993,NA,1,NA,NA,NA,NA,NA,NA
"CAN","cpi",0.3,1994,3,1993,NA,1.5,NA,NA,NA,NA,NA,NA
"CAN","cpi",0.3,1995,3,1995,NA,0,NA,NA,2.11688403676572,NA,NA,NA
"CAN","cpi",0.3,1995,3,1995,NA,0.5,NA,NA,2.11688403676572,2.51937811073084,NA,NA
"CAN","cpi",0.3,1995,3,1994,NA,1,NA,NA,2.11688403676572,0.719396410821945,NA,NA
"CAN","cpi",0.3,1995,3,1994,NA,1.5,NA,NA,2.11688403676572,-1.04654603924828,NA,NA
"CAN","cpi",0.3,1996,3,1996,NA,0,1.32102404637268,1.39058924384003,1.55309584667184,1.42780748357026,FALSE,0.533869776986814
"CAN","cpi",0.3,1996,3,1996,NA,0.5,NA,NA,1.55309584667184,NA,NA,NA
"CAN","cpi",0.3,1996,3,1995,NA,1,NA,NA,1.55309584667184,NA,NA,NA
"CAN","cpi",0.3,1996,3,1995,NA,1.5,2.10871714420279,2.66516805427203,1.55309584667184,2.92232271175447,FALSE,2.14394033158624
"CAN","cpi",0.3,1997,3,1997,NA,0,1.61883673200079,1.72142421792577,1.60528783555959,1.73535847807117,FALSE,0.141298618614127
"CAN","cpi",0.3,1997,3,1997,NA,0.5,2.51730014384455,2.89665596802236,1.60528783555959,2.11078363597796,FALSE,2.98510527642055
"CAN","cpi",0.3,1997,3,1996,NA,1,0.886829731490953,1.54041447528388,1.60528783555959,0.984961337307556,FALSE,0.838937201723527
"CAN","cpi",0.3,1997,3,1996,NA,1.5,NA,NA,1.60528783555959,NA,NA,NA
"CAN","cpi",0.3,1998,3,1998,NA,0,0.912976903170662,0.992391844705342,0.988908029337191,1.0350847138471,TRUE,0.0794149415346805
"CAN","cpi",0.3,1998,3,1998,NA,0.5,2.14328601991645,2.48616990701059,0.988908029337191,1.68533655437107,FALSE,3.64110671732059
"CAN","cpi",0.3,1998,3,1997,NA,1,1.6747897252284,2.07871632644798,0.988908029337191,2.25159584334757,FALSE,2.36358858948018
"CAN","cpi",0.3,1998,3,1997,NA,1.5,1.55695101657451,2.19819117499688,0.988908029337191,2.38987816876076,FALSE,2.26422012195757
"CAN","cpi",0.3,1999,3,1999,NA,0,1.65273378925443,1.72317936329445,1.7107350135213,1.77618438459462,TRUE,0.0704455740400243
"CAN","cpi",0.3,1999,3,1999,NA,0.5,1.63676641136548,1.88469958872497,1.7107350135213,1.0290924799153,TRUE,0.247933177359489
"CAN","cpi",0.3,1999,3,1998,NA,1,1.08477409479273,1.47724675669578,1.7107350135213,1.85177544064205,FALSE,1.05958196711881
"CAN","cpi",0.3,1999,3,1998,NA,1.5,1.0901526161818,1.48262527808485,1.7107350135213,2.94645730787123,FALSE,1.04421476315004
"CAN","cpi",0.3,2000,3,2000,NA,0,2.58526250395404,2.66538570224415,2.6718361971244,2.7102541785615,FALSE,0.0985531836622471
"CAN","cpi",0.3,2000,3,2000,NA,0.5,2.69233596736693,2.99175271809436,2.6718361971244,2.34405201403356,FALSE,0.35798752284894
"CAN","cpi",0.3,2000,3,1999,NA,1,1.98557556141081,2.43643504567203,2.6718361971244,3.07542936781209,FALSE,1.12343420269656
"CAN","cpi",0.3,2000,3,1999,NA,1.5,1.63128837541795,2.32905264791278,2.6718361971244,2.27809035801724,FALSE,1.67714584167089
"CAN","cpi",0.3,2001,3,2001,NA,0,2.67585598762067,2.74383727535902,2.47906219852806,2.77546584984351,FALSE,0.630249256574376
"CAN","cpi",0.3,2001,3,2001,NA,0.5,2.67652738516522,3.07738231029773,2.47906219852806,2.43566755503104,FALSE,0.965041172667248
"CAN","cpi",0.3,2001,3,2000,NA,1,2.51996309896636,3.46006285793194,2.47906219852806,3.68958695319843,FALSE,1.05695947450356
"CAN","cpi",0.3,2001,3,2000,NA,1.5,2.27318957772912,3.25662236468031,2.47906219852806,3.01270789712173,TRUE,0.983432786951193
"CAN","cpi",0.3,2002,3,2002,NA,0,2.16044416404638,2.23581920472429,2.20880570551249,2.27196234986351,TRUE,0.0753750406779083
"CAN","cpi",0.3,2002,3,2002,NA,0.5,1.95189958357093,2.30542810839394,2.20880570551249,1.58345411989126,TRUE,0.35352852482301
"CAN","cpi",0.3,2002,3,2001,NA,1,1.94373774485487,2.75163602293465,2.20880570551249,2.26510423845898,TRUE,0.807898278079782
"CAN","cpi",0.3,2002,3,2001,NA,1.5,2.14128389803009,3.03929792177173,2.20880570551249,3.02058043279009,TRUE,0.898014023741641
"CAN","cpi",0.3,2003,3,2003,NA,0,2.60989033624157,2.67404182110697,2.71189071546809,2.71326702620668,FALSE,0.172291183040024
"CAN","cpi",0.3,2003,3,2003,NA,0.5,4.47644260542752,4.92742100774459,2.71189071546809,4.51432649273496,FALSE,5.49255523077258
"CAN","cpi",0.3,2003,3,2002,NA,1,2.42026921408041,3.0527230950594,2.71189071546809,3.85618281746238,TRUE,0.632453880978994
"CAN","cpi",0.3,2003,3,2002,NA,1.5,2.04262488449381,2.84655778823125,2.71189071546809,2.39402389849184,TRUE,0.803932903737438
"CAN","cpi",0.3,2004,3,2004,NA,0,1.68619432715322,1.74385909786757,1.83151661303942,1.77466852383015,FALSE,0.308114814062509
"CAN","cpi",0.3,2004,3,2004,NA,0.5,1.90398622834148,2.30513224020511,1.83151661303942,1.55260435151936,FALSE,0.608202055583799
"CAN","cpi",0.3,2004,3,2003,NA,1,1.88342035975044,2.67618245184846,1.83151661303942,1.79415792598285,FALSE,0.941058511272364
"CAN","cpi",0.3,2004,3,2003,NA,1.5,2.31754056580443,3.11030265790244,1.83151661303942,4.26699272545716,FALSE,2.18140195714089
"CAN","cpi",0.3,2005,3,2005,NA,0,2.24043611719358,2.30661503194449,2.18071628336509,2.34345353472953,FALSE,0.236807011403732
"CAN","cpi",0.3,2005,3,2005,NA,0.5,1.91712448122953,2.21473755433317,2.18071628336509,1.50321338317329,TRUE,0.297613073103637
"CAN","cpi",0.3,2005,3,2004,NA,1,1.49512949950225,2.02537595601214,2.18071628336509,1.64043962712234,FALSE,0.974075963232604
"CAN","cpi",0.3,2005,3,2004,NA,1.5,1.71879664884157,2.44681933179087,2.18071628336509,2.03393284113233,TRUE,0.728022682949295
"CAN","cpi",0.3,2006,3,2006,NA,0,1.99813880205532,2.05837451332159,1.97519342012289,2.09514376892657,FALSE,0.125793945358934
"CAN","cpi",0.3,2006,3,2006,NA,0.5,2.38825042444582,2.74748635256743,1.97519342012289,2.09436263599022,FALSE,1.53939879761571
"CAN","cpi",0.3,2006,3,2005,NA,1,2.09383174518687,2.72332330276092,1.97519342012289,2.9582912060806,FALSE,0.968458200613996
"CAN","cpi",0.3,2006,3,2005,NA,1.5,2.04370956041498,2.85372806323655,1.97519342012289,1.64885961980806,FALSE,1.00577890365613
"CAN","cpi",0.3,2007,3,2007,NA,0,1.99125680059874,2.06780349549367,2.10062087284572,2.10683622102307,FALSE,0.170310630186515
"CAN","cpi",0.3,2007,3,2007,NA,0.5,2.47497567624044,2.79974483327701,2.10062087284572,2.17629902083353,FALSE,1.3943543095929
"CAN","cpi",0.3,2007,3,2006,NA,1,1.49389685469655,2.07994854243184,2.10062087284572,1.50861692709856,FALSE,0.645115488917807
"CAN","cpi",0.3,2007,3,2006,NA,1.5,1.82408436851601,2.5003293979293,2.10062087284572,2.15918616350405,TRUE,0.67624502941329
"CAN","cpi",0.3,2008,3,2008,NA,0,2.74859967760213,2.83634349790105,2.31447335265955,2.87079455148828,FALSE,1.32810474870629
"CAN","cpi",0.3,2008,3,2008,NA,0.5,1.71154817034055,2.04925504938945,2.31447335265955,1.31005314695267,FALSE,1.09547345982063
"CAN","cpi",0.3,2008,3,2007,NA,1,1.54217809445527,2.17534685849677,2.31447335265955,1.47031049982668,FALSE,1.03067303307803
"CAN","cpi",0.3,2008,3,2007,NA,1.5,1.90324488422297,2.5889953296796,2.31447335265955,2.46453195342394,TRUE,0.685750445456633
"CAN","cpi",0.3,2009,3,2009,NA,0,0.088796543918183,0.152545645338847,0.284533874408197,0.187122346349721,FALSE,0.440858327333092
"CAN","cpi",0.3,2009,3,2009,NA,0.5,0.531005579256706,0.880649185058846,0.284533874408197,-0.0727492620466167,FALSE,1.05384847679788
"CAN","cpi",0.3,2009,3,2008,NA,1,2.45070592502236,3.13386525972997,0.284533874408197,3.81780026356951,FALSE,6.87222233646236
"CAN","cpi",0.3,2009,3,2008,NA,1.5,2.13330472464304,2.84231307416101,0.284533874408197,1.68675152630419,FALSE,5.99121077876038
"CAN","cpi",0.3,2010,3,2010,NA,0,1.49330216772247,1.54239336173516,1.75525687020327,1.6089956646354,FALSE,0.657272646778728
"CAN","cpi",0.3,2010,3,2010,NA,0.5,2.39737775756102,2.44646895157371,1.75525687020327,1.91109502526183,FALSE,1.88372230074911
"CAN","cpi",0.3,2010,3,2009,NA,1,0.74487189553081,0.7939630895435,1.75525687020327,0.992295788494754,FALSE,2.79564485304061
"CAN","cpi",0.3,2010,3,2009,NA,1.5,0.693222962717197,0.742314156729887,1.75525687020327,0.885103052815867,FALSE,2.94321323250808
"CAN","cpi",0.3,2011,3,2011,NA,0,2.74052516756738,2.85546538906749,2.85717434028225,2.86665414062098,FALSE,0.119822939256556
"CAN","cpi",0.3,2011,3,2011,NA,0.5,2.94413189591219,3.28432618426171,2.85717434028225,2.76583381894771,FALSE,0.588644447292218
"CAN","cpi",0.3,2011,3,2010,NA,1,1.40483362372697,1.96080596228295,2.85717434028225,1.39294644169719,FALSE,3.11702484712539
"CAN","cpi",0.3,2011,3,2010,NA,1.5,1.75563930725318,2.35985352457034,2.85717434028225,1.64253060592363,FALSE,2.02513083363689
"CAN","cpi",0.3,2012,3,2012,NA,0,1.4437901369392,1.53128763273884,1.50118536134935,1.52822510849394,TRUE,0.0874974957996351
"CAN","cpi",0.3,2012,3,2012,NA,0.5,2.13634304899747,2.62838795999105,1.50118536134935,1.92429021972789,FALSE,2.30678116141679
"CAN","cpi",0.3,2012,3,2011,NA,1,1.99913087756053,2.96392538701076,1.50118536134935,1.99945242447079,FALSE,2.38749598433932
"CAN","cpi",0.3,2012,3,2011,NA,1.5,2.46688336088317,3.4316778703334,1.50118536134935,2.48150957397962,FALSE,3.72393165097543
"CAN","cpi",0.3,2013,3,2013,NA,0,0.963952103124783,1.05066646543795,0.931270594714462,1.05630513423211,FALSE,0.180090100628369
"CAN","cpi",0.3,2013,3,2013,NA,0.5,1.55440623515823,1.89197275265034,0.931270594714462,1.16963454554932,FALSE,2.11795406161716
"CAN","cpi",0.3,2013,3,2012,NA,1,1.21633157275702,1.73285114289178,0.931270594714462,1.08868089128742,FALSE,1.33097950739922
"CAN","cpi",0.3,2013,3,2012,NA,1.5,1.5007785082976,2.08756402572029,0.931270594714462,2.14573179530527,FALSE,2.21395098480308
"CAN","cpi",0.3,2014,3,2014,NA,0,1.87216716891026,1.97894116883987,1.87639912240215,1.99862849145116,TRUE,0.106773999929603
"CAN","cpi",0.3,2014,3,2014,NA,0.5,2.06118431225758,2.34836155985563,1.87639912240215,1.79231976082687,FALSE,0.815134932899282
"CAN","cpi",0.3,2014,3,2013,NA,1,1.11247240820249,1.39964965580053,1.87639912240215,1.40664989819898,FALSE,1.64931858074553
"CAN","cpi",0.3,2014,3,2013,NA,1.5,1.12508294950796,1.61182853348395,1.87639912240215,1.51436121777893,FALSE,1.2426615523137
"CAN","cpi",0.3,2015,3,2015,NA,0,1.10689598069828,1.17489392977735,1.11090953952792,1.2103065042478,TRUE,0.0679979490790643
"CAN","cpi",0.3,2015,3,2015,NA,0.5,0.826018606993008,1.29234386542508,1.11090953952792,0.458547315718059,TRUE,0.466325258432072
