isdrw/probabilistic-benchmark-forecasts/data/processed/point predictions/archive/point_predictions_arima1_0_0_2025-12-04_17-32-40.csv
"country","forecast_year","target_year","target_quarter","horizon","target","prediction","truth_value"
"CAN",1957,1957,2,0.25,"tv_cpi",NA,0.909128943201409
"CAN",1957,1957,3,0.5,"tv_cpi",NA,1.12484646221676
"CAN",1957,1957,4,0.75,"tv_cpi",NA,0.446402637773557
"CAN",1957,1958,1,1,"tv_cpi",NA,0.444502928237078
"CAN",1957,1957,3,0.25,"tv_cpi",NA,1.12484646221676
"CAN",1957,1957,4,0.5,"tv_cpi",NA,0.446402637773557
"CAN",1957,1958,1,0.75,"tv_cpi",NA,0.444502928237078
"CAN",1957,1958,2,1,"tv_cpi",NA,0.442452021284723
"CAN",1957,1957,4,0.25,"tv_cpi",NA,0.446402637773557
"CAN",1957,1958,1,0.5,"tv_cpi",NA,0.444502928237078
"CAN",1957,1958,2,0.75,"tv_cpi",NA,0.442452021284723
"CAN",1957,1958,3,1,"tv_cpi",NA,0.440503003675596
"CAN",1957,1958,1,0.25,"tv_cpi",NA,0.444502928237078
"CAN",1957,1958,2,0.5,"tv_cpi",NA,0.442452021284723
"CAN",1957,1958,3,0.75,"tv_cpi",NA,0.440503003675596
"CAN",1957,1958,4,1,"tv_cpi",NA,0.875309836767935
"CAN",1958,1958,2,0.25,"tv_cpi",NA,0.442452021284723
"CAN",1958,1958,3,0.5,"tv_cpi",NA,0.440503003675596
"CAN",1958,1958,4,0.75,"tv_cpi",NA,0.875309836767935
"CAN",1958,1959,1,1,"tv_cpi",NA,-0.218130951759887
"CAN",1958,1958,3,0.25,"tv_cpi",NA,0.440503003675596
"CAN",1958,1958,4,0.5,"tv_cpi",NA,0.875309836767935
"CAN",1958,1959,1,0.75,"tv_cpi",NA,-0.218130951759887
"CAN",1958,1959,2,1,"tv_cpi",NA,-0.437611279785477
"CAN",1958,1958,4,0.25,"tv_cpi",NA,0.875309836767935
"CAN",1958,1959,1,0.5,"tv_cpi",NA,-0.218130951759887
"CAN",1958,1959,2,0.75,"tv_cpi",NA,-0.437611279785477
"CAN",1958,1959,3,1,"tv_cpi",NA,1.09049950588749
"CAN",1958,1959,1,0.25,"tv_cpi",NA,-0.218130951759887
"CAN",1958,1959,2,0.5,"tv_cpi",NA,-0.437611279785477
"CAN",1958,1959,3,0.75,"tv_cpi",NA,1.09049950588749
"CAN",1958,1959,4,1,"tv_cpi",NA,0.863966547929484
"CAN",1959,1959,2,0.25,"tv_cpi",NA,-0.437611279785477
"CAN",1959,1959,3,0.5,"tv_cpi",NA,1.09049950588749
"CAN",1959,1959,4,0.75,"tv_cpi",NA,0.863966547929484
"CAN",1959,1960,1,1,"tv_cpi",NA,-0.215313317344057
"CAN",1959,1959,3,0.25,"tv_cpi",NA,1.09049950588749
"CAN",1959,1959,4,0.5,"tv_cpi",NA,0.863966547929484
"CAN",1959,1960,1,0.75,"tv_cpi",NA,-0.215313317344057
"CAN",1959,1960,2,1,"tv_cpi",NA,0.215313317344057
"CAN",1959,1959,4,0.25,"tv_cpi",NA,0.863966547929484
"CAN",1959,1960,1,0.5,"tv_cpi",NA,-0.215313317344057
"CAN",1959,1960,2,0.75,"tv_cpi",NA,0.215313317344057
"CAN",1959,1960,3,1,"tv_cpi",NA,0
"CAN",1959,1960,1,0.25,"tv_cpi",NA,-0.215313317344057
"CAN",1959,1960,2,0.5,"tv_cpi",NA,0.215313317344057
"CAN",1959,1960,3,0.75,"tv_cpi",NA,0
"CAN",1959,1960,4,1,"tv_cpi",NA,1.28207300371712
"CAN",1960,1960,2,0.25,"tv_cpi",NA,0.215313317344057
"CAN",1960,1960,3,0.5,"tv_cpi",NA,0
"CAN",1960,1960,4,0.75,"tv_cpi",NA,1.28207300371712
"CAN",1960,1961,1,1,"tv_cpi",NA,0
"CAN",1960,1960,3,0.25,"tv_cpi",NA,0
"CAN",1960,1960,4,0.5,"tv_cpi",NA,1.28207300371712
"CAN",1960,1961,1,0.75,"tv_cpi",NA,0
"CAN",1960,1961,2,1,"tv_cpi",NA,0
"CAN",1960,1960,4,0.25,"tv_cpi",NA,1.28207300371712
"CAN",1960,1961,1,0.5,"tv_cpi",NA,0
"CAN",1960,1961,2,0.75,"tv_cpi",NA,0
"CAN",1960,1961,3,1,"tv_cpi",NA,0
"CAN",1960,1961,1,0.25,"tv_cpi",NA,0
"CAN",1960,1961,2,0.5,"tv_cpi",NA,0
"CAN",1960,1961,3,0.75,"tv_cpi",NA,0
"CAN",1960,1961,4,1,"tv_cpi",NA,0
"CAN",1961,1961,2,0.25,"tv_cpi",NA,0
"CAN",1961,1961,3,0.5,"tv_cpi",NA,0
"CAN",1961,1961,4,0.75,"tv_cpi",NA,0
"CAN",1961,1962,1,1,"tv_cpi",NA,0
"CAN",1961,1961,3,0.25,"tv_cpi",NA,0
"CAN",1961,1961,4,0.5,"tv_cpi",NA,0
"CAN",1961,1962,1,0.75,"tv_cpi",NA,0
"CAN",1961,1962,2,1,"tv_cpi",NA,0.845700362908408
"CAN",1961,1961,4,0.25,"tv_cpi",NA,0
"CAN",1961,1962,1,0.5,"tv_cpi",NA,0
"CAN",1961,1962,2,0.75,"tv_cpi",NA,0.845700362908408
"CAN",1961,1962,3,1,"tv_cpi",NA,0.629594685231627
"CAN",1961,1962,1,0.25,"tv_cpi",NA,0
"CAN",1961,1962,2,0.5,"tv_cpi",NA,0.845700362908408
"CAN",1961,1962,3,0.75,"tv_cpi",NA,0.629594685231627
"CAN",1961,1962,4,1,"tv_cpi",NA,0.417511986589947
"CAN",1962,1962,2,0.25,"tv_cpi",NA,0.845700362908408
"CAN",1962,1962,3,0.5,"tv_cpi",NA,0.629594685231627
"CAN",1962,1962,4,0.75,"tv_cpi",NA,0.417511986589947
"CAN",1962,1963,1,1,"tv_cpi",NA,0
"CAN",1962,1962,3,0.25,"tv_cpi",NA,0.629594685231627
"CAN",1962,1962,4,0.5,"tv_cpi",NA,0.417511986589947
"CAN",1962,1963,1,0.75,"tv_cpi",NA,0
"CAN",1962,1963,2,1,"tv_cpi",NA,0
"CAN",1962,1962,4,0.25,"tv_cpi",NA,0.417511986589947
"CAN",1962,1963,1,0.5,"tv_cpi",NA,0
"CAN",1962,1963,2,0.75,"tv_cpi",NA,0
"CAN",1962,1963,3,1,"tv_cpi",NA,1.44783245519062
"CAN",1962,1963,1,0.25,"tv_cpi",NA,0
"CAN",1962,1963,2,0.5,"tv_cpi",NA,0
"CAN",1962,1963,3,0.75,"tv_cpi",NA,1.44783245519062
"CAN",1962,1963,4,1,"tv_cpi",NA,0.205076991295838
"CAN",1963,1963,2,0.25,"tv_cpi",NA,0
"CAN",1963,1963,3,0.5,"tv_cpi",NA,1.44783245519062
"CAN",1963,1963,4,0.75,"tv_cpi",NA,0.205076991295838
"CAN",1963,1964,1,1,"tv_cpi",NA,0.204734934426165
"CAN",1963,1963,3,0.25,"tv_cpi",NA,1.44783245519062
"CAN",1963,1963,4,0.5,"tv_cpi",NA,0.205076991295838
"CAN",1963,1964,1,0.75,"tv_cpi",NA,0.204734934426165
"CAN",1963,1964,2,1,"tv_cpi",NA,0.611624595603377
"CAN",1963,1963,4,0.25,"tv_cpi",NA,0.205076991295838
"CAN",1963,1964,1,0.5,"tv_cpi",NA,0.204734934426165
"CAN",1963,1964,2,0.75,"tv_cpi",NA,0.611624595603377
"CAN",1963,1964,3,1,"tv_cpi",NA,0.607906478542075
"CAN",1963,1964,1,0.25,"tv_cpi",NA,0.204734934426165
"CAN",1963,1964,2,0.5,"tv_cpi",NA,0.611624595603377
"CAN",1963,1964,3,0.75,"tv_cpi",NA,0.607906478542075
"CAN",1963,1964,4,1,"tv_cpi",NA,0.20176599927848
"CAN",1964,1964,2,0.25,"tv_cpi",NA,0.611624595603377
"CAN",1964,1964,3,0.5,"tv_cpi",NA,0.607906478542075
"CAN",1964,1964,4,0.75,"tv_cpi",NA,0.20176599927848
"CAN",1964,1965,1,1,"tv_cpi",NA,0.402467294680608
"CAN",1964,1964,3,0.25,"tv_cpi",NA,0.607906478542075
"CAN",1964,1964,4,0.5,"tv_cpi",NA,0.20176599927848
"CAN",1964,1965,1,0.75,"tv_cpi",NA,0.402467294680608
"CAN",1964,1965,2,1,"tv_cpi",NA,0.998987176760613
"CAN",1964,1964,4,0.25,"tv_cpi",NA,0.20176599927848
"CAN",1964,1965,1,0.5,"tv_cpi",NA,0.402467294680608
"CAN",1964,1965,2,0.75,"tv_cpi",NA,0.998987176760613
"CAN",1964,1965,3,1,"tv_cpi",NA,0.792110893736009
"CAN",1964,1965,1,0.25,"tv_cpi",NA,0.402467294680608
"CAN",1964,1965,2,0.5,"tv_cpi",NA,0.998987176760613
"CAN",1964,1965,3,0.75,"tv_cpi",NA,0.792110893736009
"CAN",1964,1965,4,1,"tv_cpi",NA,0.589973974871771
"CAN",1965,1965,2,0.25,"tv_cpi",NA,0.998987176760613
"CAN",1965,1965,3,0.5,"tv_cpi",NA,0.792110893736009
"CAN",1965,1965,4,0.75,"tv_cpi",NA,0.589973974871771
"CAN",1965,1966,1,1,"tv_cpi",NA,1.16960743915446
"CAN",1965,1965,3,0.25,"tv_cpi",NA,0.792110893736009
"CAN",1965,1965,4,0.5,"tv_cpi",NA,0.589973974871771
"CAN",1965,1966,1,0.75,"tv_cpi",NA,1.16960743915446
"CAN",1965,1966,2,1,"tv_cpi",NA,1.34742539763972
"CAN",1965,1965,4,0.25,"tv_cpi",NA,0.589973974871771
"CAN",1965,1966,1,0.5,"tv_cpi",NA,1.16960743915446
"CAN",1965,1966,2,0.75,"tv_cpi",NA,1.34742539763972
"CAN",1965,1966,3,1,"tv_cpi",NA,0.761935035640349
"CAN",1965,1966,1,0.25,"tv_cpi",NA,1.16960743915446
"CAN",1965,1966,2,0.5,"tv_cpi",NA,1.34742539763972
"CAN",1965,1966,3,0.75,"tv_cpi",NA,0.761935035640349
"CAN",1965,1966,4,1,"tv_cpi",NA,0.378765586440188
"CAN",1966,1966,2,0.25,"tv_cpi",NA,1.34742539763972
"CAN",1966,1966,3,0.5,"tv_cpi",NA,0.761935035640349
"CAN",1966,1966,4,0.75,"tv_cpi",NA,0.378765586440188
"CAN",1966,1967,1,1,"tv_cpi",NA,0.56550763720149
"CAN",1966,1966,3,0.25,"tv_cpi",NA,0.761935035640349
"CAN",1966,1966,4,0.5,"tv_cpi",NA,0.378765586440188
"CAN",1966,1967,1,0.75,"tv_cpi",NA,0.56550763720149
"CAN",1966,1967,2,1,"tv_cpi",NA,1.4925465177654
"CAN",1966,1966,4,0.25,"tv_cpi",NA,0.378765586440188
"CAN",1966,1967,1,0.5,"tv_cpi",NA,0.56550763720149
"CAN",1966,1967,2,0.75,"tv_cpi",NA,1.4925465177654
"CAN",1966,1967,3,1,"tv_cpi",NA,1.4706660636532
"CAN",1966,1967,1,0.25,"tv_cpi",NA,0.56550763720149
"CAN",1966,1967,2,0.5,"tv_cpi",NA,1.4925465177654
"CAN",1966,1967,3,0.75,"tv_cpi",NA,1.4706660636532
"CAN",1966,1967,4,1,"tv_cpi",NA,0.364277207547525
"CAN",1967,1967,2,0.25,"tv_cpi",NA,1.4925465177654
"CAN",1967,1967,3,0.5,"tv_cpi",NA,1.4706660636532
"CAN",1967,1967,4,0.75,"tv_cpi",NA,0.364277207547525
"CAN",1967,1968,1,1,"tv_cpi",NA,1.08500507905789
"CAN",1967,1967,3,0.25,"tv_cpi",NA,1.4706660636532
"CAN",1967,1967,4,0.5,"tv_cpi",NA,0.364277207547525
"CAN",1967,1968,1,0.75,"tv_cpi",NA,1.08500507905789
"CAN",1967,1968,2,1,"tv_cpi",NA,0.538119600789955
"CAN",1967,1967,4,0.25,"tv_cpi",NA,0.364277207547525
"CAN",1967,1968,1,0.5,"tv_cpi",NA,1.08500507905789
"CAN",1967,1968,2,0.75,"tv_cpi",NA,0.538119600789955
"CAN",1967,1968,3,1,"tv_cpi",NA,1.77305718058687
"CAN",1967,1968,1,0.25,"tv_cpi",NA,1.08500507905789
"CAN",1967,1968,2,0.5,"tv_cpi",NA,0.538119600789955
"CAN",1967,1968,3,0.75,"tv_cpi",NA,1.77305718058687
"CAN",1967,1968,4,1,"tv_cpi",NA,0.874943419379193
"CAN",1968,1968,2,0.25,"tv_cpi",NA,0.538119600789955
"CAN",1968,1968,3,0.5,"tv_cpi",NA,1.77305718058687
"CAN",1968,1968,4,0.75,"tv_cpi",NA,0.874943419379193
"CAN",1968,1969,1,1,"tv_cpi",NA,0.521288623874838
"CAN",1968,1968,3,0.25,"tv_cpi",NA,1.77305718058687
"CAN",1968,1968,4,0.5,"tv_cpi",NA,0.874943419379193
"CAN",1968,1969,1,0.75,"tv_cpi",NA,0.521288623874838
"CAN",1968,1969,2,1,"tv_cpi",NA,2.0583979709349
"CAN",1968,1968,4,0.25,"tv_cpi",NA,0.874943419379193
"CAN",1968,1969,1,0.5,"tv_cpi",NA,0.521288623874838
"CAN",1968,1969,2,0.75,"tv_cpi",NA,2.0583979709349
"CAN",1968,1969,3,1,"tv_cpi",NA,1.18140940266898
"CAN",1968,1969,1,0.25,"tv_cpi",NA,0.521288623874838
"CAN",1968,1969,2,0.5,"tv_cpi",NA,2.0583979709349
"CAN",1968,1969,3,0.75,"tv_cpi",NA,1.18140940266898
"CAN",1968,1969,4,1,"tv_cpi",NA,0.502094806727849
"CAN",1969,1969,2,0.25,"tv_cpi",NA,2.0583979709349
"CAN",1969,1969,3,0.5,"tv_cpi",NA,1.18140940266898
"CAN",1969,1969,4,0.75,"tv_cpi",NA,0.502094806727849
"CAN",1969,1970,1,1,"tv_cpi",NA,1.16186358612742
"CAN",1969,1969,3,0.25,"tv_cpi",NA,1.18140940266898
"CAN",1969,1969,4,0.5,"tv_cpi",NA,0.502094806727849
"CAN",1969,1970,1,0.75,"tv_cpi",NA,1.16186358612742
"CAN",1969,1970,2,1,"tv_cpi",NA,0.493829707328164
"CAN",1969,1969,4,0.25,"tv_cpi",NA,0.502094806727849
"CAN",1969,1970,1,0.5,"tv_cpi",NA,1.16186358612742
"CAN",1969,1970,2,0.75,"tv_cpi",NA,0.493829707328164
"CAN",1969,1970,3,1,"tv_cpi",NA,0.817647968865298
"CAN",1969,1970,1,0.25,"tv_cpi",NA,1.16186358612742
"CAN",1969,1970,2,0.5,"tv_cpi",NA,0.493829707328164
"CAN",1969,1970,3,0.75,"tv_cpi",NA,0.817647968865298
"CAN",1969,1970,4,1,"tv_cpi",NA,-0.489798516943107
"CAN",1970,1970,2,0.25,"tv_cpi",NA,0.493829707328164
"CAN",1970,1970,3,0.5,"tv_cpi",NA,0.817647968865298
"CAN",1970,1970,4,0.75,"tv_cpi",NA,-0.489798516943107
"CAN",1970,1971,1,1,"tv_cpi",NA,0.489798516943107
"CAN",1970,1970,3,0.25,"tv_cpi",NA,0.817647968865298
"CAN",1970,1970,4,0.5,"tv_cpi",NA,-0.489798516943107
"CAN",1970,1971,1,0.75,"tv_cpi",NA,0.489798516943107
"CAN",1970,1971,2,1,"tv_cpi",NA,1.29450035286163
"CAN",1970,1970,4,0.25,"tv_cpi",NA,-0.489798516943107
"CAN",1970,1971,1,0.5,"tv_cpi",NA,0.489798516943107
"CAN",1970,1971,2,0.75,"tv_cpi",NA,1.29450035286163
"CAN",1970,1971,3,1,"tv_cpi",NA,1.75307894124619
"CAN",1970,1971,1,0.25,"tv_cpi",NA,0.489798516943107
"CAN",1970,1971,2,0.5,"tv_cpi",NA,1.29450035286163
"CAN",1970,1971,3,0.75,"tv_cpi",NA,1.75307894124619
"CAN",1970,1971,4,1,"tv_cpi",NA,0.629885487777981
"CAN",1971,1971,2,0.25,"tv_cpi",NA,1.29450035286163
"CAN",1971,1971,3,0.5,"tv_cpi",NA,1.75307894124619
"CAN",1971,1971,4,0.75,"tv_cpi",NA,0.629885487777981
"CAN",1971,1972,1,1,"tv_cpi",NA,1.24805068908862
"CAN",1971,1971,3,0.25,"tv_cpi",NA,1.75307894124619
"CAN",1971,1971,4,0.5,"tv_cpi",NA,0.629885487777981
"CAN",1971,1972,1,0.75,"tv_cpi",NA,1.24805068908862
"CAN",1971,1972,2,1,"tv_cpi",NA,0.925935796665911
"CAN",1971,1971,4,0.25,"tv_cpi",NA,0.629885487777981
"CAN",1971,1972,1,0.5,"tv_cpi",NA,1.24805068908862
"CAN",1971,1972,2,0.75,"tv_cpi",NA,0.925935796665911
"CAN",1971,1972,3,1,"tv_cpi",NA,2.12778527734403
"CAN",1971,1972,1,0.25,"tv_cpi",NA,1.24805068908862
"CAN",1971,1972,2,0.5,"tv_cpi",NA,0.925935796665911
"CAN",1971,1972,3,0.75,"tv_cpi",NA,2.12778527734403
"CAN",1971,1972,4,1,"tv_cpi",NA,0.749050554917297
"CAN",1972,1972,2,0.25,"tv_cpi",NA,0.925935796665911
"CAN",1972,1972,3,0.5,"tv_cpi",NA,2.12778527734403
"CAN",1972,1972,4,0.75,"tv_cpi",NA,0.749050554917297
"CAN",1972,1973,1,1,"tv_cpi",NA,1.77520019638968
"CAN",1972,1972,3,0.25,"tv_cpi",NA,2.12778527734403
"CAN",1972,1972,4,0.5,"tv_cpi",NA,0.749050554917297
"CAN",1972,1973,1,0.75,"tv_cpi",NA,1.77520019638968
"CAN",1972,1973,2,1,"tv_cpi",NA,2.17558208127699
"CAN",1972,1972,4,0.25,"tv_cpi",NA,0.749050554917297
"CAN",1972,1973,1,0.5,"tv_cpi",NA,1.77520019638968
"CAN",1972,1973,2,0.75,"tv_cpi",NA,2.17558208127699
"CAN",1972,1973,3,1,"tv_cpi",NA,2.96842485757458
"CAN",1972,1973,1,0.25,"tv_cpi",NA,1.77520019638968
"CAN",1972,1973,2,0.5,"tv_cpi",NA,2.17558208127699
"CAN",1972,1973,3,0.75,"tv_cpi",NA,2.96842485757458
"CAN",1972,1973,4,1,"tv_cpi",NA,1.79435977109055
"CAN",1973,1973,2,0.25,"tv_cpi",NA,2.17558208127699
"CAN",1973,1973,3,0.5,"tv_cpi",NA,2.96842485757458
"CAN",1973,1973,4,0.75,"tv_cpi",NA,1.79435977109055
"CAN",1973,1974,1,1,"tv_cpi",NA,2.29894237836987
"CAN",1973,1973,3,0.25,"tv_cpi",NA,2.96842485757458
"CAN",1973,1973,4,0.5,"tv_cpi",NA,1.79435977109055
"CAN",1973,1974,1,0.75,"tv_cpi",NA,2.29894237836987
"CAN",1973,1974,2,1,"tv_cpi",NA,3.41688457713851
"CAN",1973,1973,4,0.25,"tv_cpi",NA,1.79435977109055
"CAN",1973,1974,1,0.5,"tv_cpi",NA,2.29894237836987
"CAN",1973,1974,2,0.75,"tv_cpi",NA,3.41688457713851
"CAN",1973,1974,3,1,"tv_cpi",NA,2.92832219067054
"CAN",1973,1974,1,0.25,"tv_cpi",NA,2.29894237836987
"CAN",1973,1974,2,0.5,"tv_cpi",NA,3.41688457713851
"CAN",1973,1974,3,0.75,"tv_cpi",NA,2.92832219067054
"CAN",1973,1974,4,1,"tv_cpi",NA,2.84495917493341
"CAN",1974,1974,2,0.25,"tv_cpi",NA,3.41688457713851
"CAN",1974,1974,3,0.5,"tv_cpi",NA,2.92832219067054
"CAN",1974,1974,4,0.75,"tv_cpi",NA,2.84495917493341
"CAN",1974,1975,1,1,"tv_cpi",NA,1.81269853169406
"CAN",1974,1974,3,0.25,"tv_cpi",NA,2.92832219067054
"CAN",1974,1974,4,0.5,"tv_cpi",NA,2.84495917493341
"CAN",1974,1975,1,0.75,"tv_cpi",NA,1.81269853169406
"CAN",1974,1975,2,1,"tv_cpi",NA,2.3670121698423
"CAN",1974,1974,4,0.25,"tv_cpi",NA,2.84495917493341
"CAN",1974,1975,1,0.5,"tv_cpi",NA,1.81269853169406
"CAN",1974,1975,2,0.75,"tv_cpi",NA,2.3670121698423
"CAN",1974,1975,3,1,"tv_cpi",NA,3.22235435686844
"CAN",1974,1975,1,0.25,"tv_cpi",NA,1.81269853169406
"CAN",1974,1975,2,0.5,"tv_cpi",NA,2.3670121698423
"CAN",1974,1975,3,0.75,"tv_cpi",NA,3.22235435686844
"CAN",1974,1975,4,1,"tv_cpi",NA,2.01801228662699
"CAN",1975,1975,2,0.25,"tv_cpi",NA,2.3670121698423
"CAN",1975,1975,3,0.5,"tv_cpi",NA,3.22235435686844
"CAN",1975,1975,4,0.75,"tv_cpi",NA,2.01801228662699
"CAN",1975,1976,1,1,"tv_cpi",NA,1.43254982749603
"CAN",1975,1975,3,0.25,"tv_cpi",NA,3.22235435686844
"CAN",1975,1975,4,0.5,"tv_cpi",NA,2.01801228662699
"CAN",1975,1976,1,0.75,"tv_cpi",NA,1.43254982749603
"CAN",1975,1976,2,1,"tv_cpi",NA,1.41227637672539
"CAN",1975,1975,4,0.25,"tv_cpi",NA,2.01801228662699
"CAN",1975,1976,1,0.5,"tv_cpi",NA,1.43254982749603
"CAN",1975,1976,2,0.75,"tv_cpi",NA,1.41227637672539
"CAN",1975,1976,3,1,"tv_cpi",NA,1.49894882688582
"CAN",1975,1976,1,0.25,"tv_cpi",NA,1.43254982749603
"CAN",1975,1976,2,0.5,"tv_cpi",NA,1.41227637672539
"CAN",1975,1976,3,0.75,"tv_cpi",NA,1.49894882688582
"CAN",1975,1976,4,1,"tv_cpi",NA,1.3720710353391
"CAN",1976,1976,2,0.25,"tv_cpi",NA,1.41227637672539
"CAN",1976,1976,3,0.5,"tv_cpi",NA,1.49894882688582
"CAN",1976,1976,4,0.75,"tv_cpi",NA,1.3720710353391
"CAN",1976,1977,1,1,"tv_cpi",NA,2.07475676302611
"CAN",1976,1976,3,0.25,"tv_cpi",NA,1.49894882688582
"CAN",1976,1976,4,0.5,"tv_cpi",NA,1.3720710353391
"CAN",1976,1977,1,0.75,"tv_cpi",NA,2.07475676302611
"CAN",1976,1977,2,1,"tv_cpi",NA,2.5343682996434
"CAN",1976,1976,4,0.25,"tv_cpi",NA,1.3720710353391
"CAN",1976,1977,1,0.5,"tv_cpi",NA,2.07475676302611
"CAN",1976,1977,2,0.75,"tv_cpi",NA,2.5343682996434
"CAN",1976,1977,3,1,"tv_cpi",NA,2.0802817976298
"CAN",1976,1977,1,0.25,"tv_cpi",NA,2.07475676302611
"CAN",1976,1977,2,0.5,"tv_cpi",NA,2.5343682996434
"CAN",1976,1977,3,0.75,"tv_cpi",NA,2.0802817976298
"CAN",1976,1977,4,1,"tv_cpi",NA,2.03792299218417
"CAN",1977,1977,2,0.25,"tv_cpi",NA,2.5343682996434
"CAN",1977,1977,3,0.5,"tv_cpi",NA,2.0802817976298
"CAN",1977,1977,4,0.75,"tv_cpi",NA,2.03792299218417
"CAN",1977,1978,1,1,"tv_cpi",NA,1.99721980992398
"CAN",1977,1977,3,0.25,"tv_cpi",NA,2.0802817976298
"CAN",1977,1977,4,0.5,"tv_cpi",NA,2.03792299218417
"CAN",1977,1978,1,0.75,"tv_cpi",NA,1.99721980992398
"CAN",1977,1978,2,1,"tv_cpi",NA,2.3267526452325
"CAN",1977,1977,4,0.25,"tv_cpi",NA,2.03792299218417
"CAN",1977,1978,1,0.5,"tv_cpi",NA,1.99721980992398
"CAN",1977,1978,2,0.75,"tv_cpi",NA,2.3267526452325
"CAN",1977,1978,3,1,"tv_cpi",NA,2.45356152061698
"CAN",1977,1978,1,0.25,"tv_cpi",NA,1.99721980992398
"CAN",1977,1978,2,0.5,"tv_cpi",NA,2.3267526452325
"CAN",1977,1978,3,0.75,"tv_cpi",NA,2.45356152061698
"CAN",1977,1978,4,1,"tv_cpi",NA,1.69120075030964
"CAN",1978,1978,2,0.25,"tv_cpi",NA,2.3267526452325
"CAN",1978,1978,3,0.5,"tv_cpi",NA,2.45356152061698
"CAN",1978,1978,4,0.75,"tv_cpi",NA,1.69120075030964
"CAN",1978,1979,1,1,"tv_cpi",NA,2.09612028715123
"CAN",1978,1978,3,0.25,"tv_cpi",NA,2.45356152061698
"CAN",1978,1978,4,0.5,"tv_cpi",NA,1.69120075030964
"CAN",1978,1979,1,0.75,"tv_cpi",NA,2.09612028715123
"CAN",1978,1979,2,1,"tv_cpi",NA,2.72824736605242
"CAN",1978,1978,4,0.25,"tv_cpi",NA,1.69120075030964
"CAN",1978,1979,1,0.5,"tv_cpi",NA,2.09612028715123
"CAN",1978,1979,2,0.75,"tv_cpi",NA,2.72824736605242
"CAN",1978,1979,3,1,"tv_cpi",NA,1.91592240920695
"CAN",1978,1979,1,0.25,"tv_cpi",NA,2.09612028715123
"CAN",1978,1979,2,0.5,"tv_cpi",NA,2.72824736605242
"CAN",1978,1979,3,0.75,"tv_cpi",NA,1.91592240920695
"CAN",1978,1979,4,1,"tv_cpi",NA,2.28393585715518
"CAN",1979,1979,2,0.25,"tv_cpi",NA,2.72824736605242
"CAN",1979,1979,3,0.5,"tv_cpi",NA,1.91592240920695
"CAN",1979,1979,4,0.75,"tv_cpi",NA,2.28393585715518
"CAN",1979,1980,1,1,"tv_cpi",NA,2.15405913261506
"CAN",1979,1979,3,0.25,"tv_cpi",NA,1.91592240920695
"CAN",1979,1979,4,0.5,"tv_cpi",NA,2.28393585715518
"CAN",1979,1980,1,0.75,"tv_cpi",NA,2.15405913261506
"CAN",1979,1980,2,1,"tv_cpi",NA,2.72496311689348
"CAN",1979,1979,4,0.25,"tv_cpi",NA,2.28393585715518
"CAN",1979,1980,1,0.5,"tv_cpi",NA,2.15405913261506
"CAN",1979,1980,2,0.75,"tv_cpi",NA,2.72496311689348
"CAN",1979,1980,3,1,"tv_cpi",NA,2.80214225188988
"CAN",1979,1980,1,0.25,"tv_cpi",NA,2.15405913261506
"CAN",1979,1980,2,0.5,"tv_cpi",NA,2.72496311689348
"CAN",1979,1980,3,0.75,"tv_cpi",NA,2.80214225188988
"CAN",1979,1980,4,1,"tv_cpi",NA,2.72578537427455
"CAN",1980,1980,2,0.25,"tv_cpi",NA,2.72496311689348
"CAN",1980,1980,3,0.5,"tv_cpi",NA,2.80214225188988
"CAN",1980,1980,4,0.75,"tv_cpi",NA,2.72578537427455
"CAN",1980,1981,1,1,"tv_cpi",NA,3.35865939464655
"CAN",1980,1980,3,0.25,"tv_cpi",NA,2.80214225188988
"CAN",1980,1980,4,0.5,"tv_cpi",NA,2.72578537427455
"CAN",1980,1981,1,0.75,"tv_cpi",NA,3.35865939464655
"CAN",1980,1981,2,1,"tv_cpi",NA,2.90877534275418
"CAN",1980,1980,4,0.25,"tv_cpi",NA,2.72578537427455
"CAN",1980,1981,1,0.5,"tv_cpi",NA,3.35865939464655
"CAN",1980,1981,2,0.75,"tv_cpi",NA,2.90877534275418
"CAN",1980,1981,3,1,"tv_cpi",NA,2.95919491678953
"CAN",1980,1981,1,0.25,"tv_cpi",NA,3.35865939464655
"CAN",1980,1981,2,0.5,"tv_cpi",NA,2.90877534275418
"CAN",1980,1981,3,0.75,"tv_cpi",NA,2.95919491678953
"CAN",1980,1981,4,1,"tv_cpi",NA,2.42236849316555
"CAN",1981,1981,2,0.25,"tv_cpi",NA,2.90877534275418
"CAN",1981,1981,3,0.5,"tv_cpi",NA,2.95919491678953
"CAN",1981,1981,4,0.75,"tv_cpi",NA,2.42236849316555
"CAN",1981,1982,1,1,"tv_cpi",NA,2.49135397543214
"CAN",1981,1981,3,0.25,"tv_cpi",NA,2.95919491678953
"CAN",1981,1981,4,0.5,"tv_cpi",NA,2.42236849316555
"CAN",1981,1982,1,0.75,"tv_cpi",NA,2.49135397543214
"CAN",1981,1982,2,1,"tv_cpi",NA,3.0446532371057
"CAN",1981,1981,4,0.25,"tv_cpi",NA,2.42236849316555
"CAN",1981,1982,1,0.5,"tv_cpi",NA,2.49135397543214
"CAN",1981,1982,2,0.75,"tv_cpi",NA,3.0446532371057
"CAN",1981,1982,3,1,"tv_cpi",NA,2.1193642255005
"CAN",1981,1982,1,0.25,"tv_cpi",NA,2.49135397543214
"CAN",1981,1982,2,0.5,"tv_cpi",NA,3.0446532371057
"CAN",1981,1982,3,0.75,"tv_cpi",NA,2.1193642255005
"CAN",1981,1982,4,1,"tv_cpi",NA,1.54582966761603
"CAN",1982,1982,2,0.25,"tv_cpi",NA,3.0446532371057
"CAN",1982,1982,3,0.5,"tv_cpi",NA,2.1193642255005
"CAN",1982,1982,4,0.75,"tv_cpi",NA,1.54582966761603
"CAN",1982,1983,1,1,"tv_cpi",NA,0.705450258972062
"CAN",1982,1982,3,0.25,"tv_cpi",NA,2.1193642255005
"CAN",1982,1982,4,0.5,"tv_cpi",NA,1.54582966761603
"CAN",1982,1983,1,0.75,"tv_cpi",NA,0.705450258972062
"CAN",1982,1983,2,1,"tv_cpi",NA,1.33841553760603
"CAN",1982,1982,4,0.25,"tv_cpi",NA,1.54582966761603
"CAN",1982,1983,1,0.5,"tv_cpi",NA,0.705450258972062
"CAN",1982,1983,2,0.75,"tv_cpi",NA,1.33841553760603
"CAN",1982,1983,3,1,"tv_cpi",NA,1.6055296868895
"CAN",1982,1983,1,0.25,"tv_cpi",NA,0.705450258972062
"CAN",1982,1983,2,0.5,"tv_cpi",NA,1.33841553760603
"CAN",1982,1983,3,0.75,"tv_cpi",NA,1.6055296868895
"CAN",1982,1983,4,1,"tv_cpi",NA,0.906018518969942
"CAN",1983,1983,2,0.25,"tv_cpi",NA,1.33841553760603
"CAN",1983,1983,3,0.5,"tv_cpi",NA,1.6055296868895
"CAN",1983,1983,4,0.75,"tv_cpi",NA,0.906018518969942
"CAN",1983,1984,1,1,"tv_cpi",NA,1.17679632467897
"CAN",1983,1983,3,0.25,"tv_cpi",NA,1.6055296868895
"CAN",1983,1983,4,0.5,"tv_cpi",NA,0.906018518969942
"CAN",1983,1984,1,0.75,"tv_cpi",NA,1.17679632467897
"CAN",1983,1984,2,1,"tv_cpi",NA,0.832185080159764
"CAN",1983,1983,4,0.25,"tv_cpi",NA,0.906018518969942
"CAN",1983,1984,1,0.5,"tv_cpi",NA,1.17679632467897
"CAN",1983,1984,2,0.75,"tv_cpi",NA,0.832185080159764
"CAN",1983,1984,3,1,"tv_cpi",NA,0.825316876936055
"CAN",1983,1984,1,0.25,"tv_cpi",NA,1.17679632467897
"CAN",1983,1984,2,0.5,"tv_cpi",NA,0.832185080159764
"CAN",1983,1984,3,0.75,"tv_cpi",NA,0.825316876936055
"CAN",1983,1984,4,1,"tv_cpi",NA,0.764191457831176
"CAN",1984,1984,2,0.25,"tv_cpi",NA,0.832185080159764
"CAN",1984,1984,3,0.5,"tv_cpi",NA,0.825316876936055
"CAN",1984,1984,4,0.75,"tv_cpi",NA,0.764191457831176
"CAN",1984,1985,1,1,"tv_cpi",NA,1.13545794008982
"CAN",1984,1984,3,0.25,"tv_cpi",NA,0.825316876936055
"CAN",1984,1984,4,0.5,"tv_cpi",NA,0.764191457831176
"CAN",1984,1985,1,0.75,"tv_cpi",NA,1.13545794008982
"CAN",1984,1985,2,1,"tv_cpi",NA,1.17584571170664
"CAN",1984,1984,4,0.25,"tv_cpi",NA,0.764191457831176
"CAN",1984,1985,1,0.5,"tv_cpi",NA,1.13545794008982
"CAN",1984,1985,2,0.75,"tv_cpi",NA,1.17584571170664
"CAN",1984,1985,3,1,"tv_cpi",NA,0.951907670712382
"CAN",1984,1985,1,0.25,"tv_cpi",NA,1.13545794008982
"CAN",1984,1985,2,0.5,"tv_cpi",NA,1.17584571170664
"CAN",1984,1985,3,0.75,"tv_cpi",NA,0.951907670712382
"CAN",1984,1985,4,1,"tv_cpi",NA,0.786376098391628
"CAN",1985,1985,2,0.25,"tv_cpi",NA,1.17584571170664
"CAN",1985,1985,3,0.5,"tv_cpi",NA,0.951907670712382
"CAN",1985,1985,4,0.75,"tv_cpi",NA,0.786376098391628
"CAN",1985,1986,1,1,"tv_cpi",NA,1.29702599916377
"CAN",1985,1985,3,0.25,"tv_cpi",NA,0.951907670712382
"CAN",1985,1985,4,0.5,"tv_cpi",NA,0.786376098391628
"CAN",1985,1986,1,0.75,"tv_cpi",NA,1.29702599916377
"CAN",1985,1986,2,1,"tv_cpi",NA,0.821349527320425
"CAN",1985,1985,4,0.25,"tv_cpi",NA,0.786376098391628
"CAN",1985,1986,1,0.5,"tv_cpi",NA,1.29702599916377
"CAN",1985,1986,2,0.75,"tv_cpi",NA,0.821349527320425
"CAN",1985,1986,3,1,"tv_cpi",NA,1.16900694062392
"CAN",1985,1986,1,0.25,"tv_cpi",NA,1.29702599916377
"CAN",1985,1986,2,0.5,"tv_cpi",NA,0.821349527320425
"CAN",1985,1986,3,0.75,"tv_cpi",NA,1.16900694062392
"CAN",1985,1986,4,1,"tv_cpi",NA,1.00555488009815
"CAN",1986,1986,2,0.25,"tv_cpi",NA,0.821349527320425
"CAN",1986,1986,3,0.5,"tv_cpi",NA,1.16900694062392
"CAN",1986,1986,4,0.75,"tv_cpi",NA,1.00555488009815
"CAN",1986,1987,1,1,"tv_cpi",NA,0.945977078179228
"CAN",1986,1986,3,0.25,"tv_cpi",NA,1.16900694062392
"CAN",1986,1986,4,0.5,"tv_cpi",NA,1.00555488009815
"CAN",1986,1987,1,0.75,"tv_cpi",NA,0.945977078179228
"CAN",1986,1987,2,1,"tv_cpi",NA,1.42683691216376
"CAN",1986,1986,4,0.25,"tv_cpi",NA,1.00555488009815
"CAN",1986,1987,1,0.5,"tv_cpi",NA,0.945977078179228
"CAN",1986,1987,2,0.75,"tv_cpi",NA,1.42683691216376
"CAN",1986,1987,3,1,"tv_cpi",NA,1.06901881020494
"CAN",1986,1987,1,0.25,"tv_cpi",NA,0.945977078179228
"CAN",1986,1987,2,0.5,"tv_cpi",NA,1.42683691216376
"CAN",1986,1987,3,0.75,"tv_cpi",NA,1.06901881020494
"CAN",1986,1987,4,1,"tv_cpi",NA,0.674372413337654
"CAN",1987,1987,2,0.25,"tv_cpi",NA,1.42683691216376
"CAN",1987,1987,3,0.5,"tv_cpi",NA,1.06901881020494
"CAN",1987,1987,4,0.75,"tv_cpi",NA,0.674372413337654
"CAN",1987,1988,1,1,"tv_cpi",NA,0.860428717407213
"CAN",1987,1987,3,0.25,"tv_cpi",NA,1.06901881020494
"CAN",1987,1987,4,0.5,"tv_cpi",NA,0.674372413337654
"CAN",1987,1988,1,0.75,"tv_cpi",NA,0.860428717407213
"CAN",1987,1988,2,1,"tv_cpi",NA,1.2769190126444
"CAN",1987,1987,4,0.25,"tv_cpi",NA,0.674372413337654
"CAN",1987,1988,1,0.5,"tv_cpi",NA,0.860428717407213
"CAN",1987,1988,2,0.75,"tv_cpi",NA,1.2769190126444
"CAN",1987,1988,3,1,"tv_cpi",NA,1.07502536716426
"CAN",1987,1988,1,0.25,"tv_cpi",NA,0.860428717407213
"CAN",1987,1988,2,0.5,"tv_cpi",NA,1.2769190126444
"CAN",1987,1988,3,0.75,"tv_cpi",NA,1.07502536716426
"CAN",1987,1988,4,1,"tv_cpi",NA,0.787219982743181
"CAN",1988,1988,2,0.25,"tv_cpi",NA,1.2769190126444
"CAN",1988,1988,3,0.5,"tv_cpi",NA,1.07502536716426
"CAN",1988,1988,4,0.75,"tv_cpi",NA,0.787219982743181
"CAN",1988,1989,1,1,"tv_cpi",NA,1.23770024456311
"CAN",1988,1988,3,0.25,"tv_cpi",NA,1.07502536716426
"CAN",1988,1988,4,0.5,"tv_cpi",NA,0.787219982743181
"CAN",1988,1989,1,0.75,"tv_cpi",NA,1.23770024456311
"CAN",1988,1989,2,1,"tv_cpi",NA,1.71639236195382
"CAN",1988,1988,4,0.25,"tv_cpi",NA,0.787219982743181
"CAN",1988,1989,1,0.5,"tv_cpi",NA,1.23770024456311
"CAN",1988,1989,2,0.75,"tv_cpi",NA,1.71639236195382
"CAN",1988,1989,3,1,"tv_cpi",NA,1.42287750412482
"CAN",1988,1989,1,0.25,"tv_cpi",NA,1.23770024456311
"CAN",1988,1989,2,0.5,"tv_cpi",NA,1.71639236195382
"CAN",1988,1989,3,0.75,"tv_cpi",NA,1.42287750412482
"CAN",1988,1989,4,1,"tv_cpi",NA,0.703909573446548
"CAN",1989,1989,2,0.25,"tv_cpi",NA,1.71639236195382
"CAN",1989,1989,3,0.5,"tv_cpi",NA,1.42287750412482
"CAN",1989,1989,4,0.75,"tv_cpi",NA,0.703909573446548
"CAN",1989,1990,1,1,"tv_cpi",NA,1.43637321563084
"CAN",1989,1989,3,0.25,"tv_cpi",NA,1.42287750412482
"CAN",1989,1989,4,0.5,"tv_cpi",NA,0.703909573446548
"CAN",1989,1990,1,0.75,"tv_cpi",NA,1.43637321563084
"CAN",1989,1990,2,1,"tv_cpi",NA,0.946235822452035
"CAN",1989,1989,4,0.25,"tv_cpi",NA,0.703909573446548
"CAN",1989,1990,1,0.5,"tv_cpi",NA,1.43637321563084
"CAN",1989,1990,2,0.75,"tv_cpi",NA,0.946235822452035
"CAN",1989,1990,3,1,"tv_cpi",NA,0.979771403063978
"CAN",1989,1990,1,0.25,"tv_cpi",NA,1.43637321563084
"CAN",1989,1990,2,0.5,"tv_cpi",NA,0.946235822452035
"CAN",1989,1990,3,0.75,"tv_cpi",NA,0.979771403063978
"CAN",1989,1990,4,1,"tv_cpi",NA,1.47279610793536
"CAN",1990,1990,2,0.25,"tv_cpi",NA,0.946235822452035
"CAN",1990,1990,3,0.5,"tv_cpi",NA,0.979771403063978
"CAN",1990,1990,4,0.75,"tv_cpi",NA,1.47279610793536
"CAN",1990,1991,1,1,"tv_cpi",NA,2.84144467061074
"CAN",1990,1990,3,0.25,"tv_cpi",NA,0.979771403063978
"CAN",1990,1990,4,0.5,"tv_cpi",NA,1.47279610793536
"CAN",1990,1991,1,0.75,"tv_cpi",NA,2.84144467061074
"CAN",1990,1991,2,1,"tv_cpi",NA,0.728160905900221
"CAN",1990,1990,4,0.25,"tv_cpi",NA,1.47279610793536
"CAN",1990,1991,1,0.5,"tv_cpi",NA,2.84144467061074
"CAN",1990,1991,2,0.75,"tv_cpi",NA,0.728160905900221
"CAN",1990,1991,3,1,"tv_cpi",NA,0.602776511185432
"CAN",1990,1991,1,0.25,"tv_cpi",NA,2.84144467061074
"CAN",1990,1991,2,0.5,"tv_cpi",NA,0.728160905900221
"CAN",1990,1991,3,0.75,"tv_cpi",NA,0.602776511185432
"CAN",1990,1991,4,1,"tv_cpi",NA,-0.160390549892142
"CAN",1991,1991,2,0.25,"tv_cpi",NA,0.728160905900221
"CAN",1991,1991,3,0.5,"tv_cpi",NA,0.602776511185432
"CAN",1991,1991,4,0.75,"tv_cpi",NA,-0.160390549892142
"CAN",1991,1992,1,1,"tv_cpi",NA,0.400487469734934
"CAN",1991,1991,3,0.25,"tv_cpi",NA,0.602776511185432
"CAN",1991,1991,4,0.5,"tv_cpi",NA,-0.160390549892142
"CAN",1991,1992,1,0.75,"tv_cpi",NA,0.400487469734934
"CAN",1991,1992,2,1,"tv_cpi",NA,0.518230733074621
"CAN",1991,1991,4,0.25,"tv_cpi",NA,-0.160390549892142
"CAN",1991,1992,1,0.5,"tv_cpi",NA,0.400487469734934
"CAN",1991,1992,2,0.75,"tv_cpi",NA,0.518230733074621
"CAN",1991,1992,3,1,"tv_cpi",NA,0.436433483245668
"CAN",1991,1992,1,0.25,"tv_cpi",NA,0.400487469734934
"CAN",1991,1992,2,0.5,"tv_cpi",NA,0.518230733074621
"CAN",1991,1992,3,0.75,"tv_cpi",NA,0.436433483245668
"CAN",1991,1992,4,1,"tv_cpi",NA,0.43452204872283
"CAN",1992,1992,2,0.25,"tv_cpi",NA,0.518230733074621
"CAN",1992,1992,3,0.5,"tv_cpi",NA,0.436433483245668
"CAN",1992,1992,4,0.75,"tv_cpi",NA,0.43452204872283
"CAN",1992,1993,1,1,"tv_cpi",NA,0.706981692162945
"CAN",1992,1992,3,0.25,"tv_cpi",NA,0.436433483245668
"CAN",1992,1992,4,0.5,"tv_cpi",NA,0.43452204872283
"CAN",1992,1993,1,0.75,"tv_cpi",NA,0.706981692162945
"CAN",1992,1993,2,1,"tv_cpi",NA,0.195514019837706
"CAN",1992,1992,4,0.25,"tv_cpi",NA,0.43452204872283
"CAN",1992,1993,1,0.5,"tv_cpi",NA,0.706981692162945
"CAN",1992,1993,2,0.75,"tv_cpi",NA,0.195514019837706
"CAN",1992,1993,3,1,"tv_cpi",NA,0.389855442450138
"CAN",1992,1993,1,0.25,"tv_cpi",NA,0.706981692162945
"CAN",1992,1993,2,0.5,"tv_cpi",NA,0.195514019837706
"CAN",1992,1993,3,0.75,"tv_cpi",NA,0.389855442450138
"CAN",1992,1993,4,1,"tv_cpi",NA,0.504568081301926
"CAN",1993,1993,2,0.25,"tv_cpi",NA,0.195514019837706
"CAN",1993,1993,3,0.5,"tv_cpi",NA,0.389855442450138
"CAN",1993,1993,4,0.75,"tv_cpi",NA,0.504568081301926
"CAN",1993,1994,1,1,"tv_cpi",NA,-0.543476434298906
"CAN",1993,1993,3,0.25,"tv_cpi",NA,0.389855442450138
"CAN",1993,1993,4,0.5,"tv_cpi",NA,0.504568081301926
"CAN",1993,1994,1,0.75,"tv_cpi",NA,-0.543476434298906
"CAN",1993,1994,2,1,"tv_cpi",NA,-0.350947089453157
"CAN",1993,1993,4,0.25,"tv_cpi",NA,0.504568081301926
"CAN",1993,1994,1,0.5,"tv_cpi",NA,-0.543476434298906
"CAN",1993,1994,2,0.75,"tv_cpi",NA,-0.350947089453157
"CAN",1993,1994,3,1,"tv_cpi",NA,0.545381899008923
"CAN",1993,1994,1,0.25,"tv_cpi",NA,-0.543476434298906
"CAN",1993,1994,2,0.5,"tv_cpi",NA,-0.350947089453157
"CAN",1993,1994,3,0.75,"tv_cpi",NA,0.545381899008923
"CAN",1993,1994,4,1,"tv_cpi",NA,0.31031442868148
"CAN",1994,1994,2,0.25,"tv_cpi",NA,-0.350947089453157
"CAN",1994,1994,3,0.5,"tv_cpi",NA,0.545381899008923
"CAN",1994,1994,4,0.75,"tv_cpi",NA,0.31031442868148
"CAN",1994,1995,1,1,"tv_cpi",NA,1.0019481442165
"CAN",1994,1994,3,0.25,"tv_cpi",NA,0.545381899008923
"CAN",1994,1994,4,0.5,"tv_cpi",NA,0.31031442868148
"CAN",1994,1995,1,0.75,"tv_cpi",NA,1.0019481442165
"CAN",1994,1995,2,1,"tv_cpi",NA,0.801992688062469
"CAN",1994,1994,4,0.25,"tv_cpi",NA,0.31031442868148
"CAN",1994,1995,1,0.5,"tv_cpi",NA,1.0019481442165
"CAN",1994,1995,2,0.75,"tv_cpi",NA,0.801992688062469
"CAN",1994,1995,3,1,"tv_cpi",NA,0.189987130897684
"CAN",1994,1995,1,0.25,"tv_cpi",NA,1.0019481442165
"CAN",1994,1995,2,0.5,"tv_cpi",NA,0.801992688062469
"CAN",1994,1995,3,0.75,"tv_cpi",NA,0.189987130897684
"CAN",1994,1995,4,1,"tv_cpi",NA,0.0379627963394746
"CAN",1995,1995,2,0.25,"tv_cpi",NA,0.801992688062469
"CAN",1995,1995,3,0.5,"tv_cpi",NA,0.189987130897684
"CAN",1995,1995,4,0.75,"tv_cpi",NA,0.0379627963394746
"CAN",1995,1996,1,1,"tv_cpi",NA,0.416584944468834
"CAN",1995,1995,3,0.25,"tv_cpi",NA,0.189987130897684
"CAN",1995,1995,4,0.5,"tv_cpi",NA,0.0379627963394746
"CAN",1995,1996,1,0.75,"tv_cpi",NA,0.416584944468834
"CAN",1995,1996,2,1,"tv_cpi",NA,0.79052054952351
"CAN",1995,1995,4,0.25,"tv_cpi",NA,0.0379627963394746
"CAN",1995,1996,1,0.5,"tv_cpi",NA,0.416584944468834
"CAN",1995,1996,2,0.75,"tv_cpi",NA,0.79052054952351
"CAN",1995,1996,3,1,"tv_cpi",NA,0.149874121723226
"CAN",1995,1996,1,0.25,"tv_cpi",NA,0.416584944468834
"CAN",1995,1996,2,0.5,"tv_cpi",NA,0.79052054952351
"CAN",1995,1996,3,0.75,"tv_cpi",NA,0.149874121723226
"CAN",1995,1996,4,1,"tv_cpi",NA,0.597246179584676
"CAN",1996,1996,2,0.25,"tv_cpi",NA,0.79052054952351
"CAN",1996,1996,3,0.5,"tv_cpi",NA,0.149874121723226
"CAN",1996,1996,4,0.75,"tv_cpi",NA,0.597246179584676
"CAN",1996,1997,1,1,"tv_cpi",NA,0.556692742458331
"CAN",1996,1996,3,0.25,"tv_cpi",NA,0.149874121723226
"CAN",1996,1996,4,0.5,"tv_cpi",NA,0.597246179584676
"CAN",1996,1997,1,0.75,"tv_cpi",NA,0.556692742458331
"CAN",1996,1997,2,1,"tv_cpi",NA,0.295635791469806
"CAN",1996,1996,4,0.25,"tv_cpi",NA,0.597246179584676
"CAN",1996,1997,1,0.5,"tv_cpi",NA,0.556692742458331
"CAN",1996,1997,2,0.75,"tv_cpi",NA,0.295635791469806
"CAN",1996,1997,3,1,"tv_cpi",NA,0.25797503179863
"CAN",1996,1997,1,0.25,"tv_cpi",NA,0.556692742458331
"CAN",1996,1997,2,0.5,"tv_cpi",NA,0.295635791469806
"CAN",1996,1997,3,0.75,"tv_cpi",NA,0.25797503179863
"CAN",1996,1997,4,1,"tv_cpi",NA,-0.073647259255516
"CAN",1997,1997,2,0.25,"tv_cpi",NA,0.295635791469806
"CAN",1997,1997,3,0.5,"tv_cpi",NA,0.25797503179863
"CAN",1997,1997,4,0.75,"tv_cpi",NA,-0.073647259255516
"CAN",1997,1998,1,1,"tv_cpi",NA,0.550953440040391
"CAN",1997,1997,3,0.25,"tv_cpi",NA,0.25797503179863
"CAN",1997,1997,4,0.5,"tv_cpi",NA,-0.073647259255516
"CAN",1997,1998,1,0.75,"tv_cpi",NA,0.550953440040391
"CAN",1997,1998,2,1,"tv_cpi",NA,0.256087564166396
"CAN",1997,1997,4,0.25,"tv_cpi",NA,-0.073647259255516
"CAN",1997,1998,1,0.5,"tv_cpi",NA,0.550953440040391
"CAN",1997,1998,2,0.75,"tv_cpi",NA,0.256087564166396
"CAN",1997,1998,3,1,"tv_cpi",NA,0.109549393622732
"CAN",1997,1998,1,0.25,"tv_cpi",NA,0.550953440040391
"CAN",1997,1998,2,0.5,"tv_cpi",NA,0.256087564166396
"CAN",1997,1998,3,0.75,"tv_cpi",NA,0.109549393622732
"CAN",1997,1998,4,1,"tv_cpi",NA,0.182311442729333
"CAN",1998,1998,2,0.25,"tv_cpi",NA,0.256087564166396
"CAN",1998,1998,3,0.5,"tv_cpi",NA,0.109549393622732
"CAN",1998,1998,4,0.75,"tv_cpi",NA,0.182311442729333
"CAN",1998,1999,1,1,"tv_cpi",NA,0.218341422147095
"CAN",1998,1998,3,0.25,"tv_cpi",NA,0.109549393622732
"CAN",1998,1998,4,0.5,"tv_cpi",NA,0.182311442729333
"CAN",1998,1999,1,0.75,"tv_cpi",NA,0.218341422147095
"CAN",1998,1999,2,1,"tv_cpi",NA,1.0846129043383
"CAN",1998,1998,4,0.25,"tv_cpi",NA,0.182311442729333
"CAN",1998,1999,1,0.5,"tv_cpi",NA,0.218341422147095
"CAN",1998,1999,2,0.75,"tv_cpi",NA,1.0846129043383
"CAN",1998,1999,3,1,"tv_cpi",NA,0.680890936718725
"CAN",1998,1999,1,0.25,"tv_cpi",NA,0.218341422147095
"CAN",1998,1999,2,0.5,"tv_cpi",NA,1.0846129043383
"CAN",1998,1999,3,0.75,"tv_cpi",NA,0.680890936718725
"CAN",1998,1999,4,1,"tv_cpi",NA,0.356498750269996
"CAN",1999,1999,2,0.25,"tv_cpi",NA,1.0846129043383
"CAN",1999,1999,3,0.5,"tv_cpi",NA,0.680890936718725
"CAN",1999,1999,4,0.75,"tv_cpi",NA,0.356498750269996
"CAN",1999,2000,1,1,"tv_cpi",NA,0.496980776755063
"CAN",1999,1999,3,0.25,"tv_cpi",NA,0.680890936718725
"CAN",1999,1999,4,0.5,"tv_cpi",NA,0.356498750269996
"CAN",1999,2000,1,0.75,"tv_cpi",NA,0.496980776755063
"CAN",1999,2000,2,1,"tv_cpi",NA,0.881380941246768
"CAN",1999,1999,4,0.25,"tv_cpi",NA,0.356498750269996
"CAN",1999,2000,1,0.5,"tv_cpi",NA,0.496980776755063
"CAN",1999,2000,2,0.75,"tv_cpi",NA,0.881380941246768
"CAN",1999,2000,3,1,"tv_cpi",NA,0.943241478863577
"CAN",1999,2000,1,0.25,"tv_cpi",NA,0.496980776755063
"CAN",1999,2000,2,0.5,"tv_cpi",NA,0.881380941246768
"CAN",1999,2000,3,0.75,"tv_cpi",NA,0.943241478863577
"CAN",1999,2000,4,1,"tv_cpi",NA,0.693001314700403
"CAN",2000,2000,2,0.25,"tv_cpi",NA,0.881380941246768
"CAN",2000,2000,3,0.5,"tv_cpi",NA,0.943241478863577
"CAN",2000,2000,4,0.75,"tv_cpi",NA,0.693001314700403
"CAN",2000,2001,1,1,"tv_cpi",NA,0.206968662514129
"CAN",2000,2000,3,0.25,"tv_cpi",NA,0.943241478863577
"CAN",2000,2000,4,0.5,"tv_cpi",NA,0.693001314700403
"CAN",2000,2001,1,0.75,"tv_cpi",NA,0.206968662514129
"CAN",2000,2001,2,1,"tv_cpi",NA,1.67439093095751
"CAN",2000,2000,4,0.25,"tv_cpi",NA,0.693001314700403
"CAN",2000,2001,1,0.5,"tv_cpi",NA,0.206968662514129
"CAN",2000,2001,2,0.75,"tv_cpi",NA,1.67439093095751
"CAN",2000,2001,3,1,"tv_cpi",NA,0.101609145874004
"CAN",2000,2001,1,0.25,"tv_cpi",NA,0.206968662514129
"CAN",2000,2001,2,0.5,"tv_cpi",NA,1.67439093095751
"CAN",2000,2001,3,0.75,"tv_cpi",NA,0.101609145874004
"CAN",2000,2001,4,1,"tv_cpi",NA,-0.918220643692003
"CAN",2001,2001,2,0.25,"tv_cpi",NA,1.67439093095751
"CAN",2001,2001,3,0.5,"tv_cpi",NA,0.101609145874004
"CAN",2001,2001,4,0.75,"tv_cpi",NA,-0.918220643692003
"CAN",2001,2002,1,1,"tv_cpi",NA,0.680980424390487
"CAN",2001,2001,3,0.25,"tv_cpi",NA,0.101609145874004
"CAN",2001,2001,4,0.5,"tv_cpi",NA,-0.918220643692003
"CAN",2001,2002,1,0.75,"tv_cpi",NA,0.680980424390487
"CAN",2001,2002,2,1,"tv_cpi",NA,1.481995338166
"CAN",2001,2001,4,0.25,"tv_cpi",NA,-0.918220643692003
"CAN",2001,2002,1,0.5,"tv_cpi",NA,0.680980424390487
"CAN",2001,2002,2,0.75,"tv_cpi",NA,1.481995338166
"CAN",2001,2002,3,1,"tv_cpi",NA,1.0642054824225
"CAN",2001,2002,1,0.25,"tv_cpi",NA,0.680980424390487
"CAN",2001,2002,2,0.5,"tv_cpi",NA,1.481995338166
"CAN",2001,2002,3,0.75,"tv_cpi",NA,1.0642054824225
"CAN",2001,2002,4,1,"tv_cpi",NA,0.494970408705875
"CAN",2002,2002,2,0.25,"tv_cpi",NA,1.481995338166
"CAN",2002,2002,3,0.5,"tv_cpi",NA,1.0642054824225
"CAN",2002,2002,4,0.75,"tv_cpi",NA,0.494970408705875
"CAN",2002,2003,1,1,"tv_cpi",NA,1.34053425049219
"CAN",2002,2002,3,0.25,"tv_cpi",NA,1.0642054824225
"CAN",2002,2002,4,0.5,"tv_cpi",NA,0.494970408705875
"CAN",2002,2003,1,0.75,"tv_cpi",NA,1.34053425049219
"CAN",2002,2003,2,1,"tv_cpi",NA,-0.162518800159273
"CAN",2002,2002,4,0.25,"tv_cpi",NA,0.494970408705875
"CAN",2002,2003,1,0.5,"tv_cpi",NA,1.34053425049219
"CAN",2002,2003,2,0.75,"tv_cpi",NA,-0.162518800159273
"CAN",2002,2003,3,1,"tv_cpi",NA,0.389612147274132
"CAN",2002,2003,1,0.25,"tv_cpi",NA,1.34053425049219
"CAN",2002,2003,2,0.5,"tv_cpi",NA,-0.162518800159273
"CAN",2002,2003,3,0.75,"tv_cpi",NA,0.389612147274132
"CAN",2002,2003,4,1,"tv_cpi",NA,0.161887350326229
"CAN",2003,2003,2,0.25,"tv_cpi",NA,-0.162518800159273
"CAN",2003,2003,3,0.5,"tv_cpi",NA,0.389612147274132
"CAN",2003,2003,4,0.75,"tv_cpi",NA,0.161887350326229
"CAN",2003,2004,1,1,"tv_cpi",NA,0.516302486589382
"CAN",2003,2003,3,0.25,"tv_cpi",NA,0.389612147274132
"CAN",2003,2003,4,0.5,"tv_cpi",NA,0.161887350326229
"CAN",2003,2004,1,0.75,"tv_cpi",NA,0.516302486589382
"CAN",2003,2004,2,1,"tv_cpi",NA,1.12019049884955
"CAN",2003,2003,4,0.25,"tv_cpi",NA,0.161887350326229
"CAN",2003,2004,1,0.5,"tv_cpi",NA,0.516302486589382
"CAN",2003,2004,2,0.75,"tv_cpi",NA,1.12019049884955
"CAN",2003,2004,3,1,"tv_cpi",NA,0.190779686386655
"CAN",2003,2004,1,0.25,"tv_cpi",NA,0.516302486589382
"CAN",2003,2004,2,0.5,"tv_cpi",NA,1.12019049884955
"CAN",2003,2004,3,0.75,"tv_cpi",NA,0.190779686386655
"CAN",2003,2004,4,1,"tv_cpi",NA,0.443738244572423
"CAN",2004,2004,2,0.25,"tv_cpi",NA,1.12019049884955
"CAN",2004,2004,3,0.5,"tv_cpi",NA,0.190779686386655
"CAN",2004,2004,4,0.75,"tv_cpi",NA,0.443738244572423
"CAN",2004,2005,1,1,"tv_cpi",NA,0.347274516510243
"CAN",2004,2004,3,0.25,"tv_cpi",NA,0.190779686386655
"CAN",2004,2004,4,0.5,"tv_cpi",NA,0.443738244572423
"CAN",2004,2005,1,0.75,"tv_cpi",NA,0.347274516510243
"CAN",2004,2005,2,1,"tv_cpi",NA,0.909809206981915
"CAN",2004,2004,4,0.25,"tv_cpi",NA,0.443738244572423
"CAN",2004,2005,1,0.5,"tv_cpi",NA,0.347274516510243
"CAN",2004,2005,2,0.75,"tv_cpi",NA,0.909809206981915
"CAN",2004,2005,3,1,"tv_cpi",NA,0.870659028490195
"CAN",2004,2005,1,0.25,"tv_cpi",NA,0.347274516510243
"CAN",2004,2005,2,0.5,"tv_cpi",NA,0.909809206981915
"CAN",2004,2005,3,0.75,"tv_cpi",NA,0.870659028490195
"CAN",2004,2005,4,1,"tv_cpi",NA,0.0618966252139863
"CAN",2005,2005,2,0.25,"tv_cpi",NA,0.909809206981915
"CAN",2005,2005,3,0.5,"tv_cpi",NA,0.870659028490195
"CAN",2005,2005,4,0.75,"tv_cpi",NA,0.0618966252139863
"CAN",2005,2006,1,1,"tv_cpi",NA,0.493821971686703
"CAN",2005,2005,3,0.25,"tv_cpi",NA,0.870659028490195
"CAN",2005,2005,4,0.5,"tv_cpi",NA,0.0618966252139863
"CAN",2005,2006,1,0.75,"tv_cpi",NA,0.493821971686703
"CAN",2005,2006,2,1,"tv_cpi",NA,1.10228056003638
"CAN",2005,2005,4,0.25,"tv_cpi",NA,0.0618966252139863
"CAN",2005,2006,1,0.5,"tv_cpi",NA,0.493821971686703
"CAN",2005,2006,2,0.75,"tv_cpi",NA,1.10228056003638
"CAN",2005,2006,3,1,"tv_cpi",NA,0.0608907052648711
"CAN",2005,2006,1,0.25,"tv_cpi",NA,0.493821971686703
"CAN",2005,2006,2,0.5,"tv_cpi",NA,1.10228056003638
"CAN",2005,2006,3,0.75,"tv_cpi",NA,0.0608907052648711
"CAN",2005,2006,4,1,"tv_cpi",NA,-0.304790201733152
"CAN",2006,2006,2,0.25,"tv_cpi",NA,1.10228056003638
"CAN",2006,2006,3,0.5,"tv_cpi",NA,0.0608907052648711
"CAN",2006,2006,4,0.75,"tv_cpi",NA,-0.304790201733152
"CAN",2006,2007,1,1,"tv_cpi",NA,0.941833670279557
"CAN",2006,2006,3,0.25,"tv_cpi",NA,0.0608907052648711
"CAN",2006,2006,4,0.5,"tv_cpi",NA,-0.304790201733152
"CAN",2006,2007,1,0.75,"tv_cpi",NA,0.941833670279557
"CAN",2006,2007,2,1,"tv_cpi",NA,1.47083255589164
"CAN",2006,2006,4,0.25,"tv_cpi",NA,-0.304790201733152
"CAN",2006,2007,1,0.5,"tv_cpi",NA,0.941833670279557
"CAN",2006,2007,2,0.75,"tv_cpi",NA,1.47083255589164
"CAN",2006,2007,3,1,"tv_cpi",NA,0
"CAN",2006,2007,1,0.25,"tv_cpi",NA,0.941833670279557
"CAN",2006,2007,2,0.5,"tv_cpi",NA,1.47083255589164
"CAN",2006,2007,3,0.75,"tv_cpi",NA,0
"CAN",2006,2007,4,1,"tv_cpi",NA,-0.0298056861587348
"CAN",2007,2007,2,0.25,"tv_cpi",NA,1.47083255589164
"CAN",2007,2007,3,0.5,"tv_cpi",NA,0
"CAN",2007,2007,4,0.75,"tv_cpi",NA,-0.0298056861587348
"CAN",2007,2008,1,1,"tv_cpi",NA,0.327329834585477
"CAN",2007,2007,3,0.25,"tv_cpi",NA,0
"CAN",2007,2007,4,0.5,"tv_cpi",NA,-0.0298056861587348
"CAN",2007,2008,1,0.75,"tv_cpi",NA,0.327329834585477
"CAN",2007,2008,2,1,"tv_cpi",NA,2.02918956180236
"CAN",2007,2007,4,0.25,"tv_cpi",NA,-0.0298056861587348
"CAN",2007,2008,1,0.5,"tv_cpi",NA,0.327329834585477
"CAN",2007,2008,2,0.75,"tv_cpi",NA,2.02918956180236
"CAN",2007,2008,3,1,"tv_cpi",NA,1.04258444528922
"CAN",2007,2008,1,0.25,"tv_cpi",NA,0.327329834585477
"CAN",2007,2008,2,0.5,"tv_cpi",NA,2.02918956180236
"CAN",2007,2008,3,0.75,"tv_cpi",NA,1.04258444528922
"CAN",2007,2008,4,1,"tv_cpi",NA,-1.50947114900948
"CAN",2008,2008,2,0.25,"tv_cpi",NA,2.02918956180236
"CAN",2008,2008,3,0.5,"tv_cpi",NA,1.04258444528922
"CAN",2008,2008,4,0.75,"tv_cpi",NA,-1.50947114900948
"CAN",2008,2009,1,1,"tv_cpi",NA,-0.322247506666695
"CAN",2008,2008,3,0.25,"tv_cpi",NA,1.04258444528922
"CAN",2008,2008,4,0.5,"tv_cpi",NA,-1.50947114900948
"CAN",2008,2009,1,0.75,"tv_cpi",NA,-0.322247506666695
"CAN",2008,2009,2,1,"tv_cpi",NA,0.847337933786196
"CAN",2008,2008,4,0.25,"tv_cpi",NA,-1.50947114900948
"CAN",2008,2009,1,0.5,"tv_cpi",NA,-0.322247506666695
"CAN",2008,2009,2,0.75,"tv_cpi",NA,0.847337933786196
"CAN",2008,2009,3,1,"tv_cpi",NA,0.116316949660789
"CAN",2008,2009,1,0.25,"tv_cpi",NA,-0.322247506666695
"CAN",2008,2009,2,0.5,"tv_cpi",NA,0.847337933786196
"CAN",2008,2009,3,0.75,"tv_cpi",NA,0.116316949660789
"CAN",2008,2009,4,1,"tv_cpi",NA,0.145197920492812
"CAN",2009,2009,2,0.25,"tv_cpi",NA,0.847337933786196
"CAN",2009,2009,3,0.5,"tv_cpi",NA,0.116316949660789
"CAN",2009,2009,4,0.75,"tv_cpi",NA,0.145197920492812
"CAN",2009,2010,1,1,"tv_cpi",NA,0.492110663284873
"CAN",2009,2009,3,0.25,"tv_cpi",NA,0.116316949660789
"CAN",2009,2009,4,0.5,"tv_cpi",NA,0.145197920492812
"CAN",2009,2010,1,0.75,"tv_cpi",NA,0.492110663284873
"CAN",2009,2010,2,1,"tv_cpi",NA,0.633283564390474
"CAN",2009,2009,4,0.25,"tv_cpi",NA,0.145197920492812
"CAN",2009,2010,1,0.5,"tv_cpi",NA,0.492110663284873
"CAN",2009,2010,2,0.75,"tv_cpi",NA,0.633283564390474
"CAN",2009,2010,3,1,"tv_cpi",NA,0.543707395001736
"CAN",2009,2010,1,0.25,"tv_cpi",NA,0.492110663284873
"CAN",2009,2010,2,0.5,"tv_cpi",NA,0.633283564390474
"CAN",2009,2010,3,0.75,"tv_cpi",NA,0.543707395001736
"CAN",2009,2010,4,1,"tv_cpi",NA,0.569151753397001
"CAN",2010,2010,2,0.25,"tv_cpi",NA,0.633283564390474
"CAN",2010,2010,3,0.5,"tv_cpi",NA,0.543707395001736
"CAN",2010,2010,4,0.75,"tv_cpi",NA,0.569151753397001
"CAN",2010,2011,1,1,"tv_cpi",NA,0.819570688633764
"CAN",2010,2010,3,0.25,"tv_cpi",NA,0.543707395001736
"CAN",2010,2010,4,0.5,"tv_cpi",NA,0.569151753397001
"CAN",2010,2011,1,0.75,"tv_cpi",NA,0.819570688633764
"CAN",2010,2011,2,1,"tv_cpi",NA,1.36967971541564
"CAN",2010,2010,4,0.25,"tv_cpi",NA,0.569151753397001
"CAN",2010,2011,1,0.5,"tv_cpi",NA,0.819570688633764
"CAN",2010,2011,2,0.75,"tv_cpi",NA,1.36967971541564
"CAN",2010,2011,3,1,"tv_cpi",NA,0.19415203830313
"CAN",2010,2011,1,0.25,"tv_cpi",NA,0.819570688633764
"CAN",2010,2011,2,0.5,"tv_cpi",NA,1.36967971541564
"CAN",2010,2011,3,0.75,"tv_cpi",NA,0.19415203830313
"CAN",2010,2011,4,1,"tv_cpi",NA,0.276706290589956
"CAN",2011,2011,2,0.25,"tv_cpi",NA,1.36967971541564
"CAN",2011,2011,3,0.5,"tv_cpi",NA,0.19415203830313
"CAN",2011,2011,4,0.75,"tv_cpi",NA,0.276706290589956
"CAN",2011,2012,1,1,"tv_cpi",NA,0.468641196763109
"CAN",2011,2011,3,0.25,"tv_cpi",NA,0.19415203830313
"CAN",2011,2011,4,0.5,"tv_cpi",NA,0.276706290589956
"CAN",2011,2012,1,0.75,"tv_cpi",NA,0.468641196763109
"CAN",2011,2012,2,1,"tv_cpi",NA,0.630569548036597
"CAN",2011,2011,4,0.25,"tv_cpi",NA,0.276706290589956
"CAN",2011,2012,1,0.5,"tv_cpi",NA,0.468641196763109
"CAN",2011,2012,2,0.75,"tv_cpi",NA,0.630569548036597
"CAN",2011,2012,3,1,"tv_cpi",NA,-0.164114356447964
"CAN",2011,2012,1,0.25,"tv_cpi",NA,0.468641196763109
"CAN",2011,2012,2,0.5,"tv_cpi",NA,0.630569548036597
"CAN",2011,2012,3,0.75,"tv_cpi",NA,-0.164114356447964
"CAN",2011,2012,4,1,"tv_cpi",NA,0
"CAN",2012,2012,2,0.25,"tv_cpi",NA,0.630569548036597
"CAN",2012,2012,3,0.5,"tv_cpi",NA,-0.164114356447964
"CAN",2012,2012,4,0.75,"tv_cpi",NA,0
"CAN",2012,2013,1,1,"tv_cpi",NA,0.437034277020132
"CAN",2012,2012,3,0.25,"tv_cpi",NA,-0.164114356447964
"CAN",2012,2012,4,0.5,"tv_cpi",NA,0
"CAN",2012,2013,1,0.75,"tv_cpi",NA,0.437034277020132
"CAN",2012,2013,2,1,"tv_cpi",NA,0.489399004633917
"CAN",2012,2012,4,0.25,"tv_cpi",NA,0
"CAN",2012,2013,1,0.5,"tv_cpi",NA,0.437034277020132
"CAN",2012,2013,2,0.75,"tv_cpi",NA,0.489399004633917
"CAN",2012,2013,3,1,"tv_cpi",NA,0.216751079013466
"CAN",2012,2013,1,0.25,"tv_cpi",NA,0.437034277020132
"CAN",2012,2013,2,0.5,"tv_cpi",NA,0.489399004633917
"CAN",2012,2013,3,0.75,"tv_cpi",NA,0.216751079013466
"CAN",2012,2013,4,1,"tv_cpi",NA,-0.216751079013466
"CAN",2013,2013,2,0.25,"tv_cpi",NA,0.489399004633917
"CAN",2013,2013,3,0.5,"tv_cpi",NA,0.216751079013466
"CAN",2013,2013,4,0.75,"tv_cpi",NA,-0.216751079013466
"CAN",2013,2014,1,1,"tv_cpi",NA,0.891057826706287
"CAN",2013,2013,3,0.25,"tv_cpi",NA,0.216751079013466
"CAN",2013,2013,4,0.5,"tv_cpi",NA,-0.216751079013466
"CAN",2013,2014,1,0.75,"tv_cpi",NA,0.891057826706287
"CAN",2013,2014,2,1,"tv_cpi",NA,1.30860213016817
"CAN",2013,2013,4,0.25,"tv_cpi",NA,-0.216751079013466
"CAN",2013,2014,1,0.5,"tv_cpi",NA,0.891057826706287
"CAN",2013,2014,2,0.75,"tv_cpi",NA,1.30860213016817
"CAN",2013,2014,3,1,"tv_cpi",NA,0.0795653103605076
"CAN",2013,2014,1,0.25,"tv_cpi",NA,0.891057826706287
"CAN",2013,2014,2,0.5,"tv_cpi",NA,1.30860213016817
"CAN",2013,2014,3,0.75,"tv_cpi",NA,0.0795653103605076
"CAN",2013,2014,4,1,"tv_cpi",NA,-0.371844235092489
"CAN",2014,2014,2,0.25,"tv_cpi",NA,1.30860213016817
"CAN",2014,2014,3,0.5,"tv_cpi",NA,0.0795653103605076
"CAN",2014,2014,4,0.75,"tv_cpi",NA,-0.371844235092489
"CAN",2014,2015,1,1,"tv_cpi",NA,0.0532024486886939
"CAN",2014,2014,3,0.25,"tv_cpi",NA,0.0795653103605076
"CAN",2014,2014,4,0.5,"tv_cpi",NA,-0.371844235092489
"CAN",2014,2015,1,0.75,"tv_cpi",NA,0.0532024486886939
"CAN",2014,2015,2,1,"tv_cpi",NA,1.13711424398018
"CAN",2014,2014,4,0.25,"tv_cpi",NA,-0.371844235092489
"CAN",2014,2015,1,0.5,"tv_cpi",NA,0.0532024486886939
"CAN",2014,2015,2,0.75,"tv_cpi",NA,1.13711424398018
"CAN",2014,2015,3,1,"tv_cpi",NA,0.367442475515478
"CAN",2014,2015,1,0.25,"tv_cpi",NA,0.0532024486886939
"CAN",2014,2015,2,0.5,"tv_cpi",NA,1.13711424398018
"CAN",2014,2015,3,0.75,"tv_cpi",NA,0.367442475515478
"CAN",2014,2015,4,1,"tv_cpi",NA,-0.236036608597434
"CAN",2015,2015,2,0.25,"tv_cpi",NA,1.13711424398018
"CAN",2015,2015,3,0.5,"tv_cpi",NA,0.367442475515478
"CAN",2015,2015,4,0.75,"tv_cpi",NA,-0.236036608597434
"CAN",2015,2016,1,1,"tv_cpi",NA,0.262294840554755
"CAN",2015,2015,3,0.25,"tv_cpi",NA,0.367442475515478
"CAN",2015,2015,4,0.5,"tv_cpi",NA,-0.236036608597434
"CAN",2015,2016,1,0.75,"tv_cpi",NA,0.262294840554755
"CAN",2015,2016,2,1,"tv_cpi",NA,1.14583608493746
"CAN",2015,2015,4,0.25,"tv_cpi",NA,-0.236036608597434
"CAN",2015,2016,1,0.5,"tv_cpi",NA,0.262294840554755
"CAN",2015,2016,2,0.75,"tv_cpi",NA,1.14583608493746
"CAN",2015,2016,3,1,"tv_cpi",NA,0.0517013286766677
"CAN",2015,2016,1,0.25,"tv_cpi",NA,0.262294840554755
"CAN",2015,2016,2,0.5,"tv_cpi",NA,1.14583608493746
"CAN",2015,2016,3,0.75,"tv_cpi",NA,0.0517013286766677
"CAN",2015,2016,4,1,"tv_cpi",NA,-0.0776603627136829
"CAN",2016,2016,2,0.25,"tv_cpi",NA,1.14583608493746
"CAN",2016,2016,3,0.5,"tv_cpi",NA,0.0517013286766677
"CAN",2016,2016,4,0.75,"tv_cpi",NA,-0.0776603627136829
"CAN",2016,2017,1,1,"tv_cpi",NA,0.774000477482861
"CAN",2016,2016,3,0.25,"tv_cpi",NA,0.0517013286766677
"CAN",2016,2016,4,0.5,"tv_cpi",NA,-0.0776603627136829
"CAN",2016,2017,1,0.75,"tv_cpi",NA,0.774000477482861
"CAN",2016,2017,2,1,"tv_cpi",NA,0.563810483539395
"CAN",2016,2016,4,0.25,"tv_cpi",NA,-0.0776603627136829
"CAN",2016,2017,1,0.5,"tv_cpi",NA,0.774000477482861
"CAN",2016,2017,2,0.75,"tv_cpi",NA,0.563810483539395
"CAN",2016,2017,3,1,"tv_cpi",NA,0.102223218225461
"CAN",2016,2017,1,0.25,"tv_cpi",NA,0.774000477482861
"CAN",2016,2017,2,0.5,"tv_cpi",NA,0.563810483539395
"CAN",2016,2017,3,0.75,"tv_cpi",NA,0.102223218225461
"CAN",2016,2017,4,1,"tv_cpi",NA,0.331360700207561
"CAN",2017,2017,2,0.25,"tv_cpi",NA,0.563810483539395
"CAN",2017,2017,3,0.5,"tv_cpi",NA,0.102223218225461
"CAN",2017,2017,4,0.75,"tv_cpi",NA,0.331360700207561
"CAN",2017,2018,1,1,"tv_cpi",NA,1.0378524321518
"CAN",2017,2017,3,0.25,"tv_cpi",NA,0.102223218225461
"CAN",2017,2017,4,0.5,"tv_cpi",NA,0.331360700207561
"CAN",2017,2018,1,0.75,"tv_cpi",NA,1.0378524321518
"CAN",2017,2018,2,1,"tv_cpi",NA,0.802545545231759
"CAN",2017,2017,4,0.25,"tv_cpi",NA,0.331360700207561
"CAN",2017,2018,1,0.5,"tv_cpi",NA,1.0378524321518
"CAN",2017,2018,2,0.75,"tv_cpi",NA,0.802545545231759
"CAN",2017,2018,3,1,"tv_cpi",NA,0.473525968673538
"CAN",2017,2018,1,0.25,"tv_cpi",NA,1.0378524321518
"CAN",2017,2018,2,0.5,"tv_cpi",NA,0.802545545231759
"CAN",2017,2018,3,0.75,"tv_cpi",NA,0.473525968673538
"CAN",2017,2018,4,1,"tv_cpi",NA,-0.298768182590425
"CAN",2018,2018,2,0.25,"tv_cpi",NA,0.802545545231759
"CAN",2018,2018,3,0.5,"tv_cpi",NA,0.473525968673538
"CAN",2018,2018,4,0.75,"tv_cpi",NA,-0.298768182590425
"CAN",2018,2019,1,1,"tv_cpi",NA,0.62149231230304
"CAN",2018,2018,3,0.25,"tv_cpi",NA,0.473525968673538
"CAN",2018,2018,4,0.5,"tv_cpi",NA,-0.298768182590425
"CAN",2018,2019,1,0.75,"tv_cpi",NA,0.62149231230304
"CAN",2018,2019,2,1,"tv_cpi",NA,1.3294368873602
"CAN",2018,2018,4,0.25,"tv_cpi",NA,-0.298768182590425
"CAN",2018,2019,1,0.5,"tv_cpi",NA,0.62149231230304
"CAN",2018,2019,2,0.75,"tv_cpi",NA,1.3294368873602
"CAN",2018,2019,3,1,"tv_cpi",NA,0.268650967925055
"CAN",2018,2019,1,0.25,"tv_cpi",NA,0.62149231230304
"CAN",2018,2019,2,0.5,"tv_cpi",NA,1.3294368873602
"CAN",2018,2019,3,0.75,"tv_cpi",NA,0.268650967925055
"CAN",2018,2019,4,1,"tv_cpi",NA,-0.146430550441412
"CAN",2019,2019,2,0.25,"tv_cpi",NA,1.3294368873602
"CAN",2019,2019,3,0.5,"tv_cpi",NA,0.268650967925055
"CAN",2019,2019,4,0.75,"tv_cpi",NA,-0.146430550441412
"CAN",2019,2020,1,1,"tv_cpi",NA,0.341369149172444
"CAN",2019,2019,3,0.25,"tv_cpi",NA,0.268650967925055
"CAN",2019,2019,4,0.5,"tv_cpi",NA,-0.146430550441412
"CAN",2019,2020,1,0.75,"tv_cpi",NA,0.341369149172444
"CAN",2019,2020,2,1,"tv_cpi",NA,-0.439170664447541
"CAN",2019,2019,4,0.25,"tv_cpi",NA,-0.146430550441412
"CAN",2019,2020,1,0.5,"tv_cpi",NA,0.341369149172444
"CAN",2019,2020,2,0.75,"tv_cpi",NA,-0.439170664447541
"CAN",2019,2020,3,1,"tv_cpi",NA,0.512163233534135
"CAN",2019,2020,1,0.25,"tv_cpi",NA,0.341369149172444
"CAN",2019,2020,2,0.5,"tv_cpi",NA,-0.439170664447541
"CAN",2019,2020,3,0.75,"tv_cpi",NA,0.512163233534135
"CAN",2019,2020,4,1,"tv_cpi",NA,0.364165790699822
"CAN",2020,2020,2,0.25,"tv_cpi",NA,-0.439170664447541
"CAN",2020,2020,3,0.5,"tv_cpi",NA,0.512163233534135
"CAN",2020,2020,4,0.75,"tv_cpi",NA,0.364165790699822
"CAN",2020,2021,1,1,"tv_cpi",NA,0.988794242900592
"CAN",2020,2020,3,0.25,"tv_cpi",NA,0.512163233534135
"CAN",2020,2020,4,0.5,"tv_cpi",NA,0.364165790699822
"CAN",2020,2021,1,0.75,"tv_cpi",NA,0.988794242900592
"CAN",2020,2021,2,1,"tv_cpi",NA,1.42962195873286
"CAN",2020,2020,4,0.25,"tv_cpi",NA,0.364165790699822
"CAN",2020,2021,1,0.5,"tv_cpi",NA,0.988794242900592
"CAN",2020,2021,2,0.75,"tv_cpi",NA,1.42962195873286
"CAN",2020,2021,3,1,"tv_cpi",NA,1.19933971089061
"CAN",2020,2021,1,0.25,"tv_cpi",NA,0.988794242900592
"CAN",2020,2021,2,0.5,"tv_cpi",NA,1.42962195873286
"CAN",2020,2021,3,0.75,"tv_cpi",NA,1.19933971089061
"CAN",2020,2021,4,1,"tv_cpi",NA,1.00014831239861
"CAN",2021,2021,2,0.25,"tv_cpi",NA,1.42962195873286
"CAN",2021,2021,3,0.5,"tv_cpi",NA,1.19933971089061
"CAN",2021,2021,4,0.75,"tv_cpi",NA,1.00014831239861
"CAN",2021,2022,1,1,"tv_cpi",NA,2.03873469150206
"CAN",2021,2021,3,0.25,"tv_cpi",NA,1.19933971089061
"CAN",2021,2021,4,0.5,"tv_cpi",NA,1.00014831239861
"CAN",2021,2022,1,0.75,"tv_cpi",NA,2.03873469150206
"CAN",2021,2022,2,1,"tv_cpi",NA,3.03732503687666
"CAN",2021,2021,4,0.25,"tv_cpi",NA,1.00014831239861
"CAN",2021,2022,1,0.5,"tv_cpi",NA,2.03873469150206
"CAN",2021,2022,2,0.75,"tv_cpi",NA,3.03732503687666
"CAN",2021,2022,3,1,"tv_cpi",NA,0.832433597551585
"CAN",2021,2022,1,0.25,"tv_cpi",NA,2.03873469150206
"CAN",2021,2022,2,0.5,"tv_cpi",NA,3.03732503687666
"CAN",2021,2022,3,0.75,"tv_cpi",NA,0.832433597551585
"CAN",2021,2022,4,1,"tv_cpi",NA,0.543881409523017
"CAN",2022,2022,2,0.25,"tv_cpi",NA,3.03732503687666
"CAN",2022,2022,3,0.5,"tv_cpi",NA,0.832433597551585
"CAN",2022,2022,4,0.75,"tv_cpi",NA,0.543881409523017
"CAN",2022,2023,1,1,"tv_cpi",NA,0.605649304378275
"CAN",2022,2022,3,0.25,"tv_cpi",NA,0.832433597551585
"CAN",2022,2022,4,0.5,"tv_cpi",NA,0.543881409523017
"CAN",2022,2023,1,0.75,"tv_cpi",NA,0.605649304378275
"CAN",2022,2023,2,1,"tv_cpi",NA,1.47704936687578
"CAN",2022,2022,4,0.25,"tv_cpi",NA,0.543881409523017
"CAN",2022,2023,1,0.5,"tv_cpi",NA,0.605649304378275
"CAN",2022,2023,2,0.75,"tv_cpi",NA,1.47704936687578
"CAN",2022,2023,3,1,"tv_cpi",NA,0.993835595806036
"CAN",2022,2023,1,0.25,"tv_cpi",NA,0.605649304378275
"CAN",2022,2023,2,0.5,"tv_cpi",NA,1.47704936687578
"CAN",2022,2023,3,0.75,"tv_cpi",NA,0.993835595806036
"CAN",2022,2023,4,1,"tv_cpi",NA,0.0840849858833259
"CAN",2023,2023,2,0.25,"tv_cpi",NA,1.47704936687578
"CAN",2023,2023,3,0.5,"tv_cpi",NA,0.993835595806036
"CAN",2023,2023,4,0.75,"tv_cpi",NA,0.0840849858833259
"CAN",2023,2024,1,1,"tv_cpi",NA,NA
"CAN",2023,2023,3,0.25,"tv_cpi",NA,0.993835595806036
"CAN",2023,2023,4,0.5,"tv_cpi",NA,0.0840849858833259
"CAN",2023,2024,1,0.75,"tv_cpi",NA,NA
"CAN",2023,2024,2,1,"tv_cpi",NA,NA
"CAN",2023,2023,4,0.25,"tv_cpi",NA,0.0840849858833259
"CAN",2023,2024,1,0.5,"tv_cpi",NA,NA
"CAN",2023,2024,2,0.75,"tv_cpi",NA,NA
"CAN",2023,2024,3,1,"tv_cpi",NA,NA
"CAN",2023,2024,1,0.25,"tv_cpi",NA,NA
"CAN",2023,2024,2,0.5,"tv_cpi",NA,0.0840849858833259
"CAN",2023,2024,3,0.75,"tv_cpi",NA,NA
"CAN",2023,2024,4,1,"tv_cpi",NA,NA
"CAN",1961,1962,1,0.25,"tv_gdp",NA,2.660950188
"CAN",1961,1962,2,0.5,"tv_gdp",NA,0.794766259
"CAN",1961,1962,3,0.75,"tv_gdp",NA,1.278910818
"CAN",1961,1962,4,1,"tv_gdp",NA,1.962242774
"CAN",1962,1962,2,0.25,"tv_gdp",NA,0.794766259
"CAN",1962,1962,3,0.5,"tv_gdp",NA,1.278910818
"CAN",1962,1962,4,0.75,"tv_gdp",NA,1.962242774
"CAN",1962,1963,1,1,"tv_gdp",NA,0.63408554
"CAN",1962,1962,3,0.25,"tv_gdp",NA,1.278910818
"CAN",1962,1962,4,0.5,"tv_gdp",NA,1.962242774
"CAN",1962,1963,1,0.75,"tv_gdp",NA,0.63408554
"CAN",1962,1963,2,1,"tv_gdp",NA,1.454368266
"CAN",1962,1962,4,0.25,"tv_gdp",NA,1.962242774
"CAN",1962,1963,1,0.5,"tv_gdp",NA,0.63408554
"CAN",1962,1963,2,0.75,"tv_gdp",NA,1.454368266
"CAN",1962,1963,3,1,"tv_gdp",NA,0.759938107
"CAN",1962,1963,1,0.25,"tv_gdp",NA,0.63408554
"CAN",1962,1963,2,0.5,"tv_gdp",NA,1.454368266
"CAN",1962,1963,3,0.75,"tv_gdp",NA,0.759938107
"CAN",1962,1963,4,1,"tv_gdp",NA,3.129534749
"CAN",1963,1963,2,0.25,"tv_gdp",NA,1.454368266
"CAN",1963,1963,3,0.5,"tv_gdp",NA,0.759938107
"CAN",1963,1963,4,0.75,"tv_gdp",NA,3.129534749
"CAN",1963,1964,1,1,"tv_gdp",NA,2.503381101
"CAN",1963,1963,3,0.25,"tv_gdp",NA,0.759938107
"CAN",1963,1963,4,0.5,"tv_gdp",NA,3.129534749
"CAN",1963,1964,1,0.75,"tv_gdp",NA,2.503381101
"CAN",1963,1964,2,1,"tv_gdp",NA,0.37449939
"CAN",1963,1963,4,0.25,"tv_gdp",NA,3.129534749
"CAN",1963,1964,1,0.5,"tv_gdp",NA,2.503381101
"CAN",1963,1964,2,0.75,"tv_gdp",NA,0.37449939
"CAN",1963,1964,3,1,"tv_gdp",NA,1.067302224
"CAN",1963,1964,1,0.25,"tv_gdp",NA,2.503381101
"CAN",1963,1964,2,0.5,"tv_gdp",NA,0.37449939
"CAN",1963,1964,3,0.75,"tv_gdp",NA,1.067302224
"CAN",1963,1964,4,1,"tv_gdp",NA,0.501631232
"CAN",1964,1964,2,0.25,"tv_gdp",NA,0.37449939
"CAN",1964,1964,3,0.5,"tv_gdp",NA,1.067302224
"CAN",1964,1964,4,0.75,"tv_gdp",NA,0.501631232
"CAN",1964,1965,1,1,"tv_gdp",NA,3.181038821
"CAN",1964,1964,3,0.25,"tv_gdp",NA,1.067302224
"CAN",1964,1964,4,0.5,"tv_gdp",NA,0.501631232
"CAN",1964,1965,1,0.75,"tv_gdp",NA,3.181038821
"CAN",1964,1965,2,1,"tv_gdp",NA,0.915536674
"CAN",1964,1964,4,0.25,"tv_gdp",NA,0.501631232
"CAN",1964,1965,1,0.5,"tv_gdp",NA,3.181038821
"CAN",1964,1965,2,0.75,"tv_gdp",NA,0.915536674
"CAN",1964,1965,3,1,"tv_gdp",NA,1.395578506
"CAN",1964,1965,1,0.25,"tv_gdp",NA,3.181038821
"CAN",1964,1965,2,0.5,"tv_gdp",NA,0.915536674
"CAN",1964,1965,3,0.75,"tv_gdp",NA,1.395578506
"CAN",1964,1965,4,1,"tv_gdp",NA,2.45084687
"CAN",1965,1965,2,0.25,"tv_gdp",NA,0.915536674
"CAN",1965,1965,3,0.5,"tv_gdp",NA,1.395578506
"CAN",1965,1965,4,0.75,"tv_gdp",NA,2.45084687
"CAN",1965,1966,1,1,"tv_gdp",NA,1.945879533
"CAN",1965,1965,3,0.25,"tv_gdp",NA,1.395578506
"CAN",1965,1965,4,0.5,"tv_gdp",NA,2.45084687
"CAN",1965,1966,1,0.75,"tv_gdp",NA,1.945879533
"CAN",1965,1966,2,1,"tv_gdp",NA,2.158665681
"CAN",1965,1965,4,0.25,"tv_gdp",NA,2.45084687
"CAN",1965,1966,1,0.5,"tv_gdp",NA,1.945879533
"CAN",1965,1966,2,0.75,"tv_gdp",NA,2.158665681
"CAN",1965,1966,3,1,"tv_gdp",NA,-0.047768976
"CAN",1965,1966,1,0.25,"tv_gdp",NA,1.945879533
"CAN",1965,1966,2,0.5,"tv_gdp",NA,2.158665681
"CAN",1965,1966,3,0.75,"tv_gdp",NA,-0.047768976
"CAN",1965,1966,4,1,"tv_gdp",NA,1.239297635
"CAN",1966,1966,2,0.25,"tv_gdp",NA,2.158665681
"CAN",1966,1966,3,0.5,"tv_gdp",NA,-0.047768976
"CAN",1966,1966,4,0.75,"tv_gdp",NA,1.239297635
"CAN",1966,1967,1,1,"tv_gdp",NA,-0.225331116
"CAN",1966,1966,3,0.25,"tv_gdp",NA,-0.047768976
"CAN",1966,1966,4,0.5,"tv_gdp",NA,1.239297635
"CAN",1966,1967,1,0.75,"tv_gdp",NA,-0.225331116
"CAN",1966,1967,2,1,"tv_gdp",NA,2.083321361
"CAN",1966,1966,4,0.25,"tv_gdp",NA,1.239297635
"CAN",1966,1967,1,0.5,"tv_gdp",NA,-0.225331116
"CAN",1966,1967,2,0.75,"tv_gdp",NA,2.083321361
"CAN",1966,1967,3,1,"tv_gdp",NA,0.315240174
"CAN",1966,1967,1,0.25,"tv_gdp",NA,-0.225331116
"CAN",1966,1967,2,0.5,"tv_gdp",NA,2.083321361
"CAN",1966,1967,3,0.75,"tv_gdp",NA,0.315240174
"CAN",1966,1967,4,1,"tv_gdp",NA,0.43564712
"CAN",1967,1967,2,0.25,"tv_gdp",NA,2.083321361
"CAN",1967,1967,3,0.5,"tv_gdp",NA,0.315240174
"CAN",1967,1967,4,0.75,"tv_gdp",NA,0.43564712
"CAN",1967,1968,1,1,"tv_gdp",NA,0.85242934
"CAN",1967,1967,3,0.25,"tv_gdp",NA,0.315240174
"CAN",1967,1967,4,0.5,"tv_gdp",NA,0.43564712
"CAN",1967,1968,1,0.75,"tv_gdp",NA,0.85242934
"CAN",1967,1968,2,1,"tv_gdp",NA,2.688393446
"CAN",1967,1967,4,0.25,"tv_gdp",NA,0.43564712
"CAN",1967,1968,1,0.5,"tv_gdp",NA,0.85242934
"CAN",1967,1968,2,0.75,"tv_gdp",NA,2.688393446
"CAN",1967,1968,3,1,"tv_gdp",NA,1.392807753
"CAN",1967,1968,1,0.25,"tv_gdp",NA,0.85242934
"CAN",1967,1968,2,0.5,"tv_gdp",NA,2.688393446
"CAN",1967,1968,3,0.75,"tv_gdp",NA,1.392807753
"CAN",1967,1968,4,1,"tv_gdp",NA,1.384671595
"CAN",1968,1968,2,0.25,"tv_gdp",NA,2.688393446
"CAN",1968,1968,3,0.5,"tv_gdp",NA,1.392807753
"CAN",1968,1968,4,0.75,"tv_gdp",NA,1.384671595
"CAN",1968,1969,1,1,"tv_gdp",NA,1.369084169
"CAN",1968,1968,3,0.25,"tv_gdp",NA,1.392807753
"CAN",1968,1968,4,0.5,"tv_gdp",NA,1.384671595
"CAN",1968,1969,1,0.75,"tv_gdp",NA,1.369084169
"CAN",1968,1969,2,1,"tv_gdp",NA,0.411425337
"CAN",1968,1968,4,0.25,"tv_gdp",NA,1.384671595
"CAN",1968,1969,1,0.5,"tv_gdp",NA,1.369084169
"CAN",1968,1969,2,0.75,"tv_gdp",NA,0.411425337
"CAN",1968,1969,3,1,"tv_gdp",NA,1.109424869
"CAN",1968,1969,1,0.25,"tv_gdp",NA,1.369084169
"CAN",1968,1969,2,0.5,"tv_gdp",NA,0.411425337
"CAN",1968,1969,3,0.75,"tv_gdp",NA,1.109424869
"CAN",1968,1969,4,1,"tv_gdp",NA,1.413083388
"CAN",1969,1969,2,0.25,"tv_gdp",NA,0.411425337
"CAN",1969,1969,3,0.5,"tv_gdp",NA,1.109424869
"CAN",1969,1969,4,0.75,"tv_gdp",NA,1.413083388
"CAN",1969,1970,1,1,"tv_gdp",NA,0.618000976
"CAN",1969,1969,3,0.25,"tv_gdp",NA,1.109424869
"CAN",1969,1969,4,0.5,"tv_gdp",NA,1.413083388
"CAN",1969,1970,1,0.75,"tv_gdp",NA,0.618000976
"CAN",1969,1970,2,1,"tv_gdp",NA,0.008329335
"CAN",1969,1969,4,0.25,"tv_gdp",NA,1.413083388
"CAN",1969,1970,1,0.5,"tv_gdp",NA,0.618000976
"CAN",1969,1970,2,0.75,"tv_gdp",NA,0.008329335
"CAN",1969,1970,3,1,"tv_gdp",NA,1.034916997
"CAN",1969,1970,1,0.25,"tv_gdp",NA,0.618000976
"CAN",1969,1970,2,0.5,"tv_gdp",NA,0.008329335
"CAN",1969,1970,3,0.75,"tv_gdp",NA,1.034916997
"CAN",1969,1970,4,1,"tv_gdp",NA,0.151842137
"CAN",1970,1970,2,0.25,"tv_gdp",NA,0.008329335
"CAN",1970,1970,3,0.5,"tv_gdp",NA,1.034916997
"CAN",1970,1970,4,0.75,"tv_gdp",NA,0.151842137
"CAN",1970,1971,1,1,"tv_gdp",NA,-0.514427002
"CAN",1970,1970,3,0.25,"tv_gdp",NA,1.034916997
"CAN",1970,1970,4,0.5,"tv_gdp",NA,0.151842137
"CAN",1970,1971,1,0.75,"tv_gdp",NA,-0.514427002
"CAN",1970,1971,2,1,"tv_gdp",NA,2.919845718
"CAN",1970,1970,4,0.25,"tv_gdp",NA,0.151842137
"CAN",1970,1971,1,0.5,"tv_gdp",NA,-0.514427002
"CAN",1970,1971,2,0.75,"tv_gdp",NA,2.919845718
"CAN",1970,1971,3,1,"tv_gdp",NA,2.763535924
"CAN",1970,1971,1,0.25,"tv_gdp",NA,-0.514427002
"CAN",1970,1971,2,0.5,"tv_gdp",NA,2.919845718
"CAN",1970,1971,3,0.75,"tv_gdp",NA,2.763535924
"CAN",1970,1971,4,1,"tv_gdp",NA,1.092959439
"CAN",1971,1971,2,0.25,"tv_gdp",NA,2.919845718
"CAN",1971,1971,3,0.5,"tv_gdp",NA,2.763535924
"CAN",1971,1971,4,0.75,"tv_gdp",NA,1.092959439
"CAN",1971,1972,1,1,"tv_gdp",NA,-0.334587909
"CAN",1971,1971,3,0.25,"tv_gdp",NA,2.763535924
"CAN",1971,1971,4,0.5,"tv_gdp",NA,1.092959439
"CAN",1971,1972,1,0.75,"tv_gdp",NA,-0.334587909
"CAN",1971,1972,2,1,"tv_gdp",NA,2.834911476
"CAN",1971,1971,4,0.25,"tv_gdp",NA,1.092959439
"CAN",1971,1972,1,0.5,"tv_gdp",NA,-0.334587909
"CAN",1971,1972,2,0.75,"tv_gdp",NA,2.834911476
"CAN",1971,1972,3,1,"tv_gdp",NA,0.296709917
"CAN",1971,1972,1,0.25,"tv_gdp",NA,-0.334587909
"CAN",1971,1972,2,0.5,"tv_gdp",NA,2.834911476
"CAN",1971,1972,3,0.75,"tv_gdp",NA,0.296709917
"CAN",1971,1972,4,1,"tv_gdp",NA,2.348892248
"CAN",1972,1972,2,0.25,"tv_gdp",NA,2.834911476
"CAN",1972,1972,3,0.5,"tv_gdp",NA,0.296709917
"CAN",1972,1972,4,0.75,"tv_gdp",NA,2.348892248
"CAN",1972,1973,1,1,"tv_gdp",NA,2.566523984
"CAN",1972,1972,3,0.25,"tv_gdp",NA,0.296709917
"CAN",1972,1972,4,0.5,"tv_gdp",NA,2.348892248
"CAN",1972,1973,1,0.75,"tv_gdp",NA,2.566523984
"CAN",1972,1973,2,1,"tv_gdp",NA,0.953995394
"CAN",1972,1972,4,0.25,"tv_gdp",NA,2.348892248
"CAN",1972,1973,1,0.5,"tv_gdp",NA,2.566523984
"CAN",1972,1973,2,0.75,"tv_gdp",NA,0.953995394
"CAN",1972,1973,3,1,"tv_gdp",NA,0.464961005
"CAN",1972,1973,1,0.25,"tv_gdp",NA,2.566523984
"CAN",1972,1973,2,0.5,"tv_gdp",NA,0.953995394
"CAN",1972,1973,3,0.75,"tv_gdp",NA,0.464961005
"CAN",1972,1973,4,1,"tv_gdp",NA,1.844449189
"CAN",1973,1973,2,0.25,"tv_gdp",NA,0.953995394
"CAN",1973,1973,3,0.5,"tv_gdp",NA,0.464961005
"CAN",1973,1973,4,0.75,"tv_gdp",NA,1.844449189
"CAN",1973,1974,1,1,"tv_gdp",NA,0.827632743
"CAN",1973,1973,3,0.25,"tv_gdp",NA,0.464961005
"CAN",1973,1973,4,0.5,"tv_gdp",NA,1.844449189
"CAN",1973,1974,1,0.75,"tv_gdp",NA,0.827632743
"CAN",1973,1974,2,1,"tv_gdp",NA,1.025739182
"CAN",1973,1973,4,0.25,"tv_gdp",NA,1.844449189
"CAN",1973,1974,1,0.5,"tv_gdp",NA,0.827632743
"CAN",1973,1974,2,0.75,"tv_gdp",NA,1.025739182
"CAN",1973,1974,3,1,"tv_gdp",NA,0.01921879
"CAN",1973,1974,1,0.25,"tv_gdp",NA,0.827632743
"CAN",1973,1974,2,0.5,"tv_gdp",NA,1.025739182
"CAN",1973,1974,3,0.75,"tv_gdp",NA,0.01921879
"CAN",1973,1974,4,1,"tv_gdp",NA,-0.520988065
"CAN",1974,1974,2,0.25,"tv_gdp",NA,1.025739182
"CAN",1974,1974,3,0.5,"tv_gdp",NA,0.01921879
"CAN",1974,1974,4,0.75,"tv_gdp",NA,-0.520988065
"CAN",1974,1975,1,1,"tv_gdp",NA,-0.544813179
"CAN",1974,1974,3,0.25,"tv_gdp",NA,0.01921879
"CAN",1974,1974,4,0.5,"tv_gdp",NA,-0.520988065
"CAN",1974,1975,1,0.75,"tv_gdp",NA,-0.544813179
"CAN",1974,1975,2,1,"tv_gdp",NA,1.282923644
"CAN",1974,1974,4,0.25,"tv_gdp",NA,-0.520988065
"CAN",1974,1975,1,0.5,"tv_gdp",NA,-0.544813179
"CAN",1974,1975,2,0.75,"tv_gdp",NA,1.282923644
"CAN",1974,1975,3,1,"tv_gdp",NA,1.918505342
"CAN",1974,1975,1,0.25,"tv_gdp",NA,-0.544813179
"CAN",1974,1975,2,0.5,"tv_gdp",NA,1.282923644
"CAN",1974,1975,3,0.75,"tv_gdp",NA,1.918505342
"CAN",1974,1975,4,1,"tv_gdp",NA,1.157163082
"CAN",1975,1975,2,0.25,"tv_gdp",NA,1.282923644
"CAN",1975,1975,3,0.5,"tv_gdp",NA,1.918505342
"CAN",1975,1975,4,0.75,"tv_gdp",NA,1.157163082
"CAN",1975,1976,1,1,"tv_gdp",NA,1.742666777
"CAN",1975,1975,3,0.25,"tv_gdp",NA,1.918505342
"CAN",1975,1975,4,0.5,"tv_gdp",NA,1.157163082
"CAN",1975,1976,1,0.75,"tv_gdp",NA,1.742666777
"CAN",1975,1976,2,1,"tv_gdp",NA,2.156483453
"CAN",1975,1975,4,0.25,"tv_gdp",NA,1.157163082
"CAN",1975,1976,1,0.5,"tv_gdp",NA,1.742666777
"CAN",1975,1976,2,0.75,"tv_gdp",NA,2.156483453
"CAN",1975,1976,3,1,"tv_gdp",NA,0.461713212
"CAN",1975,1976,1,0.25,"tv_gdp",NA,1.742666777
"CAN",1975,1976,2,0.5,"tv_gdp",NA,2.156483453
"CAN",1975,1976,3,0.75,"tv_gdp",NA,0.461713212
"CAN",1975,1976,4,1,"tv_gdp",NA,0.161577012
"CAN",1976,1976,2,0.25,"tv_gdp",NA,2.156483453
"CAN",1976,1976,3,0.5,"tv_gdp",NA,0.461713212
"CAN",1976,1976,4,0.75,"tv_gdp",NA,0.161577012
"CAN",1976,1977,1,1,"tv_gdp",NA,1.533829769
"CAN",1976,1976,3,0.25,"tv_gdp",NA,0.461713212
"CAN",1976,1976,4,0.5,"tv_gdp",NA,0.161577012
"CAN",1976,1977,1,0.75,"tv_gdp",NA,1.533829769
"CAN",1976,1977,2,1,"tv_gdp",NA,0.510302318
"CAN",1976,1976,4,0.25,"tv_gdp",NA,0.161577012
"CAN",1976,1977,1,0.5,"tv_gdp",NA,1.533829769
"CAN",1976,1977,2,0.75,"tv_gdp",NA,0.510302318
"CAN",1976,1977,3,1,"tv_gdp",NA,0.587798364
"CAN",1976,1977,1,0.25,"tv_gdp",NA,1.533829769
"CAN",1976,1977,2,0.5,"tv_gdp",NA,0.510302318
"CAN",1976,1977,3,0.75,"tv_gdp",NA,0.587798364
"CAN",1976,1977,4,1,"tv_gdp",NA,1.584637482
"CAN",1977,1977,2,0.25,"tv_gdp",NA,0.510302318
"CAN",1977,1977,3,0.5,"tv_gdp",NA,0.587798364
"CAN",1977,1977,4,0.75,"tv_gdp",NA,1.584637482
"CAN",1977,1978,1,1,"tv_gdp",NA,0.863597549
"CAN",1977,1977,3,0.25,"tv_gdp",NA,0.587798364
"CAN",1977,1977,4,0.5,"tv_gdp",NA,1.584637482
"CAN",1977,1978,1,0.75,"tv_gdp",NA,0.863597549
"CAN",1977,1978,2,1,"tv_gdp",NA,0.680645726
"CAN",1977,1977,4,0.25,"tv_gdp",NA,1.584637482
"CAN",1977,1978,1,0.5,"tv_gdp",NA,0.863597549
"CAN",1977,1978,2,0.75,"tv_gdp",NA,0.680645726
"CAN",1977,1978,3,1,"tv_gdp",NA,0.932836265
"CAN",1977,1978,1,0.25,"tv_gdp",NA,0.863597549
"CAN",1977,1978,2,0.5,"tv_gdp",NA,0.680645726
"CAN",1977,1978,3,0.75,"tv_gdp",NA,0.932836265
"CAN",1977,1978,4,1,"tv_gdp",NA,0.948169861
"CAN",1978,1978,2,0.25,"tv_gdp",NA,0.680645726
"CAN",1978,1978,3,0.5,"tv_gdp",NA,0.932836265
"CAN",1978,1978,4,0.75,"tv_gdp",NA,0.948169861
"CAN",1978,1979,1,1,"tv_gdp",NA,0.797819177
"CAN",1978,1978,3,0.25,"tv_gdp",NA,0.932836265
"CAN",1978,1978,4,0.5,"tv_gdp",NA,0.948169861
"CAN",1978,1979,1,0.75,"tv_gdp",NA,0.797819177
"CAN",1978,1979,2,1,"tv_gdp",NA,1.326596172
"CAN",1978,1978,4,0.25,"tv_gdp",NA,0.948169861
"CAN",1978,1979,1,0.5,"tv_gdp",NA,0.797819177
"CAN",1978,1979,2,0.75,"tv_gdp",NA,1.326596172
"CAN",1978,1979,3,1,"tv_gdp",NA,0.733071541
"CAN",1978,1979,1,0.25,"tv_gdp",NA,0.797819177
"CAN",1978,1979,2,0.5,"tv_gdp",NA,1.326596172
"CAN",1978,1979,3,0.75,"tv_gdp",NA,0.733071541
"CAN",1978,1979,4,1,"tv_gdp",NA,0.670926663
"CAN",1979,1979,2,0.25,"tv_gdp",NA,1.326596172
"CAN",1979,1979,3,0.5,"tv_gdp",NA,0.733071541
"CAN",1979,1979,4,0.75,"tv_gdp",NA,0.670926663
"CAN",1979,1980,1,1,"tv_gdp",NA,0.694332365
"CAN",1979,1979,3,0.25,"tv_gdp",NA,0.733071541
"CAN",1979,1979,4,0.5,"tv_gdp",NA,0.670926663
"CAN",1979,1980,1,0.75,"tv_gdp",NA,0.694332365
"CAN",1979,1980,2,1,"tv_gdp",NA,-0.043713005
"CAN",1979,1979,4,0.25,"tv_gdp",NA,0.670926663
"CAN",1979,1980,1,0.5,"tv_gdp",NA,0.694332365
"CAN",1979,1980,2,0.75,"tv_gdp",NA,-0.043713005
"CAN",1979,1980,3,1,"tv_gdp",NA,-0.083091031
"CAN",1979,1980,1,0.25,"tv_gdp",NA,0.694332365
"CAN",1979,1980,2,0.5,"tv_gdp",NA,-0.043713005
"CAN",1979,1980,3,0.75,"tv_gdp",NA,-0.083091031
"CAN",1979,1980,4,1,"tv_gdp",NA,1.383645399
"CAN",1980,1980,2,0.25,"tv_gdp",NA,-0.043713005
"CAN",1980,1980,3,0.5,"tv_gdp",NA,-0.083091031
"CAN",1980,1980,4,0.75,"tv_gdp",NA,1.383645399
"CAN",1980,1981,1,1,"tv_gdp",NA,2.154351265
"CAN",1980,1980,3,0.25,"tv_gdp",NA,-0.083091031
"CAN",1980,1980,4,0.5,"tv_gdp",NA,1.383645399
"CAN",1980,1981,1,0.75,"tv_gdp",NA,2.154351265
"CAN",1980,1981,2,1,"tv_gdp",NA,1.093360409
"CAN",1980,1980,4,0.25,"tv_gdp",NA,1.383645399
"CAN",1980,1981,1,0.5,"tv_gdp",NA,2.154351265
"CAN",1980,1981,2,0.75,"tv_gdp",NA,1.093360409
"CAN",1980,1981,3,1,"tv_gdp",NA,-0.899099935
"CAN",1980,1981,1,0.25,"tv_gdp",NA,2.154351265
"CAN",1980,1981,2,0.5,"tv_gdp",NA,1.093360409
"CAN",1980,1981,3,0.75,"tv_gdp",NA,-0.899099935
"CAN",1980,1981,4,1,"tv_gdp",NA,-0.459901898
"CAN",1981,1981,2,0.25,"tv_gdp",NA,1.093360409
"CAN",1981,1981,3,0.5,"tv_gdp",NA,-0.899099935
"CAN",1981,1981,4,0.75,"tv_gdp",NA,-0.459901898
"CAN",1981,1982,1,1,"tv_gdp",NA,-1.144418136
"CAN",1981,1981,3,0.25,"tv_gdp",NA,-0.899099935
"CAN",1981,1981,4,0.5,"tv_gdp",NA,-0.459901898
"CAN",1981,1982,1,0.75,"tv_gdp",NA,-1.144418136
"CAN",1981,1982,2,1,"tv_gdp",NA,-1.151291383
"CAN",1981,1981,4,0.25,"tv_gdp",NA,-0.459901898
"CAN",1981,1982,1,0.5,"tv_gdp",NA,-1.144418136
"CAN",1981,1982,2,0.75,"tv_gdp",NA,-1.151291383
"CAN",1981,1982,3,1,"tv_gdp",NA,-0.886813665
"CAN",1981,1982,1,0.25,"tv_gdp",NA,-1.144418136
"CAN",1981,1982,2,0.5,"tv_gdp",NA,-1.151291383
"CAN",1981,1982,3,0.75,"tv_gdp",NA,-0.886813665
"CAN",1981,1982,4,1,"tv_gdp",NA,-0.922796955
"CAN",1982,1982,2,0.25,"tv_gdp",NA,-1.151291383
"CAN",1982,1982,3,0.5,"tv_gdp",NA,-0.886813665
"CAN",1982,1982,4,0.75,"tv_gdp",NA,-0.922796955
"CAN",1982,1983,1,1,"tv_gdp",NA,1.634267065
"CAN",1982,1982,3,0.25,"tv_gdp",NA,-0.886813665
"CAN",1982,1982,4,0.5,"tv_gdp",NA,-0.922796955
"CAN",1982,1983,1,0.75,"tv_gdp",NA,1.634267065
"CAN",1982,1983,2,1,"tv_gdp",NA,1.972771607
"CAN",1982,1982,4,0.25,"tv_gdp",NA,-0.922796955
"CAN",1982,1983,1,0.5,"tv_gdp",NA,1.634267065
"CAN",1982,1983,2,0.75,"tv_gdp",NA,1.972771607
"CAN",1982,1983,3,1,"tv_gdp",NA,1.123439591
"CAN",1982,1983,1,0.25,"tv_gdp",NA,1.634267065
"CAN",1982,1983,2,0.5,"tv_gdp",NA,1.972771607
"CAN",1982,1983,3,0.75,"tv_gdp",NA,1.123439591
"CAN",1982,1983,4,1,"tv_gdp",NA,1.243210478
"CAN",1983,1983,2,0.25,"tv_gdp",NA,1.972771607
"CAN",1983,1983,3,0.5,"tv_gdp",NA,1.123439591
"CAN",1983,1983,4,0.75,"tv_gdp",NA,1.243210478
"CAN",1983,1984,1,1,"tv_gdp",NA,1.731993046
"CAN",1983,1983,3,0.25,"tv_gdp",NA,1.123439591
"CAN",1983,1983,4,0.5,"tv_gdp",NA,1.243210478
"CAN",1983,1984,1,0.75,"tv_gdp",NA,1.731993046
"CAN",1983,1984,2,1,"tv_gdp",NA,1.940640467
"CAN",1983,1983,4,0.25,"tv_gdp",NA,1.243210478
"CAN",1983,1984,1,0.5,"tv_gdp",NA,1.731993046
"CAN",1983,1984,2,0.75,"tv_gdp",NA,1.940640467
"CAN",1983,1984,3,1,"tv_gdp",NA,0.429949956
"CAN",1983,1984,1,0.25,"tv_gdp",NA,1.731993046
"CAN",1983,1984,2,0.5,"tv_gdp",NA,1.940640467
"CAN",1983,1984,3,0.75,"tv_gdp",NA,0.429949956
"CAN",1983,1984,4,1,"tv_gdp",NA,1.560682803
"CAN",1984,1984,2,0.25,"tv_gdp",NA,1.940640467
"CAN",1984,1984,3,0.5,"tv_gdp",NA,0.429949956
"CAN",1984,1984,4,0.75,"tv_gdp",NA,1.560682803
"CAN",1984,1985,1,1,"tv_gdp",NA,1.536397114
"CAN",1984,1984,3,0.25,"tv_gdp",NA,0.429949956
"CAN",1984,1984,4,0.5,"tv_gdp",NA,1.560682803
"CAN",1984,1985,1,0.75,"tv_gdp",NA,1.536397114
"CAN",1984,1985,2,1,"tv_gdp",NA,0.321648526
"CAN",1984,1984,4,0.25,"tv_gdp",NA,1.560682803
"CAN",1984,1985,1,0.5,"tv_gdp",NA,1.536397114
"CAN",1984,1985,2,0.75,"tv_gdp",NA,0.321648526
"CAN",1984,1985,3,1,"tv_gdp",NA,1.269493817
"CAN",1984,1985,1,0.25,"tv_gdp",NA,1.536397114
"CAN",1984,1985,2,0.5,"tv_gdp",NA,0.321648526
"CAN",1984,1985,3,0.75,"tv_gdp",NA,1.269493817
"CAN",1984,1985,4,1,"tv_gdp",NA,1.524600169
"CAN",1985,1985,2,0.25,"tv_gdp",NA,0.321648526
"CAN",1985,1985,3,0.5,"tv_gdp",NA,1.269493817
"CAN",1985,1985,4,0.75,"tv_gdp",NA,1.524600169
"CAN",1985,1986,1,1,"tv_gdp",NA,-0.050673397
"CAN",1985,1985,3,0.25,"tv_gdp",NA,1.269493817
"CAN",1985,1985,4,0.5,"tv_gdp",NA,1.524600169
"CAN",1985,1986,1,0.75,"tv_gdp",NA,-0.050673397
"CAN",1985,1986,2,1,"tv_gdp",NA,0.574750312
"CAN",1985,1985,4,0.25,"tv_gdp",NA,1.524600169
"CAN",1985,1986,1,0.5,"tv_gdp",NA,-0.050673397
"CAN",1985,1986,2,0.75,"tv_gdp",NA,0.574750312
"CAN",1985,1986,3,1,"tv_gdp",NA,0.125735895
"CAN",1985,1986,1,0.25,"tv_gdp",NA,-0.050673397
"CAN",1985,1986,2,0.5,"tv_gdp",NA,0.574750312
"CAN",1985,1986,3,0.75,"tv_gdp",NA,0.125735895
"CAN",1985,1986,4,1,"tv_gdp",NA,-0.723892076
"CAN",1986,1986,2,0.25,"tv_gdp",NA,0.574750312
"CAN",1986,1986,3,0.5,"tv_gdp",NA,0.125735895
"CAN",1986,1986,4,0.75,"tv_gdp",NA,-0.723892076
"CAN",1986,1987,1,1,"tv_gdp",NA,2.311401978
"CAN",1986,1986,3,0.25,"tv_gdp",NA,0.125735895
"CAN",1986,1986,4,0.5,"tv_gdp",NA,-0.723892076
"CAN",1986,1987,1,0.75,"tv_gdp",NA,2.311401978
"CAN",1986,1987,2,1,"tv_gdp",NA,1.281026782
"CAN",1986,1986,4,0.25,"tv_gdp",NA,-0.723892076
"CAN",1986,1987,1,0.5,"tv_gdp",NA,2.311401978
"CAN",1986,1987,2,0.75,"tv_gdp",NA,1.281026782
"CAN",1986,1987,3,1,"tv_gdp",NA,1.527856089
"CAN",1986,1987,1,0.25,"tv_gdp",NA,2.311401978
"CAN",1986,1987,2,0.5,"tv_gdp",NA,1.281026782
"CAN",1986,1987,3,0.75,"tv_gdp",NA,1.527856089
"CAN",1986,1987,4,1,"tv_gdp",NA,1.291886418
"CAN",1987,1987,2,0.25,"tv_gdp",NA,1.281026782
"CAN",1987,1987,3,0.5,"tv_gdp",NA,1.527856089
"CAN",1987,1987,4,0.75,"tv_gdp",NA,1.291886418
"CAN",1987,1988,1,1,"tv_gdp",NA,1.456990551
"CAN",1987,1987,3,0.25,"tv_gdp",NA,1.527856089
"CAN",1987,1987,4,0.5,"tv_gdp",NA,1.291886418
"CAN",1987,1988,1,0.75,"tv_gdp",NA,1.456990551
"CAN",1987,1988,2,1,"tv_gdp",NA,0.887376092
"CAN",1987,1987,4,0.25,"tv_gdp",NA,1.291886418
"CAN",1987,1988,1,0.5,"tv_gdp",NA,1.456990551
"CAN",1987,1988,2,0.75,"tv_gdp",NA,0.887376092
"CAN",1987,1988,3,1,"tv_gdp",NA,0.014849555
"CAN",1987,1988,1,0.25,"tv_gdp",NA,1.456990551
"CAN",1987,1988,2,0.5,"tv_gdp",NA,0.887376092
"CAN",1987,1988,3,0.75,"tv_gdp",NA,0.014849555
"CAN",1987,1988,4,1,"tv_gdp",NA,0.686248083
"CAN",1988,1988,2,0.25,"tv_gdp",NA,0.887376092
"CAN",1988,1988,3,0.5,"tv_gdp",NA,0.014849555
"CAN",1988,1988,4,0.75,"tv_gdp",NA,0.686248083
"CAN",1988,1989,1,1,"tv_gdp",NA,1.15546661
"CAN",1988,1988,3,0.25,"tv_gdp",NA,0.014849555
"CAN",1988,1988,4,0.5,"tv_gdp",NA,0.686248083
"CAN",1988,1989,1,0.75,"tv_gdp",NA,1.15546661
"CAN",1988,1989,2,1,"tv_gdp",NA,0.388999379
"CAN",1988,1988,4,0.25,"tv_gdp",NA,0.686248083
"CAN",1988,1989,1,0.5,"tv_gdp",NA,1.15546661
"CAN",1988,1989,2,0.75,"tv_gdp",NA,0.388999379
"CAN",1988,1989,3,1,"tv_gdp",NA,0.361042659
"CAN",1988,1989,1,0.25,"tv_gdp",NA,1.15546661
"CAN",1988,1989,2,0.5,"tv_gdp",NA,0.388999379
"CAN",1988,1989,3,0.75,"tv_gdp",NA,0.361042659
"CAN",1988,1989,4,1,"tv_gdp",NA,-0.199034712
"CAN",1989,1989,2,0.25,"tv_gdp",NA,0.388999379
"CAN",1989,1989,3,0.5,"tv_gdp",NA,0.361042659
"CAN",1989,1989,4,0.75,"tv_gdp",NA,-0.199034712
"CAN",1989,1990,1,1,"tv_gdp",NA,0.961690311
"CAN",1989,1989,3,0.25,"tv_gdp",NA,0.361042659
"CAN",1989,1989,4,0.5,"tv_gdp",NA,-0.199034712
"CAN",1989,1990,1,0.75,"tv_gdp",NA,0.961690311
"CAN",1989,1990,2,1,"tv_gdp",NA,-0.401218185
"CAN",1989,1989,4,0.25,"tv_gdp",NA,-0.199034712
"CAN",1989,1990,1,0.5,"tv_gdp",NA,0.961690311
"CAN",1989,1990,2,0.75,"tv_gdp",NA,-0.401218185
"CAN",1989,1990,3,1,"tv_gdp",NA,-0.716674548
"CAN",1989,1990,1,0.25,"tv_gdp",NA,0.961690311
"CAN",1989,1990,2,0.5,"tv_gdp",NA,-0.401218185
"CAN",1989,1990,3,0.75,"tv_gdp",NA,-0.716674548
"CAN",1989,1990,4,1,"tv_gdp",NA,-0.890402907
"CAN",1990,1990,2,0.25,"tv_gdp",NA,-0.401218185
"CAN",1990,1990,3,0.5,"tv_gdp",NA,-0.716674548
"CAN",1990,1990,4,0.75,"tv_gdp",NA,-0.890402907
"CAN",1990,1991,1,1,"tv_gdp",NA,-1.438612374
"CAN",1990,1990,3,0.25,"tv_gdp",NA,-0.716674548
"CAN",1990,1990,4,0.5,"tv_gdp",NA,-0.890402907
"CAN",1990,1991,1,0.75,"tv_gdp",NA,-1.438612374
"CAN",1990,1991,2,1,"tv_gdp",NA,0.479959225
"CAN",1990,1990,4,0.25,"tv_gdp",NA,-0.890402907
"CAN",1990,1991,1,0.5,"tv_gdp",NA,-1.438612374
"CAN",1990,1991,2,0.75,"tv_gdp",NA,0.479959225
"CAN",1990,1991,3,1,"tv_gdp",NA,0.132626462
"CAN",1990,1991,1,0.25,"tv_gdp",NA,-1.438612374
"CAN",1990,1991,2,0.5,"tv_gdp",NA,0.479959225
"CAN",1990,1991,3,0.75,"tv_gdp",NA,0.132626462
"CAN",1990,1991,4,1,"tv_gdp",NA,0.175721575
"CAN",1991,1991,2,0.25,"tv_gdp",NA,0.479959225
"CAN",1991,1991,3,0.5,"tv_gdp",NA,0.132626462
"CAN",1991,1991,4,0.75,"tv_gdp",NA,0.175721575
"CAN",1991,1992,1,1,"tv_gdp",NA,0.070586748
"CAN",1991,1991,3,0.25,"tv_gdp",NA,0.132626462
"CAN",1991,1991,4,0.5,"tv_gdp",NA,0.175721575
"CAN",1991,1992,1,0.75,"tv_gdp",NA,0.070586748
"CAN",1991,1992,2,1,"tv_gdp",NA,0.113964563
"CAN",1991,1991,4,0.25,"tv_gdp",NA,0.175721575
"CAN",1991,1992,1,0.5,"tv_gdp",NA,0.070586748
"CAN",1991,1992,2,0.75,"tv_gdp",NA,0.113964563
"CAN",1991,1992,3,1,"tv_gdp",NA,0.541657502
"CAN",1991,1992,1,0.25,"tv_gdp",NA,0.070586748
"CAN",1991,1992,2,0.5,"tv_gdp",NA,0.113964563
"CAN",1991,1992,3,0.75,"tv_gdp",NA,0.541657502
"CAN",1991,1992,4,1,"tv_gdp",NA,0.569768536
"CAN",1992,1992,2,0.25,"tv_gdp",NA,0.113964563
"CAN",1992,1992,3,0.5,"tv_gdp",NA,0.541657502
"CAN",1992,1992,4,0.75,"tv_gdp",NA,0.569768536
"CAN",1992,1993,1,1,"tv_gdp",NA,0.634920635
"CAN",1992,1992,3,0.25,"tv_gdp",NA,0.541657502
"CAN",1992,1992,4,0.5,"tv_gdp",NA,0.569768536
"CAN",1992,1993,1,0.75,"tv_gdp",NA,0.634920635
"CAN",1992,1993,2,1,"tv_gdp",NA,0.910890816
"CAN",1992,1992,4,0.25,"tv_gdp",NA,0.569768536
"CAN",1992,1993,1,0.5,"tv_gdp",NA,0.634920635
"CAN",1992,1993,2,0.75,"tv_gdp",NA,0.910890816
"CAN",1992,1993,3,1,"tv_gdp",NA,0.956348976
"CAN",1992,1993,1,0.25,"tv_gdp",NA,0.634920635
"CAN",1992,1993,2,0.5,"tv_gdp",NA,0.910890816
"CAN",1992,1993,3,0.75,"tv_gdp",NA,0.956348976
"CAN",1992,1993,4,1,"tv_gdp",NA,0.427742752
"CAN",1993,1993,2,0.25,"tv_gdp",NA,0.910890816
"CAN",1993,1993,3,0.5,"tv_gdp",NA,0.956348976
"CAN",1993,1993,4,0.75,"tv_gdp",NA,0.427742752
"CAN",1993,1994,1,1,"tv_gdp",NA,1.474477573
"CAN",1993,1993,3,0.25,"tv_gdp",NA,0.956348976
"CAN",1993,1993,4,0.5,"tv_gdp",NA,0.427742752
"CAN",1993,1994,1,0.75,"tv_gdp",NA,1.474477573
"CAN",1993,1994,2,1,"tv_gdp",NA,1.45985462
"CAN",1993,1993,4,0.25,"tv_gdp",NA,0.427742752
"CAN",1993,1994,1,0.5,"tv_gdp",NA,1.474477573
"CAN",1993,1994,2,0.75,"tv_gdp",NA,1.45985462
"CAN",1993,1994,3,1,"tv_gdp",NA,1.282038704
"CAN",1993,1994,1,0.25,"tv_gdp",NA,1.474477573
"CAN",1993,1994,2,0.5,"tv_gdp",NA,1.45985462
"CAN",1993,1994,3,0.75,"tv_gdp",NA,1.282038704
"CAN",1993,1994,4,1,"tv_gdp",NA,0.726422352
"CAN",1994,1994,2,0.25,"tv_gdp",NA,1.45985462
"CAN",1994,1994,3,0.5,"tv_gdp",NA,1.282038704
"CAN",1994,1994,4,0.75,"tv_gdp",NA,0.726422352
"CAN",1994,1995,1,1,"tv_gdp",NA,0.918809755
"CAN",1994,1994,3,0.25,"tv_gdp",NA,1.282038704
"CAN",1994,1994,4,0.5,"tv_gdp",NA,0.726422352
"CAN",1994,1995,1,0.75,"tv_gdp",NA,0.918809755
"CAN",1994,1995,2,1,"tv_gdp",NA,0.042484763
"CAN",1994,1994,4,0.25,"tv_gdp",NA,0.726422352
"CAN",1994,1995,1,0.5,"tv_gdp",NA,0.918809755
"CAN",1994,1995,2,0.75,"tv_gdp",NA,0.042484763
"CAN",1994,1995,3,1,"tv_gdp",NA,0.132162786
"CAN",1994,1995,1,0.25,"tv_gdp",NA,0.918809755
"CAN",1994,1995,2,0.5,"tv_gdp",NA,0.042484763
"CAN",1994,1995,3,0.75,"tv_gdp",NA,0.132162786
"CAN",1994,1995,4,1,"tv_gdp",NA,0.40357518
"CAN",1995,1995,2,0.25,"tv_gdp",NA,0.042484763
"CAN",1995,1995,3,0.5,"tv_gdp",NA,0.132162786
"CAN",1995,1995,4,0.75,"tv_gdp",NA,0.40357518
"CAN",1995,1996,1,1,"tv_gdp",NA,0.145116796
"CAN",1995,1995,3,0.25,"tv_gdp",NA,0.132162786
"CAN",1995,1995,4,0.5,"tv_gdp",NA,0.40357518
"CAN",1995,1996,1,0.75,"tv_gdp",NA,0.145116796
"CAN",1995,1996,2,1,"tv_gdp",NA,0.711918285
"CAN",1995,1995,4,0.25,"tv_gdp",NA,0.40357518
"CAN",1995,1996,1,0.5,"tv_gdp",NA,0.145116796
"CAN",1995,1996,2,0.75,"tv_gdp",NA,0.711918285
"CAN",1995,1996,3,1,"tv_gdp",NA,0.839886836
"CAN",1995,1996,1,0.25,"tv_gdp",NA,0.145116796
"CAN",1995,1996,2,0.5,"tv_gdp",NA,0.711918285
"CAN",1995,1996,3,0.75,"tv_gdp",NA,0.839886836
"CAN",1995,1996,4,1,"tv_gdp",NA,0.792291038
"CAN",1996,1996,2,0.25,"tv_gdp",NA,0.711918285
"CAN",1996,1996,3,0.5,"tv_gdp",NA,0.839886836
"CAN",1996,1996,4,0.75,"tv_gdp",NA,0.792291038
"CAN",1996,1997,1,1,"tv_gdp",NA,1.339911843
"CAN",1996,1996,3,0.25,"tv_gdp",NA,0.839886836
"CAN",1996,1996,4,0.5,"tv_gdp",NA,0.792291038
"CAN",1996,1997,1,0.75,"tv_gdp",NA,1.339911843
"CAN",1996,1997,2,1,"tv_gdp",NA,1.125352076
"CAN",1996,1996,4,0.25,"tv_gdp",NA,0.792291038
"CAN",1996,1997,1,0.5,"tv_gdp",NA,1.339911843
"CAN",1996,1997,2,0.75,"tv_gdp",NA,1.125352076
"CAN",1996,1997,3,1,"tv_gdp",NA,1.18550429
"CAN",1996,1997,1,0.25,"tv_gdp",NA,1.339911843
"CAN",1996,1997,2,0.5,"tv_gdp",NA,1.125352076
"CAN",1996,1997,3,0.75,"tv_gdp",NA,1.18550429
"CAN",1996,1997,4,1,"tv_gdp",NA,0.966392765
"CAN",1997,1997,2,0.25,"tv_gdp",NA,1.125352076
"CAN",1997,1997,3,0.5,"tv_gdp",NA,1.18550429
"CAN",1997,1997,4,0.75,"tv_gdp",NA,0.966392765
"CAN",1997,1998,1,1,"tv_gdp",NA,1.411990072
"CAN",1997,1997,3,0.25,"tv_gdp",NA,1.18550429
"CAN",1997,1997,4,0.5,"tv_gdp",NA,0.966392765
"CAN",1997,1998,1,0.75,"tv_gdp",NA,1.411990072
"CAN",1997,1998,2,1,"tv_gdp",NA,0.052954114
"CAN",1997,1997,4,0.25,"tv_gdp",NA,0.966392765
"CAN",1997,1998,1,0.5,"tv_gdp",NA,1.411990072
"CAN",1997,1998,2,0.75,"tv_gdp",NA,0.052954114
"CAN",1997,1998,3,1,"tv_gdp",NA,0.911198725
"CAN",1997,1998,1,0.25,"tv_gdp",NA,1.411990072
"CAN",1997,1998,2,0.5,"tv_gdp",NA,0.052954114
"CAN",1997,1998,3,0.75,"tv_gdp",NA,0.911198725
"CAN",1997,1998,4,1,"tv_gdp",NA,1.354959227
"CAN",1998,1998,2,0.25,"tv_gdp",NA,0.052954114
"CAN",1998,1998,3,0.5,"tv_gdp",NA,0.911198725
"CAN",1998,1998,4,0.75,"tv_gdp",NA,1.354959227
"CAN",1998,1999,1,1,"tv_gdp",NA,1.805546006
"CAN",1998,1998,3,0.25,"tv_gdp",NA,0.911198725
"CAN",1998,1998,4,0.5,"tv_gdp",NA,1.354959227
"CAN",1998,1999,1,0.75,"tv_gdp",NA,1.805546006
"CAN",1998,1999,2,1,"tv_gdp",NA,0.824757342
"CAN",1998,1998,4,0.25,"tv_gdp",NA,1.354959227
"CAN",1998,1999,1,0.5,"tv_gdp",NA,1.805546006
"CAN",1998,1999,2,0.75,"tv_gdp",NA,0.824757342
"CAN",1998,1999,3,1,"tv_gdp",NA,1.567445313
"CAN",1998,1999,1,0.25,"tv_gdp",NA,1.805546006
"CAN",1998,1999,2,0.5,"tv_gdp",NA,0.824757342
"CAN",1998,1999,3,0.75,"tv_gdp",NA,1.567445313
"CAN",1998,1999,4,1,"tv_gdp",NA,1.40094457
"CAN",1999,1999,2,0.25,"tv_gdp",NA,0.824757342
"CAN",1999,1999,3,0.5,"tv_gdp",NA,1.567445313
"CAN",1999,1999,4,0.75,"tv_gdp",NA,1.40094457
"CAN",1999,2000,1,1,"tv_gdp",NA,1.565720708
"CAN",1999,1999,3,0.25,"tv_gdp",NA,1.567445313
"CAN",1999,1999,4,0.5,"tv_gdp",NA,1.40094457
"CAN",1999,2000,1,0.75,"tv_gdp",NA,1.565720708
"CAN",1999,2000,2,1,"tv_gdp",NA,1.176951374
"CAN",1999,1999,4,0.25,"tv_gdp",NA,1.40094457
"CAN",1999,2000,1,0.5,"tv_gdp",NA,1.565720708
"CAN",1999,2000,2,0.75,"tv_gdp",NA,1.176951374
"CAN",1999,2000,3,1,"tv_gdp",NA,1.02505509
"CAN",1999,2000,1,0.25,"tv_gdp",NA,1.565720708
"CAN",1999,2000,2,0.5,"tv_gdp",NA,1.176951374
"CAN",1999,2000,3,0.75,"tv_gdp",NA,1.02505509
"CAN",1999,2000,4,1,"tv_gdp",NA,0.197776532
"CAN",2000,2000,2,0.25,"tv_gdp",NA,1.176951374
"CAN",2000,2000,3,0.5,"tv_gdp",NA,1.02505509
"CAN",2000,2000,4,0.75,"tv_gdp",NA,0.197776532
"CAN",2000,2001,1,1,"tv_gdp",NA,0.562892178
"CAN",2000,2000,3,0.25,"tv_gdp",NA,1.02505509
"CAN",2000,2000,4,0.5,"tv_gdp",NA,0.197776532
"CAN",2000,2001,1,0.75,"tv_gdp",NA,0.562892178
"CAN",2000,2001,2,1,"tv_gdp",NA,0.31448597
"CAN",2000,2000,4,0.25,"tv_gdp",NA,0.197776532
"CAN",2000,2001,1,0.5,"tv_gdp",NA,0.562892178
"CAN",2000,2001,2,0.75,"tv_gdp",NA,0.31448597
"CAN",2000,2001,3,1,"tv_gdp",NA,-0.070291492
"CAN",2000,2001,1,0.25,"tv_gdp",NA,0.562892178
"CAN",2000,2001,2,0.5,"tv_gdp",NA,0.31448597
"CAN",2000,2001,3,0.75,"tv_gdp",NA,-0.070291492
"CAN",2000,2001,4,1,"tv_gdp",NA,0.5997524
"CAN",2001,2001,2,0.25,"tv_gdp",NA,0.31448597
"CAN",2001,2001,3,0.5,"tv_gdp",NA,-0.070291492
"CAN",2001,2001,4,0.75,"tv_gdp",NA,0.5997524
"CAN",2001,2002,1,1,"tv_gdp",NA,1.462187363
"CAN",2001,2001,3,0.25,"tv_gdp",NA,-0.070291492
"CAN",2001,2001,4,0.5,"tv_gdp",NA,0.5997524
"CAN",2001,2002,1,0.75,"tv_gdp",NA,1.462187363
"CAN",2001,2002,2,1,"tv_gdp",NA,0.590842968
"CAN",2001,2001,4,0.25,"tv_gdp",NA,0.5997524
"CAN",2001,2002,1,0.5,"tv_gdp",NA,1.462187363
"CAN",2001,2002,2,0.75,"tv_gdp",NA,0.590842968
"CAN",2001,2002,3,1,"tv_gdp",NA,0.864710004
"CAN",2001,2002,1,0.25,"tv_gdp",NA,1.462187363
"CAN",2001,2002,2,0.5,"tv_gdp",NA,0.590842968
"CAN",2001,2002,3,0.75,"tv_gdp",NA,0.864710004
"CAN",2001,2002,4,1,"tv_gdp",NA,0.549240541
"CAN",2002,2002,2,0.25,"tv_gdp",NA,0.590842968
"CAN",2002,2002,3,0.5,"tv_gdp",NA,0.864710004
"CAN",2002,2002,4,0.75,"tv_gdp",NA,0.549240541
"CAN",2002,2003,1,1,"tv_gdp",NA,0.556372989
"CAN",2002,2002,3,0.25,"tv_gdp",NA,0.864710004
"CAN",2002,2002,4,0.5,"tv_gdp",NA,0.549240541
"CAN",2002,2003,1,0.75,"tv_gdp",NA,0.556372989
"CAN",2002,2003,2,1,"tv_gdp",NA,-0.145041357
"CAN",2002,2002,4,0.25,"tv_gdp",NA,0.549240541
"CAN",2002,2003,1,0.5,"tv_gdp",NA,0.556372989
"CAN",2002,2003,2,0.75,"tv_gdp",NA,-0.145041357
"CAN",2002,2003,3,1,"tv_gdp",NA,0.373863441
"CAN",2002,2003,1,0.25,"tv_gdp",NA,0.556372989
"CAN",2002,2003,2,0.5,"tv_gdp",NA,-0.145041357
"CAN",2002,2003,3,0.75,"tv_gdp",NA,0.373863441
"CAN",2002,2003,4,1,"tv_gdp",NA,0.687422999
"CAN",2003,2003,2,0.25,"tv_gdp",NA,-0.145041357
"CAN",2003,2003,3,0.5,"tv_gdp",NA,0.373863441
"CAN",2003,2003,4,0.75,"tv_gdp",NA,0.687422999
"CAN",2003,2004,1,1,"tv_gdp",NA,0.727147736
"CAN",2003,2003,3,0.25,"tv_gdp",NA,0.373863441
"CAN",2003,2003,4,0.5,"tv_gdp",NA,0.687422999
"CAN",2003,2004,1,0.75,"tv_gdp",NA,0.727147736
"CAN",2003,2004,2,1,"tv_gdp",NA,1.184860318
"CAN",2003,2003,4,0.25,"tv_gdp",NA,0.687422999
"CAN",2003,2004,1,0.5,"tv_gdp",NA,0.727147736
"CAN",2003,2004,2,0.75,"tv_gdp",NA,1.184860318
"CAN",2003,2004,3,1,"tv_gdp",NA,1.18232632
"CAN",2003,2004,1,0.25,"tv_gdp",NA,0.727147736
"CAN",2003,2004,2,0.5,"tv_gdp",NA,1.184860318
"CAN",2003,2004,3,0.75,"tv_gdp",NA,1.18232632
"CAN",2003,2004,4,1,"tv_gdp",NA,0.721715122
"CAN",2004,2004,2,0.25,"tv_gdp",NA,1.184860318
"CAN",2004,2004,3,0.5,"tv_gdp",NA,1.18232632
"CAN",2004,2004,4,0.75,"tv_gdp",NA,0.721715122
"CAN",2004,2005,1,1,"tv_gdp",NA,0.350202804
"CAN",2004,2004,3,0.25,"tv_gdp",NA,1.18232632
"CAN",2004,2004,4,0.5,"tv_gdp",NA,0.721715122
"CAN",2004,2005,1,0.75,"tv_gdp",NA,0.350202804
"CAN",2004,2005,2,1,"tv_gdp",NA,0.72275167
"CAN",2004,2004,4,0.25,"tv_gdp",NA,0.721715122
"CAN",2004,2005,1,0.5,"tv_gdp",NA,0.350202804
"CAN",2004,2005,2,0.75,"tv_gdp",NA,0.72275167
"CAN",2004,2005,3,1,"tv_gdp",NA,1.211889602
"CAN",2004,2005,1,0.25,"tv_gdp",NA,0.350202804
"CAN",2004,2005,2,0.5,"tv_gdp",NA,0.72275167
"CAN",2004,2005,3,0.75,"tv_gdp",NA,1.211889602
"CAN",2004,2005,4,1,"tv_gdp",NA,0.993155151
"CAN",2005,2005,2,0.25,"tv_gdp",NA,0.72275167
"CAN",2005,2005,3,0.5,"tv_gdp",NA,1.211889602
"CAN",2005,2005,4,0.75,"tv_gdp",NA,0.993155151
"CAN",2005,2006,1,1,"tv_gdp",NA,0.811906
"CAN",2005,2005,3,0.25,"tv_gdp",NA,1.211889602
"CAN",2005,2005,4,0.5,"tv_gdp",NA,0.993155151
"CAN",2005,2006,1,0.75,"tv_gdp",NA,0.811906
"CAN",2005,2006,2,1,"tv_gdp",NA,0.050006824
"CAN",2005,2005,4,0.25,"tv_gdp",NA,0.993155151
"CAN",2005,2006,1,0.5,"tv_gdp",NA,0.811906
"CAN",2005,2006,2,0.75,"tv_gdp",NA,0.050006824
"CAN",2005,2006,3,1,"tv_gdp",NA,0.281497219
"CAN",2005,2006,1,0.25,"tv_gdp",NA,0.811906
"CAN",2005,2006,2,0.5,"tv_gdp",NA,0.050006824
"CAN",2005,2006,3,0.75,"tv_gdp",NA,0.281497219
"CAN",2005,2006,4,1,"tv_gdp",NA,0.398230459
"CAN",2006,2006,2,0.25,"tv_gdp",NA,0.050006824
"CAN",2006,2006,3,0.5,"tv_gdp",NA,0.281497219
"CAN",2006,2006,4,0.75,"tv_gdp",NA,0.398230459
"CAN",2006,2007,1,1,"tv_gdp",NA,0.638206425
"CAN",2006,2006,3,0.25,"tv_gdp",NA,0.281497219
"CAN",2006,2006,4,0.5,"tv_gdp",NA,0.398230459
"CAN",2006,2007,1,0.75,"tv_gdp",NA,0.638206425
"CAN",2006,2007,2,1,"tv_gdp",NA,0.96572296
"CAN",2006,2006,4,0.25,"tv_gdp",NA,0.398230459
"CAN",2006,2007,1,0.5,"tv_gdp",NA,0.638206425
"CAN",2006,2007,2,0.75,"tv_gdp",NA,0.96572296
"CAN",2006,2007,3,1,"tv_gdp",NA,0.374681048
"CAN",2006,2007,1,0.25,"tv_gdp",NA,0.638206425
"CAN",2006,2007,2,0.5,"tv_gdp",NA,0.96572296
"CAN",2006,2007,3,0.75,"tv_gdp",NA,0.374681048
"CAN",2006,2007,4,1,"tv_gdp",NA,0.131432874
"CAN",2007,2007,2,0.25,"tv_gdp",NA,0.96572296
"CAN",2007,2007,3,0.5,"tv_gdp",NA,0.374681048
"CAN",2007,2007,4,0.75,"tv_gdp",NA,0.131432874
"CAN",2007,2008,1,1,"tv_gdp",NA,0.075036988
"CAN",2007,2007,3,0.25,"tv_gdp",NA,0.374681048
"CAN",2007,2007,4,0.5,"tv_gdp",NA,0.131432874
"CAN",2007,2008,1,0.75,"tv_gdp",NA,0.075036988
"CAN",2007,2008,2,1,"tv_gdp",NA,0.364362857
"CAN",2007,2007,4,0.25,"tv_gdp",NA,0.131432874
"CAN",2007,2008,1,0.5,"tv_gdp",NA,0.075036988
"CAN",2007,2008,2,0.75,"tv_gdp",NA,0.364362857
"CAN",2007,2008,3,1,"tv_gdp",NA,0.821739528
"CAN",2007,2008,1,0.25,"tv_gdp",NA,0.075036988
"CAN",2007,2008,2,0.5,"tv_gdp",NA,0.364362857
"CAN",2007,2008,3,0.75,"tv_gdp",NA,0.821739528
"CAN",2007,2008,4,1,"tv_gdp",NA,-1.160303228
"CAN",2008,2008,2,0.25,"tv_gdp",NA,0.364362857
"CAN",2008,2008,3,0.5,"tv_gdp",NA,0.821739528
"CAN",2008,2008,4,0.75,"tv_gdp",NA,-1.160303228
"CAN",2008,2009,1,1,"tv_gdp",NA,-2.256581424
"CAN",2008,2008,3,0.25,"tv_gdp",NA,0.821739528
"CAN",2008,2008,4,0.5,"tv_gdp",NA,-1.160303228
"CAN",2008,2009,1,0.75,"tv_gdp",NA,-2.256581424
"CAN",2008,2009,2,1,"tv_gdp",NA,-1.07869505
"CAN",2008,2008,4,0.25,"tv_gdp",NA,-1.160303228
"CAN",2008,2009,1,0.5,"tv_gdp",NA,-2.256581424
"CAN",2008,2009,2,0.75,"tv_gdp",NA,-1.07869505
"CAN",2008,2009,3,1,"tv_gdp",NA,0.447240509
"CAN",2008,2009,1,0.25,"tv_gdp",NA,-2.256581424
"CAN",2008,2009,2,0.5,"tv_gdp",NA,-1.07869505
"CAN",2008,2009,3,0.75,"tv_gdp",NA,0.447240509
"CAN",2008,2009,4,1,"tv_gdp",NA,1.161898977
"CAN",2009,2009,2,0.25,"tv_gdp",NA,-1.07869505
"CAN",2009,2009,3,0.5,"tv_gdp",NA,0.447240509
"CAN",2009,2009,4,0.75,"tv_gdp",NA,1.161898977
"CAN",2009,2010,1,1,"tv_gdp",NA,1.211533092
"CAN",2009,2009,3,0.25,"tv_gdp",NA,0.447240509
"CAN",2009,2009,4,0.5,"tv_gdp",NA,1.161898977
"CAN",2009,2010,1,0.75,"tv_gdp",NA,1.211533092
"CAN",2009,2010,2,1,"tv_gdp",NA,0.523642872
"CAN",2009,2009,4,0.25,"tv_gdp",NA,1.161898977
"CAN",2009,2010,1,0.5,"tv_gdp",NA,1.211533092
"CAN",2009,2010,2,0.75,"tv_gdp",NA,0.523642872
"CAN",2009,2010,3,1,"tv_gdp",NA,0.700042554
"CAN",2009,2010,1,0.25,"tv_gdp",NA,1.211533092
"CAN",2009,2010,2,0.5,"tv_gdp",NA,0.523642872
"CAN",2009,2010,3,0.75,"tv_gdp",NA,0.700042554
"CAN",2009,2010,4,1,"tv_gdp",NA,1.121801791
"CAN",2010,2010,2,0.25,"tv_gdp",NA,0.523642872
"CAN",2010,2010,3,0.5,"tv_gdp",NA,0.700042554
"CAN",2010,2010,4,0.75,"tv_gdp",NA,1.121801791
"CAN",2010,2011,1,1,"tv_gdp",NA,0.761595519
"CAN",2010,2010,3,0.25,"tv_gdp",NA,0.700042554
"CAN",2010,2010,4,0.5,"tv_gdp",NA,1.121801791
"CAN",2010,2011,1,0.75,"tv_gdp",NA,0.761595519
"CAN",2010,2011,2,1,"tv_gdp",NA,0.181517907
"CAN",2010,2010,4,0.25,"tv_gdp",NA,1.121801791
"CAN",2010,2011,1,0.5,"tv_gdp",NA,0.761595519
"CAN",2010,2011,2,0.75,"tv_gdp",NA,0.181517907
"CAN",2010,2011,3,1,"tv_gdp",NA,1.368249361
"CAN",2010,2011,1,0.25,"tv_gdp",NA,0.761595519
"CAN",2010,2011,2,0.5,"tv_gdp",NA,0.181517907
"CAN",2010,2011,3,0.75,"tv_gdp",NA,1.368249361
"CAN",2010,2011,4,1,"tv_gdp",NA,0.79472209
"CAN",2011,2011,2,0.25,"tv_gdp",NA,0.181517907
"CAN",2011,2011,3,0.5,"tv_gdp",NA,1.368249361
"CAN",2011,2011,4,0.75,"tv_gdp",NA,0.79472209
"CAN",2011,2012,1,1,"tv_gdp",NA,0.0631303
"CAN",2011,2011,3,0.25,"tv_gdp",NA,1.368249361
"CAN",2011,2011,4,0.5,"tv_gdp",NA,0.79472209
"CAN",2011,2012,1,0.75,"tv_gdp",NA,0.0631303
"CAN",2011,2012,2,1,"tv_gdp",NA,0.325071067
"CAN",2011,2011,4,0.25,"tv_gdp",NA,0.79472209
"CAN",2011,2012,1,0.5,"tv_gdp",NA,0.0631303
"CAN",2011,2012,2,0.75,"tv_gdp",NA,0.325071067
"CAN",2011,2012,3,1,"tv_gdp",NA,0.136854471
"CAN",2011,2012,1,0.25,"tv_gdp",NA,0.0631303
"CAN",2011,2012,2,0.5,"tv_gdp",NA,0.325071067
"CAN",2011,2012,3,0.75,"tv_gdp",NA,0.136854471
"CAN",2011,2012,4,1,"tv_gdp",NA,0.205799023
"CAN",2012,2012,2,0.25,"tv_gdp",NA,0.325071067
"CAN",2012,2012,3,0.5,"tv_gdp",NA,0.136854471
"CAN",2012,2012,4,0.75,"tv_gdp",NA,0.205799023
"CAN",2012,2013,1,1,"tv_gdp",NA,0.89511833
"CAN",2012,2012,3,0.25,"tv_gdp",NA,0.136854471
"CAN",2012,2012,4,0.5,"tv_gdp",NA,0.205799023
"CAN",2012,2013,1,0.75,"tv_gdp",NA,0.89511833
"CAN",2012,2013,2,1,"tv_gdp",NA,0.575888641
"CAN",2012,2012,4,0.25,"tv_gdp",NA,0.205799023
"CAN",2012,2013,1,0.5,"tv_gdp",NA,0.89511833
"CAN",2012,2013,2,0.75,"tv_gdp",NA,0.575888641
"CAN",2012,2013,3,1,"tv_gdp",NA,0.82231197
"CAN",2012,2013,1,0.25,"tv_gdp",NA,0.89511833
"CAN",2012,2013,2,0.5,"tv_gdp",NA,0.575888641
"CAN",2012,2013,3,0.75,"tv_gdp",NA,0.82231197
"CAN",2012,2013,4,1,"tv_gdp",NA,1.046569427
"CAN",2013,2013,2,0.25,"tv_gdp",NA,0.575888641
"CAN",2013,2013,3,0.5,"tv_gdp",NA,0.82231197
"CAN",2013,2013,4,0.75,"tv_gdp",NA,1.046569427
"CAN",2013,2014,1,1,"tv_gdp",NA,0.168994293
"CAN",2013,2013,3,0.25,"tv_gdp",NA,0.82231197
"CAN",2013,2013,4,0.5,"tv_gdp",NA,1.046569427
"CAN",2013,2014,1,0.75,"tv_gdp",NA,0.168994293
"CAN",2013,2014,2,1,"tv_gdp",NA,0.911555413
"CAN",2013,2013,4,0.25,"tv_gdp",NA,1.046569427
"CAN",2013,2014,1,0.5,"tv_gdp",NA,0.168994293
"CAN",2013,2014,2,0.75,"tv_gdp",NA,0.911555413
"CAN",2013,2014,3,1,"tv_gdp",NA,0.958574349
"CAN",2013,2014,1,0.25,"tv_gdp",NA,0.168994293
"CAN",2013,2014,2,0.5,"tv_gdp",NA,0.911555413
"CAN",2013,2014,3,0.75,"tv_gdp",NA,0.958574349
"CAN",2013,2014,4,1,"tv_gdp",NA,0.691167613
"CAN",2014,2014,2,0.25,"tv_gdp",NA,0.911555413
"CAN",2014,2014,3,0.5,"tv_gdp",NA,0.958574349
"CAN",2014,2014,4,0.75,"tv_gdp",NA,0.691167613
"CAN",2014,2015,1,1,"tv_gdp",NA,-0.55677898
"CAN",2014,2014,3,0.25,"tv_gdp",NA,0.958574349
"CAN",2014,2014,4,0.5,"tv_gdp",NA,0.691167613
"CAN",2014,2015,1,0.75,"tv_gdp",NA,-0.55677898
"CAN",2014,2015,2,1,"tv_gdp",NA,-0.272994458
"CAN",2014,2014,4,0.25,"tv_gdp",NA,0.691167613
"CAN",2014,2015,1,0.5,"tv_gdp",NA,-0.55677898
"CAN",2014,2015,2,0.75,"tv_gdp",NA,-0.272994458
"CAN",2014,2015,3,1,"tv_gdp",NA,0.358097519
"CAN",2014,2015,1,0.25,"tv_gdp",NA,-0.55677898
"CAN",2014,2015,2,0.5,"tv_gdp",NA,-0.272994458
"CAN",2014,2015,3,0.75,"tv_gdp",NA,0.358097519
"CAN",2014,2015,4,1,"tv_gdp",NA,0.066272079
"CAN",2015,2015,2,0.25,"tv_gdp",NA,-0.272994458
"CAN",2015,2015,3,0.5,"tv_gdp",NA,0.358097519
"CAN",2015,2015,4,0.75,"tv_gdp",NA,0.066272079
"CAN",2015,2016,1,1,"tv_gdp",NA,0.591683798
"CAN",2015,2015,3,0.25,"tv_gdp",NA,0.358097519
"CAN",2015,2015,4,0.5,"tv_gdp",NA,0.066272079
"CAN",2015,2016,1,0.75,"tv_gdp",NA,0.591683798
"CAN",2015,2016,2,1,"tv_gdp",NA,-0.498133929
"CAN",2015,2015,4,0.25,"tv_gdp",NA,0.066272079
"CAN",2015,2016,1,0.5,"tv_gdp",NA,0.591683798
"CAN",2015,2016,2,0.75,"tv_gdp",NA,-0.498133929
"CAN",2015,2016,3,1,"tv_gdp",NA,1.03778381
"CAN",2015,2016,1,0.25,"tv_gdp",NA,0.591683798
"CAN",2015,2016,2,0.5,"tv_gdp",NA,-0.498133929
"CAN",2015,2016,3,0.75,"tv_gdp",NA,1.03778381
"CAN",2015,2016,4,1,"tv_gdp",NA,0.561022275
"CAN",2016,2016,2,0.25,"tv_gdp",NA,-0.498133929
"CAN",2016,2016,3,0.5,"tv_gdp",NA,1.03778381
"CAN",2016,2016,4,0.75,"tv_gdp",NA,0.561022275
"CAN",2016,2017,1,1,"tv_gdp",NA,1.258206055
"CAN",2016,2016,3,0.25,"tv_gdp",NA,1.03778381
"CAN",2016,2016,4,0.5,"tv_gdp",NA,0.561022275
"CAN",2016,2017,1,0.75,"tv_gdp",NA,1.258206055
"CAN",2016,2017,2,1,"tv_gdp",NA,1.052553159
"CAN",2016,2016,4,0.25,"tv_gdp",NA,0.561022275
"CAN",2016,2017,1,0.5,"tv_gdp",NA,1.258206055
"CAN",2016,2017,2,0.75,"tv_gdp",NA,1.052553159
"CAN",2016,2017,3,1,"tv_gdp",NA,0.031402141
"CAN",2016,2017,1,0.25,"tv_gdp",NA,1.258206055
"CAN",2016,2017,2,0.5,"tv_gdp",NA,1.052553159
"CAN",2016,2017,3,0.75,"tv_gdp",NA,0.031402141
"CAN",2016,2017,4,1,"tv_gdp",NA,0.507360861
"CAN",2017,2017,2,0.25,"tv_gdp",NA,1.052553159
"CAN",2017,2017,3,0.5,"tv_gdp",NA,0.031402141
"CAN",2017,2017,4,0.75,"tv_gdp",NA,0.507360861
"CAN",2017,2018,1,1,"tv_gdp",NA,1.162519794
"CAN",2017,2017,3,0.25,"tv_gdp",NA,0.031402141
"CAN",2017,2017,4,0.5,"tv_gdp",NA,0.507360861
"CAN",2017,2018,1,0.75,"tv_gdp",NA,1.162519794
"CAN",2017,2018,2,1,"tv_gdp",NA,0.780038215
"CAN",2017,2017,4,0.25,"tv_gdp",NA,0.507360861
"CAN",2017,2018,1,0.5,"tv_gdp",NA,1.162519794
"CAN",2017,2018,2,0.75,"tv_gdp",NA,0.780038215
"CAN",2017,2018,3,1,"tv_gdp",NA,0.504422861
"CAN",2017,2018,1,0.25,"tv_gdp",NA,1.162519794
"CAN",2017,2018,2,0.5,"tv_gdp",NA,0.780038215
"CAN",2017,2018,3,0.75,"tv_gdp",NA,0.504422861
"CAN",2017,2018,4,1,"tv_gdp",NA,0.235568646
"CAN",2018,2018,2,0.25,"tv_gdp",NA,0.780038215
"CAN",2018,2018,3,0.5,"tv_gdp",NA,0.504422861
"CAN",2018,2018,4,0.75,"tv_gdp",NA,0.235568646
"CAN",2018,2019,1,1,"tv_gdp",NA,0.240663338
"CAN",2018,2018,3,0.25,"tv_gdp",NA,0.504422861
"CAN",2018,2018,4,0.5,"tv_gdp",NA,0.235568646
"CAN",2018,2019,1,0.75,"tv_gdp",NA,0.240663338
"CAN",2018,2019,2,1,"tv_gdp",NA,1.094764819
"CAN",2018,2018,4,0.25,"tv_gdp",NA,0.235568646
"CAN",2018,2019,1,0.5,"tv_gdp",NA,0.240663338
"CAN",2018,2019,2,0.75,"tv_gdp",NA,1.094764819
"CAN",2018,2019,3,1,"tv_gdp",NA,0.279623055
"CAN",2018,2019,1,0.25,"tv_gdp",NA,0.240663338
"CAN",2018,2019,2,0.5,"tv_gdp",NA,1.094764819
"CAN",2018,2019,3,0.75,"tv_gdp",NA,0.279623055
"CAN",2018,2019,4,1,"tv_gdp",NA,0.285513174
"CAN",2019,2019,2,0.25,"tv_gdp",NA,1.094764819
"CAN",2019,2019,3,0.5,"tv_gdp",NA,0.279623055
"CAN",2019,2019,4,0.75,"tv_gdp",NA,0.285513174
"CAN",2019,2020,1,1,"tv_gdp",NA,-1.949937792
"CAN",2019,2019,3,0.25,"tv_gdp",NA,0.279623055
"CAN",2019,2019,4,0.5,"tv_gdp",NA,0.285513174
"CAN",2019,2020,1,0.75,"tv_gdp",NA,-1.949937792
"CAN",2019,2020,2,1,"tv_gdp",NA,-10.9999385
"CAN",2019,2019,4,0.25,"tv_gdp",NA,0.285513174
"CAN",2019,2020,1,0.5,"tv_gdp",NA,-1.949937792
"CAN",2019,2020,2,0.75,"tv_gdp",NA,-10.9999385
"CAN",2019,2020,3,1,"tv_gdp",NA,9.083513962
"CAN",2019,2020,1,0.25,"tv_gdp",NA,-1.949937792
"CAN",2019,2020,2,0.5,"tv_gdp",NA,-10.9999385
"CAN",2019,2020,3,0.75,"tv_gdp",NA,9.083513962
"CAN",2019,2020,4,1,"tv_gdp",NA,1.87838191
"CAN",2020,2020,2,0.25,"tv_gdp",NA,-10.9999385
"CAN",2020,2020,3,0.5,"tv_gdp",NA,9.083513962
"CAN",2020,2020,4,0.75,"tv_gdp",NA,1.87838191
"CAN",2020,2021,1,1,"tv_gdp",NA,1.439859036
"CAN",2020,2020,4,0.25,"tv_gdp",NA,1.87838191
"CAN",2020,2021,1,0.5,"tv_gdp",NA,1.439859036
"CAN",2020,2021,2,0.75,"tv_gdp",NA,-0.311846329
"CAN",2020,2021,3,1,"tv_gdp",NA,1.680123266
"CAN",2020,2021,1,0.25,"tv_gdp",NA,1.439859036
"CAN",2020,2021,2,0.5,"tv_gdp",NA,-0.311846329
"CAN",2020,2021,3,0.75,"tv_gdp",NA,1.680123266
"CAN",2020,2021,4,1,"tv_gdp",NA,1.569345516
"CAN",2021,2021,2,0.25,"tv_gdp",NA,-0.311846329
"CAN",2021,2021,3,0.5,"tv_gdp",NA,1.680123266
"CAN",2021,2021,4,0.75,"tv_gdp",NA,1.569345516
"CAN",2021,2022,1,1,"tv_gdp",NA,0.961275373
"CAN",2021,2021,3,0.25,"tv_gdp",NA,1.680123266
"CAN",2021,2021,4,0.5,"tv_gdp",NA,1.569345516
"CAN",2021,2022,1,0.75,"tv_gdp",NA,0.961275373
"CAN",2021,2022,2,1,"tv_gdp",NA,0.939461412
"CAN",2021,2021,4,0.25,"tv_gdp",NA,1.569345516
"CAN",2021,2022,1,0.5,"tv_gdp",NA,0.961275373
"CAN",2021,2022,2,0.75,"tv_gdp",NA,0.939461412
"CAN",2021,2022,3,1,"tv_gdp",NA,0.458013103
"CAN",2021,2022,1,0.25,"tv_gdp",NA,0.961275373
"CAN",2021,2022,2,0.5,"tv_gdp",NA,0.939461412
"CAN",2021,2022,3,0.75,"tv_gdp",NA,0.458013103
"CAN",2021,2022,4,1,"tv_gdp",NA,-0.215347761
"CAN",2022,2022,2,0.25,"tv_gdp",NA,0.939461412
"CAN",2022,2022,3,0.5,"tv_gdp",NA,0.458013103
"CAN",2022,2022,4,0.75,"tv_gdp",NA,-0.215347761
"CAN",2022,2023,1,1,"tv_gdp",NA,0.645766222
"CAN",2022,2022,3,0.25,"tv_gdp",NA,0.458013103
"CAN",2022,2022,4,0.5,"tv_gdp",NA,-0.215347761
"CAN",2022,2023,1,0.75,"tv_gdp",NA,0.645766222
"CAN",2022,2023,2,1,"tv_gdp",NA,0.158393852
"CAN",2022,2022,4,0.25,"tv_gdp",NA,-0.215347761
"CAN",2022,2023,1,0.5,"tv_gdp",NA,0.645766222
"CAN",2022,2023,2,0.75,"tv_gdp",NA,0.158393852
"CAN",2022,2023,3,1,"tv_gdp",NA,-0.126174597
"CAN",2022,2023,1,0.25,"tv_gdp",NA,0.645766222
"CAN",2022,2023,2,0.5,"tv_gdp",NA,0.158393852
"CAN",2022,2023,3,0.75,"tv_gdp",NA,-0.126174597
"CAN",2022,2023,4,1,"tv_gdp",NA,0.24777298
"CAN",2023,2023,2,0.25,"tv_gdp",NA,0.158393852
"CAN",2023,2023,3,0.5,"tv_gdp",NA,-0.126174597
"CAN",2023,2023,4,0.75,"tv_gdp",NA,0.24777298
"CAN",2023,2024,1,1,"tv_gdp",NA,NA
"CAN",2023,2023,3,0.25,"tv_gdp",NA,-0.126174597
"CAN",2023,2023,4,0.5,"tv_gdp",NA,0.24777298
"CAN",2023,2024,1,0.75,"tv_gdp",NA,NA
"CAN",2023,2024,2,1,"tv_gdp",NA,NA
"CAN",2023,2023,4,0.25,"tv_gdp",NA,0.24777298
