isdrw/probabilistic-benchmark-forecasts/results/ald_quantiles_prediction/ald_prediction_arima_auto_2026-02-19_10-43-15.csv
"country","target","tau","target_year","target_quarter","forecast_year","forecast_quarter","horizon","lower_bound","upper_bound","truth_value","prediction","covered","IS"
"CAN","cpi",0.1,1959,3,1959,NA,0,1.17610637918289,1.20372415237397,1.19382698397654,1.24991216431293,TRUE,0.0276177731910812
"CAN","cpi",0.1,1959,3,1959,NA,0.5,0.897504764968348,1.19576775200371,1.19382698397654,0.437839731590327,TRUE,0.298262987035362
"CAN","cpi",0.1,1959,3,1958,NA,1,-0.73786588840847,-0.159290111019356,1.19382698397654,1.75862762885946,FALSE,3.58550265515777
"CAN","cpi",0.1,1959,3,1958,NA,1.5,2.34557709724728,3.52863422362447,1.19382698397654,1.77407172713766,FALSE,3.74250182253438
"CAN","cpi",0.1,1960,3,1960,NA,0,0.96593905153315,0.989644780844639,1.34209404870695,1.02361304259477,FALSE,0.806926324561073
"CAN","cpi",0.1,1960,3,1960,NA,0.5,1.05840330297962,1.32776778340811,1.34209404870695,0.53898348018166,FALSE,0.301200625537027
"CAN","cpi",0.1,1960,3,1959,NA,1,1.38785384958088,1.82870469785855,1.34209404870695,3.95759373689442,FALSE,0.542539294664178
"CAN","cpi",0.1,1960,3,1959,NA,1.5,-0.788710182778151,0.367816741120209,1.34209404870695,-0.873476815404885,FALSE,3.32158760742445
"CAN","cpi",0.1,1961,3,1961,NA,0,0.967696513642153,1.00040141157379,1.00921348094007,1.00921348094007,FALSE,0.0522872743011531
"CAN","cpi",0.1,1961,3,1961,NA,0.5,1.79892084272282,1.96076362778378,1.00921348094007,1.00921348094007,FALSE,1.91674803346707
"CAN","cpi",0.1,1961,3,1960,NA,1,-2.31665966917214,-1.92087505547037,1.00921348094007,0.0537704626035329,FALSE,6.90709247239163
"CAN","cpi",0.1,1961,3,1960,NA,1.5,-0.136591892804205,0.821624606105357,1.00921348094007,-0.862181798940035,FALSE,1.37508066520893
"CAN","cpi",0.1,1962,3,1962,NA,0,1.06123009849939,1.08610646105178,1.04957947883042,1.10232402731478,FALSE,0.0507666284834457
"CAN","cpi",0.1,1962,3,1962,NA,0.5,0.630080196498016,0.785845854400044,1.04957947883042,0,FALSE,0.741840378858408
"CAN","cpi",0.1,1962,3,1961,NA,1,-2.27091713345107,-1.78269015801764,1.04957947883042,0,FALSE,6.78215950176244
"CAN","cpi",0.1,1962,3,1961,NA,1.5,1.40918932203809,2.06728619433471,1.04957947883042,0,FALSE,1.45722985720256
"CAN","cpi",0.1,1963,3,1963,NA,0,1.86300612262174,1.88923389072034,1.60677118395228,1.91491729531202,FALSE,0.595638742919619
"CAN","cpi",0.1,1963,3,1963,NA,0.5,1.48310152943833,1.64310115406287,1.60677118395228,0.836828714617504,TRUE,0.159999624624538
"CAN","cpi",0.1,1963,3,1962,NA,1,0.218830523831969,0.669128262381264,1.60677118395228,2.56411490415144,FALSE,2.53394867537378
"CAN","cpi",0.1,1963,3,1962,NA,1.5,0.912884650706276,1.46453743410317,1.60677118395228,0,FALSE,0.867727783061586
"CAN","cpi",0.1,1964,3,1964,NA,0,1.91829270569167,1.94583383763892,1.88764670034376,1.98877256446048,FALSE,0.0956433660537185
"CAN","cpi",0.1,1964,3,1964,NA,0.5,2.20870264456398,2.2781397187832,1.88764670034376,1.38369006227607,FALSE,0.782894728041924
"CAN","cpi",0.1,1964,3,1963,NA,1,4.26169368986177,4.61677937835881,1.88764670034376,5.39044290347256,FALSE,5.63074566520373
"CAN","cpi",0.1,1964,3,1963,NA,1.5,1.31177281491829,1.69870328472381,1.88764670034376,0,FALSE,0.806804726738747
"CAN","cpi",0.1,1965,3,1965,NA,0,2.27263987684098,2.30098872490165,2.29538304394236,2.34557047418999,TRUE,0.0283488480606664
"CAN","cpi",0.1,1965,3,1965,NA,0.5,2.38365222326528,2.45860747069732,2.29538304394236,1.61079447956654,FALSE,0.271108979260757
"CAN","cpi",0.1,1965,3,1964,NA,1,0.261128022369027,0.545186675093156,2.29538304394236,2.42518862179847,FALSE,4.17338391683346
"CAN","cpi",0.1,1965,3,1964,NA,1.5,2.61687988853098,2.90093854125511,2.29538304394236,0.818102552316399,FALSE,0.998496085143291
"CAN","cpi",0.1,1966,3,1966,NA,0,3.75962353001571,3.78468034483917,3.72486065470629,3.82010987863709,FALSE,0.102307648844401
"CAN","cpi",0.1,1966,3,1966,NA,0.5,4.73428793262068,4.80711928526243,3.72486065470629,3.99123398895563,FALSE,2.31600308134039
"CAN","cpi",0.1,1966,3,1965,NA,1,2.07609767999215,2.35487437128123,3.72486065470629,3.20722068745854,FALSE,3.32319065445589
"CAN","cpi",0.1,1966,3,1965,NA,1.5,3.3779842670165,3.65676095830558,3.72486065470629,1.60663824631958,FALSE,0.430109349957315
"CAN","cpi",0.1,1967,3,1967,NA,0,3.69875387868543,3.72231204397367,3.49360316391996,3.76768849328632,FALSE,0.479448642544834
"CAN","cpi",0.1,1967,3,1967,NA,0.5,3.07955972189692,3.17274843754938,3.49360316391996,2.4074547441976,FALSE,0.806199218698195
"CAN","cpi",0.1,1967,3,1966,NA,1,2.61695132491889,2.90427519948045,3.49360316391996,3.18103323070284,FALSE,1.59694157331602
"CAN","cpi",0.1,1967,3,1966,NA,1.5,6.42084333101295,6.70816720557451,3.49360316391996,4.65128160487248,FALSE,6.79230202365709
"CAN","cpi",0.1,1968,3,1968,NA,0,4.10146397756602,4.12585686102499,3.95128347779386,4.17287945672396,FALSE,0.358127327397104
"CAN","cpi",0.1,1968,3,1968,NA,0.5,4.70792013166657,4.79126581441266,3.95128347779386,4.07097205779852,FALSE,1.7647604691299
"CAN","cpi",0.1,1968,3,1967,NA,1,5.26512090284628,5.56708046383068,3.95128347779386,5.84521682123848,FALSE,3.22159828332313
"CAN","cpi",0.1,1968,3,1967,NA,1.5,3.67958619162358,3.98154575260798,3.95128347779386,2.25565858240226,TRUE,0.3019595609844
"CAN","cpi",0.1,1969,3,1969,NA,0,4.39427937922385,4.41982053965376,4.42679496126681,4.46896837073893,FALSE,0.0410398751255915
"CAN","cpi",0.1,1969,3,1969,NA,0.5,3.51956930510393,3.61540747680368,4.42679496126681,2.96612019395715,FALSE,1.89892147050671
"CAN","cpi",0.1,1969,3,1968,NA,1,6.27562550391292,6.54172541994042,4.42679496126681,6.72487630040807,FALSE,4.37461223301885
"CAN","cpi",0.1,1969,3,1968,NA,1.5,5.6663537156449,5.9324536316724,4.42679496126681,4.31664452944541,FALSE,3.02067492575658
"CAN","cpi",0.1,1970,3,1970,NA,0,3.44709145120391,3.47095925392975,3.28128405769805,3.52697515579364,FALSE,0.39232867718332
"CAN","cpi",0.1,1970,3,1970,NA,0.5,5.288337809972,5.38083624135136,3.28128405769805,4.65371085276917,FALSE,4.55261788087703
"CAN","cpi",0.1,1970,3,1969,NA,1,4.05813926191766,4.33984076707122,3.28128405769805,4.52747875087707,FALSE,2.00804640341937
"CAN","cpi",0.1,1970,3,1969,NA,1.5,3.34347458630603,3.62517609145958,3.28128405769805,2.07973847283129,FALSE,0.41990267983796
"CAN","cpi",0.1,1971,3,1971,NA,0,2.73012808971948,2.7555002108601,2.64123406634756,2.8393232579169,FALSE,0.222914395300432
"CAN","cpi",0.1,1971,3,1971,NA,0.5,2.57055726627917,2.71567069398536,2.64123406634756,2.06692165705507,TRUE,0.145113427706187
"CAN","cpi",0.1,1971,3,1970,NA,1,1.60948193286789,1.83059082898212,2.64123406634756,2.64105994583495,FALSE,2.02253831248188
"CAN","cpi",0.1,1971,3,1970,NA,1.5,6.0394421043248,6.26055100043903,2.64123406634756,4.63977638900468,FALSE,7.77268231384143
"CAN","cpi",0.1,1972,3,1972,NA,0,4.9087840261,4.93326232801019,4.83230569625923,5.03048103188219,FALSE,0.194430146000789
"CAN","cpi",0.1,1972,3,1972,NA,0.5,5.51811848622233,5.65637117816341,4.83230569625923,5.06705904355972,FALSE,1.6622811140813
"CAN","cpi",0.1,1972,3,1971,NA,1,5.56385936241716,5.83875235170767,4.83230569625923,5.9169160270675,FALSE,1.90056780297481
"CAN","cpi",0.1,1972,3,1971,NA,1.5,4.20243153348854,4.47732452277905,4.83230569625923,3.09276495441271,FALSE,1.06374004146869
"CAN","cpi",0.1,1973,3,1973,NA,0,6.80502293535449,6.82432002384303,7.12388603531779,6.99264756193144,FALSE,0.68499933621023
"CAN","cpi",0.1,1973,3,1973,NA,0.5,5.93749359885338,6.08897778434957,7.12388603531779,5.47469896411854,FALSE,2.4512802987589
"CAN","cpi",0.1,1973,3,1972,NA,1,5.68591574135324,5.91095441169257,7.12388603531779,6.69062283747837,FALSE,2.92044227839538
"CAN","cpi",0.1,1973,3,1972,NA,1.5,5.82094045597815,6.04597912631748,7.12388603531779,4.73174243586486,FALSE,2.62038735700668
"CAN","cpi",0.1,1974,3,1974,NA,0,9.75547902681213,9.78101526564272,10.2717243737774,9.94431520564033,FALSE,1.11600092357436
"CAN","cpi",0.1,1974,3,1974,NA,0.5,8.80374519218502,8.95632181004029,10.2717243737774,8.3378654175141,FALSE,3.07569342616
"CAN","cpi",0.1,1974,3,1973,NA,1,6.13673985549872,6.35126431836165,10.2717243737774,7.16712422635118,FALSE,8.92665791934241
"CAN","cpi",0.1,1974,3,1973,NA,1.5,5.26787083978813,5.50809227592526,10.2717243737774,4.05174749178054,FALSE,10.8260705424753
"CAN","cpi",0.1,1975,3,1975,NA,0,9.9856826820512,10.0129352929039,10.0232981493341,10.0931823619779,FALSE,0.0502811806975928
"CAN","cpi",0.1,1975,3,1975,NA,0.5,9.45625857788997,9.61570658116262,10.0232981493341,8.98267476097328,FALSE,1.06520704365377
"CAN","cpi",0.1,1975,3,1974,NA,1,7.33717359053138,7.63909039051522,10.0232981493341,7.7837982223054,FALSE,5.60015626402584
"CAN","cpi",0.1,1975,3,1974,NA,1.5,7.17474205324062,7.47665885322446,10.0232981493341,5.75931605308519,FALSE,5.96111523578308
"CAN","cpi",0.1,1976,3,1976,NA,0,6.96933734322989,6.99696507895955,7.22784311401172,7.07277954951717,FALSE,0.540690035845586
"CAN","cpi",0.1,1976,3,1976,NA,0.5,9.13702070044941,9.30407843389118,7.22784311401172,8.59089060438327,FALSE,4.40967459219221
"CAN","cpi",0.1,1976,3,1975,NA,1,10.2849494920375,10.5389714499129,7.22784311401172,10.4141477685142,FALSE,7.04759168682157
"CAN","cpi",0.1,1976,3,1975,NA,1.5,7.93248502655357,8.26044808673705,7.22784311401172,6.43051086134862,FALSE,1.89383397694315
"CAN","cpi",0.1,1977,3,1977,NA,0,7.40320950134895,7.44367543421504,7.58101410153764,7.55301151664772,FALSE,0.345662971360763
"CAN","cpi",0.1,1977,3,1977,NA,0.5,8.53747579225982,8.78220600852738,7.58101410153764,7.98165850021887,FALSE,2.37020064009463
"CAN","cpi",0.1,1977,3,1976,NA,1,3.52615477119665,3.87266814162995,7.58101410153764,3.72134649143602,FALSE,8.58728217022817
"CAN","cpi",0.1,1977,3,1976,NA,1.5,9.46133573232397,9.80784910275727,7.58101410153764,8.00272044475614,FALSE,4.5250058832918
"CAN","cpi",0.1,1978,3,1978,NA,0,8.59268825390522,8.62623531281016,8.50208927062595,8.67127840358843,FALSE,0.234878132858876
"CAN","cpi",0.1,1978,3,1978,NA,0.5,8.92559876556373,9.17329704362253,8.50208927062595,8.3788273181893,FALSE,1.18883048903165
"CAN","cpi",0.1,1978,3,1977,NA,1,7.37427106375183,7.74565553447056,8.50208927062595,7.54783828416051,FALSE,2.05234832884181
"CAN","cpi",0.1,1978,3,1977,NA,1.5,10.8230854220865,11.1944698928052,8.50208927062595,9.72562756342223,FALSE,5.52915369618661
"CAN","cpi",0.1,1979,3,1979,NA,0,8.49117981694681,8.52323161455958,8.65147652410481,8.56376390232469,FALSE,0.317040485491064
"CAN","cpi",0.1,1979,3,1979,NA,0.5,8.30301819602593,8.52477660688713,8.65147652410481,8.29599284966764,FALSE,0.503313782456047
"CAN","cpi",0.1,1979,3,1978,NA,1,9.05834924445412,9.43672414484452,8.65147652410481,9.20311500508918,FALSE,1.28253650116664
"CAN","cpi",0.1,1979,3,1978,NA,1.5,9.64716238219738,10.0255372825878,8.65147652410481,8.55646910152924,FALSE,2.59101014059613
"CAN","cpi",0.1,1980,3,1980,NA,0,9.45961949812951,9.49129034485453,9.5171912664748,9.50406722106931,FALSE,0.0892284503256136
"CAN","cpi",0.1,1980,3,1980,NA,0.5,8.83138669462211,9.02119341073514,9.5171912664748,8.57798914335092,FALSE,1.29202417331227
"CAN","cpi",0.1,1980,3,1979,NA,1,8.10660907732335,8.47447380273054,9.5171912664748,8.17875203710815,FALSE,2.68501464483888
"CAN","cpi",0.1,1980,3,1979,NA,1.5,8.91387368640445,9.35161718513726,9.5171912664748,8.39204766062112,FALSE,0.805685901705107
"CAN","cpi",0.1,1981,3,1981,NA,0,11.6944667785897,11.7262186598955,11.5813425032741,11.7113878984199,FALSE,0.283139159784813
"CAN","cpi",0.1,1981,3,1981,NA,0.5,12.4473484265749,12.6279761659673,11.5813425032741,12.2156196752767,FALSE,2.1050853467275
"CAN","cpi",0.1,1981,3,1980,NA,1,11.3690829697236,11.706793999601,11.5813425032741,11.0496853423024,TRUE,0.337711029877465
"CAN","cpi",0.1,1981,3,1980,NA,1.5,9.37490539476985,9.73380342780706,11.5813425032741,8.33809792174894,FALSE,4.46454042296406
"CAN","cpi",0.1,1982,3,1982,NA,0,10.2469102981721,10.275883709148,10.1124203763629,10.2566668151097,FALSE,0.3278399038852
"CAN","cpi",0.1,1982,3,1982,NA,0.5,10.3848257387224,10.5504761784444,10.1124203763629,10.1085355973545,FALSE,0.770995689409726
"CAN","cpi",0.1,1982,3,1981,NA,1,12.2385759147167,12.5465241806441,10.1124203763629,11.770988683124,FALSE,5.03273835115794
"CAN","cpi",0.1,1982,3,1981,NA,1.5,13.8275597511856,14.2649097723074,10.1124203763629,12.8701250351281,FALSE,8.69321529850552
"CAN","cpi",0.1,1983,3,1983,NA,0,5.72453277333258,5.75229825504266,5.67091787896303,5.7310121416489,FALSE,0.14690969142018
"CAN","cpi",0.1,1983,3,1983,NA,0.5,4.99790054344984,5.18044493376031,5.67091787896303,4.91343016009654,FALSE,1.27248426853875
"CAN","cpi",0.1,1983,3,1982,NA,1,9.5552098544913,9.89131455084086,5.67091787896303,9.18500149866057,FALSE,8.96786464196794
"CAN","cpi",0.1,1983,3,1982,NA,1.5,10.7585898372803,11.1760564508932,5.67091787896303,9.68672301569366,FALSE,11.7234042987624
"CAN","cpi",0.1,1984,3,1984,NA,0,NA,NA,4.19799576814029,NA,NA,NA
"CAN","cpi",0.1,1984,3,1984,NA,0.5,6.15553068885047,6.32062012594072,4.19799576814029,5.85770686024457,FALSE,4.51516703866844
"CAN","cpi",0.1,1984,3,1983,NA,1,5.98818029931846,6.37556632833353,4.19799576814029,5.76553357996429,FALSE,4.36557387607767
"CAN","cpi",0.1,1984,3,1983,NA,1.5,3.5195784553451,4.01000730321085,4.19799576814029,2.9197996794717,FALSE,0.908180992153387
"CAN","cpi",0.1,1985,3,1985,NA,0,3.81288632333956,3.8419045442436,3.86444262005169,3.85417990135378,FALSE,0.079102833810914
"CAN","cpi",0.1,1985,3,1985,NA,0.5,4.24303633000437,4.41711993495437,3.86444262005169,4.21990042382899,FALSE,1.01540296040039
"CAN","cpi",0.1,1985,3,1984,NA,1,NA,NA,3.86444262005169,NA,NA,NA
"CAN","cpi",0.1,1985,3,1984,NA,1.5,9.18472276867055,9.65320107807237,3.86444262005169,8.62999660305356,FALSE,12.2913230841104
"CAN","cpi",0.1,1986,3,1986,NA,0,3.98557576134757,4.00558710127758,4.08685396749431,4.03771389199993,FALSE,0.200604375967193
"CAN","cpi",0.1,1986,3,1986,NA,0.5,4.2491974760674,4.39896877776006,4.08685396749431,4.38219332503529,FALSE,0.510534654077308
"CAN","cpi",0.1,1986,3,1985,NA,1,3.30304227442685,3.74868740495814,4.08685396749431,3.37849976080849,FALSE,1.19712638061166
"CAN","cpi",0.1,1986,3,1985,NA,1.5,4.64285168257372,5.10941252759524,4.08685396749431,4.95309858900956,FALSE,1.70211132297577
"CAN","cpi",0.1,1987,3,1987,NA,0,NA,NA,4.23980729277887,NA,NA,NA
"CAN","cpi",0.1,1987,3,1987,NA,0.5,3.81037218134334,3.93807433982612,4.23980729277887,4.13342161080085,FALSE,0.798219831711113
"CAN","cpi",0.1,1987,3,1986,NA,1,3.57300545433112,3.98811029856872,4.23980729277887,3.66140988164798,FALSE,0.974431498037937
"CAN","cpi",0.1,1987,3,1986,NA,1.5,4.02900419926431,4.44410904350191,4.23980729277887,4.80242768143514,TRUE,0.415104844237597
"CAN","cpi",0.1,1988,3,1988,NA,0,3.92373901926857,3.94326649908634,3.92899537638065,3.9438316199536,TRUE,0.0195274798177758
"CAN","cpi",0.1,1988,3,1988,NA,0.5,3.28622614206702,3.40696955098039,3.92899537638065,3.35419215340812,FALSE,1.28080079869173
"CAN","cpi",0.1,1988,3,1987,NA,1,NA,NA,3.92899537638065,NA,NA,NA
"CAN","cpi",0.1,1988,3,1987,NA,1.5,3.01241320691238,3.38225804181983,3.92899537638065,3.89461929526446,FALSE,1.58481668948706
"CAN","cpi",0.1,1989,3,1989,NA,0,4.92351066813499,4.94226972686813,4.82821664544208,4.95130318392835,FALSE,0.230523553606276
"CAN","cpi",0.1,1989,3,1989,NA,0.5,4.22337673683032,4.33895377693176,4.82821664544208,4.23024942747073,FALSE,1.20282785901326
"CAN","cpi",0.1,1989,3,1988,NA,1,3.9570129435604,4.25655282189817,4.82821664544208,4.05841794603162,FALSE,1.56990393065755
"CAN","cpi",0.1,1989,3,1988,NA,1.5,1.73523526635559,2.11156475315388,4.82821664544208,2.597843559383,FALSE,6.41333369188317
"CAN","cpi",0.1,1990,3,1990,NA,0,4.45085621129809,4.46834009309032,4.64347549432717,4.4746950192663,FALSE,0.406673662318572
"CAN","cpi",0.1,1990,3,1990,NA,0.5,4.97215233791285,5.09204560945037,4.64347549432717,4.96487168902479,FALSE,0.850286257283469
"CAN","cpi",0.1,1990,3,1989,NA,1,5.33840106304573,5.63493325968113,4.64347549432717,5.43871373969076,FALSE,1.84081123823219
"CAN","cpi",0.1,1990,3,1989,NA,1.5,2.95053340536861,3.38041825466901,4.64347549432717,3.3732540002381,FALSE,3.23667871520742
"CAN","cpi",0.1,1991,3,1991,NA,0,5.58139540040101,5.59805790574499,5.4258100696218,5.61053369942382,FALSE,0.362407684853349
"CAN","cpi",0.1,1991,3,1991,NA,0.5,7.74941322386201,7.86930046540736,5.4258100696218,7.82199295477594,FALSE,5.28344980652361
"CAN","cpi",0.1,1991,3,1990,NA,1,3.54649350781086,3.84900233038903,5.4258100696218,3.66716818384097,FALSE,3.80652602087321
"CAN","cpi",0.1,1991,3,1990,NA,1.5,4.85861664063992,5.37806978565726,5.4258100696218,4.82481948664164,FALSE,0.625542664938527
"CAN","cpi",0.1,1992,3,1992,NA,0,NA,NA,1.47496888572843,NA,NA,NA
"CAN","cpi",0.1,1992,3,1992,NA,0.5,NA,NA,1.47496888572843,NA,NA,NA
"CAN","cpi",0.1,1992,3,1991,NA,1,2.66676834401798,2.98100164347489,1.47496888572843,2.76780571233213,FALSE,2.96267654010034
"CAN","cpi",0.1,1992,3,1991,NA,1.5,6.94358314502457,7.42105819501804,1.47496888572843,7.14938182660169,FALSE,12.6299511817627
"CAN","cpi",0.1,1993,3,1993,NA,0,NA,NA,NA,NA,NA,NA
"CAN","cpi",0.1,1993,3,1993,NA,0.5,NA,NA,NA,NA,NA,NA
"CAN","cpi",0.1,1993,3,1992,NA,1,NA,NA,NA,NA,NA,NA
"CAN","cpi",0.1,1993,3,1992,NA,1.5,NA,NA,NA,NA,NA,NA
"CAN","cpi",0.1,1994,3,1994,NA,0,NA,NA,NA,NA,NA,NA
"CAN","cpi",0.1,1994,3,1994,NA,0.5,NA,NA,NA,NA,NA,NA
"CAN","cpi",0.1,1994,3,1993,NA,1,NA,NA,NA,NA,NA,NA
"CAN","cpi",0.1,1994,3,1993,NA,1.5,NA,NA,NA,NA,NA,NA
"CAN","cpi",0.1,1995,3,1995,NA,0,NA,NA,2.11688403676572,NA,NA,NA
"CAN","cpi",0.1,1995,3,1995,NA,0.5,2.04896336342653,2.20760369530285,2.11688403676572,2.51937811073084,TRUE,0.158640331876317
"CAN","cpi",0.1,1995,3,1994,NA,1,0.897957045790571,1.14078256197458,2.11688403676572,0.719396410821945,FALSE,2.41193990460875
"CAN","cpi",0.1,1995,3,1994,NA,1.5,-1.29589673192939,-0.780382456609129,2.11688403676572,-1.04654603924828,FALSE,6.95388426059769
"CAN","cpi",0.1,1996,3,1996,NA,0,1.41332359385078,1.43397667002133,1.55309584667184,1.42780748357026,FALSE,0.285362357616133
"CAN","cpi",0.1,1996,3,1996,NA,0.5,NA,NA,1.55309584667184,NA,NA,NA
"CAN","cpi",0.1,1996,3,1995,NA,1,NA,NA,1.55309584667184,NA,NA,NA
"CAN","cpi",0.1,1996,3,1995,NA,1.5,2.62733374061497,3.14745182937142,1.55309584667184,2.92232271175447,FALSE,2.90731340863007
"CAN","cpi",0.1,1997,3,1997,NA,0,1.71859066818191,1.74256890418489,1.60528783555959,1.73535847807117,FALSE,0.275762308497024
"CAN","cpi",0.1,1997,3,1997,NA,0.5,1.74378131215574,1.87624177640116,1.60528783555959,2.11078363597796,FALSE,0.440223745570184
"CAN","cpi",0.1,1997,3,1996,NA,1,1.48100812386466,1.66399226057159,1.60528783555959,0.984961337307556,TRUE,0.182984136706923
"CAN","cpi",0.1,1997,3,1996,NA,1.5,NA,NA,1.60528783555959,NA,NA,NA
"CAN","cpi",0.1,1998,3,1998,NA,0,0.955008826199012,0.984011200032415,0.988908029337191,1.0350847138471,FALSE,0.0398842167329043
"CAN","cpi",0.1,1998,3,1998,NA,0.5,1.28733566091315,1.42536507320558,0.988908029337191,1.68533655437107,FALSE,0.801201926905667
"CAN","cpi",0.1,1998,3,1997,NA,1,2.68283226589629,2.8550788903751,0.988908029337191,2.25159584334757,FALSE,3.93652270572126
"CAN","cpi",0.1,1998,3,1997,NA,1.5,2.42173122047909,2.84656223067681,0.988908029337191,2.38987816876076,FALSE,3.6088825460686
"CAN","cpi",0.1,1999,3,1999,NA,0,1.72828336913079,1.75042716468793,1.7107350135213,1.77618438459462,FALSE,0.0611401413560108
"CAN","cpi",0.1,1999,3,1999,NA,0.5,0.533123173262424,0.667764820728065,1.7107350135213,1.0290924799153,FALSE,2.45235318700616
"CAN","cpi",0.1,1999,3,1998,NA,1,2.1470579851059,2.40134838529905,1.7107350135213,1.85177544064205,FALSE,1.2238970037145
"CAN","cpi",0.1,1999,3,1998,NA,1.5,2.90411832706939,3.35707050661841,1.7107350135213,2.94645730787123,FALSE,3.10491509854479
"CAN","cpi",0.1,2000,3,2000,NA,0,2.62532282741623,2.65123289604428,2.6718361971244,2.7102541785615,FALSE,0.0716951821394215
"CAN","cpi",0.1,2000,3,2000,NA,0.5,1.85508152881502,1.99255378742852,2.6718361971244,2.34405201403356,FALSE,1.64698872460435
"CAN","cpi",0.1,2000,3,1999,NA,1,2.9727165410809,3.19790247465773,2.6718361971244,3.07542936781209,FALSE,0.893808920146835
"CAN","cpi",0.1,2000,3,1999,NA,1.5,1.32323233594508,1.82013487615145,2.6718361971244,2.27809035801724,FALSE,2.38957214236848
"CAN","cpi",0.1,2001,3,2001,NA,0,2.73123532595343,2.75138859211614,2.47906219852806,2.77546584984351,FALSE,0.580537993774635
"CAN","cpi",0.1,2001,3,2001,NA,0.5,1.92877351157555,2.05941833888944,2.47906219852806,2.43566755503104,FALSE,1.06318673762194
"CAN","cpi",0.1,2001,3,2000,NA,1,3.39728191885893,3.61293680933027,2.47906219852806,3.68958695319843,FALSE,2.25614315787327
"CAN","cpi",0.1,2001,3,2000,NA,1.5,1.95400344794273,2.38996635037821,2.47906219852806,3.01270789712173,FALSE,0.633953676101824
"CAN","cpi",0.1,2002,3,2002,NA,0,2.1820243285059,2.20290778566856,2.20880570551249,2.27196234986351,FALSE,0.0339899457047183
"CAN","cpi",0.1,2002,3,2002,NA,0.5,1.10058579259102,1.24069647766765,2.20880570551249,1.58345411989126,FALSE,2.29146452473182
"CAN","cpi",0.1,2002,3,2001,NA,1,1.9377993921875,2.16134200935817,2.20880570551249,2.26510423845898,FALSE,0.329017497513599
"CAN","cpi",0.1,2002,3,2001,NA,1.5,1.86303658138629,2.23774295629807,2.20880570551249,3.02058043279009,TRUE,0.374706374911778
"CAN","cpi",0.1,2003,3,2003,NA,0,2.63624140936536,2.65255460502824,2.71189071546809,2.71326702620668,FALSE,0.148171218862551
"CAN","cpi",0.1,2003,3,2003,NA,0.5,4.49060645627997,4.58857750119566,2.71189071546809,4.51432649273496,FALSE,4.05067269116431
"CAN","cpi",0.1,2003,3,2002,NA,1,3.5489667668038,3.71294931161149,2.71189071546809,3.85618281746238,FALSE,2.02415154777595
"CAN","cpi",0.1,2003,3,2002,NA,1.5,1.16228741130219,1.48778826435688,2.71189071546809,2.39402389849184,FALSE,3.04572852219071
"CAN","cpi",0.1,2004,3,2004,NA,0,1.71010987813781,1.72662644371978,1.83151661303942,1.77466852383015,FALSE,0.249605830736731
"CAN","cpi",0.1,2004,3,2004,NA,0.5,1.18172246916621,1.32514838192104,1.83151661303942,1.55260435151936,FALSE,1.26868864857346
"CAN","cpi",0.1,2004,3,2003,NA,1,1.38231555986248,1.54068730663573,1.83151661303942,1.79415792598285,FALSE,0.804659094337014
"CAN","cpi",0.1,2004,3,2003,NA,1.5,3.5344040535453,3.77850806386365,1.83151661303942,4.26699272545716,FALSE,4.02829832255363
"CAN","cpi",0.1,2005,3,2005,NA,0,2.28644933215391,2.30283787856646,2.18071628336509,2.34345353472953,FALSE,0.25135087705437
"CAN","cpi",0.1,2005,3,2005,NA,0.5,1.45962623951976,1.60800828713881,2.18071628336509,1.50321338317329,FALSE,1.42106648367745
"CAN","cpi",0.1,2005,3,2004,NA,1,1.37037168888432,1.51875373650337,2.18071628336509,1.64043962712234,FALSE,1.61940992953399
"CAN","cpi",0.1,2005,3,2004,NA,1.5,1.09334831990083,1.37687601225341,2.18071628336509,2.03393284113233,FALSE,2.06983940593409
"CAN","cpi",0.1,2006,3,2006,NA,0,2.0312564535067,2.04903286505082,1.97519342012289,2.09514376892657,FALSE,0.142360930174813
"CAN","cpi",0.1,2006,3,2006,NA,0.5,2.10993464971769,2.25535299439794,1.97519342012289,2.09436263599022,FALSE,0.44484329933537
"CAN","cpi",0.1,2006,3,2005,NA,1,2.77076091976648,2.91617926444673,1.97519342012289,2.9582912060806,FALSE,1.91334612166601
"CAN","cpi",0.1,2006,3,2005,NA,1.5,0.745313050768691,1.03582716125132,1.97519342012289,1.64885961980806,FALSE,2.37799468575278
"CAN","cpi",0.1,2007,3,2007,NA,0,2.03293084159421,2.04965834129591,2.10062087284572,2.10683622102307,FALSE,0.129977569812392
"CAN","cpi",0.1,2007,3,2007,NA,0.5,2.21197607952712,2.35138813939775,2.10062087284572,2.17629902083353,FALSE,0.386868074718175
"CAN","cpi",0.1,2007,3,2006,NA,1,1.17910942067917,1.32696867708931,2.10062087284572,1.50861692709856,FALSE,1.86708635809107
"CAN","cpi",0.1,2007,3,2006,NA,1.5,1.3448482151611,1.51720193558423,2.10062087284572,2.15918616350405,FALSE,1.46884024767089
"CAN","cpi",0.1,2008,3,2008,NA,0,2.7975243460187,2.81379189445678,2.31447335265955,2.87079455148828,FALSE,1.0897142003473
"CAN","cpi",0.1,2008,3,2008,NA,0.5,1.24400357420477,1.35832520033254,2.31447335265955,1.31005314695267,FALSE,2.23909529796557
"CAN","cpi",0.1,2008,3,2007,NA,1,1.19895755131895,1.34337224466356,2.31447335265955,1.47031049982668,FALSE,2.30241715555793
"CAN","cpi",0.1,2008,3,2007,NA,1.5,2.17162214045772,2.3568211410209,2.31447335265955,2.46453195342394,TRUE,0.18519900056318
"CAN","cpi",0.1,2009,3,2009,NA,0,0.0876498743849974,0.114155142146418,0.284533874408197,0.187122346349721,FALSE,0.405124672787597
"CAN","cpi",0.1,2009,3,2009,NA,0.5,0.054047886136889,0.182337749601028,0.284533874408197,-0.0727492620466167,FALSE,0.355392363035626
"CAN","cpi",0.1,2009,3,2008,NA,1,3.55715774542593,3.70466703468598,0.284533874408197,3.81780026356951,FALSE,7.42000678041057
"CAN","cpi",0.1,2009,3,2008,NA,1.5,1.39122226809418,1.56922314218132,0.284533874408197,1.68675152630419,FALSE,2.63730841561155
"CAN","cpi",0.1,2010,3,2010,NA,0,1.52867174236732,1.5605022844168,1.75525687020327,1.6089956646354,FALSE,0.464618510463861
"CAN","cpi",0.1,2010,3,2010,NA,0.5,2.1167589374128,2.22298867899582,1.75525687020327,1.91109502526183,FALSE,0.90956766871531
"CAN","cpi",0.1,2010,3,2009,NA,1,0.620028238230787,0.814170363967118,1.75525687020327,0.992295788494754,FALSE,2.28544547292778
"CAN","cpi",0.1,2010,3,2009,NA,1.5,0.581429544126185,0.775571669862516,1.75525687020327,0.885103052815867,FALSE,2.37122034871579
"CAN","cpi",0.1,2011,3,2011,NA,0,2.79900625163356,2.83268230618759,2.85717434028225,2.86665414062098,FALSE,0.0881027969866003
"CAN","cpi",0.1,2011,3,2011,NA,0.5,2.91155317859561,3.0221792301285,2.85717434028225,2.76583381894771,FALSE,0.23146791445148
"CAN","cpi",0.1,2011,3,2010,NA,1,1.07337438919227,1.27072028491349,2.85717434028225,1.39294644169719,FALSE,3.72279935209623
"CAN","cpi",0.1,2011,3,2010,NA,1.5,1.47967347844356,1.67701937416478,2.85717434028225,1.64253060592363,FALSE,2.81991248709337
"CAN","cpi",0.1,2012,3,2012,NA,0,1.46268256479156,1.49568119112719,1.50118536134935,1.52822510849394,FALSE,0.0452301157182028
"CAN","cpi",0.1,2012,3,2012,NA,0.5,1.9632479700504,2.06007191415853,1.50118536134935,1.92429021972789,FALSE,1.12362974122158
"CAN","cpi",0.1,2012,3,2011,NA,1,2.01799383012998,2.24426177114606,1.50118536134935,1.99945242447079,FALSE,1.37473120497305
"CAN","cpi",0.1,2012,3,2011,NA,1.5,2.30035519189424,2.52662313291032,1.50118536134935,2.48150957397962,FALSE,2.00220089778251
"CAN","cpi",0.1,2013,3,2013,NA,0,1.0070668189189,1.0333618273532,0.931270594714462,1.05630513423211,FALSE,0.19473106222194
"CAN","cpi",0.1,2013,3,2013,NA,0.5,1.18017134787217,1.28688246336841,0.931270594714462,1.16963454554932,FALSE,0.659823900291147
"CAN","cpi",0.1,2013,3,2012,NA,1,1.1461884634871,1.37757929442825,0.931270594714462,1.08868089128742,FALSE,0.708986094880353
"CAN","cpi",0.1,2013,3,2012,NA,1.5,1.99930429681447,2.23069512775562,0.931270594714462,2.14573179530527,FALSE,2.60479905783006
"CAN","cpi",0.1,2014,3,2014,NA,0,1.94534650089521,1.97309866112368,1.87639912240215,1.99862849145116,FALSE,0.180968556879715
"CAN","cpi",0.1,2014,3,2014,NA,0.5,1.68846678856673,1.78772946824114,1.87639912240215,1.79231976082687,FALSE,0.296306355587764
"CAN","cpi",0.1,2014,3,2013,NA,1,1.45537453927707,1.69236673640393,1.87639912240215,1.40664989819898,FALSE,0.645953054900679
"CAN","cpi",0.1,2014,3,2013,NA,1.5,1.3405894702523,1.57758166737916,1.87639912240215,1.51436121777893,FALSE,0.901030986066829
"CAN","cpi",0.1,2015,3,2015,NA,0,1.14898081875584,1.17936357953126,1.11090953952792,1.2103065042478,FALSE,0.114985603504135
"CAN","cpi",0.1,2015,3,2015,NA,0.5,0.536898700001378,0.60408166729998,1.11090953952792,0.458547315718059,FALSE,1.19346712780513
"CAN","cpi",0.1,2015,3,2014,NA,1,1.676078086392,1.88642893833977,1.11090953952792,1.57054781428135,FALSE,1.46628095609017
"CAN","cpi",0.1,2015,3,2014,NA,1.5,1.72446242127717,1.94117250162075,1.11090953952792,1.88229109541157,FALSE,1.58016092867525
"CAN","cpi",0.1,2016,3,2016,NA,0,1.30995260564225,1.33477635646912,1.41168586698797,1.41630667471992,FALSE,0.195733774202083
"CAN","cpi",0.1,2016,3,2016,NA,0.5,1.17829188678242,1.27095386641927,1.41168586698797,1.17972158292925,FALSE,0.405399758678387
"CAN","cpi",0.1,2016,3,2015,NA,1,1.95469530646156,2.137752550662,1.41168586698797,1.8638656605167,FALSE,1.3897448874751
"CAN","cpi",0.1,2016,3,2015,NA,1.5,0.869312298601782,1.05236954280222,1.41168586698797,1.07023002715086,FALSE,0.981537964613208
"CAN","cpi",0.1,2017,3,2017,NA,0,1.44465951441619,1.47249721297517,1.57888581671161,1.50492692646759,FALSE,0.2642568179733
"CAN","cpi",0.1,2017,3,2017,NA,0.5,2.16655635930439,2.23198670693533,1.57888581671161,2.09086618282141,FALSE,1.371364886726
"CAN","cpi",0.1,2017,3,2016,NA,1,0.892995636845415,1.06329256771514,1.57888581671161,1.14652050352824,FALSE,1.31605970641744
"CAN","cpi",0.1,2017,3,2016,NA,1.5,1.0830640389238,1.25336096979353,1.57888581671161,1.26788084523026,FALSE,0.893685479576572
"CAN","cpi",0.1,2018,3,2018,NA,0,2.36457913487832,2.39110329409392,2.23316270166586,2.41317537496083,FALSE,0.318560677465506
"CAN","cpi",0.1,2018,3,2018,NA,0.5,2.58088727386047,2.65261755949214,2.23316270166586,2.52809119314695,FALSE,0.844451557175252
"CAN","cpi",0.1,2018,3,2017,NA,1,1.28421277940734,1.46400533200215,2.23316270166586,1.16800101916097,FALSE,1.88903115184749
"CAN","cpi",0.1,2018,3,2017,NA,1.5,1.8826478586433,2.06244041123811,2.23316270166586,2.07298402260093,FALSE,0.559175420212025
"CAN","cpi",0.1,2019,3,2019,NA,0,NA,NA,1.91921619871868,NA,NA,NA
"CAN","cpi",0.1,2019,3,2019,NA,0.5,1.51295805284723,1.58892255797323,1.91921619871868,1.47328806303322,FALSE,0.809950373449231
"CAN","cpi",0.1,2019,3,2018,NA,1,2.44884532710881,2.65447807223404,1.91921619871868,2.23470281046333,FALSE,1.38258636376996
"CAN","cpi",0.1,2019,3,2018,NA,1.5,2.29031987708229,2.49595262220751,1.91921619871868,2.32030562567512,FALSE,1.03030758593324
"CAN","cpi",0.1,2020,3,2020,NA,0,0.646246151241618,0.664870616081423,0.71139989671781,0.673588636713597,FALSE,0.122022866253998
"CAN","cpi",0.1,2020,3,2020,NA,0.5,NA,NA,0.71139989671781,NA,NA,NA
"CAN","cpi",0.1,2020,3,2019,NA,1,NA,NA,0.71139989671781,NA,NA,NA
"CAN","cpi",0.1,2020,3,2019,NA,1.5,1.74661837140009,1.92481647650206,0.71139989671781,1.77705491937904,FALSE,2.47868360439592
"CAN","cpi",0.1,2021,3,2021,NA,0,3.22224782420403,3.24011671446618,3.31148121717802,3.2525646654712,FALSE,0.176456674066245
"CAN","cpi",0.1,2021,3,2021,NA,0.5,2.02447376134284,2.10422560222694,3.31148121717802,2.16773480502693,FALSE,2.76254209633096
"CAN","cpi",0.1,2021,3,2020,NA,1,1.86152352286642,2.0002295252984,3.31148121717802,1.61070774476322,FALSE,3.05259865105336
"CAN","cpi",0.1,2021,3,2020,NA,1.5,NA,NA,3.31148121717802,NA,NA,NA
"CAN","cpi",0.1,2022,3,2022,NA,0,6.55363703548057,6.57068158419311,6.50977236228281,6.58682891800883,FALSE,0.114521600263122
"CAN","cpi",0.1,2022,3,2022,NA,0.5,5.6499778886544,5.73378259241609,6.50977236228281,5.58900513180898,FALSE,1.80822641457662
"CAN","cpi",0.1,2022,3,2021,NA,1,3.31011473475834,3.46957300962781,6.50977236228281,3.35597076522593,FALSE,6.91545683632503
"CAN","cpi",0.1,2022,3,2021,NA,1.5,1.52281860755079,1.68227688242025,6.50977236228281,1.89458222166426,FALSE,10.8872260078974
"CAN","cpi",0.1,2023,3,2023,NA,0,3.9161079337902,3.93270387271302,3.78831288758619,3.96221561415741,FALSE,0.300584930487285
"CAN","cpi",0.1,2023,3,2023,NA,0.5,3.7078058828749,3.8139860820944,3.78831288758619,3.6121970566696,TRUE,0.106180199219507
"CAN","cpi",0.1,2023,3,2022,NA,1,5.52778636386855,5.7268834480794,3.78831288758619,5.4861852561408,FALSE,4.06459369817165
"CAN","cpi",0.1,2023,3,2022,NA,1.5,3.44077268922647,3.70990309307785,3.78831288758619,3.85557075258935,FALSE,0.443374391647695
"CAN","cpi",0.1,2024,3,2023,NA,1,4.70097949301284,4.93030612456238,NA,4.72280809903739,NA,NA
"CAN","cpi",0.1,2024,3,2023,NA,1.5,4.34888007062759,4.57820670217714,NA,4.36705509613113,NA,NA
"CAN","cpi",0.2,1959,3,1959,NA,0,1.16074031978723,1.21922916842638,1.19382698397654,1.24991216431293,TRUE,0.0584888486391524
"CAN","cpi",0.2,1959,3,1959,NA,0.5,0.722440239696936,1.32509542063623,1.19382698397654,0.437839731590327,TRUE,0.602655180939295
"CAN","cpi",0.2,1959,3,1958,NA,1,-0.988769669046277,0.180303127849918,1.19382698397654,1.75862762885946,FALSE,3.70288243721275
"CAN","cpi",0.2,1959,3,1958,NA,1.5,1.65118542546526,4.04990279091593,1.19382698397654,1.77407172713766,FALSE,3.54211346917246
"CAN","cpi",0.2,1960,3,1960,NA,0,0.954230581730401,1.00354543491172,1.34209404870695,1.02361304259477,FALSE,0.8956863876694
"CAN","cpi",0.2,1960,3,1960,NA,0.5,0.900300665572575,1.44456497843552,1.34209404870695,0.53898348018166,TRUE,0.544264312862946
"CAN","cpi",0.2,1960,3,1959,NA,1,1.16429681495717,2.08644552190595,1.34209404870695,3.95759373689442,TRUE,0.922148706948782
"CAN","cpi",0.2,1960,3,1959,NA,1.5,-1.4675300353798,0.869290062584614,1.34209404870695,-0.873476815404885,FALSE,3.51883006327026
"CAN","cpi",0.2,1961,3,1961,NA,0,0.953515578071152,1.01959744889428,1.00921348094007,1.00921348094007,TRUE,0.066081870823127
"CAN","cpi",0.2,1961,3,1961,NA,0.5,1.70396564694704,2.03992712872789,1.00921348094007,1.00921348094007,FALSE,2.07284189679827
"CAN","cpi",0.2,1961,3,1960,NA,1,-2.48827298894555,-1.68857051712947,1.00921348094007,0.0537704626035329,FALSE,7.54416246698993
"CAN","cpi",0.2,1961,3,1960,NA,1.5,-0.699014063105035,1.23734556537946,1.00921348094007,-0.862181798940035,TRUE,1.93635962848449
"CAN","cpi",0.2,1962,3,1962,NA,0,1.04819994413367,1.10054356038266,1.04957947883042,1.10232402731478,TRUE,0.0523436162489874
"CAN","cpi",0.2,1962,3,1962,NA,0.5,0.538654031873122,0.853386281020569,1.04957947883042,0,FALSE,0.805215243672062
"CAN","cpi",0.2,1962,3,1961,NA,1,-2.48261372082825,-1.49612686523866,1.04957947883042,0,FALSE,7.35075271576228
"CAN","cpi",0.2,1962,3,1961,NA,1.5,1.0262882962357,2.40890763124088,1.04957947883042,0,TRUE,1.38261933500518
"CAN","cpi",0.2,1963,3,1963,NA,0,1.85114048678119,1.90462819698928,1.60677118395228,1.91491729531202,FALSE,0.664410967280362
"CAN","cpi",0.2,1963,3,1963,NA,0.5,1.38919025131793,1.71247744054228,1.60677118395228,0.836828714617504,TRUE,0.323287189224348
"CAN","cpi",0.2,1963,3,1962,NA,1,0.0235801600643284,0.933429108468399,1.60677118395228,2.56411490415144,FALSE,2.59320413711378
"CAN","cpi",0.2,1963,3,1962,NA,1.5,0.589093778764861,1.70373562989843,1.60677118395228,0,TRUE,1.11464185113357
"CAN","cpi",0.2,1964,3,1964,NA,0,1.90283280685713,1.96115952834333,1.88764670034376,1.98877256446048,FALSE,0.096291987769631
"CAN","cpi",0.2,1964,3,1964,NA,0.5,2.16877827509498,2.3154043993,1.88764670034376,1.38369006227607,FALSE,0.849455061083076
"CAN","cpi",0.2,1964,3,1963,NA,1,4.0532772580903,4.77074552989022,1.88764670034376,5.39044290347256,FALSE,6.13154466616628
"CAN","cpi",0.2,1964,3,1963,NA,1.5,1.08466518858208,1.86647742284341,1.88764670034376,0,FALSE,0.834735428012209
"CAN","cpi",0.2,1965,3,1965,NA,0,2.25653375224621,2.31652525613438,2.29538304394236,2.34557047418999,TRUE,0.0599915038881651
"CAN","cpi",0.2,1965,3,1965,NA,0.5,2.34259153639423,2.5012055399273,2.29538304394236,1.61079447956654,FALSE,0.27663523466276
"CAN","cpi",0.2,1965,3,1964,NA,1,0.14248654549354,0.723575051354647,2.29538304394236,2.42518862179847,FALSE,4.51060848733038
"CAN","cpi",0.2,1965,3,1964,NA,1.5,2.47403558096368,3.05512408682479,2.29538304394236,0.818102552316399,FALSE,1.02771984841441
"CAN","cpi",0.2,1966,3,1966,NA,0,3.74621946617622,3.79910854032286,3.72486065470629,3.82010987863709,FALSE,0.106286102821468
"CAN","cpi",0.2,1966,3,1966,NA,0.5,4.69471606439736,4.84872426865345,3.72486065470629,3.99123398895563,FALSE,2.57864672848376
"CAN","cpi",0.2,1966,3,1965,NA,1,1.90114252909772,2.47257089799639,3.72486065470629,3.20722068745854,FALSE,3.70215276067343
"CAN","cpi",0.2,1966,3,1965,NA,1.5,3.23585311966584,3.80728148856451,3.72486065470629,1.60663824631958,TRUE,0.571428368898668
"CAN","cpi",0.2,1967,3,1967,NA,0,3.68547598303927,3.73536044218709,3.49360316391996,3.76768849328632,FALSE,0.52956650694609
"CAN","cpi",0.2,1967,3,1967,NA,0.5,3.02486289736463,3.2165675490474,3.49360316391996,2.4074547441976,FALSE,0.884293688864167
"CAN","cpi",0.2,1967,3,1966,NA,1,2.43643127056712,3.02508103697606,3.49360316391996,3.18103323070284,FALSE,1.7599550837687
"CAN","cpi",0.2,1967,3,1966,NA,1.5,6.27463791270597,6.86328767911491,3.49360316391996,4.65128160487248,FALSE,7.54123663837396
"CAN","cpi",0.2,1968,3,1968,NA,0,4.0875332336001,4.13911640351881,3.95128347779386,4.17287945672396,FALSE,0.392207559434313
"CAN","cpi",0.2,1968,3,1968,NA,0.5,4.65900064444359,4.82740473646691,3.95128347779386,4.07097205779852,FALSE,1.93769700864764
"CAN","cpi",0.2,1968,3,1967,NA,1,5.07604732704156,5.69601454889643,3.95128347779386,5.84521682123848,FALSE,3.43187684497413
"CAN","cpi",0.2,1968,3,1967,NA,1.5,3.51718867449001,4.13715589634487,3.95128347779386,2.25565858240226,TRUE,0.619967221854865
"CAN","cpi",0.2,1969,3,1969,NA,0,4.37951168577441,4.43334690541008,4.42679496126681,4.46896837073893,TRUE,0.0538352196356655
"CAN","cpi",0.2,1969,3,1969,NA,0.5,3.46331739064996,3.65696317714428,4.42679496126681,2.96612019395715,FALSE,2.11822524680066
"CAN","cpi",0.2,1969,3,1968,NA,1,6.11268898662375,6.65035708495359,4.42679496126681,6.72487630040807,FALSE,4.75240316172219
"CAN","cpi",0.2,1969,3,1968,NA,1.5,5.51691720980337,6.0545853081332,4.42679496126681,4.31664452944541,FALSE,3.26297371967121
"CAN","cpi",0.2,1970,3,1970,NA,0,3.43308231921271,3.48183027121729,3.28128405769805,3.52697515579364,FALSE,0.428243605791234
"CAN","cpi",0.2,1970,3,1970,NA,0.5,5.23404614562996,5.4209438209118,3.28128405769805,4.65371085276917,FALSE,5.06880289511163
"CAN","cpi",0.2,1970,3,1969,NA,1,3.88691565423279,4.45610753837046,3.28128405769805,4.52747875087707,FALSE,2.08327087547453
"CAN","cpi",0.2,1970,3,1969,NA,1.5,3.18401056319814,3.75320244733581,3.28128405769805,2.07973847283129,TRUE,0.569191884137672
"CAN","cpi",0.2,1971,3,1971,NA,0,2.71581840756463,2.76954214743523,2.64123406634756,2.8393232579169,FALSE,0.240184592913276
"CAN","cpi",0.2,1971,3,1971,NA,0.5,2.48538339477604,2.77859228368395,2.64123406634756,2.06692165705507,TRUE,0.293208888907913
"CAN","cpi",0.2,1971,3,1970,NA,1,1.49409077396335,1.95371811097117,2.64123406634756,2.64105994583495,FALSE,2.17841722544879
"CAN","cpi",0.2,1971,3,1970,NA,1.5,5.90727499353383,6.36690233054165,2.64123406634756,4.63977638900468,FALSE,8.62472965497349
"CAN","cpi",0.2,1972,3,1972,NA,0,4.89441656352628,4.9438761884479,4.83230569625923,5.03048103188219,FALSE,0.204736793089238
"CAN","cpi",0.2,1972,3,1972,NA,0.5,5.43697150207007,5.71631793357089,4.83230569625923,5.06705904355972,FALSE,1.79101094602792
"CAN","cpi",0.2,1972,3,1971,NA,1,5.39913214942218,5.95456708905878,4.83230569625923,5.9169160270675,FALSE,1.97250107254398
"CAN","cpi",0.2,1972,3,1971,NA,1.5,4.04446358977689,4.59989852941348,4.83230569625923,3.09276495441271,FALSE,1.13645285675097
"CAN","cpi",0.2,1973,3,1973,NA,0,6.79665566360406,6.83564638944054,7.12388603531779,6.99264756193144,FALSE,0.759589840529605
"CAN","cpi",0.2,1973,3,1973,NA,0.5,5.84858043103591,6.15466175251353,7.12388603531779,5.47469896411854,FALSE,2.72914202848827
"CAN","cpi",0.2,1973,3,1972,NA,1,5.57339140200058,6.0373757374938,7.12388603531779,6.69062283747837,FALSE,3.1802600800532
"CAN","cpi",0.2,1973,3,1972,NA,1.5,5.68445258892246,6.14843692441568,7.12388603531779,4.73174243586486,FALSE,2.90260711274849
"CAN","cpi",0.2,1974,3,1974,NA,0,9.74440644195529,9.79600368097555,10.2717243737774,9.94431520564033,FALSE,1.24089897102493
"CAN","cpi",0.2,1974,3,1974,NA,0.5,8.71419082461884,9.02247946072178,10.2717243737774,8.3378654175141,FALSE,3.43140091874204
"CAN","cpi",0.2,1974,3,1973,NA,1,6.02101136812455,6.4742940476466,10.2717243737774,7.16712422635118,FALSE,9.9468584948491
"CAN","cpi",0.2,1974,3,1973,NA,1.5,5.12687362087281,5.61225296512096,10.2717243737774,4.05174749178054,FALSE,12.1340578658893
"CAN","cpi",0.2,1975,3,1975,NA,0,9.97141347499505,10.0287533604951,10.0232981493341,10.0931823619779,TRUE,0.057339885500042
"CAN","cpi",0.2,1975,3,1975,NA,0.5,9.3651650217839,9.70232615449959,10.0232981493341,8.98267476097328,FALSE,1.13959111980201
"CAN","cpi",0.2,1975,3,1974,NA,1,7.15732594792131,7.77191047760795,10.0232981493341,7.7837982223054,FALSE,6.24305370900207
"CAN","cpi",0.2,1975,3,1974,NA,1.5,7.00017145719498,7.61475598688162,10.0232981493341,5.75931605308519,FALSE,6.63593993581789
"CAN","cpi",0.2,1976,3,1976,NA,0,6.95460234705225,7.01289444128205,7.22784311401172,7.07277954951717,FALSE,0.595663776053962
"CAN","cpi",0.2,1976,3,1976,NA,0.5,9.0395637265021,9.38981548818348,7.22784311401172,8.59089060438327,FALSE,4.87955329290733
"CAN","cpi",0.2,1976,3,1975,NA,1,10.1427112391766,10.6807012657699,7.22784311401172,10.4141477685142,FALSE,7.8251603395055
"CAN","cpi",0.2,1976,3,1975,NA,1.5,7.74626655612643,8.44034273341489,7.22784311401172,6.43051086134862,FALSE,1.99013478257525
"CAN","cpi",0.2,1977,3,1977,NA,0,7.38566335923917,7.46742678666168,7.58101410153764,7.55301151664772,FALSE,0.365731714612415
"CAN","cpi",0.2,1977,3,1977,NA,0.5,8.39383215898068,8.88832171744726,7.58101410153764,7.98165850021887,FALSE,2.52653470207416
"CAN","cpi",0.2,1977,3,1976,NA,1,3.3181369983297,4.02689655800026,7.58101410153764,3.72134649143602,FALSE,9.59405341851403
"CAN","cpi",0.2,1977,3,1976,NA,1.5,9.26652081702154,9.98906943422336,7.58101410153764,8.00272044475614,FALSE,4.93631540591156
"CAN","cpi",0.2,1978,3,1978,NA,0,8.57498924836698,8.64565853905659,8.50208927062595,8.67127840358843,FALSE,0.252919235042188
"CAN","cpi",0.2,1978,3,1978,NA,0.5,8.78021303772023,9.28069971246873,8.50208927062595,8.3788273181893,FALSE,1.19579609248421
"CAN","cpi",0.2,1978,3,1977,NA,1,7.16886130009713,7.95360954213289,8.50208927062595,7.54783828416051,FALSE,2.1559475632684
"CAN","cpi",0.2,1978,3,1977,NA,1.5,10.6251064516192,11.4098546936549,8.50208927062595,9.72562756342223,FALSE,6.0922911945188
"CAN","cpi",0.2,1979,3,1979,NA,0,8.47524165004808,8.5420159364646,8.65147652410481,8.56376390232469,FALSE,0.340425755517042
"CAN","cpi",0.2,1979,3,1979,NA,0.5,8.20686312642981,8.65493701099303,8.65147652410481,8.29599284966764,TRUE,0.448073884563222
"CAN","cpi",0.2,1979,3,1978,NA,1,8.85262776601281,9.65187855335699,8.65147652410481,9.20311500508918,FALSE,1.30212889211418
"CAN","cpi",0.2,1979,3,1978,NA,1.5,9.44507402937234,10.2443248167165,8.65147652410481,8.55646910152924,FALSE,2.783244550513
"CAN","cpi",0.2,1980,3,1980,NA,0,9.4439440814221,9.50985871329166,9.5171912664748,9.50406722106931,FALSE,0.0842460148274107
"CAN","cpi",0.2,1980,3,1980,NA,0.5,8.72455186977055,9.12649161953653,9.5171912664748,8.57798914335092,FALSE,1.37868886711165
"CAN","cpi",0.2,1980,3,1979,NA,1,7.91621423842804,8.68866879451067,9.5171912664748,8.17875203710815,FALSE,2.84376073599295
"CAN","cpi",0.2,1980,3,1979,NA,1.5,8.72406687627066,9.60854935951806,9.5171912664748,8.39204766062112,TRUE,0.884482483247396
"CAN","cpi",0.2,1981,3,1981,NA,0,11.6758413591255,11.7418132846855,11.5813425032741,11.7113878984199,FALSE,0.302219065188409
"CAN","cpi",0.2,1981,3,1981,NA,0.5,12.3434234397446,12.724774917424,11.5813425032741,12.2156196752767,FALSE,2.2865538188555
"CAN","cpi",0.2,1981,3,1980,NA,1,11.1870515356011,11.9005539643371,11.5813425032741,11.0496853423024,TRUE,0.713502428735943
"CAN","cpi",0.2,1981,3,1980,NA,1.5,9.18626926148845,9.94186515434349,11.5813425032741,8.33809792174894,FALSE,4.85428926518166
"CAN","cpi",0.2,1982,3,1982,NA,0,10.2300582138967,10.2909428089862,10.1124203763629,10.2566668151097,FALSE,0.354979188923887
"CAN","cpi",0.2,1982,3,1982,NA,0.5,10.2926321364047,10.6434484722677,10.1124203763629,10.1085355973545,FALSE,0.801345735967478
"CAN","cpi",0.2,1982,3,1981,NA,1,12.0786111434852,12.7256666221623,10.1124203763629,11.770988683124,FALSE,5.56253239648268
"CAN","cpi",0.2,1982,3,1981,NA,1.5,13.6374244349759,14.5216109962379,10.1124203763629,12.8701250351281,FALSE,9.69669670779443
"CAN","cpi",0.2,1983,3,1983,NA,0,5.70851877795999,5.7670952430359,5.67091787896303,5.7310121416489,FALSE,0.152578712568298
"CAN","cpi",0.2,1983,3,1983,NA,0.5,4.91874878326849,5.28758879142868,5.67091787896303,4.91343016009654,FALSE,1.32716272699608
"CAN","cpi",0.2,1983,3,1982,NA,1,9.3680600240174,10.0798727500316,5.67091787896303,9.18500149866057,FALSE,9.95466808865009
"CAN","cpi",0.2,1983,3,1982,NA,1.5,10.5475627102165,11.4202437997851,5.67091787896303,9.68672301569366,FALSE,13.0642931677023
"CAN","cpi",0.2,1984,3,1984,NA,0,NA,NA,4.19799576814029,NA,NA,NA
"CAN","cpi",0.2,1984,3,1984,NA,0.5,6.06626687400555,6.41518504339531,4.19799576814029,5.85770686024457,FALSE,5.01959593405291
"CAN","cpi",0.2,1984,3,1983,NA,1,5.76272035413502,6.57642792525759,4.19799576814029,5.76553357996429,FALSE,4.7255190361094
"CAN","cpi",0.2,1984,3,1983,NA,1.5,3.25097724995807,4.2887645777107,4.19799576814029,2.9197996794717,TRUE,1.03778732775264
"CAN","cpi",0.2,1985,3,1985,NA,0,3.80030394127906,3.85893669803942,3.86444262005169,3.85417990135378,FALSE,0.0723975617910373
"CAN","cpi",0.2,1985,3,1985,NA,0.5,4.14443223198938,4.51293485154593,3.86444262005169,4.21990042382899,FALSE,1.06847664940077
"CAN","cpi",0.2,1985,3,1984,NA,1,NA,NA,3.86444262005169,NA,NA,NA
"CAN","cpi",0.2,1985,3,1984,NA,1.5,8.92199151521157,9.91415540463392,3.86444262005169,8.62999660305356,FALSE,13.636036127322
"CAN","cpi",0.2,1986,3,1986,NA,0,3.97689297540609,4.01733269451968,4.08685396749431,4.03771389199993,FALSE,0.214242901550172
"CAN","cpi",0.2,1986,3,1986,NA,0.5,4.16142843667049,4.47350079651652,4.08685396749431,4.38219332503529,FALSE,0.49850853278648
"CAN","cpi",0.2,1986,3,1985,NA,1,3.04147226203129,3.94248623555204,4.08685396749431,3.37849976080849,FALSE,1.26193330337643
"CAN","cpi",0.2,1986,3,1985,NA,1.5,4.37000214644472,5.34557261018375,4.08685396749431,4.95309858900956,FALSE,1.68344091111506
"CAN","cpi",0.2,1987,3,1987,NA,0,NA,NA,4.23980729277887,NA,NA,NA
"CAN","cpi",0.2,1987,3,1987,NA,0.5,3.74384618318068,4.01230488364232,4.23980729277887,4.13342161080085,FALSE,0.837214723303014
"CAN","cpi",0.2,1987,3,1986,NA,1,3.3207538876863,4.17343017807312,4.23980729277887,3.66140988164798,FALSE,1.01861907715119
"CAN","cpi",0.2,1987,3,1986,NA,1.5,3.79483831741799,4.6475146078048,4.23980729277887,4.80242768143514,TRUE,0.852676290386816
"CAN","cpi",0.2,1988,3,1988,NA,0,3.91227742620258,3.95173366916401,3.92899537638065,3.9438316199536,TRUE,0.0394562429614336
"CAN","cpi",0.2,1988,3,1988,NA,0.5,3.21535617670131,3.459324232105,3.92899537638065,3.35419215340812,FALSE,1.41814591609283
"CAN","cpi",0.2,1988,3,1987,NA,1,NA,NA,3.92899537638065,NA,NA,NA
"CAN","cpi",0.2,1988,3,1987,NA,1.5,2.79617852531962,3.56976859795707,3.92899537638065,3.89461929526446,FALSE,1.67165701869641
"CAN","cpi",0.2,1989,3,1989,NA,0,4.91250009741584,4.95040370740595,4.82821664544208,4.95130318392835,FALSE,0.248612239924522
"CAN","cpi",0.2,1989,3,1989,NA,0.5,4.15553915544368,4.39178710100557,4.82821664544208,4.23024942747073,FALSE,1.32732180665315
"CAN","cpi",0.2,1989,3,1988,NA,1,3.78119895094173,4.38643415418464,4.82821664544208,4.05841794603162,FALSE,1.7096914313865
"CAN","cpi",0.2,1989,3,1988,NA,1.5,1.51622215669438,2.30673519877624,4.82821664544208,2.597843559383,FALSE,7.09421665874645
"CAN","cpi",0.2,1990,3,1990,NA,0,4.44059410168709,4.47592115332616,4.64347549432717,4.4746950192663,FALSE,0.454212904141599
"CAN","cpi",0.2,1990,3,1990,NA,0.5,4.9022216992542,5.15362718510749,4.64347549432717,4.96487168902479,FALSE,0.898270998170856
"CAN","cpi",0.2,1990,3,1989,NA,1,5.16435241977404,5.76351045273657,4.64347549432717,5.43871373969076,FALSE,1.9013503465797
"CAN","cpi",0.2,1990,3,1989,NA,1.5,2.69821384063755,3.5724484335485,4.64347549432717,3.3732540002381,FALSE,3.55180224485763
"CAN","cpi",0.2,1991,3,1991,NA,0,5.57165590698969,5.60651909669862,5.4258100696218,5.61053369942382,FALSE,0.399477783128674
"CAN","cpi",0.2,1991,3,1991,NA,0.5,7.68086002156153,7.93432819215734,5.4258100696218,7.82199295477594,FALSE,5.89109305044514
"CAN","cpi",0.2,1991,3,1990,NA,1,3.36893690267707,3.98017100523425,5.4258100696218,3.66716818384097,FALSE,4.22533176352605
"CAN","cpi",0.2,1991,3,1990,NA,1.5,4.55372524550875,5.60330612784195,5.4258100696218,4.82481948664164,TRUE,1.0495808823332
"CAN","cpi",0.2,1992,3,1992,NA,0,NA,NA,1.47496888572843,NA,NA,NA
"CAN","cpi",0.2,1992,3,1992,NA,0.5,NA,NA,1.47496888572843,NA,NA,NA
"CAN","cpi",0.2,1992,3,1991,NA,1,2.48233009393309,3.11725408441436,1.47496888572843,2.76780571233213,FALSE,3.15332701099292
"CAN","cpi",0.2,1992,3,1991,NA,1.5,6.66333066117836,7.62809271733553,1.47496888572843,7.14938182660169,FALSE,13.935666494782
"CAN","cpi",0.2,1993,3,1993,NA,0,NA,NA,NA,NA,NA,NA
"CAN","cpi",0.2,1993,3,1993,NA,0.5,NA,NA,NA,NA,NA,NA
"CAN","cpi",0.2,1993,3,1992,NA,1,NA,NA,NA,NA,NA,NA
"CAN","cpi",0.2,1993,3,1992,NA,1.5,NA,NA,NA,NA,NA,NA
"CAN","cpi",0.2,1994,3,1994,NA,0,NA,NA,NA,NA,NA,NA
"CAN","cpi",0.2,1994,3,1994,NA,0.5,NA,NA,NA,NA,NA,NA
"CAN","cpi",0.2,1994,3,1993,NA,1,NA,NA,NA,NA,NA,NA
"CAN","cpi",0.2,1994,3,1993,NA,1.5,NA,NA,NA,NA,NA,NA
"CAN","cpi",0.2,1995,3,1995,NA,0,NA,NA,2.11688403676572,NA,NA,NA
"CAN","cpi",0.2,1995,3,1995,NA,0.5,1.95584991792371,2.28068686691767,2.11688403676572,2.51937811073084,TRUE,0.324836948993958
"CAN","cpi",0.2,1995,3,1994,NA,1,0.755431370254775,1.24607238759027,2.11688403676572,0.719396410821945,FALSE,2.66767014027411
"CAN","cpi",0.2,1995,3,1994,NA,1.5,-1.59847621983909,-0.556854019384537,2.11688403676572,-1.04654603924828,FALSE,7.72596734083018
"CAN","cpi",0.2,1996,3,1996,NA,0,1.40120133553396,1.44321846480021,1.55309584667184,1.42780748357026,FALSE,0.316710583945337
"CAN","cpi",0.2,1996,3,1996,NA,0.5,NA,NA,1.55309584667184,NA,NA,NA
"CAN","cpi",0.2,1996,3,1995,NA,1,NA,NA,1.55309584667184,NA,NA,NA
"CAN","cpi",0.2,1996,3,1995,NA,1.5,2.32205205884054,3.3729764930284,1.55309584667184,2.92232271175447,FALSE,2.9733149646096
"CAN","cpi",0.2,1997,3,1997,NA,0,1.70668076256106,1.75662305898593,1.60528783555959,1.73535847807117,FALSE,0.303424613928541
"CAN","cpi",0.2,1997,3,1997,NA,0.5,1.66918548568256,1.94968128751184,1.60528783555959,2.11078363597796,FALSE,0.440239927136698
"CAN","cpi",0.2,1997,3,1996,NA,1,1.37360615842737,1.74333469602515,1.60528783555959,0.984961337307556,TRUE,0.369728537597785
"CAN","cpi",0.2,1997,3,1996,NA,1.5,NA,NA,1.60528783555959,NA,NA,NA
"CAN","cpi",0.2,1998,3,1998,NA,0,0.942433315472842,1.0010340524398,0.988908029337191,1.0350847138471,TRUE,0.0586007369669577
"CAN","cpi",0.2,1998,3,1998,NA,0.5,1.20941371575915,1.50166602692141,0.988908029337191,1.68533655437107,FALSE,0.843516527217154
"CAN","cpi",0.2,1998,3,1997,NA,1,2.58173264960226,2.93459042336548,0.988908029337191,2.25159584334757,FALSE,4.33491932442589
"CAN","cpi",0.2,1998,3,1997,NA,1.5,2.17237799076701,3.03170686182343,0.988908029337191,2.38987816876076,FALSE,3.81800377463097
"CAN","cpi",0.2,1999,3,1999,NA,0,1.71729638846828,1.76340731376453,1.7107350135213,1.77618438459462,FALSE,0.062514362663715
"CAN","cpi",0.2,1999,3,1999,NA,0.5,0.455568623708225,0.739737884131377,1.7107350135213,1.0290924799153,FALSE,2.71166208389795
"CAN","cpi",0.2,1999,3,1998,NA,1,1.99780303184007,2.51160941681186,1.7107350135213,1.85177544064205,FALSE,1.23147643076872
"CAN","cpi",0.2,1999,3,1998,NA,1.5,2.63825946515838,3.55349181558019,1.7107350135213,2.94645730787123,FALSE,3.23404347951451
"CAN","cpi",0.2,2000,3,2000,NA,0,2.61408814890959,2.66644072960487,2.6718361971244,2.7102541785615,FALSE,0.0658412494941023
"CAN","cpi",0.2,2000,3,2000,NA,0.5,1.7765709578388,2.06728073566116,2.6718361971244,2.34405201403356,FALSE,1.80209843148046
"CAN","cpi",0.2,2000,3,1999,NA,1,2.87118842660673,3.33007465247727,2.6718361971244,3.07542936781209,FALSE,0.957266799576364
"CAN","cpi",0.2,2000,3,1999,NA,1.5,1.10777399932335,2.11179026447851,2.6718361971244,2.27809035801724,FALSE,2.40413109676989
"CAN","cpi",0.2,2001,3,2001,NA,0,2.72193344162933,2.76321748851563,2.47906219852806,2.77546584984351,FALSE,0.648462154639468
"CAN","cpi",0.2,2001,3,2001,NA,0.5,1.85272988619769,2.12713044281615,2.47906219852806,2.43566755503104,FALSE,1.15422994589823
"CAN","cpi",0.2,2001,3,2000,NA,1,3.30377335284113,3.73951477127614,2.47906219852806,3.68958695319843,FALSE,2.49751930421768
"CAN","cpi",0.2,2001,3,2000,NA,1.5,1.76488565406364,2.64585340934394,2.47906219852806,3.01270789712173,TRUE,0.880967755280302
"CAN","cpi",0.2,2002,3,2002,NA,0,2.16976684878793,2.21231340660629,2.20880570551249,2.27196234986351,TRUE,0.042546557818369
"CAN","cpi",0.2,2002,3,2002,NA,0.5,1.0212442623918,1.31783867054377,2.20880570551249,1.58345411989126,FALSE,2.52401199557376
"CAN","cpi",0.2,2002,3,2001,NA,1,1.84039575108165,2.29254964776445,2.20880570551249,2.26510423845898,TRUE,0.452153896682797
"CAN","cpi",0.2,2002,3,2001,NA,1.5,1.69583830495102,2.45767568845543,2.20880570551249,3.02058043279009,TRUE,0.761837383504415
"CAN","cpi",0.2,2003,3,2003,NA,0,2.62671136756474,2.66086550561611,2.71189071546809,2.71326702620668,FALSE,0.161717162681324
"CAN","cpi",0.2,2003,3,2003,NA,0.5,4.43423691786013,4.64107742293727,2.71189071546809,4.51432649273496,FALSE,4.51270601105724
"CAN","cpi",0.2,2003,3,2002,NA,1,3.45271772616722,3.79123959303807,2.71189071546809,3.85618281746238,FALSE,2.19058939361867
"CAN","cpi",0.2,2003,3,2002,NA,1.5,1.00681144935671,1.67883996970543,2.71189071546809,2.39402389849184,FALSE,3.25465538475538
"CAN","cpi",0.2,2004,3,2004,NA,0,1.70041553174416,1.73421201982109,1.83151661303942,1.77466852383015,FALSE,0.27705797112276
"CAN","cpi",0.2,2004,3,2004,NA,0.5,1.11790633632367,1.40933177181335,1.83151661303942,1.55260435151936,FALSE,1.34688753855485
"CAN","cpi",0.2,2004,3,2003,NA,1,1.30454922452426,1.63358808788921,1.83151661303942,1.79415792598285,FALSE,0.823860176240488
"CAN","cpi",0.2,2004,3,2003,NA,1.5,3.42855986928324,3.92178414752388,1.83151661303942,4.26699272545716,FALSE,4.48583241885019
"CAN","cpi",0.2,2005,3,2005,NA,0,2.27704729986674,2.31167305497116,2.18071628336509,2.34345353472953,FALSE,0.275453296358531
"CAN","cpi",0.2,2005,3,2005,NA,0.5,1.36972486632564,1.67446599458032,2.18071628336509,1.50321338317329,FALSE,1.57036685021661
"CAN","cpi",0.2,2005,3,2004,NA,1,1.28634057363119,1.59108170188586,2.18071628336509,1.64043962712234,FALSE,1.77882758195275
"CAN","cpi",0.2,2005,3,2004,NA,1.5,0.970409916416085,1.54329170250169,2.18071628336509,2.03393284113233,FALSE,2.16644323824411
"CAN","cpi",0.2,2006,3,2006,NA,0,2.02082269561219,2.05758743309557,1.97519342012289,2.09514376892657,FALSE,0.150837926206643
"CAN","cpi",0.2,2006,3,2006,NA,0.5,2.02363180832389,2.31922277290845,1.97519342012289,2.09436263599022,FALSE,0.416686935087064
"CAN","cpi",0.2,2006,3,2005,NA,1,2.68652231290084,2.98793276820204,1.97519342012289,2.9582912060806,FALSE,2.07973268724608
"CAN","cpi",0.2,2006,3,2005,NA,1.5,0.619345316766502,1.20634350772061,1.97519342012289,1.64885961980806,FALSE,2.5091229719598
"CAN","cpi",0.2,2007,3,2007,NA,0,2.02336059961758,2.05872266112525,2.10062087284572,2.10683622102307,FALSE,0.14010759080886
"CAN","cpi",0.2,2007,3,2007,NA,0.5,2.13014860800291,2.41183759999471,2.10062087284572,2.17629902083353,FALSE,0.355508329884767
"CAN","cpi",0.2,2007,3,2006,NA,1,1.09232389362563,1.39108086582359,2.10062087284572,1.50861692709856,FALSE,2.07260698975329
"CAN","cpi",0.2,2007,3,2006,NA,1.5,1.26153584811809,1.61835947105619,2.10062087284572,2.15918616350405,FALSE,1.56247712741193
"CAN","cpi",0.2,2008,3,2008,NA,0,2.78797615945707,2.82084554913508,2.31447335265955,2.87079455148828,FALSE,1.2166264066718
"CAN","cpi",0.2,2008,3,2008,NA,0.5,1.17692946493198,1.41424101558602,2.31447335265955,1.31005314695267,FALSE,2.48789239333787
"CAN","cpi",0.2,2008,3,2007,NA,1,1.11419379975901,1.40599086118109,2.31447335265955,1.47031049982668,FALSE,2.56300329011824
"CAN","cpi",0.2,2008,3,2007,NA,1.5,2.06292016762296,2.43712394766137,2.31447335265955,2.46453195342394,TRUE,0.374203780038409
"CAN","cpi",0.2,2009,3,2009,NA,0,0.0720926905588507,0.125647900668476,0.284533874408197,0.187122346349721,FALSE,0.450770144458928
"CAN","cpi",0.2,2009,3,2009,NA,0.5,-0.0212514470714284,0.237964594607562,0.284533874408197,-0.0727492620466167,FALSE,0.375639241180579
"CAN","cpi",0.2,2009,3,2008,NA,1,3.4705776304941,3.76871418933368,0.284533874408197,3.81780026356951,FALSE,8.26324594905435
"CAN","cpi",0.2,2009,3,2008,NA,1.5,1.28674521303047,1.64640482097109,0.284533874408197,1.68675152630419,FALSE,2.8651879544963
"CAN","cpi",0.2,2010,3,2010,NA,0,1.50998890549101,1.5743040968223,1.75525687020327,1.6089956646354,FALSE,0.516697124783711
"CAN","cpi",0.2,2010,3,2010,NA,0.5,2.05440772359045,2.26905127718617,1.75525687020327,1.91109502526183,FALSE,0.962520687063668
"CAN","cpi",0.2,2010,3,2009,NA,1,0.50484133974315,0.897115148426278,1.75525687020327,0.992295788494754,FALSE,2.53762811312561
"CAN","cpi",0.2,2010,3,2009,NA,1.5,0.468714218371805,0.860988027054933,1.75525687020327,0.885103052815867,FALSE,2.62794591655397
"CAN","cpi",0.2,2011,3,2011,NA,0,2.77924019697785,2.84728433799685,2.85717434028225,2.86665414062098,FALSE,0.0927691467324931
"CAN","cpi",0.2,2011,3,2011,NA,0.5,2.84662156442935,3.07014699668572,2.85717434028225,2.76583381894771,TRUE,0.223525432256363
"CAN","cpi",0.2,2011,3,2010,NA,1,0.955920211549512,1.35466739662816,2.85717434028225,1.39294644169719,FALSE,4.15501454421386
"CAN","cpi",0.2,2011,3,2010,NA,1.5,1.36546454634484,1.76421173142349,2.85717434028225,1.64253060592363,FALSE,3.13115370722554
"CAN","cpi",0.2,2012,3,2012,NA,0,1.44331412450509,1.50998948815889,1.50118536134935,1.52822510849394,TRUE,0.0666753636537929
"CAN","cpi",0.2,2012,3,2012,NA,0.5,1.90871896704717,2.11375120685714,1.50118536134935,1.92429021972789,FALSE,1.22386625405453
"CAN","cpi",0.2,2012,3,2011,NA,1,1.88173571679843,2.33892133104175,1.50118536134935,1.99945242447079,FALSE,1.40856150286602
"CAN","cpi",0.2,2012,3,2011,NA,1.5,2.17099878783732,2.62818440208064,1.50118536134935,2.48150957397962,FALSE,2.13171918046326
"CAN","cpi",0.2,2013,3,2013,NA,0,0.991633046145695,1.04476341684067,0.931270594714462,1.05630513423211,FALSE,0.204036499273055
"CAN","cpi",0.2,2013,3,2013,NA,0.5,1.11828890912492,1.34291512166068,0.931270594714462,1.16963454554932,FALSE,0.692171998561914
"CAN","cpi",0.2,2013,3,2012,NA,1,1.00843165708015,1.47596832488666,0.931270594714462,1.08868089128742,FALSE,0.660439323720734
"CAN","cpi",0.2,2013,3,2012,NA,1.5,1.86543285746751,2.33296952527403,0.931270594714462,2.14573179530527,FALSE,2.80294232468914
"CAN","cpi",0.2,2014,3,2014,NA,0,1.92905745744418,1.98513207572043,1.87639912240215,1.99862849145116,FALSE,0.187720455881336
"CAN","cpi",0.2,2014,3,2014,NA,0.5,1.63572377412804,1.8450492563965,1.87639912240215,1.79231976082687,FALSE,0.28770014728259
"CAN","cpi",0.2,2014,3,2013,NA,1,1.31460047886635,1.79345498528808,1.87639912240215,1.40664989819898,FALSE,0.686214849206913
"CAN","cpi",0.2,2014,3,2013,NA,1.5,1.20315987626106,1.68201438268279,1.87639912240215,1.51436121777893,FALSE,0.964816355720133
"CAN","cpi",0.2,2015,3,2015,NA,0,1.13114775255996,1.19253762991129,1.11090953952792,1.2103065042478,FALSE,0.111985409931439
"CAN","cpi",0.2,2015,3,2015,NA,0.5,0.50348488080419,0.643454339303164,1.11090953952792,0.458547315718059,FALSE,1.30860745906086
"CAN","cpi",0.2,2015,3,2014,NA,1,1.55261331323089,1.97763765836122,1.11090953952792,1.57054781428135,FALSE,1.52928377938777
"CAN","cpi",0.2,2015,3,2014,NA,1.5,1.5972651189435,2.03513860092988,1.11090953952792,1.88229109541157,FALSE,1.65376243052534
"CAN","cpi",0.2,2016,3,2016,NA,0,1.29677651990985,1.34911692837958,1.41168586698797,1.41630667471992,FALSE,0.208762754990694
"CAN","cpi",0.2,2016,3,2016,NA,0.5,1.13811339223832,1.32534152489837,1.41168586698797,1.17972158292925,FALSE,0.403088987884038
"CAN","cpi",0.2,2016,3,2015,NA,1,1.84168301743636,2.21685531863364,1.41168586698797,1.8638656605167,FALSE,1.45016517731827
"CAN","cpi",0.2,2016,3,2015,NA,1.5,0.767832644709068,1.14300494590635,1.41168586698797,1.07023002715086,FALSE,1.04687460390133
"CAN","cpi",0.2,2017,3,2017,NA,0,1.42832026451021,1.4845677172322,1.57888581671161,1.50492692646759,FALSE,0.292042701420515
"CAN","cpi",0.2,2017,3,2017,NA,0.5,2.13347347227873,2.27025726984758,1.57888581671161,2.09086618282141,FALSE,1.52325293648664
"CAN","cpi",0.2,2017,3,2016,NA,1,0.797228092001516,1.15672152424861,1.57888581671161,1.14652050352824,FALSE,1.41490416340459
"CAN","cpi",0.2,2017,3,2016,NA,1.5,0.984083134215544,1.34357656646264,1.57888581671161,1.26788084523026,FALSE,0.947766557869522
"CAN","cpi",0.2,2018,3,2018,NA,0,2.34901086277236,2.40260424400355,2.23316270166586,2.41317537496083,FALSE,0.343213783997443
"CAN","cpi",0.2,2018,3,2018,NA,0.5,2.54131181923075,2.69317287820217,2.23316270166586,2.52809119314695,FALSE,0.922233852883642
"CAN","cpi",0.2,2018,3,2017,NA,1,1.17320353682969,1.54250361844986,2.23316270166586,1.16800101916097,FALSE,2.09594778966018
"CAN","cpi",0.2,2018,3,2017,NA,1.5,1.78343066632655,2.15273074794672,2.23316270166586,2.07298402260093,FALSE,0.570379965918017
"CAN","cpi",0.2,2019,3,2019,NA,0,NA,NA,1.91921619871868,NA,NA,NA
"CAN","cpi",0.2,2019,3,2019,NA,0.5,1.46986444541334,1.63064481428662,1.91921619871868,1.47328806303322,FALSE,0.882208829953427
"CAN","cpi",0.2,2019,3,2018,NA,1,2.32561384536543,2.741105021298,1.91921619871868,2.23470281046333,FALSE,1.43148529254945
"CAN","cpi",0.2,2019,3,2018,NA,1.5,2.17216036852264,2.58765154445521,1.91921619871868,2.32030562567512,FALSE,1.04785160044246
"CAN","cpi",0.2,2020,3,2020,NA,0,0.635318390433732,0.673969855491448,0.71139989671781,0.673588636713597,FALSE,0.132226568123621
"CAN","cpi",0.2,2020,3,2020,NA,0.5,NA,NA,0.71139989671781,NA,NA,NA
"CAN","cpi",0.2,2020,3,2019,NA,1,NA,NA,0.71139989671781,NA,NA,NA
"CAN","cpi",0.2,2020,3,2019,NA,1.5,1.64202555221048,2.00208367521364,0.71139989671781,1.77705491937904,FALSE,2.68662226173483
"CAN","cpi",0.2,2021,3,2021,NA,0,3.21175973507852,3.24818178314105,3.31148121717802,3.2525646654712,FALSE,0.194670633154968
"CAN","cpi",0.2,2021,3,2021,NA,0.5,1.98989313921063,2.1510356952347,3.31148121717802,2.16773480502693,FALSE,3.06225636088238
"CAN","cpi",0.2,2021,3,2020,NA,1,1.78011046954255,2.06091180657744,3.31148121717802,1.61070774476322,FALSE,3.40722486353635
"CAN","cpi",0.2,2021,3,2020,NA,1.5,NA,NA,3.31148121717802,NA,NA,NA
"CAN","cpi",0.2,2022,3,2022,NA,0,6.54363279104352,6.57807214837205,6.50977236228281,6.58682891800883,FALSE,0.119090429230305
"CAN","cpi",0.2,2022,3,2022,NA,0.5,5.60554461282212,5.78221676882115,6.50977236228281,5.58900513180898,FALSE,1.99556113965317
"CAN","cpi",0.2,2022,3,2021,NA,1,3.24093194808639,3.56408749545148,6.50977236228281,3.35597076522593,FALSE,7.68736771444343
"CAN","cpi",0.2,2022,3,2021,NA,1.5,1.45179391838877,1.77494946575385,6.50977236228281,1.89458222166426,FALSE,12.1602127886875
"CAN","cpi",0.2,2023,3,2023,NA,0,3.90636699946296,3.9402368321236,3.78831288758619,3.96221561415741,FALSE,0.329005112352564
"CAN","cpi",0.2,2023,3,2023,NA,0.5,3.65898058746193,3.8763082171818,3.78831288758619,3.6121970566696,TRUE,0.217327629719865
"CAN","cpi",0.2,2023,3,2022,NA,1,5.44145730913582,5.84374285754465,3.78831288758619,5.4861852561408,FALSE,4.53514660228291
"CAN","cpi",0.2,2023,3,2022,NA,1.5,3.32407699046014,3.86786833997171,3.78831288758619,3.85557075258935,TRUE,0.543791349511577
"CAN","cpi",0.2,2024,3,2023,NA,1,4.60256946428565,5.06660775983271,NA,4.72280809903739,NA,NA
"CAN","cpi",0.2,2024,3,2023,NA,1.5,4.24707186638922,4.71111016193628,NA,4.36705509613113,NA,NA
"CAN","cpi",0.3,1959,3,1959,NA,0,1.14331971843476,1.23680730584326,1.19382698397654,1.24991216431293,TRUE,0.0934875874084935
"CAN","cpi",0.3,1959,3,1959,NA,0.5,0.523968450203917,1.44407383611312,1.19382698397654,0.437839731590327,TRUE,0.920105385909205
"CAN","cpi",0.3,1959,3,1958,NA,1,-1.24734200082362,0.565302188702608,1.19382698397654,1.75862762885946,FALSE,3.60842931888032
"CAN","cpi",0.3,1959,3,1958,NA,1.5,0.863949076502146,4.6196008786834,1.19382698397654,1.77407172713766,TRUE,3.75565180218125
"CAN","cpi",0.3,1960,3,1960,NA,0,0.940956613458566,1.01930469672412,1.34209404870695,1.02361304259477,FALSE,1.00060337464507
"CAN","cpi",0.3,1960,3,1960,NA,0.5,0.72105867853326,1.55428620439455,1.34209404870695,0.53898348018166,TRUE,0.833227525861294
"CAN","cpi",0.3,1960,3,1959,NA,1,0.910848752611399,2.3786479683741,1.34209404870695,3.95759373689442,TRUE,1.4677992157627
"CAN","cpi",0.3,1960,3,1959,NA,1.5,-2.23711251178594,1.34874870891598,1.34209404870695,-0.873476815404885,TRUE,3.58586122070191
"CAN","cpi",0.3,1961,3,1961,NA,0,0.939091260643428,1.04136012109909,1.00921348094007,1.00921348094007,TRUE,0.102268860455661
"CAN","cpi",0.3,1961,3,1961,NA,0.5,1.59631432468136,2.12967530398243,1.00921348094007,1.00921348094007,FALSE,2.21079196141904
"CAN","cpi",0.3,1961,3,1960,NA,1,-2.65124180213305,-1.42520535299705,1.00921348094007,0.0537704626035329,FALSE,8.18151883181349
"CAN","cpi",0.3,1961,3,1960,NA,1.5,-1.3366357309849,1.66912767188765,1.00921348094007,-0.862181798940035,TRUE,3.00576340287254
"CAN","cpi",0.3,1962,3,1962,NA,0,1.03342757348733,1.11691099367529,1.04957947883042,1.10232402731478,TRUE,0.0834834201879628
"CAN","cpi",0.3,1962,3,1962,NA,0.5,0.435003595147268,0.91551745065804,1.04957947883042,0,FALSE,0.863548221717559
"CAN","cpi",0.3,1962,3,1961,NA,1,-2.6773557033731,-1.17124819874308,1.04957947883042,0,FALSE,7.8513294405543
"CAN","cpi",0.3,1962,3,1961,NA,1.5,0.592190916016059,2.79620607338287,1.04957947883042,0,TRUE,2.20401515736681
"CAN","cpi",0.3,1963,3,1963,NA,0,1.83785580394119,1.92208082200547,1.60677118395228,1.91491729531202,FALSE,0.744466789461151
"CAN","cpi",0.3,1963,3,1963,NA,0.5,1.2827224252793,1.77629743753887,1.60677118395228,0.836828714617504,TRUE,0.493575012259565
"CAN","cpi",0.3,1963,3,1962,NA,1,-0.156032763336108,1.23306869453592,1.60677118395228,2.56411490415144,FALSE,2.45682285620449
"CAN","cpi",0.3,1963,3,1962,NA,1.5,0.222009963948084,1.92377663975809,1.60677118395228,0,TRUE,1.70176667581
"CAN","cpi",0.3,1964,3,1964,NA,0,1.88530581912324,1.9785343634483,1.88764670034376,1.98877256446048,TRUE,0.0932285443250604
"CAN","cpi",0.3,1964,3,1964,NA,0.5,2.12351575808529,2.35765160966766,1.88764670034376,1.38369006227607,FALSE,0.908047445129595
"CAN","cpi",0.3,1964,3,1963,NA,1,3.81699419554921,4.91837658408667,1.88764670034376,5.39044290347256,FALSE,6.61380380341017
"CAN","cpi",0.3,1964,3,1963,NA,1.5,0.827191797347745,2.0266071068401,1.88764670034376,0,TRUE,1.19941530949236
"CAN","cpi",0.3,1965,3,1965,NA,0,2.23827413417016,2.3341391225159,2.29538304394236,2.34557047418999,TRUE,0.095864988345733
"CAN","cpi",0.3,1965,3,1965,NA,0.5,2.29604076896449,2.54949924772397,2.29538304394236,1.61079447956654,FALSE,0.255337693108433
"CAN","cpi",0.3,1965,3,1964,NA,1,0.0350714129300151,0.934844939122156,2.29538304394236,2.42518862179847,FALSE,4.78702525424986
"CAN","cpi",0.3,1965,3,1964,NA,1.5,2.3211218883953,3.22089541458744,2.29538304394236,0.818102552316399,FALSE,0.973313081771972
"CAN","cpi",0.3,1966,3,1966,NA,0,3.7310231919306,3.81546587926611,3.72486065470629,3.82010987863709,FALSE,0.102049936547831
"CAN","cpi",0.3,1966,3,1966,NA,0.5,4.64985318033968,4.89589210858355,3.72486065470629,3.99123398895563,FALSE,2.88887471576786
"CAN","cpi",0.3,1966,3,1965,NA,1,1.69508778857086,2.58288336644579,3.72486065470629,3.20722068745854,FALSE,4.15058783004778
"CAN","cpi",0.3,1966,3,1965,NA,1.5,3.08242506412735,3.97022064200228,3.72486065470629,1.60663824631958,TRUE,0.887795577874929
"CAN","cpi",0.3,1967,3,1967,NA,0,3.670422746494,3.75015349600207,3.49360316391996,3.76768849328632,FALSE,0.584929556862484
"CAN","cpi",0.3,1967,3,1967,NA,0.5,2.96285275209003,3.26618768761348,3.49360316391996,2.4074547441976,FALSE,0.953093439256243
"CAN","cpi",0.3,1967,3,1966,NA,1,2.22274962496435,3.13496473762224,3.49360316391996,3.18103323070284,FALSE,1.93689633065138
"CAN","cpi",0.3,1967,3,1966,NA,1.5,6.11790876759598,7.03012388025388,3.49360316391996,4.65128160487248,FALSE,8.41023112316082
"CAN","cpi",0.3,1968,3,1968,NA,0,4.07173985867392,4.15414883297604,3.95128347779386,4.17287945672396,FALSE,0.426570062530877
"CAN","cpi",0.3,1968,3,1968,NA,0.5,4.60354030400526,4.86064932210276,3.95128347779386,4.07097205779852,FALSE,2.12069995013007
"CAN","cpi",0.3,1968,3,1967,NA,1,4.85260422498514,5.81492047575256,3.95128347779386,5.84521682123848,FALSE,3.53751838559965
"CAN","cpi",0.3,1968,3,1967,NA,1.5,3.34216671537895,4.30448296614637,3.95128347779386,2.25565858240226,TRUE,0.962316250767423
"CAN","cpi",0.3,1969,3,1969,NA,0,4.36276945578208,4.44868183413326,4.42679496126681,4.46896837073893,TRUE,0.0859123783511784
"CAN","cpi",0.3,1969,3,1969,NA,0.5,3.39954422982953,3.69519071576751,4.42679496126681,2.96612019395715,FALSE,2.38594433022171
"CAN","cpi",0.3,1969,3,1968,NA,1,5.92388615951165,6.74476476859431,4.42679496126681,6.72487630040807,FALSE,5.09828203263934
"CAN","cpi",0.3,1969,3,1968,NA,1.5,5.35158071146402,6.17245932054668,4.42679496126681,4.31664452944541,FALSE,3.46312360964611
"CAN","cpi",0.3,1970,3,1970,NA,0,3.41720007527306,3.49404112590795,3.28128405769805,3.52697515579364,FALSE,0.465172529420643
"CAN","cpi",0.3,1970,3,1970,NA,0.5,5.17249533309491,5.46139337171334,3.28128405769805,4.65371085276917,FALSE,5.69235882546661
"CAN","cpi",0.3,1970,3,1969,NA,1,3.68924377652443,4.55825096442242,3.28128405769805,4.52747875087707,FALSE,2.0346063845448
"CAN","cpi",0.3,1970,3,1969,NA,1.5,3.00677972577963,3.87578691367762,3.28128405769805,2.07973847283129,TRUE,0.869007187897993
"CAN","cpi",0.3,1971,3,1971,NA,0,2.69959542795214,2.78546158214477,2.64123406634756,2.8393232579169,FALSE,0.252612901634286
"CAN","cpi",0.3,1971,3,1971,NA,0.5,2.38882122337628,2.83647453523364,2.64123406634756,2.06692165705507,TRUE,0.44765331185736
"CAN","cpi",0.3,1971,3,1970,NA,1,1.36717272656673,2.08940665136141,2.64123406634756,2.64105994583495,FALSE,2.29888368189797
"CAN","cpi",0.3,1971,3,1970,NA,1.5,5.75353462247539,6.47576854727007,2.64123406634756,4.63977638900468,FALSE,9.61452122801703
"CAN","cpi",0.3,1972,3,1972,NA,0,4.87812807787757,4.95363999356966,4.83230569625923,5.03048103188219,FALSE,0.206433006030212
"CAN","cpi",0.3,1972,3,1972,NA,0.5,5.34497463901807,5.77227165783592,4.83230569625923,5.06705904355972,FALSE,1.89206542670025
"CAN","cpi",0.3,1972,3,1971,NA,1,5.21033671839177,6.05834064888551,4.83230569625923,5.9169160270675,FALSE,1.92809256515814
"CAN","cpi",0.3,1972,3,1971,NA,1.5,3.8674174254698,4.71542135596354,4.83230569625923,3.09276495441271,FALSE,1.18195918848142
"CAN","cpi",0.3,1973,3,1973,NA,0,6.78851583737328,6.8484871636928,7.12388603531779,6.99264756193144,FALSE,0.846825245248064
"CAN","cpi",0.3,1973,3,1973,NA,0.5,5.74777899511468,6.21508514591888,7.12388603531779,5.47469896411854,FALSE,3.06388012051538
"CAN","cpi",0.3,1973,3,1972,NA,1,5.45096495014706,6.17555729315678,7.12388603531779,6.69062283747837,FALSE,3.43410303489831
"CAN","cpi",0.3,1973,3,1972,NA,1.5,5.52457228482499,6.24916462783471,7.12388603531779,4.73174243586486,FALSE,3.22379636438994
"CAN","cpi",0.3,1974,3,1974,NA,0,9.73422065127424,9.81299614480086,10.2717243737774,9.94431520564033,FALSE,1.38942757631678
"CAN","cpi",0.3,1974,3,1974,NA,0.5,8.61266245637736,9.09016988512879,10.2717243737774,8.3378654175141,FALSE,3.85337739631895
"CAN","cpi",0.3,1974,3,1973,NA,1,5.8898092302336,6.61377365091956,10.2717243737774,7.16712422635118,FALSE,11.1752522002799
"CAN","cpi",0.3,1974,3,1973,NA,1.5,4.96702415789178,5.70807151075044,10.2717243737774,4.05174749178054,FALSE,13.7800555329357
"CAN","cpi",0.3,1975,3,1975,NA,0,9.95523638226487,10.046686406475,10.0232981493341,10.0931823619779,TRUE,0.0914500242101042
"CAN","cpi",0.3,1975,3,1975,NA,0.5,9.26189166549641,9.80052732745945,10.0232981493341,8.98267476097328,FALSE,1.1751237244621
"CAN","cpi",0.3,1975,3,1974,NA,1,6.95071444202006,7.90845658608224,10.0232981493341,7.7837982223054,FALSE,7.00014661049612
"CAN","cpi",0.3,1975,3,1974,NA,1.5,6.80497670368467,7.7680869910156,10.0232981493341,5.75931605308519,FALSE,7.40657073966956
"CAN","cpi",0.3,1976,3,1976,NA,0,6.93789718616934,7.03095366282181,7.22784311401172,7.07277954951717,FALSE,0.655597765766482
"CAN","cpi",0.3,1976,3,1976,NA,0.5,8.92907612207218,9.48701614356967,7.22784311401172,8.59089060438327,FALSE,5.41860575881309
"CAN","cpi",0.3,1976,3,1975,NA,1,9.98145480794987,10.8413812786626,7.22784311401172,10.4141477685142,FALSE,8.72738845339318
"CAN","cpi",0.3,1976,3,1975,NA,1.5,7.53514946655601,8.64429046292213,7.22784311401172,6.43051086134862,FALSE,1.98715914649268
"CAN","cpi",0.3,1977,3,1977,NA,0,7.36952247315873,7.49435384921566,7.58101410153764,7.55301151664772,FALSE,0.372432096976886
"CAN","cpi",0.3,1977,3,1977,NA,0.5,8.23098243884468,8.98593870688596,7.58101410153764,7.98165850021887,FALSE,2.61200866034709
"CAN","cpi",0.3,1977,3,1976,NA,1,3.0847219666878,4.1809802789725,7.58101410153764,3.72134649143602,FALSE,10.8106406624708
"CAN","cpi",0.3,1977,3,1976,NA,1.5,9.04324181334528,10.196936169896,7.58101410153764,8.00272044475614,FALSE,5.33148781885824
"CAN","cpi",0.3,1978,3,1978,NA,0,8.5549237708182,8.66767877682253,8.50208927062595,8.67127840358843,FALSE,0.263710720839333
"CAN","cpi",0.3,1978,3,1978,NA,0.5,8.61538829366024,9.37950059027622,8.50208927062595,8.3788273181893,FALSE,1.08782379099968
"CAN","cpi",0.3,1978,3,1977,NA,1,6.93598691673089,8.18936835145762,8.50208927062595,7.54783828416051,FALSE,2.14686977520767
"CAN","cpi",0.3,1978,3,1977,NA,1.5,10.4006564067587,11.6540378414855,8.50208927062595,9.72562756342223,FALSE,6.67785896653473
"CAN","cpi",0.3,1979,3,1979,NA,0,8.45717244670305,8.56331184422846,8.65147652410481,8.56376390232469,FALSE,0.358038482886411
"CAN","cpi",0.3,1979,3,1979,NA,0.5,8.11413706731943,8.8025007066303,8.65147652410481,8.29599284966764,TRUE,0.688363639310879
"CAN","cpi",0.3,1979,3,1978,NA,1,8.61939998956813,9.89580050389825,8.65147652410481,9.20311500508918,TRUE,1.27640051433012
"CAN","cpi",0.3,1979,3,1978,NA,1.5,9.21596515103905,10.4923656653692,8.65147652410481,8.55646910152924,FALSE,2.88922516271365
"CAN","cpi",0.3,1980,3,1980,NA,0,9.42617275967575,9.53090979320615,9.5171912664748,9.50406722106931,TRUE,0.104737033530405
"CAN","cpi",0.3,1980,3,1980,NA,0.5,8.60343253485339,9.24586888285599,9.5171912664748,8.57798914335092,FALSE,1.41764315834205
"CAN","cpi",0.3,1980,3,1979,NA,1,7.7003623727962,8.93150304807025,9.5171912664748,8.17875203710815,FALSE,2.90453558500133
"CAN","cpi",0.3,1980,3,1979,NA,1.5,8.54946153678964,9.89983503460631,9.5171912664748,8.39204766062112,TRUE,1.35037349781667
"CAN","cpi",0.3,1981,3,1981,NA,0,11.6547256000911,11.7594930121102,11.5813425032741,11.7113878984199,FALSE,0.314433402924654
"CAN","cpi",0.3,1981,3,1981,NA,0.5,12.2256030070939,12.8345162907405,11.5813425032741,12.2156196752767,FALSE,2.44965758027453
"CAN","cpi",0.3,1981,3,1980,NA,1,10.9806813162877,12.1202208949939,11.5813425032741,11.0496853423024,TRUE,1.13953957870619
"CAN","cpi",0.3,1981,3,1980,NA,1.5,8.97241125183537,10.1777460852555,11.5813425032741,8.33809792174894,FALSE,5.21561031347333
"CAN","cpi",0.3,1982,3,1982,NA,0,10.210952896485,10.3080154082944,10.1124203763629,10.2566668151097,FALSE,0.378583997872482
"CAN","cpi",0.3,1982,3,1982,NA,0.5,10.1881116505814,10.7488517657092,10.1124203763629,10.1085355973545,FALSE,0.777000898609197
"CAN","cpi",0.3,1982,3,1981,NA,1,11.8972580432329,12.9287615717938,10.1124203763629,11.770988683124,FALSE,6.13103971961795
"CAN","cpi",0.3,1982,3,1981,NA,1.5,13.4367913966631,14.8126348413004,10.1124203763629,12.8701250351281,FALSE,10.8740463597806
"CAN","cpi",0.3,1983,3,1983,NA,0,5.69036360738158,5.78387068444284,5.67091787896303,5.7310121416489,FALSE,0.149066301114251
"CAN","cpi",0.3,1983,3,1983,NA,0.5,4.8380845944922,5.4090584788577,5.67091787896303,4.91343016009654,FALSE,1.31914359895218
"CAN","cpi",0.3,1983,3,1982,NA,1,9.155887045512,10.2936424052998,5.67091787896303,9.18500149866057,FALSE,11.0948101213562
"CAN","cpi",0.3,1983,3,1982,NA,1.5,10.3083198854638,11.6970805834282,5.67091787896303,9.68672301569366,FALSE,14.6384807165381
"CAN","cpi",0.3,1984,3,1984,NA,0,NA,NA,4.19799576814029,NA,NA,NA
"CAN","cpi",0.3,1984,3,1984,NA,0.5,5.96506790727154,6.52239390459305,4.19799576814029,5.85770686024457,FALSE,5.60610353769652
"CAN","cpi",0.3,1984,3,1983,NA,1,5.50711494972667,6.80414602245711,4.19799576814029,5.76553357996429,FALSE,5.03737159154868
"CAN","cpi",0.3,1984,3,1983,NA,1.5,2.94646231861777,4.60479351057651,4.19799576814029,2.9197996794717,TRUE,1.65833119195874
"CAN","cpi",0.3,1985,3,1985,NA,0,3.78872927180538,3.87824616143605,3.86444262005169,3.85417990135378,TRUE,0.0895168896306684
"CAN","cpi",0.3,1985,3,1985,NA,0.5,4.0326441255524,4.62156084488508,3.86444262005169,4.21990042382899,FALSE,1.06949244933469
"CAN","cpi",0.3,1985,3,1984,NA,1,NA,NA,3.86444262005169,NA,NA,NA
"CAN","cpi",0.3,1985,3,1984,NA,1.5,8.62413138650242,10.2100010197768,3.86444262005169,8.62999660305356,FALSE,15.1849803945622
"CAN","cpi",0.3,1986,3,1986,NA,0,3.96786344822986,4.03064874987585,4.08685396749431,4.03771389199993,FALSE,0.223371637698731
"CAN","cpi",0.3,1986,3,1986,NA,0.5,4.06192410657174,4.5579982303295,4.08685396749431,4.38219332503529,TRUE,0.496074123757761
"CAN","cpi",0.3,1986,3,1985,NA,1,2.74492863985899,4.14729716580239,4.08685396749431,3.37849976080849,TRUE,1.40236852594341
"CAN","cpi",0.3,1986,3,1985,NA,1.5,4.06067085494573,5.61330882987472,4.08685396749431,4.95309858900956,TRUE,1.55263797492898
"CAN","cpi",0.3,1987,3,1987,NA,0,NA,NA,4.23980729277887,NA,NA,NA
"CAN","cpi",0.3,1987,3,1987,NA,0.5,3.66842522692081,4.09646053335719,4.23980729277887,4.13342161080085,FALSE,0.837597476212622
"CAN","cpi",0.3,1987,3,1986,NA,1,3.02465895078381,4.35318143765022,4.23980729277887,3.66140988164798,TRUE,1.32852248686641
"CAN","cpi",0.3,1987,3,1986,NA,1.5,3.5394786332715,4.86800112013791,4.23980729277887,4.80242768143514,TRUE,1.32852248686641
"CAN","cpi",0.3,1988,3,1988,NA,0,3.89928334369088,3.95952271058361,3.92899537638065,3.9438316199536,TRUE,0.0602393668927341
"CAN","cpi",0.3,1988,3,1988,NA,0.5,3.13501043660556,3.51260782683886,3.92899537638065,3.35419215340812,FALSE,1.56727610320986
"CAN","cpi",0.3,1988,3,1987,NA,1,NA,NA,3.92899537638065,NA,NA,NA
"CAN","cpi",0.3,1988,3,1987,NA,1.5,2.55103186216994,3.78235053349023,3.92899537638065,3.89461929526446,FALSE,1.6503039367215
"CAN","cpi",0.3,1989,3,1989,NA,0,4.90001734186853,4.95788624416076,4.82821664544208,4.95130318392835,FALSE,0.26301374922496
"CAN","cpi",0.3,1989,3,1989,NA,0.5,4.07863124876292,4.4512195335913,4.82821664544208,4.23024942747073,FALSE,1.4497228901163
"CAN","cpi",0.3,1989,3,1988,NA,1,3.5818774854487,4.5059133978437,4.82821664544208,4.05841794603162,FALSE,1.84490233410464
"CAN","cpi",0.3,1989,3,1988,NA,1.5,1.26792557159526,2.52800120077616,4.82821664544208,2.597843559383,FALSE,7.8321197567978
"CAN","cpi",0.3,1990,3,1990,NA,0,4.42895988135999,4.48289505270928,4.64347549432717,4.4746950192663,FALSE,0.512736433114691
"CAN","cpi",0.3,1990,3,1990,NA,0.5,4.82294087994798,5.22344261745461,4.64347549432717,4.96487168902479,FALSE,0.913259982137514
"CAN","cpi",0.3,1990,3,1989,NA,1,4.96703234230313,5.88179000459846,4.64347549432717,5.43871373969076,FALSE,1.8392057993695
"CAN","cpi",0.3,1990,3,1989,NA,1.5,2.41215751107201,3.78560176450682,4.64347549432717,3.3732540002381,FALSE,3.82451205292153
"CAN","cpi",0.3,1991,3,1991,NA,0,5.560614180043,5.61611160384538,5.4258100696218,5.61053369942382,FALSE,0.440652025005817
"CAN","cpi",0.3,1991,3,1991,NA,0.5,7.60314081080218,8.00805054838412,5.4258100696218,7.82199295477594,FALSE,6.62585471238303
"CAN","cpi",0.3,1991,3,1990,NA,1,3.1676398260559,4.10083448924982,5.4258100696218,3.66716818384097,FALSE,4.71883917854243
"CAN","cpi",0.3,1991,3,1990,NA,1.5,4.2080678903199,5.81050347741492,5.4258100696218,4.82481948664164,TRUE,1.60243558709502
"CAN","cpi",0.3,1992,3,1992,NA,0,NA,NA,1.47496888572843,NA,NA,NA
"CAN","cpi",0.3,1992,3,1992,NA,0.5,NA,NA,1.47496888572843,NA,NA,NA
"CAN","cpi",0.3,1992,3,1991,NA,1,2.27323125172873,3.24259417989664,1.47496888572843,2.76780571233213,FALSE,3.25011254531161
"CAN","cpi",0.3,1992,3,1991,NA,1.5,6.34560659976393,7.82131269809665,1.47496888572843,7.14938182660169,FALSE,15.3918138527199
"CAN","cpi",0.3,1993,3,1993,NA,0,NA,NA,NA,NA,NA,NA
"CAN","cpi",0.3,1993,3,1993,NA,0.5,NA,NA,NA,NA,NA,NA
"CAN","cpi",0.3,1993,3,1992,NA,1,NA,NA,NA,NA,NA,NA
"CAN","cpi",0.3,1993,3,1992,NA,1.5,NA,NA,NA,NA,NA,NA
"CAN","cpi",0.3,1994,3,1994,NA,0,NA,NA,NA,NA,NA,NA
"CAN","cpi",0.3,1994,3,1994,NA,0.5,NA,NA,NA,NA,NA,NA
"CAN","cpi",0.3,1994,3,1993,NA,1,NA,NA,NA,NA,NA,NA
"CAN","cpi",0.3,1994,3,1993,NA,1.5,NA,NA,NA,NA,NA,NA
"CAN","cpi",0.3,1995,3,1995,NA,0,NA,NA,2.11688403676572,NA,NA,NA
"CAN","cpi",0.3,1995,3,1995,NA,0.5,1.85028659990623,2.36311138461425,2.11688403676572,2.51937811073084,TRUE,0.512824784708027
"CAN","cpi",0.3,1995,3,1994,NA,1,0.593849086074496,1.34292963803647,2.11688403676572,0.719396410821945,FALSE,2.96037883404552
"CAN","cpi",0.3,1995,3,1994,NA,1.5,-1.94151255079315,-0.351227790074054,2.11688403676572,-1.04654603924828,FALSE,8.64203283740414
"CAN","cpi",0.3,1996,3,1996,NA,0,1.3874582525358,1.45349140474729,1.55309584667184,1.42780748357026,FALSE,0.35061727199592
"CAN","cpi",0.3,1996,3,1996,NA,0.5,NA,NA,1.55309584667184,NA,NA,NA
"CAN","cpi",0.3,1996,3,1995,NA,1,NA,NA,1.55309584667184,NA,NA,NA
"CAN","cpi",0.3,1996,3,1995,NA,1.5,1.97595223314898,3.58222439570928,1.55309584667184,2.92232271175447,FALSE,2.81443326678069
"CAN","cpi",0.3,1997,3,1997,NA,0,1.69317842519375,1.77255634557753,1.60528783555959,1.73535847807117,FALSE,0.330493890767096
"CAN","cpi",0.3,1997,3,1997,NA,0.5,1.58461571264665,2.03294013831004,1.60528783555959,2.11078363597796,TRUE,0.448324425663395
"CAN","cpi",0.3,1997,3,1996,NA,1,1.25184385254409,1.82216745796832,1.60528783555959,0.984961337307556,TRUE,0.570323605424223
"CAN","cpi",0.3,1997,3,1996,NA,1.5,NA,NA,1.60528783555959,NA,NA,NA
"CAN","cpi",0.3,1998,3,1998,NA,0,0.930864967013993,1.02033297079194,0.988908029337191,1.0350847138471,TRUE,0.0894680037779467
"CAN","cpi",0.3,1998,3,1998,NA,0.5,1.12107310036883,1.58816891378856,0.988908029337191,1.68533655437107,FALSE,0.844710302081552
"CAN","cpi",0.3,1998,3,1997,NA,1,2.46711535788182,3.02431548111193,0.988908029337191,2.25159584334757,FALSE,4.78064963335762
"CAN","cpi",0.3,1998,3,1997,NA,1.5,1.88968461448136,3.22913085715647,0.988908029337191,2.38987816876076,FALSE,3.91309362880131
"CAN","cpi",0.3,1999,3,1999,NA,0,1.70484037712142,1.77812299308978,1.7107350135213,1.77618438459462,TRUE,0.0732826159683535
"CAN","cpi",0.3,1999,3,1999,NA,0.5,0.367644527095944,0.821334213637905,1.7107350135213,1.0290924799153,FALSE,2.99483482906594
"CAN","cpi",0.3,1999,3,1998,NA,1,1.82859172178487,2.61303973338086,1.7107350135213,1.85177544064205,FALSE,1.12118146377763
"CAN","cpi",0.3,1999,3,1998,NA,1.5,2.33685354643069,3.75576768313977,1.7107350135213,2.94645730787123,FALSE,3.20782423073592
"CAN","cpi",0.3,2000,3,2000,NA,0,2.60375324652527,2.68368194930031,2.6718361971244,2.7102541785615,TRUE,0.0799287027750477
"CAN","cpi",0.3,2000,3,2000,NA,0.5,1.6875630135302,2.15199916228752,2.6718361971244,2.34405201403356,FALSE,1.94968481971983
"CAN","cpi",0.3,2000,3,1999,NA,1,2.75774067414527,3.47991910904188,2.6718361971244,3.07542936781209,FALSE,0.967619797813371
"CAN","cpi",0.3,2000,3,1999,NA,1.5,0.899539372544598,2.44244187277442,2.6718361971244,2.27809035801724,FALSE,2.19831485551548
"CAN","cpi",0.3,2001,3,2001,NA,0,2.71143705026575,2.77662798520246,2.47906219852806,2.77546584984351,FALSE,0.729119082758664
"CAN","cpi",0.3,2001,3,2001,NA,0.5,1.76651873413887,2.20389609488551,2.47906219852806,2.43566755503104,FALSE,1.2235662282968
"CAN","cpi",0.3,2001,3,2000,NA,1,3.21166707100031,3.88301702896558,2.47906219852806,3.68958695319843,FALSE,2.76450673645741
"CAN","cpi",0.3,2001,3,2000,NA,1.5,1.56880258739991,2.93595423029723,2.47906219852806,3.01270789712173,TRUE,1.36715164289732
"CAN","cpi",0.3,2002,3,2002,NA,0,2.15587046440892,2.22281639216648,2.20880570551249,2.27196234986351,TRUE,0.0669459277575664
"CAN","cpi",0.3,2002,3,2002,NA,0.5,0.931294254214313,1.4052952757115,2.20880570551249,1.58345411989126,FALSE,2.76974510664287
"CAN","cpi",0.3,2002,3,2001,NA,1,1.73660046906898,2.44130059973073,2.20880570551249,2.26510423845898,TRUE,0.70470013066175
"CAN","cpi",0.3,2002,3,2001,NA,1.5,1.51042354133948,2.70701485555217,2.20880570551249,3.02058043279009,TRUE,1.19659131421269
"CAN","cpi",0.3,2003,3,2003,NA,0,2.61590709726967,2.67028762759893,2.71189071546809,2.71326702620668,FALSE,0.173246495669718
"CAN","cpi",0.3,2003,3,2003,NA,0.5,4.37033040598551,4.70059692524732,2.71189071546809,4.51432649273496,FALSE,5.06866563502588
"CAN","cpi",0.3,2003,3,2002,NA,1,3.34359956357823,3.87999049320081,2.71189071546809,3.85618281746238,FALSE,2.34127335279441
"CAN","cpi",0.3,2003,3,2002,NA,1.5,0.830559604878863,1.89543652910221,2.71189071546809,2.39402389849184,FALSE,3.39760317098299
"CAN","cpi",0.3,2004,3,2004,NA,0,1.68942498826468,1.74275911445956,1.83151661303942,1.77466852383015,FALSE,0.306926979280206
"CAN","cpi",0.3,2004,3,2004,NA,0.5,1.04732432997,1.50477102777691,1.83151661303942,1.55260435151936,FALSE,1.39100551284267
"CAN","cpi",0.3,2004,3,2003,NA,1,1.2163850249929,1.73891030706578,1.83151661303942,1.79415792598285,FALSE,0.787114727711865
"CAN","cpi",0.3,2004,3,2003,NA,1.5,3.33119265831678,4.08421717426938,1.83151661303942,4.26699272545716,FALSE,5.03781321674505
"CAN","cpi",0.3,2005,3,2005,NA,0,2.26638815478858,2.32168955185313,2.18071628336509,2.34345353472953,FALSE,0.300078172560231
"CAN","cpi",0.3,2005,3,2005,NA,0.5,1.26590970917097,1.73753031457286,2.18071628336509,1.50321338317329,FALSE,1.73786623052255
"CAN","cpi",0.3,2005,3,2004,NA,1,1.19296733879392,1.67118699969287,2.18071628336509,1.64043962712234,FALSE,1.93401761424814
"CAN","cpi",0.3,2005,3,2004,NA,1.5,0.857317548125517,1.73195825154745,2.18071628336509,2.03393284113233,FALSE,2.15680650861519
"CAN","cpi",0.3,2006,3,2006,NA,0,2.00899387651107,2.0672858024571,1.97519342012289,2.09514376892657,FALSE,0.154864658483689
"CAN","cpi",0.3,2006,3,2006,NA,0.5,1.92628515047615,2.37757526908148,1.97519342012289,2.09436263599022,TRUE,0.451290118605332
"CAN","cpi",0.3,2006,3,2005,NA,1,2.59052502304526,3.06977561556009,1.97519342012289,2.9582912060806,FALSE,2.23734088657875
"CAN","cpi",0.3,2006,3,2005,NA,1.5,0.503466234537556,1.39965899736138,1.97519342012289,1.64885961980806,FALSE,2.54057682785671
"CAN","cpi",0.3,2007,3,2007,NA,0,2.01251075412181,2.06899893939622,2.10062087284572,2.10683622102307,FALSE,0.146836566558695
"CAN","cpi",0.3,2007,3,2007,NA,0.5,2.03738027199697,2.46744571322067,2.10062087284572,2.17629902083353,TRUE,0.430065441223698
"CAN","cpi",0.3,2007,3,2006,NA,1,0.993934577859314,1.45005836231557,2.10062087284572,1.50861692709856,FALSE,2.3148738145424
"CAN","cpi",0.3,2007,3,2006,NA,1.5,1.16708407641683,1.73304242612487,2.10062087284572,2.15918616350405,FALSE,1.61618248319619
"CAN","cpi",0.3,2008,3,2008,NA,0,2.77715131832857,2.82746247432809,2.31447335265955,2.87079455148828,FALSE,1.37224820076813
"CAN","cpi",0.3,2008,3,2008,NA,0.5,1.10088711154608,1.47763313855962,2.31447335265955,1.31005314695267,FALSE,2.76771806729906
"CAN","cpi",0.3,2008,3,2007,NA,1,1.01809658400293,1.46839386848378,2.31447335265955,1.47031049982668,FALSE,2.86766723926878
"CAN","cpi",0.3,2008,3,2007,NA,1.5,1.93968403490852,2.51099536884406,2.31447335265955,2.46453195342394,TRUE,0.571311333935541
"CAN","cpi",0.3,2009,3,2009,NA,0,0.0544554101980224,0.136220213652942,0.284533874408197,0.187122346349721,FALSE,0.505518119898507
"CAN","cpi",0.3,2009,3,2009,NA,0.5,-0.106618790262839,0.29169836325298,0.284533874408197,-0.0727492620466167,TRUE,0.398317153515819
"CAN","cpi",0.3,2009,3,2008,NA,1,3.37242119178449,3.83575005414068,0.284533874408197,3.81780026356951,FALSE,9.28586405485987
"CAN","cpi",0.3,2009,3,2008,NA,1.5,1.1682988970375,1.71740508285476,0.284533874408197,1.68675152630419,FALSE,3.07414910761527
"CAN","cpi",0.3,2010,3,2010,NA,0,1.48880805196344,1.58700053347185,1.75525687020327,1.6089956646354,FALSE,0.578924872169607
"CAN","cpi",0.3,2010,3,2010,NA,0.5,1.98371974745595,2.31632749530266,1.75525687020327,1.91109502526183,FALSE,0.985358825711498
"CAN","cpi",0.3,2010,3,2009,NA,1,0.373506124123648,0.9724056672649,1.75525687020327,0.992295788494754,FALSE,2.83561726582232
"CAN","cpi",0.3,2010,3,2009,NA,1.5,0.341675201949569,0.940574745090821,1.75525687020327,0.885103052815867,FALSE,2.92656275774825
"CAN","cpi",0.3,2011,3,2011,NA,0,2.75683129241736,2.86071690513904,2.85717434028225,2.86665414062098,TRUE,0.10388561272168
"CAN","cpi",0.3,2011,3,2011,NA,0.5,2.77300817166307,3.11536506559779,2.85717434028225,2.76583381894771,TRUE,0.342356893934721
"CAN","cpi",0.3,2011,3,2010,NA,1,0.822132383531144,1.43161842841592,2.85717434028225,1.39294644169719,FALSE,4.68250293593142
"CAN","cpi",0.3,2011,3,2010,NA,1.5,1.23661440200058,1.84610044688535,2.85717434028225,1.64253060592363,FALSE,3.49826859744732
"CAN","cpi",0.3,2012,3,2012,NA,0,1.42135599793786,1.52315184549925,1.50118536134935,1.52822510849394,TRUE,0.10179584756139
"CAN","cpi",0.3,2012,3,2012,NA,0.5,1.8468990821302,2.17460776968217,1.50118536134935,1.92429021972789,FALSE,1.31546217549728
"CAN","cpi",0.3,2012,3,2011,NA,1,1.72489285962731,2.42345570646202,1.50118536134935,1.99945242447079,FALSE,1.33772712762889
"CAN","cpi",0.3,2012,3,2011,NA,1.5,2.02671274125319,2.72527558808791,1.50118536134935,2.48150957397962,FALSE,2.20006964655999
"CAN","cpi",0.3,2013,3,2013,NA,0,0.974135677697251,1.05553704703968,0.931270594714462,1.05630513423211,FALSE,0.203873035007539
"CAN","cpi",0.3,2013,3,2013,NA,0.5,1.04813238633815,1.40643971034636,0.931270594714462,1.16963454554932,FALSE,0.692198157218752
"CAN","cpi",0.3,2013,3,2012,NA,1,0.851081443616115,1.56488769464036,0.931270594714462,1.08868089128742,TRUE,0.713806251024244
"CAN","cpi",0.3,2013,3,2012,NA,1.5,1.71483636426411,2.42864261528835,0.931270594714462,2.14573179530527,FALSE,2.95256559259466
"CAN","cpi",0.3,2014,3,2014,NA,0,1.91059046307258,1.99634538722978,1.87639912240215,1.99862849145116,FALSE,0.183444468929856
"CAN","cpi",0.3,2014,3,2014,NA,0.5,1.57592867604822,1.91003307256894,1.87639912240215,1.79231976082687,TRUE,0.334104396520725
"CAN","cpi",0.3,2014,3,2013,NA,1,1.15399308259819,1.88507871406018,1.87639912240215,1.40664989819898,TRUE,0.731085631461994
"CAN","cpi",0.3,2014,3,2013,NA,1.5,1.04836598236461,1.77945161382661,1.87639912240215,1.51436121777893,FALSE,1.00807851310641
"CAN","cpi",0.3,2015,3,2015,NA,0,1.11093028957277,1.20465988926073,1.11090953952792,1.2103065042478,FALSE,0.093788885530399
"CAN","cpi",0.3,2015,3,2015,NA,0.5,0.465603416929196,0.688091393312129,1.11090953952792,0.458547315718059,FALSE,1.43053982271376
"CAN","cpi",0.3,2015,3,2014,NA,1,1.41264049788956,2.06154154732995,1.11090953952792,1.57054781428135,FALSE,1.51098950190223
"CAN","cpi",0.3,2015,3,2014,NA,1.5,1.45306071103329,2.12157903295659,1.11090953952792,1.88229109541157,FALSE,1.64609309765293
"CAN","cpi",0.3,2016,3,2016,NA,0,1.28183870592515,1.36537492790867,1.41168586698797,1.41630667471992,FALSE,0.215853190781501
"CAN","cpi",0.3,2016,3,2016,NA,0.5,1.10115276013685,1.38700116661017,1.41168586698797,1.17972158292925,FALSE,0.356376121838454
"CAN","cpi",0.3,2016,3,2015,NA,1,1.70843534761133,2.29115992958377,1.41168586698797,1.8638656605167,FALSE,1.43058024089633
"CAN","cpi",0.3,2016,3,2015,NA,1.5,0.657909405540665,1.24063398751311,1.41168586698797,1.07023002715086,FALSE,1.07144423761489
"CAN","cpi",0.3,2017,3,2017,NA,0,1.40979635075449,1.49567150477292,1.57888581671161,1.50492692646759,FALSE,0.323630330986119
"CAN","cpi",0.3,2017,3,2017,NA,0.5,2.09596718835628,2.31364485562101,1.57888581671161,2.09086618282141,FALSE,1.69505301482093
"CAN","cpi",0.3,2017,3,2016,NA,1,0.688655804320423,1.26264253917106,1.57888581671161,1.14652050352824,FALSE,1.47753895639508
"CAN","cpi",0.3,2017,3,2016,NA,1.5,0.871867839582723,1.44585457443336,1.57888581671161,1.26788084523026,FALSE,0.954075998502791
"CAN","cpi",0.3,2018,3,2018,NA,0,2.33136101155669,2.41359496004814,2.23316270166586,2.41317537496083,FALSE,0.362800548179529
"CAN","cpi",0.3,2018,3,2018,NA,0.5,2.49644486924083,2.73915070646498,2.23316270166586,2.52809119314695,FALSE,0.99494060172406
"CAN","cpi",0.3,2018,3,2017,NA,1,1.04243810539603,1.6167570396366,2.23316270166586,1.16800101916097,FALSE,2.33547796860989
"CAN","cpi",0.3,2018,3,2017,NA,1.5,1.67586102292112,2.25017995716169,2.23316270166586,2.07298402260093,TRUE,0.574318934240565
"CAN","cpi",0.3,2019,3,2019,NA,0,NA,NA,1.91921619871868,NA,NA,NA
"CAN","cpi",0.3,2019,3,2019,NA,0.5,1.42100894273595,1.67794560729063,1.91921619871868,1.47328806303322,FALSE,0.946281211491981
"CAN","cpi",0.3,2019,3,2018,NA,1,2.1843724122209,2.81871880480977,1.91921619871868,2.23470281046333,FALSE,1.39193557402378
"CAN","cpi",0.3,2019,3,2018,NA,1.5,2.03973526792106,2.67408166050993,1.91921619871868,2.32030562567512,FALSE,0.978686590309947
"CAN","cpi",0.3,2020,3,2020,NA,0,0.622929517020741,0.684285722317884,0.71139989671781,0.673588636713597,FALSE,0.138825275011218
"CAN","cpi",0.3,2020,3,2020,NA,0.5,NA,NA,0.71139989671781,NA,NA,NA
"CAN","cpi",0.3,2020,3,2019,NA,1,NA,NA,0.71139989671781,NA,NA,NA
"CAN","cpi",0.3,2020,3,2019,NA,1.5,1.523447993676,2.07316260779922,0.71139989671781,1.77705491937904,FALSE,2.86985203400376
"CAN","cpi",0.3,2021,3,2021,NA,0,3.19986932030787,3.25719946695792,3.31148121717802,3.2525646654712,FALSE,0.212420861564638
"CAN","cpi",0.3,2021,3,2021,NA,0.5,1.95808205054315,2.20410460174891,3.31148121717802,2.16773480502693,FALSE,3.40995573814609
"CAN","cpi",0.3,2021,3,2020,NA,1,1.68781196214232,2.12634227847335,3.31148121717802,1.61070774476322,FALSE,3.82464156977296
"CAN","cpi",0.3,2021,3,2020,NA,1.5,NA,NA,3.31148121717802,NA,NA,NA
"CAN","cpi",0.3,2022,3,2022,NA,0,6.53229091413917,6.58499138151366,6.50977236228281,6.58682891800883,FALSE,0.117039186964085
"CAN","cpi",0.3,2022,3,2022,NA,0.5,5.55517031937919,5.83712690923269,6.50977236228281,5.58900513180898,FALSE,2.20380074142527
"CAN","cpi",0.3,2022,3,2021,NA,1,3.17441226786117,3.67463987764682,6.50977236228281,3.35597076522593,FALSE,8.60060613731706
"CAN","cpi",0.3,2022,3,2021,NA,1.5,1.37638467001551,1.87661227980115,6.50977236228281,1.89458222166426,FALSE,13.7378278454475
"CAN","cpi",0.3,2023,3,2023,NA,0,3.89532363894052,3.94868493696594,3.78831288758619,3.96221561415741,FALSE,0.359106301894939
"CAN","cpi",0.3,2023,3,2023,NA,0.5,3.60394502295835,3.94696322656559,3.78831288758619,3.6121970566696,TRUE,0.343018203607235
"CAN","cpi",0.3,2023,3,2022,NA,1,5.3620422770932,5.97622712915656,3.78831288758619,5.4861852561408,FALSE,5.11055453636909
"CAN","cpi",0.3,2023,3,2022,NA,1.5,3.21672735382324,4.04695456649377,3.78831288758619,3.85557075258935,TRUE,0.830227212670535
"CAN","cpi",0.3,2024,3,2023,NA,1,4.50919052187608,5.22585160171428,NA,4.72280809903739,NA,NA
"CAN","cpi",0.3,2024,3,2023,NA,1.5,4.1404048051672,4.8570658850054,NA,4.36705509613113,NA,NA
"CAN","cpi",0.4,1959,3,1959,NA,0,1.12320911006993,1.25709977624778,1.19382698397654,1.24991216431293,TRUE,0.13389066617785
"CAN","cpi",0.4,1959,3,1959,NA,0.5,0.294849584029053,1.56815140798599,1.19382698397654,0.437839731590327,TRUE,1.27330182395694
"CAN","cpi",0.4,1959,3,1958,NA,1,-1.5458418512676,1.0097509868229,1.19382698397654,1.75862762885946,FALSE,3.1691794952693
"CAN","cpi",0.4,1959,3,1958,NA,1.5,-0.0448485926618805,5.27726905542881,1.19382698397654,1.77407172713766,TRUE,5.32211764809069
"CAN","cpi",0.4,1960,3,1960,NA,0,0.925632941677035,1.03749742934086,1.34209404870695,1.02361304259477,FALSE,1.12718655221747
"CAN","cpi",0.4,1960,3,1960,NA,0.5,0.514138990116674,1.67692059489618,1.34209404870695,0.53898348018166,TRUE,1.16278160477951
"CAN","cpi",0.4,1960,3,1959,NA,1,0.618264437091225,2.71597093704044,1.34209404870695,3.95759373689442,TRUE,2.09770649994921
"CAN","cpi",0.4,1960,3,1959,NA,1.5,-3.12553028074257,1.89323861895166,1.34209404870695,-0.873476815404885,TRUE,5.01876889969423
"CAN","cpi",0.4,1961,3,1961,NA,0,0.922440911259297,1.06648328239692,1.00921348094007,1.00921348094007,TRUE,0.144042371137619
"CAN","cpi",0.4,1961,3,1961,NA,0.5,1.4720399934893,2.23328196872863,1.00921348094007,1.00921348094007,FALSE,2.30399701707008
"CAN","cpi",0.4,1961,3,1960,NA,1,-2.83539694431552,-1.12117258365429,1.00921348094007,0.0537704626035329,FALSE,8.81551124264244
"CAN","cpi",0.4,1961,3,1960,NA,1.5,-2.07271592639372,2.16758353269517,1.00921348094007,-0.862181798940035,TRUE,4.24029945908888
"CAN","cpi",0.4,1962,3,1962,NA,0,1.01637412311109,1.13580580874086,1.04957947883042,1.10232402731478,TRUE,0.11943168562977
"CAN","cpi",0.4,1962,3,1962,NA,0.5,0.315347947350569,0.973132006695864,1.04957947883042,0,FALSE,0.912608966460466
"CAN","cpi",0.4,1962,3,1961,NA,1,-2.86714538979854,-0.796203302428051,1.04957947883042,0,FALSE,8.22355135823204
"CAN","cpi",0.4,1962,3,1961,NA,1.5,0.0910622678617541,3.24330931239501,1.04957947883042,0,TRUE,3.15224704453325
"CAN","cpi",0.4,1963,3,1963,NA,0,1.82251976309846,1.94222839897698,1.60677118395228,1.91491729531202,FALSE,0.83887056636577
"CAN","cpi",0.4,1963,3,1963,NA,0.5,1.15981434021398,1.8353855256076,1.60677118395228,0.836828714617504,TRUE,0.675571185393615
"CAN","cpi",0.4,1963,3,1962,NA,1,-0.338104478245094,1.57897721078533,1.60677118395228,2.56411490415144,FALSE,2.00972826625359
"CAN","cpi",0.4,1963,3,1962,NA,1.5,-0.201757200427295,2.12953943057055,1.60677118395228,0,TRUE,2.33129663099785
"CAN","cpi",0.4,1964,3,1964,NA,0,1.86507239669425,1.99859213855778,1.88764670034376,1.98877256446048,TRUE,0.133519741863525
"CAN","cpi",0.4,1964,3,1964,NA,0.5,2.07126401689843,2.40642243479709,1.88764670034376,1.38369006227607,FALSE,0.947216139747556
"CAN","cpi",0.4,1964,3,1963,NA,1,3.54422541806184,5.08633133506557,1.88764670034376,5.39044290347256,FALSE,7.06403497606401
"CAN","cpi",0.4,1964,3,1963,NA,1.5,0.529960580656956,2.20824370815412,1.88764670034376,0,TRUE,1.67828312749717
"CAN","cpi",0.4,1965,3,1965,NA,0,2.21719495208057,2.3544728389831,2.29538304394236,2.34557047418999,TRUE,0.137277886902526
"CAN","cpi",0.4,1965,3,1965,NA,0.5,2.24230185180998,2.60525024186787,2.29538304394236,1.61079447956654,TRUE,0.362948390057895
"CAN","cpi",0.4,1965,3,1964,NA,1,-0.0622894414089954,1.1876183974337,2.29538304394236,2.42518862179847,FALSE,4.94245666053822
"CAN","cpi",0.4,1965,3,1964,NA,1.5,2.15347625732791,3.4033840961706,2.29538304394236,0.818102552316399,TRUE,1.24990783884269
"CAN","cpi",0.4,1966,3,1966,NA,0,3.71348038076267,3.8343490412605,3.72486065470629,3.82010987863709,TRUE,0.120868660497834
"CAN","cpi",0.4,1966,3,1966,NA,0.5,4.59806278153849,4.95034338366053,3.72486065470629,3.99123398895563,FALSE,3.26295435822939
"CAN","cpi",0.4,1966,3,1965,NA,1,1.45601543895721,2.70663093872727,3.72486065470629,3.20722068745854,FALSE,4.64471455303346
"CAN","cpi",0.4,1966,3,1965,NA,1.5,2.90650498154569,4.15712048131574,3.72486065470629,1.60663824631958,TRUE,1.25061549977005
"CAN","cpi",0.4,1967,3,1967,NA,0,3.65304506023278,3.76723082334422,3.49360316391996,3.76768849328632,FALSE,0.645658750820848
"CAN","cpi",0.4,1967,3,1967,NA,0.5,2.89126729295275,3.32346993370368,3.49360316391996,2.4074547441976,FALSE,0.999313408138532
"CAN","cpi",0.4,1967,3,1966,NA,1,1.96719685421314,3.2351899176337,3.49360316391996,3.18103323070284,FALSE,2.12937055104143
"CAN","cpi",0.4,1967,3,1966,NA,1.5,5.94585366216575,7.2138467255863,3.49360316391996,4.65128160487248,FALSE,9.44216139090651
"CAN","cpi",0.4,1968,3,1968,NA,0,4.05350774535745,4.17150249921694,3.95128347779386,4.17287945672396,FALSE,0.458742312404794
"CAN","cpi",0.4,1968,3,1968,NA,0.5,4.53951603964325,4.89261398229011,3.95128347779386,4.07097205779852,FALSE,2.3138731488115
"CAN","cpi",0.4,1968,3,1967,NA,1,4.58571947066189,5.92537142424863,3.95128347779386,5.84521682123848,FALSE,3.45443859648017
"CAN","cpi",0.4,1968,3,1967,NA,1.5,3.14905731507598,4.48870926866272,3.95128347779386,2.25565858240226,TRUE,1.33965195358674
"CAN","cpi",0.4,1969,3,1969,NA,0,4.34344196967999,4.46638471014854,4.42679496126681,4.46896837073893,TRUE,0.122942740468552
"CAN","cpi",0.4,1969,3,1969,NA,0.5,3.32592351860961,3.73058388836419,4.42679496126681,2.96612019395715,FALSE,2.72536394609665
"CAN","cpi",0.4,1969,3,1968,NA,1,5.70191623703033,6.8254778461634,4.42679496126681,6.72487630040807,FALSE,5.37396586167812
"CAN","cpi",0.4,1969,3,1968,NA,1.5,5.16472678586783,6.2882883950009,4.42679496126681,4.31664452944541,FALSE,3.58333435780312
"CAN","cpi",0.4,1970,3,1970,NA,0,3.39886537020963,3.50813752312842,3.28128405769805,3.52697515579364,FALSE,0.501209861290745
"CAN","cpi",0.4,1970,3,1970,NA,0.5,5.10144013469016,5.50806569683553,3.28128405769805,4.65371085276917,FALSE,6.47381248545242
"CAN","cpi",0.4,1970,3,1969,NA,1,3.45755265107967,4.64698931513649,3.28128405769805,4.52747875087707,FALSE,1.77699864199557
"CAN","cpi",0.4,1970,3,1969,NA,1.5,2.80567742886867,3.99511409292549,3.28128405769805,2.07973847283129,TRUE,1.18943666405682
"CAN","cpi",0.4,1971,3,1971,NA,0,2.680867372422,2.80383922080118,2.64123406634756,2.8393232579169,FALSE,0.255082868627312
