isdrw/probabilistic-benchmark-forecasts/results/gauss_quantiles_prediction/unbiased VAR est/mean 0 assumption/gauss_prediction_arima_auto_2026-02-15_11-28.csv
"country","target","tau","target_year","target_quarter","forecast_year","forecast_quarter","horizon","lower_bound","upper_bound","truth_value","prediction","covered","IS"
"CAN","cpi",0.1,1959,3,1959,NA,0,1.22899609928737,1.27082822933849,1.19382698397654,1.24991216431293,FALSE,0.119985719630742
"CAN","cpi",0.1,1959,3,1959,NA,0.5,0.197797375376184,0.67788208780447,1.19382698397654,0.437839731590327,FALSE,1.626628926144
"CAN","cpi",0.1,1959,3,1958,NA,1,1.34008330401721,2.17717195370171,1.19382698397654,1.75862762885946,FALSE,1.16210269421933
"CAN","cpi",0.1,1959,3,1958,NA,1.5,0.919310312786507,2.62883314148881,1.19382698397654,1.77407172713766,TRUE,1.7095228287023
"CAN","cpi",0.1,1960,3,1960,NA,0,1.00518665156853,1.04203943362102,1.34209404870695,1.02361304259477,FALSE,0.703640815576788
"CAN","cpi",0.1,1960,3,1960,NA,0.5,0.300035965982318,0.777930994381002,1.34209404870695,0.53898348018166,FALSE,1.73159070467857
"CAN","cpi",0.1,1960,3,1959,NA,1,3.61321670334347,4.30197077044537,1.34209404870695,3.95759373689442,FALSE,5.7356932996275
"CAN","cpi",0.1,1960,3,1959,NA,1.5,-1.67514522130962,-0.0718084095001481,1.34209404870695,-0.873476815404885,FALSE,4.74534227449192
"CAN","cpi",0.1,1961,3,1961,NA,0,0.98655995803518,1.03186700384496,1.00921348094007,1.00921348094007,TRUE,0.0453070458097842
"CAN","cpi",0.1,1961,3,1961,NA,0.5,0.835102932694633,1.18332402918551,1.00921348094007,1.00921348094007,TRUE,0.348221096490877
"CAN","cpi",0.1,1961,3,1960,NA,1,-0.233704028915611,0.341244954122677,1.00921348094007,0.0537704626035329,FALSE,2.05932348707694
"CAN","cpi",0.1,1961,3,1960,NA,1.5,-1.61875925197148,-0.105604345908588,1.00921348094007,-0.862181798940035,FALSE,3.99052785461547
"CAN","cpi",0.1,1962,3,1962,NA,0,1.08210491085918,1.12254314377038,1.04957947883042,1.10232402731478,FALSE,0.112716970752898
"CAN","cpi",0.1,1962,3,1962,NA,0.5,-0.148085798751781,0.148085798751781,1.04957947883042,0,FALSE,2.29949088656719
"CAN","cpi",0.1,1962,3,1961,NA,1,-0.304143590075329,0.304143590075329,1.04957947883042,0,FALSE,2.26481137738418
"CAN","cpi",0.1,1962,3,1961,NA,1.5,-0.624337884223705,0.624337884223705,1.04957947883042,0,FALSE,2.19365708979565
"CAN","cpi",0.1,1963,3,1963,NA,0,1.89467095795445,1.93516363266958,1.60677118395228,1.91491729531202,FALSE,0.6802699502755
"CAN","cpi",0.1,1963,3,1963,NA,0.5,0.68832469069026,0.985332738544748,1.60677118395228,0.836828714617504,FALSE,1.67798237098235
"CAN","cpi",0.1,1963,3,1962,NA,1,2.2911847976708,2.83704501063207,1.60677118395228,2.56411490415144,FALSE,2.06677935455798
"CAN","cpi",0.1,1963,3,1962,NA,1.5,-0.446391826667767,0.446391826667767,1.60677118395228,0,FALSE,3.47140444730113
"CAN","cpi",0.1,1964,3,1964,NA,0,1.96618642199689,2.01135870692407,1.88764670034376,1.98877256446048,FALSE,0.21970499971191
"CAN","cpi",0.1,1964,3,1964,NA,0.5,1.31716219557275,1.4502179289794,1.88764670034376,1.38369006227607,FALSE,1.1051196697719
"CAN","cpi",0.1,1964,3,1963,NA,1,5.17286575885202,5.6080200480931,1.88764670034376,5.39044290347256,FALSE,7.7356410859261
"CAN","cpi",0.1,1964,3,1963,NA,1.5,-0.38146932718973,0.38146932718973,1.88764670034376,0,FALSE,4.10999948361064
"CAN","cpi",0.1,1965,3,1965,NA,0,2.32292264833152,2.36821830004846,2.29538304394236,2.34557047418999,FALSE,0.106494772581737
"CAN","cpi",0.1,1965,3,1965,NA,0.5,1.54301270406587,1.67857625506721,2.29538304394236,1.61079447956654,FALSE,1.50624530405722
"CAN","cpi",0.1,1965,3,1964,NA,1,2.22373897053818,2.62663827305875,2.29538304394236,2.42518862179847,TRUE,0.402899302520568
"CAN","cpi",0.1,1965,3,1964,NA,1.5,0.616652901056115,1.01955220357668,2.29538304394236,0.818102552316399,FALSE,3.23807894777762
"CAN","cpi",0.1,1966,3,1966,NA,0,3.79865866627888,3.84156109099529,3.72486065470629,3.82010987863709,FALSE,0.206898005988837
"CAN","cpi",0.1,1966,3,1966,NA,0.5,3.92376687140624,4.05870110650503,3.72486065470629,3.99123398895563,FALSE,0.576948049987568
"CAN","cpi",0.1,1966,3,1965,NA,1,3.00526286881158,3.40917850610549,3.72486065470629,3.20722068745854,FALSE,1.10543152307346
"CAN","cpi",0.1,1966,3,1965,NA,1.5,1.40468042767263,1.80859606496654,3.72486065470629,1.60663824631958,FALSE,4.66228139227113
"CAN","cpi",0.1,1967,3,1967,NA,0,3.74660953022829,3.78876745634435,3.49360316391996,3.76768849328632,FALSE,0.604394295690128
"CAN","cpi",0.1,1967,3,1967,NA,0.5,2.3296416516394,2.48526783675581,3.49360316391996,2.4074547441976,FALSE,2.3963713565923
"CAN","cpi",0.1,1967,3,1966,NA,1,2.98239016583583,3.37967629556985,3.49360316391996,3.18103323070284,FALSE,0.650456948289826
"CAN","cpi",0.1,1967,3,1966,NA,1.5,4.45263854000547,4.84992466973949,3.49360316391996,4.65128160487248,FALSE,2.52847585436849
"CAN","cpi",0.1,1968,3,1968,NA,0,4.15121359098006,4.19454532246785,3.95128347779386,4.17287945672396,FALSE,0.487620871901582
"CAN","cpi",0.1,1968,3,1968,NA,0.5,4.013783588334,4.12816052726305,3.95128347779386,4.07097205779852,FALSE,0.253266073462696
"CAN","cpi",0.1,1968,3,1967,NA,1,5.63411660175505,6.05631704072191,3.95128347779386,5.84521682123848,FALSE,4.16182960332507
"CAN","cpi",0.1,1968,3,1967,NA,1.5,2.04455836291883,2.46675880188569,3.95128347779386,2.25565858240226,FALSE,3.72114416320722
"CAN","cpi",0.1,1969,3,1969,NA,0,4.44680033238772,4.49113640909013,4.42679496126681,4.46896837073893,FALSE,0.088792456971097
"CAN","cpi",0.1,1969,3,1969,NA,0.5,2.90602533296477,3.02621505494952,4.42679496126681,2.96612019395715,FALSE,3.23258951380095
"CAN","cpi",0.1,1969,3,1968,NA,1,6.55960526555565,6.8901473352605,4.42679496126681,6.72487630040807,FALSE,5.07012052368003
"CAN","cpi",0.1,1969,3,1968,NA,1.5,4.15137349459298,4.48191556429783,4.42679496126681,4.31664452944541,TRUE,0.330542069704849
"CAN","cpi",0.1,1970,3,1970,NA,0,3.50597546460801,3.54797484697928,3.28128405769805,3.52697515579364,FALSE,0.541313619948963
"CAN","cpi",0.1,1970,3,1970,NA,0.5,4.5858405132508,4.72158119228754,3.28128405769805,4.65371085276917,FALSE,3.03475502470953
"CAN","cpi",0.1,1970,3,1969,NA,1,4.35801485247424,4.69694264927991,3.28128405769805,4.52747875087707,FALSE,2.73166289630832
"CAN","cpi",0.1,1970,3,1969,NA,1.5,1.91027457442846,2.24920237123413,3.28128405769805,2.07973847283129,FALSE,2.63244265561438
"CAN","cpi",0.1,1971,3,1971,NA,0,2.8174573964639,2.8611891193699,2.64123406634756,2.8393232579169,FALSE,0.435339123164531
"CAN","cpi",0.1,1971,3,1971,NA,0.5,1.96622821500826,2.16761509910188,2.64123406634756,2.06692165705507,FALSE,1.25387347797291
"CAN","cpi",0.1,1971,3,1970,NA,1,2.48073740579355,2.80138248587635,2.64123406634756,2.64105994583495,TRUE,0.320645080082796
"CAN","cpi",0.1,1971,3,1970,NA,1.5,4.47945384896328,4.80009892904607,2.64123406634756,4.63977638900468,FALSE,4.40557793033994
"CAN","cpi",0.1,1972,3,1972,NA,0,5.01697027582759,5.04399178793679,4.83230569625923,5.03048103188219,FALSE,0.437387244483331
"CAN","cpi",0.1,1972,3,1972,NA,0.5,4.96737883928465,5.16673924783479,4.83230569625923,5.06705904355972,FALSE,0.499522948606619
"CAN","cpi",0.1,1972,3,1971,NA,1,5.74035563175208,6.09347642238292,4.83230569625923,5.9169160270675,FALSE,2.37100953617051
"CAN","cpi",0.1,1972,3,1971,NA,1.5,2.91620455909729,3.26932534972813,4.83230569625923,3.09276495441271,FALSE,3.82641044958884
"CAN","cpi",0.1,1973,3,1973,NA,0,6.98046133965492,7.00483378420796,7.12388603531779,6.99264756193144,FALSE,0.288933002574887
"CAN","cpi",0.1,1973,3,1973,NA,0.5,5.37316160751963,5.57623632071745,7.12388603531779,5.47469896411854,FALSE,3.64229630119858
"CAN","cpi",0.1,1973,3,1972,NA,1,6.52082494761521,6.86042072734153,7.12388603531779,6.69062283747837,FALSE,0.925074241895785
"CAN","cpi",0.1,1973,3,1972,NA,1.5,4.56194454600169,4.90154032572802,7.12388603531779,4.73174243586486,FALSE,5.27814180103693
"CAN","cpi",0.1,1974,3,1974,NA,0,9.92816414542231,9.96046626585834,10.2717243737774,9.94431520564033,FALSE,0.723986804700648
"CAN","cpi",0.1,1974,3,1974,NA,0.5,8.22785868599131,8.44787214903688,10.2717243737774,8.3378654175141,FALSE,4.27301840691343
"CAN","cpi",0.1,1974,3,1973,NA,1,7.00553721830615,7.32871123439622,10.2717243737774,7.16712422635118,FALSE,6.86320321471496
"CAN","cpi",0.1,1974,3,1973,NA,1.5,3.8736716230835,4.22982336047759,10.2717243737774,4.05174749178054,FALSE,13.7825984336159
"CAN","cpi",0.1,1975,3,1975,NA,0,10.0704941253397,10.115870598616,10.0232981493341,10.0931823619779,FALSE,0.150256419955382
"CAN","cpi",0.1,1975,3,1975,NA,0.5,8.8590062591682,9.10634326277837,10.0232981493341,8.98267476097328,FALSE,2.28501452928962
"CAN","cpi",0.1,1975,3,1974,NA,1,7.56243723775284,8.00515920685796,10.0232981493341,7.7837982223054,FALSE,4.9274751746077
"CAN","cpi",0.1,1975,3,1974,NA,1.5,5.49284792501799,6.02578418115239,10.0232981493341,5.75931605308519,FALSE,9.41630062987158
"CAN","cpi",0.1,1976,3,1976,NA,0,7.05008903009173,7.09547006894261,7.22784311401172,7.07277954951717,FALSE,0.339543361226669
"CAN","cpi",0.1,1976,3,1976,NA,0.5,8.46578065627818,8.71600055248835,7.22784311401172,8.59089060438327,FALSE,3.00119221235788
"CAN","cpi",0.1,1976,3,1975,NA,1,10.2083488593143,10.619946677714,7.22784311401172,10.4141477685142,FALSE,7.03494391907215
"CAN","cpi",0.1,1976,3,1975,NA,1.5,6.14314998651055,6.71787173618668,7.22784311401172,6.43051086134862,FALSE,1.70799147817621
"CAN","cpi",0.1,1977,3,1977,NA,0,7.5285577059448,7.57746532735063,7.58101410153764,7.55301151664772,FALSE,0.0567937862658556
"CAN","cpi",0.1,1977,3,1977,NA,0.5,7.83664798442335,8.12666901601439,7.58101410153764,7.98165850021887,FALSE,0.858096326892613
"CAN","cpi",0.1,1977,3,1976,NA,1,3.48264636463029,3.96004661824175,7.58101410153764,3.72134649143602,FALSE,8.52399466093567
"CAN","cpi",0.1,1977,3,1976,NA,1.5,7.71359465581584,8.29184623369644,7.58101410153764,8.00272044475614,FALSE,0.872875031832138
"CAN","cpi",0.1,1978,3,1978,NA,0,8.64660866748586,8.695948139691,8.50208927062595,8.67127840358843,FALSE,0.370493687449392
"CAN","cpi",0.1,1978,3,1978,NA,0.5,8.23275862730199,8.52489600907661,8.50208927062595,8.3788273181893,TRUE,0.292137381774616
"CAN","cpi",0.1,1978,3,1977,NA,1,7.26244266973359,7.83323389858742,8.50208927062595,7.54783828416051,FALSE,2.05713650005055
"CAN","cpi",0.1,1978,3,1977,NA,1.5,9.42807258368995,10.0231825431545,8.50208927062595,9.72562756342223,FALSE,2.65285065516234
"CAN","cpi",0.1,1979,3,1979,NA,0,8.54027129092815,8.58725651372124,8.65147652410481,8.56376390232469,FALSE,0.189696356978802
"CAN","cpi",0.1,1979,3,1979,NA,0.5,8.1526744051656,8.43931129416969,8.65147652410481,8.29599284966764,FALSE,0.758115177748802
"CAN","cpi",0.1,1979,3,1978,NA,1,8.9156592042655,9.49057080591287,8.65147652410481,9.20311500508918,FALSE,1.16198422422668
"CAN","cpi",0.1,1979,3,1978,NA,1.5,8.25802876511392,8.85490943794457,8.65147652410481,8.55646910152924,TRUE,0.596880672830654
"CAN","cpi",0.1,1980,3,1980,NA,0,9.48131962341827,9.52681481872035,9.5171912664748,9.50406722106931,TRUE,0.0454951953020775
"CAN","cpi",0.1,1980,3,1980,NA,0.5,8.43573701593133,8.72024127077051,9.5171912664748,8.57798914335092,FALSE,2.05550424529315
"CAN","cpi",0.1,1980,3,1979,NA,1,7.90153631800056,8.45596775621575,9.5171912664748,8.17875203710815,FALSE,2.91270590545752
"CAN","cpi",0.1,1980,3,1979,NA,1.5,8.09044608580888,8.69364923543335,9.5171912664748,8.39204766062112,FALSE,2.43329655193879
"CAN","cpi",0.1,1981,3,1981,NA,0,11.6886380829547,11.7341377138851,11.5813425032741,11.7113878984199,FALSE,0.283934252442814
"CAN","cpi",0.1,1981,3,1981,NA,0.5,12.0785635632595,12.3526757872939,11.5813425032741,12.2156196752767,FALSE,1.37904791289083
"CAN","cpi",0.1,1981,3,1980,NA,1,10.7906159939475,11.3087546906573,11.5813425032741,11.0496853423024,FALSE,1.12388939141393
"CAN","cpi",0.1,1981,3,1980,NA,1.5,8.03984314792783,8.63635269557006,11.5813425032741,8.33809792174894,FALSE,7.14093134254019
"CAN","cpi",0.1,1982,3,1982,NA,0,10.2354155208579,10.2779181093615,10.1124203763629,10.2566668151097,FALSE,0.315825131825761
"CAN","cpi",0.1,1982,3,1982,NA,0.5,9.98331801571301,10.233753178996,10.1124203763629,10.1085355973545,TRUE,0.250435163282972
"CAN","cpi",0.1,1982,3,1981,NA,1,11.5226632545345,12.0193141117134,10.1124203763629,11.770988683124,FALSE,3.63052391978236
"CAN","cpi",0.1,1982,3,1981,NA,1.5,12.5629295394506,13.1773205308056,10.1124203763629,12.8701250351281,FALSE,6.05996690932758
"CAN","cpi",0.1,1983,3,1983,NA,0,5.71045859482281,5.75156568847498,5.67091787896303,5.7310121416489,FALSE,0.128975351118339
"CAN","cpi",0.1,1983,3,1983,NA,0.5,4.78787434767248,5.0389859725206,5.67091787896303,4.91343016009654,FALSE,1.65540475027576
"CAN","cpi",0.1,1983,3,1982,NA,1,8.92184319538084,9.44815980194029,5.67091787896303,9.18500149866057,FALSE,7.75059508748791
"CAN","cpi",0.1,1983,3,1982,NA,1.5,9.36496836221073,10.0084776691766,5.67091787896303,9.68672301569366,FALSE,8.85251038084963
"CAN","cpi",0.1,1984,3,1984,NA,0,NA,NA,4.19799576814029,NA,NA,NA
"CAN","cpi",0.1,1984,3,1984,NA,0.5,5.73332945699538,5.98208426349376,4.19799576814029,5.85770686024457,FALSE,3.66060744839858
"CAN","cpi",0.1,1984,3,1983,NA,1,5.46516980084082,6.06589735908775,4.19799576814029,5.76553357996429,FALSE,3.416669853137
"CAN","cpi",0.1,1984,3,1983,NA,1.5,2.53897671609279,3.30062264285061,4.19799576814029,2.9197996794717,FALSE,2.75580842740154
"CAN","cpi",0.1,1985,3,1985,NA,0,NA,NA,3.86444262005169,3.85417990135378,NA,NA
"CAN","cpi",0.1,1985,3,1985,NA,0.5,4.08522387564668,4.35457697201129,3.86444262005169,4.21990042382899,FALSE,0.759978108797921
"CAN","cpi",0.1,1985,3,1984,NA,1,NA,NA,3.86444262005169,NA,NA,NA
"CAN","cpi",0.1,1985,3,1984,NA,1.5,8.25383191804355,9.00616128806356,3.86444262005169,8.62999660305356,FALSE,10.5065278100019
"CAN","cpi",0.1,1986,3,1986,NA,0,NA,NA,4.08685396749431,4.03771389199993,NA,NA
"CAN","cpi",0.1,1986,3,1986,NA,0.5,4.27083831699697,4.4935483330736,4.08685396749431,4.38219332503529,FALSE,0.631564126082543
"CAN","cpi",0.1,1986,3,1985,NA,1,NA,NA,4.08685396749431,3.37849976080849,NA,NA
"CAN","cpi",0.1,1986,3,1985,NA,1.5,4.59801658142177,5.30818059659736,4.08685396749431,4.95309858900956,FALSE,1.84608093501438
"CAN","cpi",0.1,1987,3,1987,NA,0,NA,NA,4.23980729277887,NA,NA,NA
"CAN","cpi",0.1,1987,3,1987,NA,0.5,4.03285412266635,4.23398909893535,4.23980729277887,4.13342161080085,FALSE,0.214064295921268
"CAN","cpi",0.1,1987,3,1986,NA,1,NA,NA,4.23980729277887,3.66140988164798,NA,NA
"CAN","cpi",0.1,1987,3,1986,NA,1.5,4.50031464807216,5.10454071479812,4.23980729277887,4.80242768143514,FALSE,1.18313130071104
"CAN","cpi",0.1,1988,3,1988,NA,0,NA,NA,3.92899537638065,3.9438316199536,NA,NA
"CAN","cpi",0.1,1988,3,1988,NA,0.5,3.26500152924009,3.44338277757615,3.92899537638065,3.35419215340812,FALSE,1.25752035679051
"CAN","cpi",0.1,1988,3,1987,NA,1,NA,NA,3.92899537638065,NA,NA,NA
"CAN","cpi",0.1,1988,3,1987,NA,1.5,3.59869727427515,4.19054131625378,3.92899537638065,3.89461929526446,TRUE,0.591844041978633
"CAN","cpi",0.1,1989,3,1989,NA,0,NA,NA,4.82821664544208,4.95130318392835,NA,NA
"CAN","cpi",0.1,1989,3,1989,NA,0.5,4.13868842304529,4.32181043189617,4.82821664544208,4.23024942747073,FALSE,1.308469150064
"CAN","cpi",0.1,1989,3,1988,NA,1,NA,NA,4.82821664544208,4.05841794603162,NA,NA
"CAN","cpi",0.1,1989,3,1988,NA,1.5,2.30048400076214,2.89520311800386,4.82821664544208,2.597843559383,FALSE,4.8903047337711
"CAN","cpi",0.1,1990,3,1990,NA,0,NA,NA,4.64347549432717,4.4746950192663,NA,NA
"CAN","cpi",0.1,1990,3,1990,NA,0.5,4.8705149962155,5.05922838183407,4.64347549432717,4.96487168902479,FALSE,0.693245612037084
"CAN","cpi",0.1,1990,3,1989,NA,1,NA,NA,4.64347549432717,5.43871373969076,NA,NA
"CAN","cpi",0.1,1990,3,1989,NA,1.5,3.05616320483142,3.69034479564477,4.64347549432717,3.3732540002381,FALSE,2.75224981010757
"CAN","cpi",0.1,1991,3,1991,NA,0,NA,NA,5.4258100696218,5.61053369942382,NA,NA
"CAN","cpi",0.1,1991,3,1991,NA,0.5,7.72777589397793,7.91621001557396,5.4258100696218,7.82199295477594,FALSE,5.30391373127633
"CAN","cpi",0.1,1991,3,1990,NA,1,NA,NA,5.4258100696218,3.66716818384097,NA,NA
"CAN","cpi",0.1,1991,3,1990,NA,1.5,4.50146839938187,5.14817057390141,5.4258100696218,4.82481948664164,FALSE,1.26367883167596
"CAN","cpi",0.1,1992,3,1992,NA,0,NA,NA,1.47496888572843,NA,NA,NA
"CAN","cpi",0.1,1992,3,1992,NA,0.5,NA,NA,1.47496888572843,NA,NA,NA
"CAN","cpi",0.1,1992,3,1991,NA,1,NA,NA,1.47496888572843,2.76780571233213,NA,NA
"CAN","cpi",0.1,1992,3,1991,NA,1.5,6.82919749989122,7.46956615331217,1.47496888572843,7.14938182660169,FALSE,12.5386544626716
"CAN","cpi",0.1,1993,3,1993,NA,0,NA,NA,NA,NA,NA,NA
"CAN","cpi",0.1,1993,3,1993,NA,0.5,NA,NA,NA,NA,NA,NA
"CAN","cpi",0.1,1993,3,1992,NA,1,NA,NA,NA,NA,NA,NA
"CAN","cpi",0.1,1993,3,1992,NA,1.5,NA,NA,NA,NA,NA,NA
"CAN","cpi",0.1,1994,3,1994,NA,0,NA,NA,NA,NA,NA,NA
"CAN","cpi",0.1,1994,3,1994,NA,0.5,NA,NA,NA,NA,NA,NA
"CAN","cpi",0.1,1994,3,1993,NA,1,NA,NA,NA,NA,NA,NA
"CAN","cpi",0.1,1994,3,1993,NA,1.5,NA,NA,NA,NA,NA,NA
"CAN","cpi",0.1,1995,3,1995,NA,0,NA,NA,2.11688403676572,NA,NA,NA
"CAN","cpi",0.1,1995,3,1995,NA,0.5,NA,NA,2.11688403676572,2.51937811073084,NA,NA
"CAN","cpi",0.1,1995,3,1994,NA,1,NA,NA,2.11688403676572,0.719396410821945,NA,NA
"CAN","cpi",0.1,1995,3,1994,NA,1.5,NA,NA,2.11688403676572,-1.04654603924828,NA,NA
"CAN","cpi",0.1,1996,3,1996,NA,0,NA,NA,1.55309584667184,1.42780748357026,NA,NA
"CAN","cpi",0.1,1996,3,1996,NA,0.5,NA,NA,1.55309584667184,NA,NA,NA
"CAN","cpi",0.1,1996,3,1995,NA,1,NA,NA,1.55309584667184,NA,NA,NA
"CAN","cpi",0.1,1996,3,1995,NA,1.5,NA,NA,1.55309584667184,2.92232271175447,NA,NA
"CAN","cpi",0.1,1997,3,1997,NA,0,NA,NA,1.60528783555959,1.73535847807117,NA,NA
"CAN","cpi",0.1,1997,3,1997,NA,0.5,NA,NA,1.60528783555959,2.11078363597796,NA,NA
"CAN","cpi",0.1,1997,3,1996,NA,1,NA,NA,1.60528783555959,0.984961337307556,NA,NA
"CAN","cpi",0.1,1997,3,1996,NA,1.5,NA,NA,1.60528783555959,NA,NA,NA
"CAN","cpi",0.1,1998,3,1998,NA,0,NA,NA,0.988908029337191,1.0350847138471,NA,NA
"CAN","cpi",0.1,1998,3,1998,NA,0.5,NA,NA,0.988908029337191,1.68533655437107,NA,NA
"CAN","cpi",0.1,1998,3,1997,NA,1,NA,NA,0.988908029337191,2.25159584334757,NA,NA
"CAN","cpi",0.1,1998,3,1997,NA,1.5,NA,NA,0.988908029337191,2.38987816876076,NA,NA
"CAN","cpi",0.1,1999,3,1999,NA,0,NA,NA,1.7107350135213,1.77618438459462,NA,NA
"CAN","cpi",0.1,1999,3,1999,NA,0.5,NA,NA,1.7107350135213,1.0290924799153,NA,NA
"CAN","cpi",0.1,1999,3,1998,NA,1,NA,NA,1.7107350135213,1.85177544064205,NA,NA
"CAN","cpi",0.1,1999,3,1998,NA,1.5,NA,NA,1.7107350135213,2.94645730787123,NA,NA
"CAN","cpi",0.1,2000,3,2000,NA,0,NA,NA,2.6718361971244,2.7102541785615,NA,NA
"CAN","cpi",0.1,2000,3,2000,NA,0.5,NA,NA,2.6718361971244,2.34405201403356,NA,NA
"CAN","cpi",0.1,2000,3,1999,NA,1,NA,NA,2.6718361971244,3.07542936781209,NA,NA
"CAN","cpi",0.1,2000,3,1999,NA,1.5,NA,NA,2.6718361971244,2.27809035801724,NA,NA
"CAN","cpi",0.1,2001,3,2001,NA,0,NA,NA,2.47906219852806,2.77546584984351,NA,NA
"CAN","cpi",0.1,2001,3,2001,NA,0.5,NA,NA,2.47906219852806,2.43566755503104,NA,NA
"CAN","cpi",0.1,2001,3,2000,NA,1,NA,NA,2.47906219852806,3.68958695319843,NA,NA
"CAN","cpi",0.1,2001,3,2000,NA,1.5,NA,NA,2.47906219852806,3.01270789712173,NA,NA
"CAN","cpi",0.1,2002,3,2002,NA,0,NA,NA,2.20880570551249,2.27196234986351,NA,NA
"CAN","cpi",0.1,2002,3,2002,NA,0.5,NA,NA,2.20880570551249,1.58345411989126,NA,NA
"CAN","cpi",0.1,2002,3,2001,NA,1,NA,NA,2.20880570551249,2.26510423845898,NA,NA
"CAN","cpi",0.1,2002,3,2001,NA,1.5,NA,NA,2.20880570551249,3.02058043279009,NA,NA
"CAN","cpi",0.1,2003,3,2003,NA,0,NA,NA,2.71189071546809,2.71326702620668,NA,NA
"CAN","cpi",0.1,2003,3,2003,NA,0.5,NA,NA,2.71189071546809,4.51432649273496,NA,NA
"CAN","cpi",0.1,2003,3,2002,NA,1,NA,NA,2.71189071546809,3.85618281746238,NA,NA
"CAN","cpi",0.1,2003,3,2002,NA,1.5,NA,NA,2.71189071546809,2.39402389849184,NA,NA
"CAN","cpi",0.1,2004,3,2004,NA,0,NA,NA,1.83151661303942,1.77466852383015,NA,NA
"CAN","cpi",0.1,2004,3,2004,NA,0.5,NA,NA,1.83151661303942,1.55260435151936,NA,NA
"CAN","cpi",0.1,2004,3,2003,NA,1,NA,NA,1.83151661303942,1.79415792598285,NA,NA
"CAN","cpi",0.1,2004,3,2003,NA,1.5,NA,NA,1.83151661303942,4.26699272545716,NA,NA
"CAN","cpi",0.1,2005,3,2005,NA,0,NA,NA,2.18071628336509,2.34345353472953,NA,NA
"CAN","cpi",0.1,2005,3,2005,NA,0.5,NA,NA,2.18071628336509,1.50321338317329,NA,NA
"CAN","cpi",0.1,2005,3,2004,NA,1,NA,NA,2.18071628336509,1.64043962712234,NA,NA
"CAN","cpi",0.1,2005,3,2004,NA,1.5,NA,NA,2.18071628336509,2.03393284113233,NA,NA
"CAN","cpi",0.1,2006,3,2006,NA,0,NA,NA,1.97519342012289,2.09514376892657,NA,NA
"CAN","cpi",0.1,2006,3,2006,NA,0.5,NA,NA,1.97519342012289,2.09436263599022,NA,NA
"CAN","cpi",0.1,2006,3,2005,NA,1,NA,NA,1.97519342012289,2.9582912060806,NA,NA
"CAN","cpi",0.1,2006,3,2005,NA,1.5,NA,NA,1.97519342012289,1.64885961980806,NA,NA
"CAN","cpi",0.1,2007,3,2007,NA,0,2.09270511637536,2.12096732567079,2.10062087284572,2.10683622102307,TRUE,0.0282622092954341
"CAN","cpi",0.1,2007,3,2007,NA,0.5,NA,NA,2.10062087284572,2.17629902083353,NA,NA
"CAN","cpi",0.1,2007,3,2006,NA,1,NA,NA,2.10062087284572,1.50861692709856,NA,NA
"CAN","cpi",0.1,2007,3,2006,NA,1.5,NA,NA,2.10062087284572,2.15918616350405,NA,NA
"CAN","cpi",0.1,2008,3,2008,NA,0,2.85877456372437,2.88281453925219,2.31447335265955,2.87079455148828,FALSE,1.23359822233853
"CAN","cpi",0.1,2008,3,2008,NA,0.5,1.21701206103941,1.40309423286592,2.31447335265955,1.31005314695267,FALSE,2.21136910470125
"CAN","cpi",0.1,2008,3,2007,NA,1,1.37718466509393,1.56343633455943,2.31447335265955,1.47031049982668,FALSE,1.85522282079911
"CAN","cpi",0.1,2008,3,2007,NA,1.5,NA,NA,2.31447335265955,2.46453195342394,NA,NA
"CAN","cpi",0.1,2009,3,2009,NA,0,0.165361211665057,0.208883481034386,0.284533874408197,0.187122346349721,FALSE,0.211634254644465
"CAN","cpi",0.1,2009,3,2009,NA,0.5,-0.170637209444735,0.0251386853515015,0.284533874408197,-0.0727492620466167,FALSE,0.77220964825556
"CAN","cpi",0.1,2009,3,2008,NA,1,3.71991231617139,3.91568821096763,0.284533874408197,3.81780026356951,FALSE,7.82995020982556
"CAN","cpi",0.1,2009,3,2008,NA,1.5,1.57377300063734,1.79973005197105,0.284533874408197,1.68675152630419,FALSE,3.09093288739846
"CAN","cpi",0.1,2010,3,2010,NA,0,1.58584895974735,1.63214236952345,1.75525687020327,1.6089956646354,FALSE,0.319881189064598
"CAN","cpi",0.1,2010,3,2010,NA,0.5,1.81753200885483,2.00465804166883,1.75525687020327,1.91109502526183,FALSE,0.325515229817463
"CAN","cpi",0.1,2010,3,2009,NA,1,0.858695676376885,1.12589590061262,1.75525687020327,0.992295788494754,FALSE,1.6657801566594
"CAN","cpi",0.1,2010,3,2009,NA,1.5,0.751502940697999,1.01870316493374,1.75525687020327,0.885103052815867,FALSE,1.90398623594582
"CAN","cpi",0.1,2011,3,2011,NA,0,2.84162210146501,2.89168617977695,2.85717434028225,2.86665414062098,TRUE,0.0500640783119373
"CAN","cpi",0.1,2011,3,2011,NA,0.5,2.67397165566905,2.85769598222637,2.85717434028225,2.76583381894771,TRUE,0.183724326557327
"CAN","cpi",0.1,2011,3,2010,NA,1,1.25278082964824,1.53311205374614,2.85717434028225,1.39294644169719,FALSE,3.2226918608448
"CAN","cpi",0.1,2011,3,2010,NA,1.5,1.50236499387468,1.78269621797258,2.85717434028225,1.64253060592363,FALSE,2.66806038478605
"CAN","cpi",0.1,2012,3,2012,NA,0,1.5030827624582,1.55336745452969,1.50118536134935,1.52822510849394,FALSE,0.0545011389800488
"CAN","cpi",0.1,2012,3,2012,NA,0.5,1.83289549679114,2.01568494266464,1.50118536134935,1.92429021972789,FALSE,0.919923080188603
"CAN","cpi",0.1,2012,3,2011,NA,1,1.8462115854919,2.15269326344967,1.50118536134935,1.99945242447079,FALSE,1.07320662049678
"CAN","cpi",0.1,2012,3,2011,NA,1.5,2.32826873500073,2.6347504129585,1.50118536134935,2.48150957397962,FALSE,2.1444447305164
"CAN","cpi",0.1,2013,3,2013,NA,0,1.03274844138439,1.07986182707982,0.931270594714462,1.05630513423211,FALSE,0.272619711628607
"CAN","cpi",0.1,2013,3,2013,NA,0.5,1.07622488320421,1.26304420789443,0.931270594714462,1.16963454554932,FALSE,0.508939965778549
"CAN","cpi",0.1,2013,3,2012,NA,1,0.936155041204869,1.24120674136997,0.931270594714462,1.08868089128742,FALSE,0.315906025699342
"CAN","cpi",0.1,2013,3,2012,NA,1.5,1.99320594522272,2.29825764538782,0.931270594714462,2.14573179530527,FALSE,2.66490803462789
"CAN","cpi",0.1,2014,3,2014,NA,0,1.97493705529052,2.0223199276118,1.87639912240215,1.99862849145116,FALSE,0.266356056517661
"CAN","cpi",0.1,2014,3,2014,NA,0.5,1.70174277495201,1.88289674670174,1.87639912240215,1.79231976082687,TRUE,0.181153971749726
"CAN","cpi",0.1,2014,3,2013,NA,1,1.25244805861639,1.56085173778157,1.87639912240215,1.40664989819898,FALSE,1.00962008943314
"CAN","cpi",0.1,2014,3,2013,NA,1.5,1.36015937819634,1.66856305736151,1.87639912240215,1.51436121777893,FALSE,0.770261601477703
"CAN","cpi",0.1,2015,3,2015,NA,0,1.18667976473841,1.23393324375719,1.11090953952792,1.2103065042478,FALSE,0.21563175726431
"CAN","cpi",0.1,2015,3,2015,NA,0.5,0.405690695521706,0.511403935914411,1.11090953952792,0.458547315718059,FALSE,1.43794791508938
"CAN","cpi",0.1,2015,3,2014,NA,1,1.41784272117535,1.72325290738735,1.11090953952792,1.57054781428135,FALSE,0.987483923206289
"CAN","cpi",0.1,2015,3,2014,NA,1.5,1.72958600230557,2.03499618851757,1.11090953952792,1.88229109541157,FALSE,1.68024677016234
"CAN","cpi",0.1,2016,3,2016,NA,0,1.39332730871218,1.43928604072767,1.41168586698797,1.41630667471992,TRUE,0.0459587320154897
"CAN","cpi",0.1,2016,3,2016,NA,0.5,1.1234708294881,1.23597233637041,1.41168586698797,1.17972158292925,FALSE,0.502976019365772
"CAN","cpi",0.1,2016,3,2015,NA,1,1.72565767631545,2.00207364471795,1.41168586698797,1.8638656605167,FALSE,0.974131100241354
"CAN","cpi",0.1,2016,3,2015,NA,1.5,0.932022042949612,1.20843801135211,1.41168586698797,1.07023002715086,FALSE,0.728077869815511
"CAN","cpi",0.1,2017,3,2017,NA,0,1.48196217966577,1.52789167326941,1.57888581671161,1.50492692646759,FALSE,0.159249812364085
"CAN","cpi",0.1,2017,3,2017,NA,0.5,2.03858742494207,2.14314494070075,1.57888581671161,2.09086618282141,FALSE,1.12611664515971
"CAN","cpi",0.1,2017,3,2016,NA,1,1.00858138118343,1.28445962587306,1.57888581671161,1.14652050352824,FALSE,0.930158668775303
"CAN","cpi",0.1,2017,3,2016,NA,1.5,1.12994172288545,1.40581996757508,1.57888581671161,1.26788084523026,FALSE,0.660469020548591
"CAN","cpi",0.1,2018,3,2018,NA,0,2.38963989075667,2.43671085916499,2.23316270166586,2.41317537496083,FALSE,0.394798055276791
"CAN","cpi",0.1,2018,3,2018,NA,0.5,2.47098300784922,2.58519937844468,2.23316270166586,2.52809119314695,FALSE,0.64270593989182
"CAN","cpi",0.1,2018,3,2017,NA,1,1.03120179799557,1.30480024032636,2.23316270166586,1.16800101916097,FALSE,2.33662613419634
"CAN","cpi",0.1,2018,3,2017,NA,1.5,1.93618480143554,2.20978324376633,2.23316270166586,2.07298402260093,FALSE,0.325552793218635
"CAN","cpi",0.1,2019,3,2019,NA,0,NA,NA,1.91921619871868,NA,NA,NA
"CAN","cpi",0.1,2019,3,2019,NA,0.5,1.41457913179856,1.53199699426789,1.91921619871868,1.47328806303322,FALSE,0.977904983471092
"CAN","cpi",0.1,2019,3,2018,NA,1,2.09571471048012,2.37369091044653,1.91921619871868,2.23470281046333,FALSE,0.67019511499183
"CAN","cpi",0.1,2019,3,2018,NA,1.5,2.18131752569192,2.45929372565833,1.91921619871868,2.32030562567512,FALSE,0.860423593240271
"CAN","cpi",0.1,2020,3,2020,NA,0,NA,NA,0.71139989671781,0.673588636713597,NA,NA
"CAN","cpi",0.1,2020,3,2020,NA,0.5,NA,NA,0.71139989671781,NA,NA,NA
"CAN","cpi",0.1,2020,3,2019,NA,1,NA,NA,0.71139989671781,NA,NA,NA
"CAN","cpi",0.1,2020,3,2019,NA,1.5,1.6678425677975,1.88626727096058,0.71139989671781,1.77705491937904,FALSE,2.34385286111795
"CAN","cpi",0.1,2021,3,2021,NA,0,NA,NA,3.31148121717802,3.2525646654712,NA,NA
"CAN","cpi",0.1,2021,3,2021,NA,0.5,NA,NA,3.31148121717802,2.16773480502693,NA,NA
"CAN","cpi",0.1,2021,3,2020,NA,1,NA,NA,3.31148121717802,1.61070774476322,NA,NA
"CAN","cpi",0.1,2021,3,2020,NA,1.5,NA,NA,3.31148121717802,NA,NA,NA
"CAN","cpi",0.1,2022,3,2022,NA,0,NA,NA,6.50977236228281,6.58682891800883,NA,NA
"CAN","cpi",0.1,2022,3,2022,NA,0.5,NA,NA,6.50977236228281,5.58900513180898,NA,NA
"CAN","cpi",0.1,2022,3,2021,NA,1,NA,NA,6.50977236228281,3.35597076522593,NA,NA
"CAN","cpi",0.1,2022,3,2021,NA,1.5,NA,NA,6.50977236228281,1.89458222166426,NA,NA
"CAN","cpi",0.1,2023,3,2023,NA,0,NA,NA,3.78831288758619,3.96221561415741,NA,NA
"CAN","cpi",0.1,2023,3,2023,NA,0.5,NA,NA,3.78831288758619,3.6121970566696,NA,NA
"CAN","cpi",0.1,2023,3,2022,NA,1,NA,NA,3.78831288758619,5.4861852561408,NA,NA
"CAN","cpi",0.1,2023,3,2022,NA,1.5,NA,NA,3.78831288758619,3.85557075258935,NA,NA
"CAN","cpi",0.1,2024,3,2023,NA,1,NA,NA,NA,4.72280809903739,NA,NA
"CAN","cpi",0.1,2024,3,2023,NA,1.5,NA,NA,NA,4.36705509613113,NA,NA
"CAN","cpi",0.2,1959,3,1959,NA,0,1.20774307560073,1.29208125302513,1.19382698397654,1.24991216431293,FALSE,0.119128406484874
"CAN","cpi",0.2,1959,3,1959,NA,0.5,-0.0461120729918891,0.921791536172544,1.19382698397654,0.437839731590327,FALSE,1.64799222867443
"CAN","cpi",0.2,1959,3,1958,NA,1,0.914796213022373,2.60245904469655,1.19382698397654,1.75862762885946,TRUE,1.68766283167418
"CAN","cpi",0.2,1959,3,1958,NA,1.5,0.0507786571702251,3.49736479710509,1.19382698397654,1.77407172713766,TRUE,3.44658613993486
"CAN","cpi",0.2,1960,3,1960,NA,0,0.986463410630926,1.06076267455862,1.34209404870695,1.02361304259477,FALSE,0.777627699298526
"CAN","cpi",0.2,1960,3,1960,NA,0.5,0.0572389975785819,1.02072796278474,1.34209404870695,0.53898348018166,FALSE,1.76690418001169
"CAN","cpi",0.2,1960,3,1959,NA,1,3.26329174172915,4.6518957320597,1.34209404870695,3.95759373689442,FALSE,6.19159822288604
"CAN","cpi",0.2,1960,3,1959,NA,1.5,-2.48972853794687,0.742774907137101,1.34209404870695,-0.873476815404885,FALSE,4.7308012990086
"CAN","cpi",0.2,1961,3,1961,NA,0,0.963541485951876,1.05488547592827,1.00921348094007,1.00921348094007,TRUE,0.0913439899763917
"CAN","cpi",0.2,1961,3,1961,NA,0.5,0.658187456412096,1.36023950546805,1.00921348094007,1.00921348094007,TRUE,0.702052049055951
"CAN","cpi",0.2,1961,3,1960,NA,1,-0.525809746223994,0.63335067143106,1.00921348094007,0.0537704626035329,FALSE,2.09881744142758
"CAN","cpi",0.2,1961,3,1960,NA,1.5,-2.38752519864464,0.663161600764572,1.00921348094007,-0.862181798940035,FALSE,3.91581649984796
"CAN","cpi",0.2,1962,3,1962,NA,0,1.06156006361241,1.14308799101715,1.04957947883042,1.10232402731478,FALSE,0.111479389359726
"CAN","cpi",0.2,1962,3,1962,NA,0.5,-0.298557265764336,0.298557265764336,1.04957947883042,0,FALSE,2.47467006419387
"CAN","cpi",0.2,1962,3,1961,NA,1,-0.613186945797848,0.613186945797848,1.04957947883042,0,FALSE,2.31735522417711
"CAN","cpi",0.2,1962,3,1961,NA,1.5,-1.25873387723938,1.25873387723938,1.04957947883042,0,TRUE,2.51746775447876
"CAN","cpi",0.2,1963,3,1963,NA,0,1.87409845127587,1.95573613934816,1.60677118395228,1.91491729531202,FALSE,0.749955856381255
"CAN","cpi",0.2,1963,3,1963,NA,0.5,0.537428260877599,1.13622916835741,1.60677118395228,0.836828714617504,FALSE,1.775155946467
"CAN","cpi",0.2,1963,3,1962,NA,1,2.0138577760374,3.11437203226547,1.60677118395228,2.56411490415144,FALSE,2.11823073644087
"CAN","cpi",0.2,1963,3,1962,NA,1.5,-0.899975043878899,0.899975043878899,1.60677118395228,0,FALSE,3.56694043794126
"CAN","cpi",0.2,1964,3,1964,NA,0,1.94323641585654,2.03430871306441,1.88764670034376,1.98877256446048,FALSE,0.230046585989829
"CAN","cpi",0.2,1964,3,1964,NA,0.5,1.24956256222205,1.5178175623301,1.88764670034376,1.38369006227607,FALSE,1.1928278451422
"CAN","cpi",0.2,1964,3,1963,NA,1,4.95178343755305,5.82910236939207,1.88764670034376,5.39044290347256,FALSE,8.53766077486224
"CAN","cpi",0.2,1964,3,1963,NA,1.5,-0.769084140806966,0.769084140806966,1.88764670034376,0,FALSE,4.33457468045592
"CAN","cpi",0.2,1965,3,1965,NA,0,2.29990996507428,2.39123098330569,2.29538304394236,2.34557047418999,FALSE,0.102638321061222
"CAN","cpi",0.2,1965,3,1965,NA,0.5,1.47413896139595,1.74744999773713,2.29538304394236,1.61079447956654,FALSE,1.64314365185425
"CAN","cpi",0.2,1965,3,1964,NA,1,2.01904395717561,2.83133328642132,2.29538304394236,2.42518862179847,TRUE,0.812289329245707
"CAN","cpi",0.2,1965,3,1964,NA,1.5,0.411957887693545,1.22424721693925,2.29538304394236,0.818102552316399,FALSE,3.49012889675347
"CAN","cpi",0.2,1966,3,1966,NA,0,3.77686187401424,3.86335788325993,3.72486065470629,3.82010987863709,FALSE,0.216499057515569
"CAN","cpi",0.2,1966,3,1966,NA,0.5,3.85521285584002,4.12725512207124,3.72486065470629,3.99123398895563,FALSE,0.597922769065557
"CAN","cpi",0.2,1966,3,1965,NA,1,2.800051501465,3.61438987345207,3.72486065470629,3.20722068745854,FALSE,1.09051532512262
"CAN","cpi",0.2,1966,3,1965,NA,1.5,1.19946906032605,2.01380743231312,3.72486065470629,1.60663824631958,FALSE,5.09197142797
"CAN","cpi",0.2,1967,3,1967,NA,0,3.72519098421523,3.81018600235741,3.49360316391996,3.76768849328632,FALSE,0.663964568880355
"CAN","cpi",0.2,1967,3,1967,NA,0.5,2.2505749869848,2.56433450141041,3.49360316391996,2.4074547441976,FALSE,2.63693117069949
"CAN","cpi",0.2,1967,3,1966,NA,1,2.78054695308786,3.58151950831782,3.49360316391996,3.18103323070284,TRUE,0.80097255522996
"CAN","cpi",0.2,1967,3,1966,NA,1.5,4.2507953272575,5.05176788248746,3.49360316391996,4.65128160487248,FALSE,2.69395296357381
"CAN","cpi",0.2,1968,3,1968,NA,0,4.12919868725492,4.21656022619299,3.95128347779386,4.17287945672396,FALSE,0.532149562590735
"CAN","cpi",0.2,1968,3,1968,NA,0.5,3.95567381029273,4.18627030530432,3.95128347779386,4.07097205779852,FALSE,0.241572326258765
"CAN","cpi",0.2,1968,3,1967,NA,1,5.41961554912145,6.27081809335551,3.95128347779386,5.84521682123848,FALSE,4.52203272255305
"CAN","cpi",0.2,1968,3,1967,NA,1.5,1.83005731028523,2.68125985451929,3.95128347779386,2.25565858240226,FALSE,4.02626160242047
"CAN","cpi",0.2,1969,3,1969,NA,0,4.42427516603408,4.51366157544378,4.42679496126681,4.46896837073893,TRUE,0.0893864094096966
"CAN","cpi",0.2,1969,3,1969,NA,0.5,2.84496234130954,3.08727804660476,4.42679496126681,2.96612019395715,FALSE,3.59110799195036
"CAN","cpi",0.2,1969,3,1968,NA,1,6.39167170758759,7.05808089322855,4.42679496126681,6.72487630040807,FALSE,5.5786010514429
"CAN","cpi",0.2,1969,3,1968,NA,1.5,3.98343993662493,4.64984912226588,4.42679496126681,4.31664452944541,TRUE,0.666409185640955
"CAN","cpi",0.2,1970,3,1970,NA,0,3.48463746754044,3.56931284404684,3.28128405769805,3.52697515579364,FALSE,0.593058901112392
"CAN","cpi",0.2,1970,3,1970,NA,0.5,4.51687677979322,4.79054492574512,3.28128405769805,4.65371085276917,FALSE,3.36264995118984
"CAN","cpi",0.2,1970,3,1969,NA,1,4.18582088375288,4.86913661800126,3.28128405769805,4.52747875087707,FALSE,2.94465779938547
"CAN","cpi",0.2,1970,3,1969,NA,1.5,1.7380806057071,2.42139633995548,3.28128405769805,2.07973847283129,FALSE,2.83303502860479
"CAN","cpi",0.2,1971,3,1971,NA,0,2.79523927509063,2.88340724074317,2.64123406634756,2.8393232579169,FALSE,0.47318098751021
"CAN","cpi",0.2,1971,3,1971,NA,0.5,1.86391259750112,2.26993071660902,2.64123406634756,2.06692165705507,FALSE,1.33427649345425
"CAN","cpi",0.2,1971,3,1970,NA,1,2.31783206308986,2.96428782858003,2.64123406634756,2.64105994583495,TRUE,0.646455765490171
"CAN","cpi",0.2,1971,3,1970,NA,1.5,4.31654850625959,4.96300427174976,2.64123406634756,4.63977638900468,FALSE,4.83474186527024
"CAN","cpi",0.2,1972,3,1972,NA,0,5.00324186094162,5.05772020282275,4.83230569625923,5.03048103188219,FALSE,0.481818753587114
"CAN","cpi",0.2,1972,3,1972,NA,0.5,4.86609278285109,5.26802530426834,4.83230569625923,5.06705904355972,FALSE,0.486400237896902
"CAN","cpi",0.2,1972,3,1971,NA,1,5.56095084126329,6.27288121287171,4.83230569625923,5.9169160270675,FALSE,2.53354323411857
"CAN","cpi",0.2,1972,3,1971,NA,1.5,2.7367997686085,3.44873014021692,4.83230569625923,3.09276495441271,FALSE,4.17086926171419
"CAN","cpi",0.2,1973,3,1973,NA,0,6.96807879684025,7.01721632702263,7.12388603531779,6.99264756193144,FALSE,0.315811800920282
"CAN","cpi",0.2,1973,3,1973,NA,0.5,5.26998847996251,5.67940944827457,7.12388603531779,5.47469896411854,FALSE,4.02061243592011
"CAN","cpi",0.2,1973,3,1972,NA,1,6.34829160681747,7.03295406813927,7.12388603531779,6.69062283747837,FALSE,0.911992379268098
"CAN","cpi",0.2,1973,3,1972,NA,1.5,4.38941120520396,5.07407366652576,7.12388603531779,4.73174243586486,FALSE,5.80919338330188
"CAN","cpi",0.2,1974,3,1974,NA,0,9.91175289096511,9.97687752031554,10.2717243737774,9.94431520564033,FALSE,0.802241763005127
"CAN","cpi",0.2,1974,3,1974,NA,0.5,8.11607974153469,8.55965109349351,10.2717243737774,8.3378654175141,FALSE,4.7237545526686
"CAN","cpi",0.2,1974,3,1973,NA,1,6.84134703696769,7.49290141573468,10.2717243737774,7.16712422635118,FALSE,7.59861177387384
"CAN","cpi",0.2,1974,3,1973,NA,1.5,3.69272694487507,4.41076803868602,10.2717243737774,4.05174749178054,FALSE,15.3704319315394
"CAN","cpi",0.2,1975,3,1975,NA,0,10.0474403802835,10.1389243436722,10.0232981493341,10.0931823619779,FALSE,0.151839540762181
"CAN","cpi",0.2,1975,3,1975,NA,0.5,8.73334545275254,9.23200406919402,10.0232981493341,8.98267476097328,FALSE,2.47689381679172
"CAN","cpi",0.2,1975,3,1974,NA,1,7.33751011870614,8.23008632590466,10.0232981493341,7.7837982223054,FALSE,5.37560576577217
"CAN","cpi",0.2,1975,3,1974,NA,1.5,5.22208698453397,6.29654512163641,10.0232981493341,5.75931605308519,FALSE,10.3913407063467
"CAN","cpi",0.2,1976,3,1976,NA,0,7.02703296547242,7.11852613356192,7.22784311401172,7.07277954951717,FALSE,0.364785619213987
"CAN","cpi",0.2,1976,3,1976,NA,0.5,8.33865518180381,8.84312602696273,7.22784311401172,8.59089060438327,FALSE,3.28150101463915
"CAN","cpi",0.2,1976,3,1975,NA,1,9.99923452128933,10.829061015739,7.22784311401172,10.4141477685142,FALSE,7.7583050126437
"CAN","cpi",0.2,1976,3,1975,NA,1.5,5.85115971625261,7.00986200644462,7.22784311401172,6.43051086134862,FALSE,1.70365505910975
"CAN","cpi",0.2,1977,3,1977,NA,0,7.50370994335358,7.60231308994185,7.58101410153764,7.55301151664772,TRUE,0.0986031465882675
"CAN","cpi",0.2,1977,3,1977,NA,0.5,7.68930134330097,8.27401565713677,7.58101410153764,7.98165850021887,FALSE,0.85543241824412
"CAN","cpi",0.2,1977,3,1976,NA,1,3.24010076904117,4.20259221383087,7.58101410153764,3.72134649143602,FALSE,9.40854616405664
"CAN","cpi",0.2,1977,3,1976,NA,1.5,7.41981103861746,8.58562985089482,7.58101410153764,8.00272044475614,TRUE,1.16581881227736
"CAN","cpi",0.2,1978,3,1978,NA,0,8.62154150092799,8.72101530624886,8.50208927062595,8.67127840358843,FALSE,0.39810438107599
"CAN","cpi",0.2,1978,3,1978,NA,0.5,8.08433676384392,8.67331787253468,8.50208927062595,8.3788273181893,TRUE,0.588981108690763
"CAN","cpi",0.2,1978,3,1977,NA,1,6.97244932031222,8.12322724800879,8.50208927062595,7.54783828416051,FALSE,2.09793298423946
"CAN","cpi",0.2,1978,3,1977,NA,1.5,9.12572398109197,10.3255311457525,8.50208927062595,9.72562756342223,FALSE,2.75889394082558
"CAN","cpi",0.2,1979,3,1979,NA,0,8.51640021260335,8.61112759204604,8.65147652410481,8.56376390232469,FALSE,0.195599709589618
"CAN","cpi",0.2,1979,3,1979,NA,0.5,8.00704709467429,8.584938604661,8.65147652410481,8.29599284966764,FALSE,0.74423630859624
"CAN","cpi",0.2,1979,3,1978,NA,1,8.62357247876044,9.78265753141792,8.65147652410481,9.20311500508918,TRUE,1.15908505265748
"CAN","cpi",0.2,1979,3,1978,NA,1.5,7.95478054270059,9.15815766035789,8.65147652410481,8.55646910152924,TRUE,1.2033771176573
"CAN","cpi",0.2,1980,3,1980,NA,0,9.45820556104082,9.5499288810978,9.5171912664748,9.50406722106931,TRUE,0.0917233200569783
"CAN","cpi",0.2,1980,3,1980,NA,0.5,8.29119320093418,8.86478508576766,9.5171912664748,8.57798914335092,FALSE,2.20460733660132
"CAN","cpi",0.2,1980,3,1979,NA,1,7.6198546423459,8.7376494318704,9.5171912664748,8.17875203710815,FALSE,3.06664937603549
"CAN","cpi",0.2,1980,3,1979,NA,1.5,7.78398569731907,9.00010962392316,9.5171912664748,8.39204766062112,FALSE,2.50882803298318
"CAN","cpi",0.2,1981,3,1981,NA,0,11.6655217670341,11.7572540298058,11.5813425032741,11.7113878984199,FALSE,0.302180422171541
"CAN","cpi",0.2,1981,3,1981,NA,0.5,11.9392994716849,12.4919398788685,11.5813425032741,12.2156196752767,FALSE,1.44753282821058
"CAN","cpi",0.2,1981,3,1980,NA,1,10.5273730278188,11.5719976567859,11.5813425032741,11.0496853423024,FALSE,1.06798674518762
"CAN","cpi",0.2,1981,3,1980,NA,1.5,7.73678347752968,8.93941236596821,11.5813425032741,8.33809792174894,FALSE,7.80745423170336
"CAN","cpi",0.2,1982,3,1982,NA,0,10.2138218673886,10.2995117628309,10.1124203763629,10.2566668151097,FALSE,0.339193623006346
"CAN","cpi",0.2,1982,3,1982,NA,0.5,9.85608317372158,10.3609880209874,10.1124203763629,10.1085355973545,TRUE,0.504904847265845
"CAN","cpi",0.2,1982,3,1981,NA,1,11.2703372931571,12.2716400730908,10.1124203763629,11.770988683124,FALSE,3.89609507191911
"CAN","cpi",0.2,1982,3,1981,NA,1.5,12.2507851118021,13.4894649584541,10.1124203763629,12.8701250351281,FALSE,6.58459168524989
"CAN","cpi",0.2,1983,3,1983,NA,0,5.68957392951864,5.77245035377915,5.67091787896303,5.7310121416489,FALSE,0.129516550649523
"CAN","cpi",0.2,1983,3,1983,NA,0.5,4.66029582598676,5.16656449420632,5.67091787896303,4.91343016009654,FALSE,1.76715213011135
"CAN","cpi",0.2,1983,3,1982,NA,1,8.65444540109668,9.71555759622445,5.67091787896303,9.18500149866057,FALSE,8.51993100046189
"CAN","cpi",0.2,1983,3,1982,NA,1.5,9.03803022813046,10.3354158032569,5.67091787896303,9.68672301569366,FALSE,9.71516644804497
"CAN","cpi",0.2,1984,3,1984,NA,0,NA,NA,4.19799576814029,NA,NA,NA
"CAN","cpi",0.2,1984,3,1984,NA,0.5,5.60694832870442,6.10846539178472,4.19799576814029,5.85770686024457,FALSE,4.02389846449063
"CAN","cpi",0.2,1984,3,1983,NA,1,5.15996714897885,6.37110001094972,4.19799576814029,5.76553357996429,FALSE,3.61606131406727
"CAN","cpi",0.2,1984,3,1983,NA,1.5,2.15201867923375,3.68758067970966,4.19799576814029,2.9197996794717,FALSE,2.81159972155248
"CAN","cpi",0.2,1985,3,1985,NA,0,NA,NA,3.86444262005169,3.85417990135378,NA,NA
"CAN","cpi",0.2,1985,3,1985,NA,0.5,3.94837768277746,4.49142316488051,3.86444262005169,4.21990042382899,FALSE,0.752883138917475
"CAN","cpi",0.2,1985,3,1984,NA,1,NA,NA,3.86444262005169,NA,NA,NA
"CAN","cpi",0.2,1985,3,1984,NA,1.5,7.87160720460801,9.3883860014991,3.86444262005169,8.62999660305356,FALSE,11.5346902582819
"CAN","cpi",0.2,1986,3,1986,NA,0,NA,NA,4.08685396749431,4.03771389199993,NA,NA
"CAN","cpi",0.2,1986,3,1986,NA,0.5,4.15768937523514,4.60669727483543,4.08685396749431,4.38219332503529,FALSE,0.626096418952367
"CAN","cpi",0.2,1986,3,1985,NA,1,NA,NA,4.08685396749431,3.37849976080849,NA,NA
"CAN","cpi",0.2,1986,3,1985,NA,1.5,4.23721418820203,5.66898298981709,4.08685396749431,4.95309858900956,FALSE,1.80766935338436
"CAN","cpi",0.2,1987,3,1987,NA,0,NA,NA,4.23980729277887,NA,NA,NA
"CAN","cpi",0.2,1987,3,1987,NA,0.5,3.93066648819418,4.33617673340752,4.23980729277887,4.13342161080085,TRUE,0.405510245213348
"CAN","cpi",0.2,1987,3,1986,NA,1,NA,NA,4.23980729277887,3.66140988164798,NA,NA
"CAN","cpi",0.2,1987,3,1986,NA,1.5,4.19333456141348,5.4115208014568,4.23980729277887,4.80242768143514,TRUE,1.21818624004332
"CAN","cpi",0.2,1988,3,1988,NA,0,NA,NA,3.92899537638065,3.9438316199536,NA,NA
"CAN","cpi",0.2,1988,3,1988,NA,0.5,3.17437404047715,3.5340102663391,3.92899537638065,3.35419215340812,FALSE,1.34709900096584
"CAN","cpi",0.2,1988,3,1987,NA,1,NA,NA,3.92899537638065,NA,NA,NA
"CAN","cpi",0.2,1988,3,1987,NA,1.5,3.29800793745211,4.49123065307681,3.92899537638065,3.89461929526446,TRUE,1.1932227156247
"CAN","cpi",0.2,1989,3,1989,NA,0,NA,NA,4.82821664544208,4.95130318392835,NA,NA
"CAN","cpi",0.2,1989,3,1989,NA,0.5,4.04565236710227,4.4148464878392,4.82821664544208,4.23024942747073,FALSE,1.40261951474413
"CAN","cpi",0.2,1989,3,1988,NA,1,NA,NA,4.82821664544208,4.05841794603162,NA,NA
"CAN","cpi",0.2,1989,3,1988,NA,1.5,1.99833396751766,3.19735315124834,4.82821664544208,2.597843559383,FALSE,5.27617791921503
"CAN","cpi",0.2,1990,3,1990,NA,0,NA,NA,4.64347549432717,4.4746950192663,NA,NA
"CAN","cpi",0.2,1990,3,1990,NA,0.5,4.77463821323468,5.15510516481489,4.64347549432717,4.96487168902479,FALSE,0.708373748848989
"CAN","cpi",0.2,1990,3,1989,NA,1,NA,NA,4.64347549432717,5.43871373969076,NA,NA
"CAN","cpi",0.2,1990,3,1989,NA,1.5,2.73396406377134,4.01254393670486,4.64347549432717,3.3732540002381,FALSE,2.8559087669893
"CAN","cpi",0.2,1991,3,1991,NA,0,NA,NA,5.4258100696218,5.61053369942382,NA,NA
"CAN","cpi",0.2,1991,3,1991,NA,0.5,7.63204099248578,8.01194491706611,5.4258100696218,7.82199295477594,FALSE,5.89548123174029
"CAN","cpi",0.2,1991,3,1990,NA,1,NA,NA,5.4258100696218,3.66716818384097,NA,NA
"CAN","cpi",0.2,1991,3,1990,NA,1.5,4.17290811291147,5.4767308603718,5.4258100696218,4.82481948664164,TRUE,1.30382274746033
"CAN","cpi",0.2,1992,3,1992,NA,0,NA,NA,1.47496888572843,NA,NA,NA
"CAN","cpi",0.2,1992,3,1992,NA,0.5,NA,NA,1.47496888572843,NA,NA,NA
"CAN","cpi",0.2,1992,3,1991,NA,1,NA,NA,1.47496888572843,2.76780571233213,NA,NA
"CAN","cpi",0.2,1992,3,1991,NA,1.5,6.5038549906118,7.79490866259159,1.47496888572843,7.14938182660169,FALSE,13.8632689341882
"CAN","cpi",0.2,1993,3,1993,NA,0,NA,NA,NA,NA,NA,NA
"CAN","cpi",0.2,1993,3,1993,NA,0.5,NA,NA,NA,NA,NA,NA
"CAN","cpi",0.2,1993,3,1992,NA,1,NA,NA,NA,NA,NA,NA
"CAN","cpi",0.2,1993,3,1992,NA,1.5,NA,NA,NA,NA,NA,NA
"CAN","cpi",0.2,1994,3,1994,NA,0,NA,NA,NA,NA,NA,NA
"CAN","cpi",0.2,1994,3,1994,NA,0.5,NA,NA,NA,NA,NA,NA
"CAN","cpi",0.2,1994,3,1993,NA,1,NA,NA,NA,NA,NA,NA
"CAN","cpi",0.2,1994,3,1993,NA,1.5,NA,NA,NA,NA,NA,NA
"CAN","cpi",0.2,1995,3,1995,NA,0,NA,NA,2.11688403676572,NA,NA,NA
"CAN","cpi",0.2,1995,3,1995,NA,0.5,NA,NA,2.11688403676572,2.51937811073084,NA,NA
"CAN","cpi",0.2,1995,3,1994,NA,1,NA,NA,2.11688403676572,0.719396410821945,NA,NA
"CAN","cpi",0.2,1995,3,1994,NA,1.5,NA,NA,2.11688403676572,-1.04654603924828,NA,NA
"CAN","cpi",0.2,1996,3,1996,NA,0,NA,NA,1.55309584667184,1.42780748357026,NA,NA
"CAN","cpi",0.2,1996,3,1996,NA,0.5,NA,NA,1.55309584667184,NA,NA,NA
"CAN","cpi",0.2,1996,3,1995,NA,1,NA,NA,1.55309584667184,NA,NA,NA
"CAN","cpi",0.2,1996,3,1995,NA,1.5,NA,NA,1.55309584667184,2.92232271175447,NA,NA
"CAN","cpi",0.2,1997,3,1997,NA,0,NA,NA,1.60528783555959,1.73535847807117,NA,NA
"CAN","cpi",0.2,1997,3,1997,NA,0.5,NA,NA,1.60528783555959,2.11078363597796,NA,NA
"CAN","cpi",0.2,1997,3,1996,NA,1,NA,NA,1.60528783555959,0.984961337307556,NA,NA
"CAN","cpi",0.2,1997,3,1996,NA,1.5,NA,NA,1.60528783555959,NA,NA,NA
"CAN","cpi",0.2,1998,3,1998,NA,0,NA,NA,0.988908029337191,1.0350847138471,NA,NA
"CAN","cpi",0.2,1998,3,1998,NA,0.5,NA,NA,0.988908029337191,1.68533655437107,NA,NA
"CAN","cpi",0.2,1998,3,1997,NA,1,NA,NA,0.988908029337191,2.25159584334757,NA,NA
"CAN","cpi",0.2,1998,3,1997,NA,1.5,NA,NA,0.988908029337191,2.38987816876076,NA,NA
"CAN","cpi",0.2,1999,3,1999,NA,0,NA,NA,1.7107350135213,1.77618438459462,NA,NA
"CAN","cpi",0.2,1999,3,1999,NA,0.5,NA,NA,1.7107350135213,1.0290924799153,NA,NA
"CAN","cpi",0.2,1999,3,1998,NA,1,NA,NA,1.7107350135213,1.85177544064205,NA,NA
"CAN","cpi",0.2,1999,3,1998,NA,1.5,NA,NA,1.7107350135213,2.94645730787123,NA,NA
"CAN","cpi",0.2,2000,3,2000,NA,0,NA,NA,2.6718361971244,2.7102541785615,NA,NA
"CAN","cpi",0.2,2000,3,2000,NA,0.5,NA,NA,2.6718361971244,2.34405201403356,NA,NA
"CAN","cpi",0.2,2000,3,1999,NA,1,NA,NA,2.6718361971244,3.07542936781209,NA,NA
"CAN","cpi",0.2,2000,3,1999,NA,1.5,NA,NA,2.6718361971244,2.27809035801724,NA,NA
"CAN","cpi",0.2,2001,3,2001,NA,0,NA,NA,2.47906219852806,2.77546584984351,NA,NA
"CAN","cpi",0.2,2001,3,2001,NA,0.5,NA,NA,2.47906219852806,2.43566755503104,NA,NA
"CAN","cpi",0.2,2001,3,2000,NA,1,NA,NA,2.47906219852806,3.68958695319843,NA,NA
"CAN","cpi",0.2,2001,3,2000,NA,1.5,NA,NA,2.47906219852806,3.01270789712173,NA,NA
"CAN","cpi",0.2,2002,3,2002,NA,0,NA,NA,2.20880570551249,2.27196234986351,NA,NA
"CAN","cpi",0.2,2002,3,2002,NA,0.5,NA,NA,2.20880570551249,1.58345411989126,NA,NA
"CAN","cpi",0.2,2002,3,2001,NA,1,NA,NA,2.20880570551249,2.26510423845898,NA,NA
"CAN","cpi",0.2,2002,3,2001,NA,1.5,NA,NA,2.20880570551249,3.02058043279009,NA,NA
"CAN","cpi",0.2,2003,3,2003,NA,0,NA,NA,2.71189071546809,2.71326702620668,NA,NA
"CAN","cpi",0.2,2003,3,2003,NA,0.5,NA,NA,2.71189071546809,4.51432649273496,NA,NA
"CAN","cpi",0.2,2003,3,2002,NA,1,NA,NA,2.71189071546809,3.85618281746238,NA,NA
"CAN","cpi",0.2,2003,3,2002,NA,1.5,NA,NA,2.71189071546809,2.39402389849184,NA,NA
"CAN","cpi",0.2,2004,3,2004,NA,0,NA,NA,1.83151661303942,1.77466852383015,NA,NA
"CAN","cpi",0.2,2004,3,2004,NA,0.5,NA,NA,1.83151661303942,1.55260435151936,NA,NA
"CAN","cpi",0.2,2004,3,2003,NA,1,NA,NA,1.83151661303942,1.79415792598285,NA,NA
"CAN","cpi",0.2,2004,3,2003,NA,1.5,NA,NA,1.83151661303942,4.26699272545716,NA,NA
"CAN","cpi",0.2,2005,3,2005,NA,0,NA,NA,2.18071628336509,2.34345353472953,NA,NA
"CAN","cpi",0.2,2005,3,2005,NA,0.5,NA,NA,2.18071628336509,1.50321338317329,NA,NA
"CAN","cpi",0.2,2005,3,2004,NA,1,NA,NA,2.18071628336509,1.64043962712234,NA,NA
"CAN","cpi",0.2,2005,3,2004,NA,1.5,NA,NA,2.18071628336509,2.03393284113233,NA,NA
"CAN","cpi",0.2,2006,3,2006,NA,0,NA,NA,1.97519342012289,2.09514376892657,NA,NA
"CAN","cpi",0.2,2006,3,2006,NA,0.5,NA,NA,1.97519342012289,2.09436263599022,NA,NA
"CAN","cpi",0.2,2006,3,2005,NA,1,NA,NA,1.97519342012289,2.9582912060806,NA,NA
"CAN","cpi",0.2,2006,3,2005,NA,1.5,NA,NA,1.97519342012289,1.64885961980806,NA,NA
"CAN","cpi",0.2,2007,3,2007,NA,0,2.07834635905512,2.13532608299102,2.10062087284572,2.10683622102307,TRUE,0.0569797239359033
"CAN","cpi",0.2,2007,3,2007,NA,0.5,NA,NA,2.10062087284572,2.17629902083353,NA,NA
"CAN","cpi",0.2,2007,3,2006,NA,1,NA,NA,2.10062087284572,1.50861692709856,NA,NA
"CAN","cpi",0.2,2007,3,2006,NA,1.5,NA,NA,2.10062087284572,2.15918616350405,NA,NA
"CAN","cpi",0.2,2008,3,2008,NA,0,2.84656093346708,2.89502816950948,2.31447335265955,2.87079455148828,FALSE,1.37868618806122
"CAN","cpi",0.2,2008,3,2008,NA,0.5,1.12247207943539,1.49763421446994,2.31447335265955,1.31005314695267,FALSE,2.41725998050858
"CAN","cpi",0.2,2008,3,2007,NA,1,1.28255856936348,1.65806243028988,2.31447335265955,1.47031049982668,FALSE,2.01653116685059
"CAN","cpi",0.2,2008,3,2007,NA,1.5,NA,NA,2.31447335265955,2.46453195342394,NA,NA
"CAN","cpi",0.2,2009,3,2009,NA,0,0.143249504212625,0.230995188486818,0.284533874408197,0.187122346349721,FALSE,0.221592399077641
"CAN","cpi",0.2,2009,3,2009,NA,0.5,-0.270102135669914,0.124603611576681,0.284533874408197,-0.0727492620466167,FALSE,0.794531404325386
"CAN","cpi",0.2,2009,3,2008,NA,1,3.62044738994621,4.01515313719281,0.284533874408197,3.81780026356951,FALSE,8.73448953609164
"CAN","cpi",0.2,2009,3,2008,NA,1.5,1.45897438631171,1.91452866629667,0.284533874408197,1.68675152630419,FALSE,3.39165555974375
"CAN","cpi",0.2,2010,3,2010,NA,0,1.56232936049901,1.65566196877179,1.75525687020327,1.6089956646354,FALSE,0.342319861851491
"CAN","cpi",0.2,2010,3,2010,NA,0.5,1.72246168843552,2.09972836208814,1.75525687020327,1.91109502526183,TRUE,0.377266673652628
"CAN","cpi",0.2,2010,3,2009,NA,1,0.722943261001027,1.26164831598848,1.75525687020327,0.992295788494754,FALSE,1.77272644052443
"CAN","cpi",0.2,2010,3,2009,NA,1.5,0.615750525322141,1.15445558030959,1.75525687020327,0.885103052815867,FALSE,2.04070827972165
"CAN","cpi",0.2,2011,3,2011,NA,0,2.81618679513677,2.91712148610519,2.85717434028225,2.86665414062098,TRUE,0.100934690968427
"CAN","cpi",0.2,2011,3,2011,NA,0.5,2.58062958919138,2.95103804870404,2.85717434028225,2.76583381894771,TRUE,0.370408459512663
"CAN","cpi",0.2,2011,3,2010,NA,1,1.1103571438695,1.67553573952488,2.85717434028225,1.39294644169719,FALSE,3.51927509754879
"CAN","cpi",0.2,2011,3,2010,NA,1.5,1.35994130809593,1.92511990375132,2.85717434028225,1.64253060592363,FALSE,2.8953146869827
"CAN","cpi",0.2,2012,3,2012,NA,0,1.47753537220184,1.57891484478604,1.50118536134935,1.52822510849394,TRUE,0.101379472584201
"CAN","cpi",0.2,2012,3,2012,NA,0.5,1.74002840113837,2.10855203831741,1.50118536134935,1.92429021972789,FALSE,0.965631236651605
"CAN","cpi",0.2,2012,3,2011,NA,1,1.69050203034383,2.30840281859774,1.50118536134935,1.99945242447079,FALSE,1.09119246074012
"CAN","cpi",0.2,2012,3,2011,NA,1.5,2.17255917985266,2.79045996810657,1.50118536134935,2.48150957397962,FALSE,2.2963353345122
"CAN","cpi",0.2,2013,3,2013,NA,0,1.00881224925363,1.10379801921058,0.931270594714462,1.05630513423211,FALSE,0.288839906304874
"CAN","cpi",0.2,2013,3,2013,NA,0.5,0.981310387386985,1.35795870371165,0.931270594714462,1.16963454554932,FALSE,0.501747798005978
"CAN","cpi",0.2,2013,3,2012,NA,1,0.781171993453421,1.39618978912142,0.931270594714462,1.08868089128742,TRUE,0.615017795667999
"CAN","cpi",0.2,2013,3,2012,NA,1.5,1.83822289747127,2.45324069313927,0.931270594714462,2.14573179530527,FALSE,2.88239855256002
"CAN","cpi",0.2,2014,3,2014,NA,0,1.95086394912657,2.04639303377575,1.87639912240215,1.99862849145116,FALSE,0.281691151460233
"CAN","cpi",0.2,2014,3,2014,NA,0.5,1.60970659013856,1.97493293151519,1.87639912240215,1.79231976082687,TRUE,0.365226341376624
"CAN","cpi",0.2,2014,3,2013,NA,1,1.09576202110567,1.71753777529229,1.87639912240215,1.40664989819898,FALSE,1.01892912196127
"CAN","cpi",0.2,2014,3,2013,NA,1.5,1.20347334068561,1.82524909487224,1.87639912240215,1.51436121777893,FALSE,0.749650823011408
"CAN","cpi",0.2,2015,3,2015,NA,0,1.16267239749139,1.2579406110042,1.11090953952792,1.2103065042478,FALSE,0.224675358421494
"CAN","cpi",0.2,2015,3,2015,NA,0.5,0.35198255301709,0.565112078419028,1.11090953952792,0.458547315718059,FALSE,1.57762317817416
"CAN","cpi",0.2,2015,3,2014,NA,1,1.26267754278803,1.87841808577466,1.11090953952792,1.57054781428135,FALSE,0.995160551136916
"CAN","cpi",0.2,2015,3,2014,NA,1.5,1.57442082391825,2.19016136690488,1.11090953952792,1.88229109541157,FALSE,1.77451875396247
"CAN","cpi",0.2,2016,3,2016,NA,0,1.36997774418034,1.46263560525951,1.41168586698797,1.41630667471992,TRUE,0.0926578610791702
"CAN","cpi",0.2,2016,3,2016,NA,0.5,1.06631387411361,1.2931292917449,1.41168586698797,1.17972158292925,FALSE,0.523206855738959
"CAN","cpi",0.2,2016,3,2015,NA,1,1.58522315584892,2.14250816518448,1.41168586698797,1.8638656605167,FALSE,0.991128231487944
"CAN","cpi",0.2,2016,3,2015,NA,1.5,0.791587522483078,1.34887253181864,1.41168586698797,1.07023002715086,FALSE,0.714318347258871
"CAN","cpi",0.2,2017,3,2017,NA,0,1.45862746985586,1.55122638307932,1.57888581671161,1.50492692646759,FALSE,0.161747497304186
"CAN","cpi",0.2,2017,3,2017,NA,0.5,1.98546645413998,2.19626591150285,1.57888581671161,2.09086618282141,FALSE,1.22725105093379
"CAN","cpi",0.2,2017,3,2016,NA,1,0.868420053948815,1.42462095310767,1.57888581671161,1.14652050352824,FALSE,0.941863058168705
"CAN","cpi",0.2,2017,3,2016,NA,1.5,0.989780395650836,1.54598129480969,1.57888581671161,1.26788084523026,FALSE,0.638462203913654
"CAN","cpi",0.2,2018,3,2018,NA,0,2.36572524894157,2.46062550098009,2.23316270166586,2.41317537496083,FALSE,0.426306620227801
"CAN","cpi",0.2,2018,3,2018,NA,0.5,2.41295480735596,2.64322757893794,2.23316270166586,2.52809119314695,FALSE,0.679753035807233
"CAN","cpi",0.2,2018,3,2017,NA,1,0.892198735794885,1.44380330252705,2.23316270166586,1.16800101916097,FALSE,2.52500306457919
"CAN","cpi",0.2,2018,3,2017,NA,1.5,1.79718173923485,2.34878630596701,2.23316270166586,2.07298402260093,TRUE,0.551604566732161
"CAN","cpi",0.2,2019,3,2019,NA,0,NA,NA,1.91921619871868,NA,NA,NA
"CAN","cpi",0.2,2019,3,2019,NA,0.5,1.354924397286,1.59165172878045,1.91921619871868,1.47328806303322,FALSE,1.05563850634003
"CAN","cpi",0.2,2019,3,2018,NA,1,1.95448750653454,2.51491811439211,1.91921619871868,2.23470281046333,FALSE,0.64860887739722
"CAN","cpi",0.2,2019,3,2018,NA,1.5,2.04009032174634,2.60052092960391,1.91921619871868,2.32030562567512,FALSE,0.862615915426717
"CAN","cpi",0.2,2020,3,2020,NA,0,NA,NA,0.71139989671781,0.673588636713597,NA,NA
"CAN","cpi",0.2,2020,3,2020,NA,0.5,NA,NA,0.71139989671781,NA,NA,NA
"CAN","cpi",0.2,2020,3,2019,NA,1,NA,NA,0.71139989671781,NA,NA,NA
"CAN","cpi",0.2,2020,3,2019,NA,1.5,1.55687080077539,1.99723903798269,0.71139989671781,1.77705491937904,FALSE,2.55404549735125
"CAN","cpi",0.2,2021,3,2021,NA,0,NA,NA,3.31148121717802,3.2525646654712,NA,NA
"CAN","cpi",0.2,2021,3,2021,NA,0.5,NA,NA,3.31148121717802,2.16773480502693,NA,NA
"CAN","cpi",0.2,2021,3,2020,NA,1,NA,NA,3.31148121717802,1.61070774476322,NA,NA
"CAN","cpi",0.2,2021,3,2020,NA,1.5,NA,NA,3.31148121717802,NA,NA,NA
"CAN","cpi",0.2,2022,3,2022,NA,0,NA,NA,6.50977236228281,6.58682891800883,NA,NA
"CAN","cpi",0.2,2022,3,2022,NA,0.5,NA,NA,6.50977236228281,5.58900513180898,NA,NA
"CAN","cpi",0.2,2022,3,2021,NA,1,NA,NA,6.50977236228281,3.35597076522593,NA,NA
"CAN","cpi",0.2,2022,3,2021,NA,1.5,NA,NA,6.50977236228281,1.89458222166426,NA,NA
"CAN","cpi",0.2,2023,3,2023,NA,0,NA,NA,3.78831288758619,3.96221561415741,NA,NA
"CAN","cpi",0.2,2023,3,2023,NA,0.5,NA,NA,3.78831288758619,3.6121970566696,NA,NA
"CAN","cpi",0.2,2023,3,2022,NA,1,NA,NA,3.78831288758619,5.4861852561408,NA,NA
"CAN","cpi",0.2,2023,3,2022,NA,1.5,NA,NA,3.78831288758619,3.85557075258935,NA,NA
"CAN","cpi",0.2,2024,3,2023,NA,1,NA,NA,NA,4.72280809903739,NA,NA
"CAN","cpi",0.2,2024,3,2023,NA,1.5,NA,NA,NA,4.36705509613113,NA,NA
"CAN","cpi",0.3,1959,3,1959,NA,0,1.18577638881184,1.31404793981402,1.19382698397654,1.24991216431293,TRUE,0.128271551002175
"CAN","cpi",0.3,1959,3,1959,NA,0.5,-0.298211846471128,1.17389130965178,1.19382698397654,0.437839731590327,FALSE,1.52906222562222
"CAN","cpi",0.3,1959,3,1958,NA,1,0.475228250318236,3.04202700740069,1.19382698397654,1.75862762885946,TRUE,2.56679875708245
"CAN","cpi",0.3,1959,3,1958,NA,1.5,-0.846917742478855,4.39506119675417,1.19382698397654,1.77407172713766,TRUE,5.24197893923302
"CAN","cpi",0.3,1960,3,1960,NA,0,0.967111455096826,1.08011463009272,1.34209404870695,1.02361304259477,FALSE,0.861515799607988
"CAN","cpi",0.3,1960,3,1960,NA,0.5,-0.19371093956227,1.27167789992559,1.34209404870695,0.53898348018166,FALSE,1.66657783600604
"CAN","cpi",0.3,1960,3,1959,NA,1,2.90161652107685,5.013570952712,1.34209404870695,3.95759373689442,FALSE,6.56773292412057
"CAN","cpi",0.3,1960,3,1959,NA,1.5,-3.33166504749251,1.58471141668274,1.34209404870695,-0.873476815404885,TRUE,4.91637646417525
"CAN","cpi",0.3,1961,3,1961,NA,0,0.939750068125035,1.07867689375511,1.00921348094007,1.00921348094007,TRUE,0.138926825630073
"CAN","cpi",0.3,1961,3,1961,NA,0.5,0.475331270256917,1.54309569162323,1.00921348094007,1.00921348094007,TRUE,1.06776442136631
"CAN","cpi",0.3,1961,3,1960,NA,1,-0.827724188891697,0.935265114098763,1.00921348094007,0.0537704626035329,FALSE,1.97427035110848
"CAN","cpi",0.3,1961,3,1960,NA,1.5,-3.18210581990206,1.45774222202198,1.00921348094007,-0.862181798940035,TRUE,4.63984804192404
"CAN","cpi",0.3,1962,3,1962,NA,0,1.04032533338064,1.16432272124892,1.04957947883042,1.10232402731478,TRUE,0.123997387868282
"CAN","cpi",0.3,1962,3,1962,NA,0.5,-0.454081469532407,0.454081469532407,1.04957947883042,0,FALSE,2.60958582277341
"CAN","cpi",0.3,1962,3,1961,NA,1,-0.932607782072055,0.932607782072055,1.04957947883042,0,FALSE,2.19942041202514
"CAN","cpi",0.3,1962,3,1961,NA,1.5,-1.91443248672516,1.91443248672516,1.04957947883042,0,TRUE,3.82886497345031
"CAN","cpi",0.3,1963,3,1963,NA,0,1.85283513282604,1.97699945779799,1.60677118395228,1.91491729531202,FALSE,0.827204178896972
"CAN","cpi",0.3,1963,3,1963,NA,0.5,0.381464824327197,1.29219260490781,1.60677118395228,0.836828714617504,FALSE,1.80952372070768
"CAN","cpi",0.3,1963,3,1962,NA,1,1.72721828830445,3.40101151999842,1.60677118395228,2.56411490415144,FALSE,2.01792781555731
"CAN","cpi",0.3,1963,3,1962,NA,1.5,-1.36878929883286,1.36878929883286,1.60677118395228,0,FALSE,3.41752684086407
"CAN","cpi",0.3,1964,3,1964,NA,0,1.91951576301575,2.05802936590521,1.88764670034376,1.98877256446048,FALSE,0.229568067666573
"CAN","cpi",0.3,1964,3,1964,NA,0.5,1.17969297591036,1.58768714864179,1.88764670034376,1.38369006227607,FALSE,1.26502146330849
"CAN","cpi",0.3,1964,3,1963,NA,1,4.72327731164181,6.0576084953033,1.88764670034376,5.39044290347256,FALSE,9.43613293022735
"CAN","cpi",0.3,1964,3,1963,NA,1.5,-1.16971481487024,1.16971481487024,1.88764670034376,0,FALSE,4.39066358823625
"CAN","cpi",0.3,1965,3,1965,NA,0,2.27612453045864,2.41501641792133,2.29538304394236,2.34557047418999,TRUE,0.138891887462696
"CAN","cpi",0.3,1965,3,1965,NA,0.5,1.4029524819794,1.81863647715368,2.29538304394236,1.61079447956654,FALSE,1.77781704314192
"CAN","cpi",0.3,1965,3,1964,NA,1,1.80747541464355,3.04290182895339,2.29538304394236,2.42518862179847,TRUE,1.23542641430984
"CAN","cpi",0.3,1965,3,1964,NA,1.5,0.200389345161479,1.43581575947132,2.29538304394236,0.818102552316399,FALSE,3.69133294136995
"CAN","cpi",0.3,1966,3,1966,NA,0,3.7543331592422,3.88588659803198,3.72486065470629,3.82010987863709,FALSE,0.215760594606657
"CAN","cpi",0.3,1966,3,1966,NA,0.5,3.78435683976124,4.19811113815003,3.72486065470629,3.99123398895563,FALSE,0.583743398545789
"CAN","cpi",0.3,1966,3,1965,NA,1,2.58794926610851,3.82649210880856,3.72486065470629,3.20722068745854,TRUE,1.23854284270005
"CAN","cpi",0.3,1966,3,1965,NA,1.5,0.987366824969559,2.22590966766961,3.72486065470629,1.60663824631958,FALSE,5.52125994851914
"CAN","cpi",0.3,1967,3,1967,NA,0,3.70305321696482,3.83232376960782,3.49360316391996,3.76768849328632,FALSE,0.727699275628317
"CAN","cpi",0.3,1967,3,1967,NA,0.5,2.16885331370585,2.64605617468936,3.49360316391996,2.4074547441976,FALSE,2.89876568735665
"CAN","cpi",0.3,1967,3,1966,NA,1,2.57192597283252,3.79014048857315,3.49360316391996,3.18103323070284,TRUE,1.21821451574063
"CAN","cpi",0.3,1967,3,1966,NA,1.5,4.04217434700216,5.26038886274279,3.49360316391996,4.65128160487248,FALSE,2.78556075311836
"CAN","cpi",0.3,1968,3,1968,NA,0,4.1064445369774,4.23931437647052,3.95128347779386,4.17287945672396,FALSE,0.576187151446096
"CAN","cpi",0.3,1968,3,1968,NA,0.5,3.89561274263361,4.24633137296343,3.95128347779386,4.07097205779852,TRUE,0.350718630329819
"CAN","cpi",0.3,1968,3,1967,NA,1,5.19791168671763,6.49252195575934,3.95128347779386,5.84521682123848,FALSE,4.85640515168105
"CAN","cpi",0.3,1968,3,1967,NA,1.5,1.60835344788141,2.90296371692312,3.95128347779386,2.25565858240226,FALSE,4.28980958581525
"CAN","cpi",0.3,1969,3,1969,NA,0,4.4009936188315,4.53694312264636,4.42679496126681,4.46896837073893,TRUE,0.135949503814853
"CAN","cpi",0.3,1969,3,1969,NA,0.5,2.78184889298991,3.15039149492439,4.42679496126681,2.96612019395715,FALSE,4.01540964862713
"CAN","cpi",0.3,1969,3,1968,NA,1,6.2180990468868,7.23165355392934,4.42679496126681,6.72487630040807,FALSE,6.1315661802425
"CAN","cpi",0.3,1969,3,1968,NA,1.5,3.80986727592414,4.82342178296667,4.42679496126681,4.31664452944541,TRUE,1.01355450704254
"CAN","cpi",0.3,1970,3,1970,NA,0,3.46258295401821,3.59136735756907,3.28128405769805,3.52697515579364,FALSE,0.646781250179907
"CAN","cpi",0.3,1970,3,1970,NA,0.5,4.44559728775526,4.86182441778308,3.28128405769805,4.65371085276917,FALSE,3.74283635876271
"CAN","cpi",0.3,1970,3,1969,NA,1,4.00784475039852,5.04711275135562,3.28128405769805,4.52747875087707,FALSE,3.11515569438703
"CAN","cpi",0.3,1970,3,1969,NA,1.5,1.56010447235274,2.59937247330985,3.28128405769805,2.07973847283129,FALSE,2.98758681349482
"CAN","cpi",0.3,1971,3,1971,NA,0,2.77227508324479,2.90637143258901,2.64123406634756,2.8393232579169,FALSE,0.508499254764872
"CAN","cpi",0.3,1971,3,1971,NA,0.5,1.75816128622754,2.3756820278826,2.64123406634756,2.06692165705507,FALSE,1.37624085155495
"CAN","cpi",0.3,1971,3,1970,NA,1,2.14945646194389,3.13266342972601,2.64123406634756,2.64105994583495,TRUE,0.983206967782123
"CAN","cpi",0.3,1971,3,1970,NA,1.5,4.14817290511362,5.13137987289574,2.64123406634756,4.63977638900468,FALSE,5.2887465071137
"CAN","cpi",0.3,1972,3,1972,NA,0,4.98905245456095,5.07190960920343,4.83230569625923,5.03048103188219,FALSE,0.530705035504532
"CAN","cpi",0.3,1972,3,1972,NA,0.5,4.76140560466121,5.37271248245822,4.83230569625923,5.06705904355972,TRUE,0.611306877797015
"CAN","cpi",0.3,1972,3,1971,NA,1,5.37552175130421,6.45831030283079,4.83230569625923,5.9169160270675,FALSE,2.63483442308366
"CAN","cpi",0.3,1972,3,1971,NA,1.5,2.55137067864942,3.634159230176,4.83230569625923,3.09276495441271,FALSE,4.50606416890724
"CAN","cpi",0.3,1973,3,1973,NA,0,6.95528045606435,7.03001466779853,7.12388603531779,6.99264756193144,FALSE,0.342938118932069
"CAN","cpi",0.3,1973,3,1973,NA,0.5,5.16335086399348,5.7860470642436,7.12388603531779,5.47469896411854,FALSE,4.44509326046209
"CAN","cpi",0.3,1973,3,1972,NA,1,6.1699647054869,7.21128096946984,7.12388603531779,6.69062283747837,TRUE,1.04131626398294
"CAN","cpi",0.3,1973,3,1972,NA,1.5,4.21108430387339,5.25240056785633,7.12388603531779,4.73174243586486,FALSE,6.38841759958712
"CAN","cpi",0.3,1974,3,1974,NA,0,9.89479055695612,9.99383985432453,10.2717243737774,9.94431520564033,FALSE,0.893005067233803
"CAN","cpi",0.3,1974,3,1974,NA,0.5,8.00054733077404,8.67518350425415,10.2717243737774,8.3378654175141,FALSE,5.23618151497516
"CAN","cpi",0.3,1974,3,1973,NA,1,6.67164345311768,7.66260499958469,10.2717243737774,7.16712422635118,FALSE,8.44558832987481
"CAN","cpi",0.3,1974,3,1973,NA,1.5,3.50570625874002,4.59778872482107,10.2717243737774,4.05174749178054,FALSE,17.3033271773849
"CAN","cpi",0.3,1975,3,1975,NA,0,10.0236125050397,10.162752218916,10.0232981493341,10.0931823619779,FALSE,0.140037873035094
"CAN","cpi",0.3,1975,3,1975,NA,0.5,8.60346503588243,9.36188448606414,10.0232981493341,8.98267476097328,FALSE,2.64817277381023
"CAN","cpi",0.3,1975,3,1974,NA,1,7.10503008916895,8.46256635544185,10.0232981493341,7.7837982223054,FALSE,5.81676996310795
"CAN","cpi",0.3,1975,3,1974,NA,1.5,4.94223406280524,6.57639804336514,10.0232981493341,5.75931605308519,FALSE,11.4824499976141
"CAN","cpi",0.3,1976,3,1976,NA,0,7.00320269277597,7.14235640625837,7.22784311401172,7.07277954951717,FALSE,0.38340144992053
"CAN","cpi",0.3,1976,3,1976,NA,0.5,8.20726091424732,8.97452029451922,7.22784311401172,8.59089060438327,FALSE,3.56559595237362
"CAN","cpi",0.3,1976,3,1975,NA,1,9.78309825596594,11.0451972810624,7.22784311401172,10.4141477685142,FALSE,8.56282800210852
"CAN","cpi",0.3,1976,3,1975,NA,1.5,5.54936459727434,7.31165712542289,7.22784311401172,6.43051086134862,TRUE,1.76229252814855
"CAN","cpi",0.3,1977,3,1977,NA,0,7.47802780859979,7.62799522469564,7.58101410153764,7.55301151664772,TRUE,0.149967416095851
"CAN","cpi",0.3,1977,3,1977,NA,0.5,7.5370068951014,8.42631010533635,7.58101410153764,7.98165850021887,TRUE,0.889303210234953
"CAN","cpi",0.3,1977,3,1976,NA,1,2.98941064565516,4.45328233721687,7.58101410153764,3.72134649143602,FALSE,10.4002481610496
"CAN","cpi",0.3,1977,3,1976,NA,1.5,7.11616235324198,8.88927853627029,7.58101410153764,8.00272044475614,TRUE,1.77311618302831
"CAN","cpi",0.3,1978,3,1978,NA,0,8.59563259476103,8.74692421241583,8.50208927062595,8.67127840358843,FALSE,0.418558258040752
"CAN","cpi",0.3,1978,3,1978,NA,0.5,7.93093098802222,8.82672364835638,8.50208927062595,8.3788273181893,TRUE,0.895792660334159
"CAN","cpi",0.3,1978,3,1977,NA,1,6.67271817751004,8.42295839081098,8.50208927062595,7.54783828416051,FALSE,1.97632844134371
"CAN","cpi",0.3,1978,3,1977,NA,1.5,8.81322270352075,10.6380324233237,8.50208927062595,9.72562756342223,FALSE,2.71376238521668
"CAN","cpi",0.3,1979,3,1979,NA,0,8.49172755855633,8.63580024609306,8.65147652410481,8.56376390232469,FALSE,0.188862053284586
"CAN","cpi",0.3,1979,3,1979,NA,0.5,7.85652971114165,8.73545598819363,8.65147652410481,8.29599284966764,TRUE,0.878926277051981
"CAN","cpi",0.3,1979,3,1978,NA,1,8.32167766562882,10.0845523445496,8.65147652410481,9.20311500508918,TRUE,1.76287467892073
"CAN","cpi",0.3,1979,3,1978,NA,1.5,7.64134943664924,9.47158876640925,8.65147652410481,8.55646910152924,TRUE,1.83023932976
"CAN","cpi",0.3,1980,3,1980,NA,0,9.43431534305818,9.57381909908044,9.5171912664748,9.50406722106931,TRUE,0.139503756022268
"CAN","cpi",0.3,1980,3,1980,NA,0.5,8.14179569598956,9.01418259071228,9.5171912664748,8.57798914335092,FALSE,2.30955453975849
"CAN","cpi",0.3,1980,3,1979,NA,1,7.32871427406206,9.02878980015425,9.5171912664748,8.17875203710815,FALSE,3.09550828700804
"CAN","cpi",0.3,1980,3,1979,NA,1.5,7.46723456268467,9.31686075855757,9.5171912664748,8.39204766062112,FALSE,2.42199907563641
"CAN","cpi",0.3,1981,3,1981,NA,0,11.6416292198357,11.7811465770042,11.5813425032741,11.7113878984199,FALSE,0.311765118772883
"CAN","cpi",0.3,1981,3,1981,NA,0.5,11.7953589799383,12.6358803706151,11.5813425032741,12.2156196752767,FALSE,1.45199703828877
"CAN","cpi",0.3,1981,3,1980,NA,1,10.2552905292725,11.8440801553322,11.5813425032741,11.0496853423024,TRUE,1.5887896260597
"CAN","cpi",0.3,1981,3,1980,NA,1.5,7.42354725495099,9.2526485885469,11.5813425032741,8.33809792174894,FALSE,8.48251251853089
"CAN","cpi",0.3,1982,3,1982,NA,0,10.1915031126841,10.3218305175353,10.1124203763629,10.2566668151097,FALSE,0.356278080054554
"CAN","cpi",0.3,1982,3,1982,NA,0.5,9.72457586615593,10.4924953285531,10.1124203763629,10.1085355973545,TRUE,0.767919462397145
"CAN","cpi",0.3,1982,3,1981,NA,1,11.0095383854815,12.5324389807664,10.1124203763629,11.770988683124,FALSE,4.08609490705219
"CAN","cpi",0.3,1982,3,1981,NA,1.5,11.9281590715667,13.8120909986895,10.1124203763629,12.8701250351281,FALSE,7.07175677056209
"CAN","cpi",0.3,1983,3,1983,NA,0,5.66798797035388,5.79403631294391,5.67091787896303,5.7310121416489,TRUE,0.126048342590032
"CAN","cpi",0.3,1983,3,1983,NA,0.5,4.52843329817991,5.29842702201316,5.67091787896303,4.91343016009654,FALSE,1.8342533151186
"CAN","cpi",0.3,1983,3,1982,NA,1,8.3780685578915,9.99193443942964,5.67091787896303,9.18500149866057,FALSE,9.34858210704803
"CAN","cpi",0.3,1983,3,1982,NA,1.5,8.70011371815179,10.6733323132355,5.67091787896303,9.68672301569366,FALSE,10.6280638499088
"CAN","cpi",0.3,1984,3,1984,NA,0,NA,NA,4.19799576814029,NA,NA,NA
"CAN","cpi",0.3,1984,3,1984,NA,0.5,5.47632340200571,6.23909031848343,4.19799576814029,5.85770686024457,FALSE,4.41513158466464
"CAN","cpi",0.3,1984,3,1983,NA,1,4.84451598497327,6.6865511749553,4.19799576814029,5.76553357996429,FALSE,3.68923580950483
"CAN","cpi",0.3,1984,3,1983,NA,1.5,1.75206683607708,4.08753252286633,4.19799576814029,2.9197996794717,FALSE,2.65107495900056
"CAN","cpi",0.3,1985,3,1985,NA,0,NA,NA,3.86444262005169,3.85417990135378,NA,NA
"CAN","cpi",0.3,1985,3,1985,NA,0.5,3.80693628124649,4.63286456641148,3.86444262005169,4.21990042382899,TRUE,0.825928285164991
"CAN","cpi",0.3,1985,3,1984,NA,1,NA,NA,3.86444262005169,NA,NA,NA
"CAN","cpi",0.3,1985,3,1984,NA,1.5,7.47654762688369,9.78344557922343,3.86444262005169,8.62999660305356,FALSE,12.6271979718597
"CAN","cpi",0.3,1986,3,1986,NA,0,NA,NA,4.08685396749431,4.03771389199993,NA,NA
"CAN","cpi",0.3,1986,3,1986,NA,0.5,4.04074096352569,4.72364568654488,4.08685396749431,4.38219332503529,TRUE,0.682904723019185
"CAN","cpi",0.3,1986,3,1985,NA,1,NA,NA,4.08685396749431,3.37849976080849,NA,NA
"CAN","cpi",0.3,1986,3,1985,NA,1.5,3.86429627866619,6.04190089935294,4.08685396749431,4.95309858900956,TRUE,2.17760462068675
"CAN","cpi",0.3,1987,3,1987,NA,0,NA,NA,4.23980729277887,NA,NA,NA
"CAN","cpi",0.3,1987,3,1987,NA,0.5,3.82504745754499,4.44179576405671,4.23980729277887,4.13342161080085,TRUE,0.616748306511719
"CAN","cpi",0.3,1987,3,1986,NA,1,NA,NA,4.23980729277887,3.66140988164798,NA,NA
"CAN","cpi",0.3,1987,3,1986,NA,1.5,3.87604627747417,5.72880908539611,4.23980729277887,4.80242768143514,TRUE,1.85276280792194
"CAN","cpi",0.3,1988,3,1988,NA,0,NA,NA,3.92899537638065,3.9438316199536,NA,NA
"CAN","cpi",0.3,1988,3,1988,NA,0.5,3.08070333792341,3.62768096889283,3.92899537638065,3.35419215340812,FALSE,1.40787593807748
"CAN","cpi",0.3,1988,3,1987,NA,1,NA,NA,3.92899537638065,NA,NA,NA
"CAN","cpi",0.3,1988,3,1987,NA,1.5,2.9872216427518,4.80201694777712,3.92899537638065,3.89461929526446,TRUE,1.81479530502532
"CAN","cpi",0.3,1989,3,1989,NA,0,NA,NA,4.82821664544208,4.95130318392835,NA,NA
"CAN","cpi",0.3,1989,3,1989,NA,0.5,3.9494922192049,4.51100663573656,4.82821664544208,4.23024942747073,FALSE,1.46782872997599
"CAN","cpi",0.3,1989,3,1988,NA,1,NA,NA,4.82821664544208,4.05841794603162,NA,NA
"CAN","cpi",0.3,1989,3,1988,NA,1.5,1.68603792713332,3.50964919163268,4.82821664544208,2.597843559383,FALSE,5.59094684681193
"CAN","cpi",0.3,1990,3,1990,NA,0,NA,NA,4.64347549432717,4.4746950192663,NA,NA
"CAN","cpi",0.3,1990,3,1990,NA,0.5,4.6755419484811,5.25420142956847,4.64347549432717,4.96487168902479,FALSE,0.670277921527172
"CAN","cpi",0.3,1990,3,1989,NA,1,NA,NA,4.64347549432717,5.43871373969076,NA,NA
"CAN","cpi",0.3,1990,3,1989,NA,1.5,2.40094567920315,4.34556232127304,4.64347549432717,3.3732540002381,FALSE,2.79579713651025
"CAN","cpi",0.3,1991,3,1991,NA,0,NA,NA,5.4258100696218,5.61053369942382,NA,NA
"CAN","cpi",0.3,1991,3,1991,NA,0.5,7.53309137351158,8.11089453604031,5.4258100696218,7.82199295477594,FALSE,6.59860688792811
"CAN","cpi",0.3,1991,3,1990,NA,1,NA,NA,5.4258100696218,3.66716818384097,NA,NA
"CAN","cpi",0.3,1991,3,1990,NA,1.5,3.83331497969072,5.81632399359256,5.4258100696218,4.82481948664164,TRUE,1.98300901390184
"CAN","cpi",0.3,1992,3,1992,NA,0,NA,NA,1.47496888572843,NA,NA,NA
"CAN","cpi",0.3,1992,3,1992,NA,0.5,NA,NA,1.47496888572843,NA,NA,NA
"CAN","cpi",0.3,1992,3,1991,NA,1,NA,NA,1.47496888572843,2.76780571233213,NA,NA
"CAN","cpi",0.3,1992,3,1991,NA,1.5,6.16758768550626,8.13117596769713,1.47496888572843,7.14938182660169,FALSE,15.3710705672704
"CAN","cpi",0.3,1993,3,1993,NA,0,NA,NA,NA,NA,NA,NA
"CAN","cpi",0.3,1993,3,1993,NA,0.5,NA,NA,NA,NA,NA,NA
"CAN","cpi",0.3,1993,3,1992,NA,1,NA,NA,NA,NA,NA,NA
"CAN","cpi",0.3,1993,3,1992,NA,1.5,NA,NA,NA,NA,NA,NA
"CAN","cpi",0.3,1994,3,1994,NA,0,NA,NA,NA,NA,NA,NA
"CAN","cpi",0.3,1994,3,1994,NA,0.5,NA,NA,NA,NA,NA,NA
"CAN","cpi",0.3,1994,3,1993,NA,1,NA,NA,NA,NA,NA,NA
"CAN","cpi",0.3,1994,3,1993,NA,1.5,NA,NA,NA,NA,NA,NA
"CAN","cpi",0.3,1995,3,1995,NA,0,NA,NA,2.11688403676572,NA,NA,NA
"CAN","cpi",0.3,1995,3,1995,NA,0.5,NA,NA,2.11688403676572,2.51937811073084,NA,NA
"CAN","cpi",0.3,1995,3,1994,NA,1,NA,NA,2.11688403676572,0.719396410821945,NA,NA
"CAN","cpi",0.3,1995,3,1994,NA,1.5,NA,NA,2.11688403676572,-1.04654603924828,NA,NA
"CAN","cpi",0.3,1996,3,1996,NA,0,NA,NA,1.55309584667184,1.42780748357026,NA,NA
"CAN","cpi",0.3,1996,3,1996,NA,0.5,NA,NA,1.55309584667184,NA,NA,NA
"CAN","cpi",0.3,1996,3,1995,NA,1,NA,NA,1.55309584667184,NA,NA,NA
"CAN","cpi",0.3,1996,3,1995,NA,1.5,NA,NA,1.55309584667184,2.92232271175447,NA,NA
"CAN","cpi",0.3,1997,3,1997,NA,0,NA,NA,1.60528783555959,1.73535847807117,NA,NA
"CAN","cpi",0.3,1997,3,1997,NA,0.5,NA,NA,1.60528783555959,2.11078363597796,NA,NA
"CAN","cpi",0.3,1997,3,1996,NA,1,NA,NA,1.60528783555959,0.984961337307556,NA,NA
"CAN","cpi",0.3,1997,3,1996,NA,1.5,NA,NA,1.60528783555959,NA,NA,NA
"CAN","cpi",0.3,1998,3,1998,NA,0,NA,NA,0.988908029337191,1.0350847138471,NA,NA
"CAN","cpi",0.3,1998,3,1998,NA,0.5,NA,NA,0.988908029337191,1.68533655437107,NA,NA
"CAN","cpi",0.3,1998,3,1997,NA,1,NA,NA,0.988908029337191,2.25159584334757,NA,NA
"CAN","cpi",0.3,1998,3,1997,NA,1.5,NA,NA,0.988908029337191,2.38987816876076,NA,NA
"CAN","cpi",0.3,1999,3,1999,NA,0,NA,NA,1.7107350135213,1.77618438459462,NA,NA
"CAN","cpi",0.3,1999,3,1999,NA,0.5,NA,NA,1.7107350135213,1.0290924799153,NA,NA
"CAN","cpi",0.3,1999,3,1998,NA,1,NA,NA,1.7107350135213,1.85177544064205,NA,NA
"CAN","cpi",0.3,1999,3,1998,NA,1.5,NA,NA,1.7107350135213,2.94645730787123,NA,NA
"CAN","cpi",0.3,2000,3,2000,NA,0,NA,NA,2.6718361971244,2.7102541785615,NA,NA
"CAN","cpi",0.3,2000,3,2000,NA,0.5,NA,NA,2.6718361971244,2.34405201403356,NA,NA
"CAN","cpi",0.3,2000,3,1999,NA,1,NA,NA,2.6718361971244,3.07542936781209,NA,NA
"CAN","cpi",0.3,2000,3,1999,NA,1.5,NA,NA,2.6718361971244,2.27809035801724,NA,NA
"CAN","cpi",0.3,2001,3,2001,NA,0,NA,NA,2.47906219852806,2.77546584984351,NA,NA
"CAN","cpi",0.3,2001,3,2001,NA,0.5,NA,NA,2.47906219852806,2.43566755503104,NA,NA
"CAN","cpi",0.3,2001,3,2000,NA,1,NA,NA,2.47906219852806,3.68958695319843,NA,NA
"CAN","cpi",0.3,2001,3,2000,NA,1.5,NA,NA,2.47906219852806,3.01270789712173,NA,NA
"CAN","cpi",0.3,2002,3,2002,NA,0,NA,NA,2.20880570551249,2.27196234986351,NA,NA
"CAN","cpi",0.3,2002,3,2002,NA,0.5,NA,NA,2.20880570551249,1.58345411989126,NA,NA
"CAN","cpi",0.3,2002,3,2001,NA,1,NA,NA,2.20880570551249,2.26510423845898,NA,NA
"CAN","cpi",0.3,2002,3,2001,NA,1.5,NA,NA,2.20880570551249,3.02058043279009,NA,NA
"CAN","cpi",0.3,2003,3,2003,NA,0,NA,NA,2.71189071546809,2.71326702620668,NA,NA
"CAN","cpi",0.3,2003,3,2003,NA,0.5,NA,NA,2.71189071546809,4.51432649273496,NA,NA
"CAN","cpi",0.3,2003,3,2002,NA,1,NA,NA,2.71189071546809,3.85618281746238,NA,NA
"CAN","cpi",0.3,2003,3,2002,NA,1.5,NA,NA,2.71189071546809,2.39402389849184,NA,NA
"CAN","cpi",0.3,2004,3,2004,NA,0,NA,NA,1.83151661303942,1.77466852383015,NA,NA
"CAN","cpi",0.3,2004,3,2004,NA,0.5,NA,NA,1.83151661303942,1.55260435151936,NA,NA
"CAN","cpi",0.3,2004,3,2003,NA,1,NA,NA,1.83151661303942,1.79415792598285,NA,NA
"CAN","cpi",0.3,2004,3,2003,NA,1.5,NA,NA,1.83151661303942,4.26699272545716,NA,NA
"CAN","cpi",0.3,2005,3,2005,NA,0,NA,NA,2.18071628336509,2.34345353472953,NA,NA
"CAN","cpi",0.3,2005,3,2005,NA,0.5,NA,NA,2.18071628336509,1.50321338317329,NA,NA
"CAN","cpi",0.3,2005,3,2004,NA,1,NA,NA,2.18071628336509,1.64043962712234,NA,NA
"CAN","cpi",0.3,2005,3,2004,NA,1.5,NA,NA,2.18071628336509,2.03393284113233,NA,NA
"CAN","cpi",0.3,2006,3,2006,NA,0,NA,NA,1.97519342012289,2.09514376892657,NA,NA
"CAN","cpi",0.3,2006,3,2006,NA,0.5,NA,NA,1.97519342012289,2.09436263599022,NA,NA
"CAN","cpi",0.3,2006,3,2005,NA,1,NA,NA,1.97519342012289,2.9582912060806,NA,NA
"CAN","cpi",0.3,2006,3,2005,NA,1.5,NA,NA,1.97519342012289,1.64885961980806,NA,NA
"CAN","cpi",0.3,2007,3,2007,NA,0,2.06350544373965,2.1501669983065,2.10062087284572,2.10683622102307,TRUE,0.0866615545668505
"CAN","cpi",0.3,2007,3,2007,NA,0.5,NA,NA,2.10062087284572,2.17629902083353,NA,NA
"CAN","cpi",0.3,2007,3,2006,NA,1,NA,NA,2.10062087284572,1.50861692709856,NA,NA
"CAN","cpi",0.3,2007,3,2006,NA,1.5,NA,NA,2.10062087284572,2.15918616350405,NA,NA
"CAN","cpi",0.3,2008,3,2008,NA,0,2.83393717722548,2.90765192575107,2.31447335265955,2.87079455148828,FALSE,1.55789710442825
"CAN","cpi",0.3,2008,3,2008,NA,0.5,1.02475750500391,1.59534878890142,2.31447335265955,1.31005314695267,FALSE,2.62523289463503
"CAN","cpi",0.3,2008,3,2007,NA,1,1.18475498914763,1.75586601050573,2.31447335265955,1.47031049982668,FALSE,2.16713199894046
"CAN","cpi",0.3,2008,3,2007,NA,1.5,NA,NA,2.31447335265955,2.46453195342394,NA,NA
"CAN","cpi",0.3,2009,3,2009,NA,0,0.120395299599831,0.253849393099612,0.284533874408197,0.187122346349721,FALSE,0.221124040095739
"CAN","cpi",0.3,2009,3,2009,NA,0.5,-0.372907031250085,0.227408507156852,0.284533874408197,-0.0727492620466167,FALSE,0.763530873410781
"CAN","cpi",0.3,2009,3,2008,NA,1,3.51764249436604,4.11795803277298,0.284533874408197,3.81780026356951,FALSE,9.8377687382865
"CAN","cpi",0.3,2009,3,2008,NA,1.5,1.34032090707647,2.03318214553191,0.284533874408197,1.68675152630419,FALSE,3.70939561750766
"CAN","cpi",0.3,2010,3,2010,NA,0,1.53801998797367,1.67997134129712,1.75525687020327,1.6089956646354,FALSE,0.357052864483877
"CAN","cpi",0.3,2010,3,2010,NA,0.5,1.62419896674653,2.19799108377713,1.75525687020327,1.91109502526183,TRUE,0.573792117030608
"CAN","cpi",0.3,2010,3,2009,NA,1,0.582632365320312,1.40195921166919,1.75525687020327,0.992295788494754,FALSE,1.82874872787482
"CAN","cpi",0.3,2010,3,2009,NA,1.5,0.475439629641426,1.29476647599031,1.75525687020327,0.885103052815867,FALSE,2.13501368695735
"CAN","cpi",0.3,2011,3,2011,NA,0,2.78989738729862,2.94341089394334,2.85717434028225,2.86665414062098,TRUE,0.153513506644719
"CAN","cpi",0.3,2011,3,2011,NA,0.5,2.48415315511904,3.04751448277639,2.85717434028225,2.76583381894771,TRUE,0.563361327657351
"CAN","cpi",0.3,2011,3,2010,NA,1,0.9631509607424,1.82274192265198,2.85717434028225,1.39294644169719,FALSE,3.81511215513891
"CAN","cpi",0.3,2011,3,2010,NA,1.5,1.21273512496884,2.07232608687842,2.85717434028225,1.64253060592363,FALSE,3.10201454306338
"CAN","cpi",0.3,2012,3,2012,NA,0,1.45113011672812,1.60532010025976,1.50118536134935,1.52822510849394,TRUE,0.154189983531639
"CAN","cpi",0.3,2012,3,2012,NA,0.5,1.64404288711101,2.20453755234477,1.50118536134935,1.92429021972789,FALSE,0.968659024552808
"CAN","cpi",0.3,2012,3,2011,NA,1,1.52956384675143,2.46934100219015,1.50118536134935,1.99945242447079,FALSE,1.02085854230181
"CAN","cpi",0.3,2012,3,2011,NA,1.5,2.01162099626026,2.95139815169898,1.50118536134935,2.48150957397962,FALSE,2.39816468375561
"CAN","cpi",0.3,2013,3,2013,NA,0,0.984072294920191,1.12853797354402,0.931270594714462,1.05630513423211,FALSE,0.295327679211629
"CAN","cpi",0.3,2013,3,2013,NA,0.5,0.88320872279173,1.45606036830691,0.931270594714462,1.16963454554932,TRUE,0.572851645515179
"CAN","cpi",0.3,2013,3,2012,NA,1,0.620984712916829,1.55637706965801,0.931270594714462,1.08868089128742,TRUE,0.935392356741183
"CAN","cpi",0.3,2013,3,2012,NA,1.5,1.67803561693468,2.61342797367586,0.931270594714462,2.14573179530527,FALSE,3.0690067059418
"CAN","cpi",0.3,2014,3,2014,NA,0,1.92598248327324,2.07127449962908,1.87639912240215,1.99862849145116,FALSE,0.286958761701817
"CAN","cpi",0.3,2014,3,2014,NA,0.5,1.51457988841133,2.07005963324242,1.87639912240215,1.79231976082687,TRUE,0.555479744831091
"CAN","cpi",0.3,2014,3,2013,NA,1,0.933814565490074,1.87948523090788,1.87639912240215,1.40664989819898,TRUE,0.94567066541781
"CAN","cpi",0.3,2014,3,2013,NA,1.5,1.04152588507002,1.98719655048783,1.87639912240215,1.51436121777893,TRUE,0.94567066541781
"CAN","cpi",0.3,2015,3,2015,NA,0,1.13785887802628,1.28275413046931,1.11090953952792,1.2103065042478,FALSE,0.221893362438356
"CAN","cpi",0.3,2015,3,2015,NA,0.5,0.296470925033855,0.620623706402262,1.11090953952792,0.458547315718059,FALSE,1.72496944744171
"CAN","cpi",0.3,2015,3,2014,NA,1,1.10230201578393,2.03879361277876,1.11090953952792,1.57054781428135,TRUE,0.936491596994829
"CAN","cpi",0.3,2015,3,2014,NA,1.5,1.41404529691415,2.35053689390898,1.11090953952792,1.88229109541157,FALSE,1.80259376095551
"CAN","cpi",0.3,2016,3,2016,NA,0,1.34584411602981,1.48676923341004,1.41168586698797,1.41630667471992,TRUE,0.140925117380228
"CAN","cpi",0.3,2016,3,2016,NA,0.5,1.00723762430418,1.35220554155433,1.41168586698797,1.17972158292925,FALSE,0.5149117042034
"CAN","cpi",0.3,2016,3,2015,NA,1,1.44007293294795,2.28765838808545,1.41168586698797,1.8638656605167,FALSE,0.928691357880309
"CAN","cpi",0.3,2016,3,2015,NA,1.5,0.646437299582107,1.49402275471961,1.41168586698797,1.07023002715086,TRUE,0.847585455137506
"CAN","cpi",0.3,2017,3,2017,NA,0,1.43450919523943,1.57534465769575,1.57888581671161,1.50492692646759,FALSE,0.150953059644495
"CAN","cpi",0.3,2017,3,2017,NA,0.5,1.93056171471391,2.25117065092892,1.57888581671161,2.09086618282141,FALSE,1.32539721622157
"CAN","cpi",0.3,2017,3,2016,NA,1,0.723552197935815,1.56948880912067,1.57888581671161,1.14652050352824,FALSE,0.872785204301825
"CAN","cpi",0.3,2017,3,2016,NA,1.5,0.844912539637835,1.69084915082269,1.57888581671161,1.26788084523026,TRUE,0.845936611184858
"CAN","cpi",0.3,2018,3,2018,NA,0,2.34100756856978,2.48534318135188,2.23316270166586,2.41317537496083,FALSE,0.452463803936161
"CAN","cpi",0.3,2018,3,2018,NA,0.5,2.35297805656734,2.70320432972656,2.23316270166586,2.52809119314695,FALSE,0.692555858592028
"CAN","cpi",0.3,2018,3,2017,NA,1,0.748528038623564,1.58747399969837,2.23316270166586,1.16800101916097,FALSE,2.68377082383907
"CAN","cpi",0.3,2018,3,2017,NA,1.5,1.65351104206353,2.49245700313833,2.23316270166586,2.07298402260093,TRUE,0.838945961074801
"CAN","cpi",0.3,2019,3,2019,NA,0,NA,NA,1.91921619871868,NA,NA,NA
"CAN","cpi",0.3,2019,3,2019,NA,0.5,1.29326649449378,1.65330963157267,1.91921619871868,1.47328806303322,FALSE,1.1197761860675
"CAN","cpi",0.3,2019,3,2018,NA,1,1.80851798234433,2.66088763858232,1.91921619871868,2.23470281046333,TRUE,0.852369656237991
"CAN","cpi",0.3,2019,3,2018,NA,1.5,1.89412079755613,2.74649045379412,1.91921619871868,2.32030562567512,TRUE,0.852369656237991
"CAN","cpi",0.3,2020,3,2020,NA,0,NA,NA,0.71139989671781,0.673588636713597,NA,NA
"CAN","cpi",0.3,2020,3,2020,NA,0.5,NA,NA,0.71139989671781,NA,NA,NA
"CAN","cpi",0.3,2020,3,2019,NA,1,NA,NA,0.71139989671781,NA,NA,NA
"CAN","cpi",0.3,2020,3,2019,NA,1.5,1.44217267195733,2.11193716680075,0.71139989671781,1.77705491937904,FALSE,2.75768670981348
"CAN","cpi",0.3,2021,3,2021,NA,0,NA,NA,3.31148121717802,3.2525646654712,NA,NA
"CAN","cpi",0.3,2021,3,2021,NA,0.5,NA,NA,3.31148121717802,2.16773480502693,NA,NA
"CAN","cpi",0.3,2021,3,2020,NA,1,NA,NA,3.31148121717802,1.61070774476322,NA,NA
"CAN","cpi",0.3,2021,3,2020,NA,1.5,NA,NA,3.31148121717802,NA,NA,NA
"CAN","cpi",0.3,2022,3,2022,NA,0,NA,NA,6.50977236228281,6.58682891800883,NA,NA
"CAN","cpi",0.3,2022,3,2022,NA,0.5,NA,NA,6.50977236228281,5.58900513180898,NA,NA
"CAN","cpi",0.3,2022,3,2021,NA,1,NA,NA,6.50977236228281,3.35597076522593,NA,NA
"CAN","cpi",0.3,2022,3,2021,NA,1.5,NA,NA,6.50977236228281,1.89458222166426,NA,NA
"CAN","cpi",0.3,2023,3,2023,NA,0,NA,NA,3.78831288758619,3.96221561415741,NA,NA
"CAN","cpi",0.3,2023,3,2023,NA,0.5,NA,NA,3.78831288758619,3.6121970566696,NA,NA
"CAN","cpi",0.3,2023,3,2022,NA,1,NA,NA,3.78831288758619,5.4861852561408,NA,NA
"CAN","cpi",0.3,2023,3,2022,NA,1.5,NA,NA,3.78831288758619,3.85557075258935,NA,NA
"CAN","cpi",0.3,2024,3,2023,NA,1,NA,NA,NA,4.72280809903739,NA,NA
"CAN","cpi",0.3,2024,3,2023,NA,1.5,NA,NA,NA,4.36705509613113,NA,NA
"CAN","cpi",0.4,1959,3,1959,NA,0,1.16262680968522,1.33719751894064,1.19382698397654,1.24991216431293,TRUE,0.174570709255414
"CAN","cpi",0.4,1959,3,1959,NA,0.5,-0.563887034998598,1.43956649817925,1.19382698397654,0.437839731590327,TRUE,2.00345353317785
"CAN","cpi",0.4,1959,3,1958,NA,1,0.0119898278859552,3.50526542983297,1.19382698397654,1.75862762885946,TRUE,3.49327560194701
"CAN","cpi",0.4,1959,3,1958,NA,1.5,-1.79295453150771,5.34109798578302,1.19382698397654,1.77407172713766,TRUE,7.13405251729074
"CAN","cpi",0.4,1960,3,1960,NA,0,0.94671740886687,1.10050867632267,1.34209404870695,1.02361304259477,FALSE,0.959075842070061
"CAN","cpi",0.4,1960,3,1960,NA,0.5,-0.458174373784051,1.53614133414737,1.34209404870695,0.53898348018166,TRUE,1.99431570793142
"CAN","cpi",0.4,1960,3,1959,NA,1,2.52046531611384,5.394722157675,1.34209404870695,3.95759373689442,FALSE,6.8021610662508
"CAN","cpi",0.4,1960,3,1959,NA,1.5,-4.21893931122809,2.47198568041832,1.34209404870695,-0.873476815404885,TRUE,6.69092499164641
"CAN","cpi",0.4,1961,3,1961,NA,0,0.914677497335906,1.10374946454424,1.00921348094007,1.00921348094007,TRUE,0.189071967208332
"CAN","cpi",0.4,1961,3,1961,NA,0.5,0.282628392901131,1.73579856897901,1.00921348094007,1.00921348094007,TRUE,1.45317017607788
"CAN","cpi",0.4,1961,3,1960,NA,1,-1.14589653537147,1.25343746057854,1.00921348094007,0.0537704626035329,TRUE,2.39933399595001
"CAN","cpi",0.4,1961,3,1960,NA,1.5,-4.01947411039845,2.29511051251838,1.00921348094007,-0.862181798940035,TRUE,6.31458462291682
"CAN","cpi",0.4,1962,3,1962,NA,0,1.0179471262137,1.18670092841586,1.04957947883042,1.10232402731478,TRUE,0.168753802202156
"CAN","cpi",0.4,1962,3,1962,NA,0.5,-0.617980554352765,0.617980554352765,1.04957947883042,0,FALSE,2.6746241902977
"CAN","cpi",0.4,1962,3,1961,NA,1,-1.26922923049926,1.26922923049926,1.04957947883042,0,TRUE,2.53845846099853
"CAN","cpi",0.4,1962,3,1961,NA,1.5,-2.60544005602264,2.60544005602264,1.04957947883042,0,TRUE,5.21088011204527
"CAN","cpi",0.4,1963,3,1963,NA,0,1.83042679798341,1.99940779264063,1.60677118395228,1.91491729531202,FALSE,0.914499708094293
"CAN","cpi",0.4,1963,3,1963,NA,0.5,0.217102854314032,1.45655457492098,1.60677118395228,0.836828714617504,FALSE,1.7401737507113
"CAN","cpi",0.4,1963,3,1962,NA,1,1.42514344352423,3.70308636477864,1.60677118395228,2.56411490415144,TRUE,2.27794292125441
"CAN","cpi",0.4,1963,3,1962,NA,1.5,-1.8628489080515,1.8628489080515,1.60677118395228,0,TRUE,3.72569781610301
"CAN","cpi",0.4,1964,3,1964,NA,0,1.89451776786289,2.08302736105807,1.88764670034376,1.98877256446048,FALSE,0.211413151592273
"CAN","cpi",0.4,1964,3,1964,NA,0.5,1.10606095609728,1.66131916845487,1.88764670034376,1.38369006227607,FALSE,1.3096833186539
"CAN","cpi",0.4,1964,3,1963,NA,1,4.48246627383995,6.29841953310516,1.88764670034376,5.39044290347256,FALSE,10.4653518375859
"CAN","cpi",0.4,1964,3,1963,NA,1.5,-1.59191920003369,1.59191920003369,1.88764670034376,0,FALSE,4.16959673443428
"CAN","cpi",0.4,1965,3,1965,NA,0,2.25105826507288,2.44008268330709,2.29538304394236,2.34557047418999,TRUE,0.189024418234212
"CAN","cpi",0.4,1965,3,1965,NA,0.5,1.32793265519182,1.89365630394126,2.29538304394236,1.61079447956654,FALSE,1.90481278208643
"CAN","cpi",0.4,1965,3,1964,NA,1,1.58451403848699,3.26586320510995,2.29538304394236,2.42518862179847,TRUE,1.68134916662296
"CAN","cpi",0.4,1965,3,1964,NA,1.5,-0.0225720309950834,1.65877713562788,2.29538304394236,0.818102552316399,FALSE,3.80336886100455
"CAN","cpi",0.4,1966,3,1966,NA,0,3.73059128727722,3.90962846999696,3.72486065470629,3.82010987863709,FALSE,0.198139291289497
"CAN","cpi",0.4,1966,3,1966,NA,0.5,3.70968527155538,4.27278270635589,3.72486065470629,3.99123398895563,TRUE,0.56309743480051
"CAN","cpi",0.4,1966,3,1965,NA,1,2.36442545810289,4.05001591681418,3.72486065470629,3.20722068745854,TRUE,1.68559045871129
"CAN","cpi",0.4,1966,3,1965,NA,1.5,0.763843016963939,2.44943347567523,3.72486065470629,1.60663824631958,FALSE,5.93701438881483
"CAN","cpi",0.4,1967,3,1967,NA,0,3.67972334480088,3.85565364177176,3.49360316391996,3.76768849328632,FALSE,0.796330899907286
"CAN","cpi",0.4,1967,3,1967,NA,0.5,2.08273097945887,2.73217850893633,3.49360316391996,2.4074547441976,FALSE,3.18752971275621
"CAN","cpi",0.4,1967,3,1966,NA,1,2.35207088333683,4.00999557806884,3.49360316391996,3.18103323070284,TRUE,1.65792469473201
"CAN","cpi",0.4,1967,3,1966,NA,1.5,3.82231925750647,5.48024395223849,3.49360316391996,4.65128160487248,FALSE,2.75364500668706
"CAN","cpi",0.4,1968,3,1968,NA,0,4.08246508994604,4.26329382350188,3.95128347779386,4.17287945672396,FALSE,0.618100774063109
"CAN","cpi",0.4,1968,3,1968,NA,0.5,3.83231742406479,4.30962669153226,3.95128347779386,4.07097205779852,TRUE,0.477309267467467
"CAN","cpi",0.4,1968,3,1967,NA,1,4.96426921005648,6.72616443242049,3.95128347779386,5.84521682123848,FALSE,5.13851432990607
"CAN","cpi",0.4,1968,3,1967,NA,1.5,1.37471097122026,3.13660619358427,3.95128347779386,2.25565858240226,FALSE,4.4774861697293
"CAN","cpi",0.4,1969,3,1969,NA,0,4.3764583748807,4.56147836659716,4.42679496126681,4.46896837073893,TRUE,0.185019991716464
"CAN","cpi",0.4,1969,3,1969,NA,0.5,2.71533682497205,3.21690356294225,4.42679496126681,2.96612019395715,FALSE,4.53453806571876
"CAN","cpi",0.4,1969,3,1968,NA,1,6.03517960702188,7.41457299379427,4.42679496126681,6.72487630040807,FALSE,6.74067553928926
"CAN","cpi",0.4,1969,3,1968,NA,1.5,3.62694783605921,5.0063412228316,4.42679496126681,4.31664452944541,TRUE,1.37939338677239
"CAN","cpi",0.4,1970,3,1970,NA,0,3.43934081874361,3.61460949284367,3.28128405769805,3.52697515579364,FALSE,0.702124544251949
"CAN","cpi",0.4,1970,3,1970,NA,0.5,4.3704794396748,4.93694226586354,3.28128405769805,4.65371085276917,FALSE,4.19711409944459
"CAN","cpi",0.4,1970,3,1969,NA,1,3.82028471363314,5.234672788121,3.28128405769805,4.52747875087707,FALSE,3.21105692760484
"CAN","cpi",0.4,1970,3,1969,NA,1.5,1.37254443558736,2.78693251007523,3.28128405769805,2.07973847283129,FALSE,3.06222656656393
"CAN","cpi",0.4,1971,3,1971,NA,0,2.74807428403809,2.93057223179571,2.64123406634756,2.8393232579169,FALSE,0.538632006726054
"CAN","cpi",0.4,1971,3,1971,NA,0.5,1.64671533301668,2.48712798109346,2.64123406634756,2.06692165705507,FALSE,1.35409959892378
"CAN","cpi",0.4,1971,3,1970,NA,1,1.9720139400387,3.3101059516312,2.64123406634756,2.64105994583495,TRUE,1.3380920115925
"CAN","cpi",0.4,1971,3,1970,NA,1.5,3.97073038320843,5.30882239480093,2.64123406634756,4.63977638900468,FALSE,5.76974640112872
"CAN","cpi",0.4,1972,3,1972,NA,0,4.97409895752581,5.08686310623856,4.83230569625923,5.03048103188219,FALSE,0.585408352934698
"CAN","cpi",0.4,1972,3,1972,NA,0.5,4.65108108743471,5.48303699968472,4.83230569625923,5.06705904355972,TRUE,0.831955912250006
"CAN","cpi",0.4,1972,3,1971,NA,1,5.1801074208847,6.6537246332503,4.83230569625923,5.9169160270675,FALSE,2.63295629445049
"CAN","cpi",0.4,1972,3,1971,NA,1.5,2.35595634822991,3.82957356059551,4.83230569625923,3.09276495441271,FALSE,4.81605766457799
"CAN","cpi",0.4,1973,3,1973,NA,0,6.94179293264634,7.04350219121654,7.12388603531779,6.99264756193144,FALSE,0.369655405574375
"CAN","cpi",0.4,1973,3,1973,NA,0.5,5.05097087913392,5.89842704910316,7.12388603531779,5.47469896411854,FALSE,4.93231945735135
"CAN","cpi",0.4,1973,3,1972,NA,1,5.98203501210929,7.39921066284745,7.12388603531779,6.69062283747837,TRUE,1.41717565073816
"CAN","cpi",0.4,1973,3,1972,NA,1.5,4.02315461049578,5.44033026123394,7.12388603531779,4.73174243586486,FALSE,7.02902823101767
"CAN","cpi",0.4,1974,3,1974,NA,0,9.87691481187507,10.0117155994056,10.2717243737774,9.94431520564033,FALSE,1.0014967021033
"CAN","cpi",0.4,1974,3,1974,NA,0.5,7.87879357198934,8.79693726303885,10.2717243737774,8.3378654175141,FALSE,5.83410072684473
"CAN","cpi",0.4,1974,3,1973,NA,1,6.49280143747083,7.84144701523153,10.2717243737774,7.16712422635118,FALSE,9.44957010624698
"CAN","cpi",0.4,1974,3,1973,NA,1.5,3.30861462568641,4.79488035787468,10.2717243737774,4.05174749178054,FALSE,19.7424124518641
"CAN","cpi",0.4,1975,3,1975,NA,0,9.99850151362444,10.1878632103313,10.0232981493341,10.0931823619779,TRUE,0.189361696706825
"CAN","cpi",0.4,1975,3,1975,NA,0.5,8.46659063983765,9.49875888210891,10.0232981493341,8.98267476097328,FALSE,2.78063246635528
"CAN","cpi",0.4,1975,3,1974,NA,1,6.86003115551757,8.70756528909323,10.0232981493341,7.7837982223054,FALSE,6.23331033437863
"CAN","cpi",0.4,1975,3,1974,NA,1.5,4.64731123636181,6.87132086980857,10.0232981493341,5.75931605308519,FALSE,12.7306005651986
"CAN","cpi",0.4,1976,3,1976,NA,0,6.97808917480682,7.16746992422752,7.22784311401172,7.07277954951717,FALSE,0.390624715368019
"CAN","cpi",0.4,1976,3,1976,NA,0.5,8.06879114760402,9.11299006116252,7.22784311401172,8.59089060438327,FALSE,3.84735902553284
"CAN","cpi",0.4,1976,3,1975,NA,1,9.55532318800403,11.2729723490243,7.22784311401172,10.4141477685142,FALSE,9.47591607432798
"CAN","cpi",0.4,1976,3,1975,NA,1.5,5.23131799999001,7.62970372270722,7.22784311401172,6.43051086134862,TRUE,2.39838572271722
"CAN","cpi",0.4,1977,3,1977,NA,0,7.45096270696033,7.65506032633511,7.58101410153764,7.55301151664772,TRUE,0.20409761937478
"CAN","cpi",0.4,1977,3,1977,NA,0.5,7.37651148616585,8.58680551427189,7.58101410153764,7.98165850021887,TRUE,1.21029402810604
"CAN","cpi",0.4,1977,3,1976,NA,1,2.72522101599635,4.71747196687569,7.58101410153764,3.72134649143602,FALSE,11.5373913997525
"CAN","cpi",0.4,1977,3,1976,NA,1.5,6.79616237616984,9.20927851334243,7.58101410153764,8.00272044475614,TRUE,2.41311613717259
"CAN","cpi",0.4,1978,3,1978,NA,0,8.5683285102097,8.77422829696716,8.50208927062595,8.67127840358843,FALSE,0.426697252036632
"CAN","cpi",0.4,1978,3,1978,NA,0.5,7.76926440716752,8.98839022921108,8.50208927062595,8.3788273181893,TRUE,1.21912582204356
"CAN","cpi",0.4,1978,3,1977,NA,1,6.35684670022733,8.73882986809369,8.50208927062595,7.54783828416051,TRUE,2.38198316786636
"CAN","cpi",0.4,1978,3,1977,NA,1.5,8.4838934277027,10.9673616991418,8.50208927062595,9.72562756342223,TRUE,2.48346827143905
"CAN","cpi",0.4,1979,3,1979,NA,0,8.465726297528,8.66180150712139,8.65147652410481,8.56376390232469,TRUE,0.196075209593396
"CAN","cpi",0.4,1979,3,1979,NA,0.5,7.69790706069335,8.89407863864194,8.65147652410481,8.29599284966764,TRUE,1.19617157794859
"CAN","cpi",0.4,1979,3,1978,NA,1,8.00352600572336,10.402704004455,8.65147652410481,9.20311500508918,TRUE,2.39917799873166
"CAN","cpi",0.4,1979,3,1978,NA,1.5,7.31104026166926,9.80189794138922,8.65147652410481,8.55646910152924,TRUE,2.49085767971996
"CAN","cpi",0.4,1980,3,1980,NA,0,9.40913865178667,9.59899579035194,9.5171912664748,9.50406722106931,TRUE,0.189857138565269
"CAN","cpi",0.4,1980,3,1980,NA,0.5,7.98435322889047,9.17162505781137,9.5171912664748,8.57798914335092,FALSE,2.33915919113232
"CAN","cpi",0.4,1980,3,1979,NA,1,7.02189617912974,9.33560789508656,9.5171912664748,8.17875203710815,FALSE,2.91898962058426
"CAN","cpi",0.4,1980,3,1979,NA,1.5,7.13342657765997,9.65066874358226,9.5171912664748,8.39204766062112,TRUE,2.51724216592229
"CAN","cpi",0.4,1981,3,1981,NA,0,11.6164500739216,11.8063257229183,11.5813425032741,11.7113878984199,FALSE,0.306900884488176
"CAN","cpi",0.4,1981,3,1981,NA,0.5,11.6436673827832,12.7875719677703,11.5813425032741,12.2156196752767,FALSE,1.35165418335056
"CAN","cpi",0.4,1981,3,1980,NA,1,9.96855655843751,12.1308141261673,11.5813425032741,11.0496853423024,TRUE,2.16225756772975
"CAN","cpi",0.4,1981,3,1980,NA,1.5,7.09344345779673,9.58275238570115,11.5813425032741,8.33809792174894,FALSE,9.15127598648104
"CAN","cpi",0.4,1982,3,1982,NA,0,10.167982507005,10.3453511232144,10.1124203763629,10.2566668151097,FALSE,0.36257571834964
"CAN","cpi",0.4,1982,3,1982,NA,0.5,9.58598697236971,10.6310842223393,10.1124203763629,10.1085355973545,TRUE,1.04509724996958
"CAN","cpi",0.4,1982,3,1981,NA,1,10.7346956198247,12.8072817464232,10.1124203763629,11.770988683124,FALSE,4.14683693813767
"CAN","cpi",0.4,1982,3,1981,NA,1.5,11.5881598209506,14.1520902493056,10.1124203763629,12.8701250351281,FALSE,7.48306191031392
"CAN","cpi",0.4,1983,3,1983,NA,0,5.6452396207957,5.81678466250209,5.67091787896303,5.7310121416489,TRUE,0.171545041706388
"CAN","cpi",0.4,1983,3,1983,NA,0.5,4.3894700557648,5.43739026442827,5.67091787896303,4.91343016009654,FALSE,1.82634559044601
"CAN","cpi",0.4,1983,3,1982,NA,1,8.08680899462493,10.2831940026962,5.67091787896303,9.18500149866057,FALSE,10.2493553936109
"CAN","cpi",0.4,1983,3,1982,NA,1.5,8.34400061556497,11.0294454158224,5.67091787896303,9.68672301569366,FALSE,11.5957205889305
"CAN","cpi",0.4,1984,3,1984,NA,0,NA,NA,4.19799576814029,NA,NA,NA
"CAN","cpi",0.4,1984,3,1984,NA,0.5,5.33866440474396,6.37674931574518,4.19799576814029,5.85770686024457,FALSE,4.84031369968013
"CAN","cpi",0.4,1984,3,1983,NA,1,4.5120779731823,7.01898918674627,4.19799576814029,5.76553357996429,FALSE,3.55385189703734
"CAN","cpi",0.4,1984,3,1983,NA,1.5,1.33057783643977,4.50902152250363,4.19799576814029,2.9197996794717,TRUE,3.17844368606386
"CAN","cpi",0.4,1985,3,1985,NA,0,NA,NA,3.86444262005169,3.85417990135378,NA,NA
"CAN","cpi",0.4,1985,3,1985,NA,0.5,3.65787834875126,4.78192249890671,3.86444262005169,4.21990042382899,TRUE,1.12404415015545
"CAN","cpi",0.4,1985,3,1984,NA,1,NA,NA,3.86444262005169,NA,NA,NA
"CAN","cpi",0.4,1985,3,1984,NA,1.5,7.06021433811087,10.1997788679962,3.86444262005169,8.62999660305356,FALSE,13.792136923416
"CAN","cpi",0.4,1986,3,1986,NA,0,NA,NA,4.08685396749431,4.03771389199993,NA,NA
"CAN","cpi",0.4,1986,3,1986,NA,0.5,3.91749495302718,4.84689169704339,4.08685396749431,4.38219332503529,TRUE,0.929396744016216
"CAN","cpi",0.4,1986,3,1985,NA,1,NA,NA,4.08685396749431,3.37849976080849,NA,NA
"CAN","cpi",0.4,1986,3,1985,NA,1.5,3.47129697305846,6.43490020496066,4.08685396749431,4.95309858900956,TRUE,2.9636032319022
"CAN","cpi",0.4,1987,3,1987,NA,0,NA,NA,4.23980729277887,NA,NA,NA
"CAN","cpi",0.4,1987,3,1987,NA,0.5,3.71374090818737,4.55310231341433,4.23980729277887,4.13342161080085,TRUE,0.839361405226953
"CAN","cpi",0.4,1987,3,1986,NA,1,NA,NA,4.23980729277887,3.66140988164798,NA,NA
"CAN","cpi",0.4,1987,3,1986,NA,1.5,3.54167221799063,6.06318314487964,4.23980729277887,4.80242768143514,TRUE,2.52151092688901
"CAN","cpi",0.4,1988,3,1988,NA,0,NA,NA,3.92899537638065,3.9438316199536,NA,NA
"CAN","cpi",0.4,1988,3,1988,NA,0.5,2.98198852665242,3.72639578016383,3.92899537638065,3.35419215340812,FALSE,1.41973924090083
"CAN","cpi",0.4,1988,3,1987,NA,1,NA,NA,3.92899537638065,NA,NA,NA
"CAN","cpi",0.4,1988,3,1987,NA,1.5,2.65969970055911,5.12953888996982,3.92899537638065,3.89461929526446,TRUE,2.46983918941071
"CAN","cpi",0.4,1989,3,1989,NA,0,NA,NA,4.82821664544208,4.95130318392835,NA,NA
"CAN","cpi",0.4,1989,3,1989,NA,0.5,3.84815390751631,4.61234494742515,4.82821664544208,4.23024942747073,FALSE,1.48376336663192
"CAN","cpi",0.4,1989,3,1988,NA,1,NA,NA,4.82821664544208,4.05841794603162,NA,NA
"CAN","cpi",0.4,1989,3,1988,NA,1.5,1.35692494039624,3.83876217836975,4.82821664544208,2.597843559383,FALSE,5.78001879488126
"CAN","cpi",0.4,1990,3,1990,NA,0,NA,NA,4.64347549432717,4.4746950192663,NA,NA
"CAN","cpi",0.4,1990,3,1990,NA,0.5,4.57110941188089,5.35863396616869,4.64347549432717,4.96487168902479,TRUE,0.787524554287801
"CAN","cpi",0.4,1990,3,1989,NA,1,NA,NA,4.64347549432717,5.43871373969076,NA,NA
"CAN","cpi",0.4,1990,3,1989,NA,1.5,2.04999446301512,4.69651353746108,4.64347549432717,3.3732540002381,TRUE,2.64651907444596
"CAN","cpi",0.4,1991,3,1991,NA,0,NA,NA,5.4258100696218,5.61053369942382,NA,NA
"CAN","cpi",0.4,1991,3,1991,NA,0.5,7.4288133794742,8.21517253007769,5.4258100696218,7.82199295477594,FALSE,7.4630368501115
"CAN","cpi",0.4,1991,3,1990,NA,1,NA,NA,5.4258100696218,3.66716818384097,NA,NA
"CAN","cpi",0.4,1991,3,1990,NA,1.5,3.47543496874938,6.1742040045339,5.4258100696218,4.82481948664164,TRUE,2.69876903578452
"CAN","cpi",0.4,1992,3,1992,NA,0,NA,NA,1.47496888572843,NA,NA,NA
"CAN","cpi",0.4,1992,3,1992,NA,0.5,NA,NA,1.47496888572843,NA,NA,NA
"CAN","cpi",0.4,1992,3,1991,NA,1,NA,NA,1.47496888572843,2.76780571233213,NA,NA
"CAN","cpi",0.4,1992,3,1991,NA,1.5,5.81321259644298,8.48555105676041,1.47496888572843,7.14938182660169,FALSE,17.1331508293659
