isdrw/probabilistic-benchmark-forecasts/results/gauss_quantiles_prediction/unbiased VAR est/mean 0 assumption/gauss_prediction_arima1_1_0_2026-02-15_11-28.csv
"country","target","tau","target_year","target_quarter","forecast_year","forecast_quarter","horizon","lower_bound","upper_bound","truth_value","prediction","covered","IS"
"CAN","cpi",0.1,1959,3,1959,NA,0,1.17436322756851,1.21923095236321,1.19382698397654,1.19679708996586,TRUE,0.0448677247946954
"CAN","cpi",0.1,1959,3,1959,NA,0.5,0.471204879848391,0.839147109805427,1.19382698397654,0.655175994826909,FALSE,1.15611972811507
"CAN","cpi",0.1,1959,3,1958,NA,1,1.354931865016,2.16384529130363,1.19382698397654,1.75938857815981,FALSE,1.16692427304198
"CAN","cpi",0.1,1959,3,1958,NA,1.5,0.898802521102119,2.65113069915688,1.19382698397654,1.7749666101295,TRUE,1.75232817805476
"CAN","cpi",0.1,1960,3,1960,NA,0,1.01166921346931,1.05093571675767,1.34209404870695,1.03130246511349,FALSE,0.686285018731211
"CAN","cpi",0.1,1960,3,1960,NA,0.5,0.605454913140659,0.885750393123832,1.34209404870695,0.745602653132245,FALSE,1.29439249239011
"CAN","cpi",0.1,1960,3,1959,NA,1,2.9361404131354,3.73560733293335,1.34209404870695,3.33587387303437,FALSE,4.34179217408339
"CAN","cpi",0.1,1960,3,1959,NA,1.5,-1.11004215307739,0.459203964501614,1.34209404870695,-0.32541909428789,FALSE,3.53122408247976
"CAN","cpi",0.1,1961,3,1961,NA,0,0.986442363843705,1.03198459803644,1.00921348094007,1.00921348094007,TRUE,0.0455422341927325
"CAN","cpi",0.1,1961,3,1961,NA,0.5,1.17358860125079,1.4492340289118,1.00921348094007,1.31141131508129,FALSE,0.640923472795934
"CAN","cpi",0.1,1961,3,1960,NA,1,-0.199640170720764,0.486891982060688,1.00921348094007,0.143625905669962,FALSE,1.84724659473564
"CAN","cpi",0.1,1961,3,1960,NA,1.5,-0.923611731974855,0.243388883670415,1.00921348094007,-0.34011142415222,FALSE,2.86883305402228
"CAN","cpi",0.1,1962,3,1962,NA,0,1.09189266446868,1.13076730014885,1.04957947883042,1.11132998230876,FALSE,0.13290393709853
"CAN","cpi",0.1,1962,3,1962,NA,0.5,-0.115849813141275,0.115849813141275,1.04957947883042,1.64134322488006e-44,FALSE,2.30665443892508
"CAN","cpi",0.1,1962,3,1961,NA,1,-0.343208719772163,0.343208719772164,1.04957947883042,-9.44308782563385e-19,FALSE,2.25613023745155
"CAN","cpi",0.1,1962,3,1961,NA,1.5,0.170858876404077,1.33790962097743,1.04957947883042,0.754384248690751,TRUE,1.16705074457335
"CAN","cpi",0.1,1963,3,1963,NA,0,1.83713833889156,1.87485187888172,1.60677118395228,1.85599510888664,FALSE,0.549640550966338
"CAN","cpi",0.1,1963,3,1963,NA,0.5,0.814644559705864,1.04995602756899,1.60677118395228,0.932300293637426,FALSE,1.47267848204823
"CAN","cpi",0.1,1963,3,1962,NA,1,2.36427894904207,2.97069149783248,1.60677118395228,2.66748522343727,FALSE,2.28976313787882
"CAN","cpi",0.1,1963,3,1962,NA,1.5,-0.426684228059183,0.426684228059184,1.60677118395228,4.10321927477868e-44,FALSE,3.47578391365859
"CAN","cpi",0.1,1964,3,1964,NA,0,1.96845250330395,2.0094305880761,1.88764670034376,1.98894154569002,FALSE,0.220546535794794
"CAN","cpi",0.1,1964,3,1964,NA,0.5,1.31443169583852,1.45311995910335,1.88764670034376,1.38377582747094,FALSE,1.10430324379906
"CAN","cpi",0.1,1964,3,1963,NA,1,4.51779558221203,4.90793547589658,1.88764670034376,4.71286552905431,FALSE,6.23491518672515
"CAN","cpi",0.1,1964,3,1963,NA,1.5,-0.0156800263134265,0.49323937265808,1.88764670034376,0.238779673172327,FALSE,3.60760234938413
"CAN","cpi",0.1,1965,3,1965,NA,0,2.33434655675976,2.37554365345131,2.29538304394236,2.35494510510554,FALSE,0.127782680730225
"CAN","cpi",0.1,1965,3,1965,NA,0.5,1.49193102757651,1.62896690161825,2.29538304394236,1.56044896459738,FALSE,1.61796063476197
"CAN","cpi",0.1,1965,3,1964,NA,1,2.23966760211568,2.61454703585646,2.29538304394236,2.42710731898607,TRUE,0.374879433740776
"CAN","cpi",0.1,1965,3,1964,NA,1.5,0.630876041032728,1.0057554747735,2.29538304394236,0.818315757903116,FALSE,3.24071847633823
"CAN","cpi",0.1,1966,3,1966,NA,0,3.82707284626465,3.86620988153558,3.72486065470629,3.84664136390011,FALSE,0.266275238733945
"CAN","cpi",0.1,1966,3,1966,NA,0.5,3.77851336435043,3.91531464025562,3.72486065470629,3.84691400230302,FALSE,0.25602951955883
"CAN","cpi",0.1,1966,3,1965,NA,1,3.13042261650086,3.49693732529342,3.72486065470629,3.31367997089714,FALSE,0.873010996376711
"CAN","cpi",0.1,1966,3,1965,NA,1.5,1.29824646973885,1.66476117853141,3.72486065470629,1.48150382413513,FALSE,4.94451354473673
"CAN","cpi",0.1,1967,3,1967,NA,0,3.74923291110027,3.78802647016256,3.49360316391996,3.76862969063141,FALSE,0.606859663907421
"CAN","cpi",0.1,1967,3,1967,NA,0.5,2.28750377207171,2.43598464246706,3.49360316391996,2.36174420726938,FALSE,2.4987442514018
"CAN","cpi",0.1,1967,3,1966,NA,1,3.30202456952385,3.66265233957694,3.49360316391996,3.4823384545504,TRUE,0.36062777005309
"CAN","cpi",0.1,1967,3,1966,NA,1.5,4.11226311940968,4.47289088946277,3.49360316391996,4.29257700443622,FALSE,1.73542767114135
"CAN","cpi",0.1,1968,3,1968,NA,0,4.09274822548428,4.13405779970112,3.95128347779386,4.1134030125927,FALSE,0.355675680195558
"CAN","cpi",0.1,1968,3,1968,NA,0.5,3.83431977936129,3.95016889551737,3.95128347779386,3.89224433743933,FALSE,0.118325965659382
"CAN","cpi",0.1,1968,3,1967,NA,1,5.6717662014919,6.04016802869266,3.95128347779386,5.85596711509228,FALSE,4.19169676875197
"CAN","cpi",0.1,1968,3,1967,NA,1.5,1.9566128782088,2.32712902479935,3.95128347779386,2.14187095150408,FALSE,3.97974826435612
"CAN","cpi",0.1,1969,3,1969,NA,0,4.62196900411487,4.66329229881147,4.42679496126681,4.64263065146317,FALSE,0.475043389914497
"CAN","cpi",0.1,1969,3,1969,NA,0.5,3.00366833778695,3.12032151976848,4.42679496126681,3.06199492877772,FALSE,3.01992749642227
"CAN","cpi",0.1,1969,3,1968,NA,1,5.91104326949719,6.20060430547539,4.42679496126681,6.05582378748629,FALSE,3.58789060982348
"CAN","cpi",0.1,1969,3,1968,NA,1.5,3.72749433320412,4.01705536918232,4.42679496126681,3.87227485119322,FALSE,1.20009346283262
"CAN","cpi",0.1,1970,3,1970,NA,0,3.56971983122981,3.61020966725864,3.28128405769805,3.58996474924422,FALSE,0.681458221654968
"CAN","cpi",0.1,1970,3,1970,NA,0.5,4.10623970961164,4.23736568344339,3.28128405769805,4.17180269652751,FALSE,1.96436075586196
"CAN","cpi",0.1,1970,3,1969,NA,1,5.29512736420705,5.58218256509371,3.28128405769805,5.43865496465038,FALSE,4.76226254868445
"CAN","cpi",0.1,1970,3,1969,NA,1.5,2.17319970935533,2.46025491024199,3.28128405769805,2.31672730979866,FALSE,2.11156441745567
"CAN","cpi",0.1,1971,3,1971,NA,0,2.87269536949389,2.91579942686683,2.64123406634756,2.89424739818036,FALSE,0.55746250880923
"CAN","cpi",0.1,1971,3,1971,NA,0.5,0.989575983263181,1.16110389600795,2.64123406634756,1.07533993963556,FALSE,3.46070606905502
"CAN","cpi",0.1,1971,3,1970,NA,1,2.84300619829382,3.12021310438104,2.64123406634756,2.98160965133743,FALSE,0.725589421523349
"CAN","cpi",0.1,1971,3,1970,NA,1.5,4.01847915386762,4.29568605995485,2.64123406634756,4.15708260691123,FALSE,3.33775154502069
"CAN","cpi",0.1,1972,3,1972,NA,0,5.09033186102495,5.1160979330126,4.83230569625923,5.10321489701878,FALSE,0.599157549244813
"CAN","cpi",0.1,1972,3,1972,NA,0.5,4.47937917392111,4.67115651556836,4.83230569625923,4.57526784474473,FALSE,0.549886632071411
"CAN","cpi",0.1,1972,3,1971,NA,1,6.41309776257163,6.72156496772157,4.83230569625923,6.5673313651466,FALSE,3.82133846362194
"CAN","cpi",0.1,1972,3,1971,NA,1.5,1.0470373225935,1.35550452774343,4.83230569625923,1.20127092516847,FALSE,8.03469202407393
"CAN","cpi",0.1,1973,3,1973,NA,0,7.35125591828475,7.3741190640527,7.12388603531779,7.36268749116872,FALSE,0.528129552361194
"CAN","cpi",0.1,1973,3,1973,NA,0.5,5.80386730590682,5.98479255557952,7.12388603531779,5.89432993074317,FALSE,2.71224409353553
"CAN","cpi",0.1,1973,3,1972,NA,1,7.21857809391077,7.52422062685123,7.12388603531779,7.371399360381,FALSE,0.51606932981375
"CAN","cpi",0.1,1973,3,1972,NA,1.5,4.32409130932743,4.68240211631516,7.12388603531779,4.50324671282129,FALSE,5.78383062699358
"CAN","cpi",0.1,1974,3,1974,NA,0,10.3120647191756,10.3325115472702,10.2717243737774,10.3222881332229,FALSE,0.110092040090622
"CAN","cpi",0.1,1974,3,1974,NA,0.5,8.75493612640638,8.93932193232102,10.2717243737774,8.8471290293637,FALSE,3.1452801202622
"CAN","cpi",0.1,1974,3,1973,NA,1,10.8556631430006,11.1212174220739,10.2717243737774,10.9884402825372,FALSE,1.56319598845812
"CAN","cpi",0.1,1974,3,1973,NA,1.5,6.01096295784872,6.38013408374573,10.2717243737774,6.19554852079723,FALSE,9.01714954818965
"CAN","cpi",0.1,1975,3,1975,NA,0,10.2531400570764,10.2762482833955,10.0232981493341,10.2646941702359,FALSE,0.533868021301932
"CAN","cpi",0.1,1975,3,1975,NA,0.5,9.12106887708927,9.3160388870171,10.0232981493341,9.21855388205318,FALSE,1.76665725952121
"CAN","cpi",0.1,1975,3,1974,NA,1,11.8571208056502,12.1239079811305,10.0232981493341,11.9905143933903,FALSE,4.34194863396045
"CAN","cpi",0.1,1975,3,1974,NA,1.5,8.467348296172,8.89283428643648,10.0232981493341,8.68009129130424,FALSE,2.93762790781479
"CAN","cpi",0.1,1976,3,1976,NA,0,7.24270729012202,7.26495405632243,7.22784311401172,7.25383067322222,FALSE,0.0552782686677481
"CAN","cpi",0.1,1976,3,1976,NA,0.5,7.31808575396826,7.51286775812716,7.22784311401172,7.41547675604771,FALSE,0.395321204062335
"CAN","cpi",0.1,1976,3,1975,NA,1,11.7969556090673,12.0333465071612,7.22784311401172,11.9151510581142,FALSE,10.3899742204396
"CAN","cpi",0.1,1976,3,1975,NA,1.5,7.80055143792788,8.22607932446585,7.22784311401172,8.01331538119686,FALSE,1.69821305079611
"CAN","cpi",0.1,1977,3,1977,NA,0,7.60682998410841,7.63051260971173,7.58101410153764,7.61867129691007,FALSE,0.0810512535383599
"CAN","cpi",0.1,1977,3,1977,NA,0.5,6.92007827742906,7.12567916236759,7.58101410153764,7.02287871989832,FALSE,1.21745630531643
"CAN","cpi",0.1,1977,3,1976,NA,1,5.6936069045054,6.05163117301935,7.58101410153764,5.87261903876238,FALSE,3.7566529985546
"CAN","cpi",0.1,1977,3,1976,NA,1.5,5.92361956901352,6.38283333146836,7.58101410153764,6.15322645024094,FALSE,3.12183769594214
"CAN","cpi",0.1,1978,3,1978,NA,0,8.66820456052599,8.69430358437411,8.50208927062595,8.68125407245005,FALSE,0.395244112514885
"CAN","cpi",0.1,1978,3,1978,NA,0.5,8.02673232439144,8.22344252221301,8.50208927062595,8.12508742330222,FALSE,0.815925194294772
"CAN","cpi",0.1,1978,3,1977,NA,1,8.4389372941754,8.84743804288383,8.50208927062595,8.64318766852961,TRUE,0.408500748708427
"CAN","cpi",0.1,1978,3,1977,NA,1.5,7.43399860018251,7.88658013574756,8.50208927062595,7.66028936796504,FALSE,1.82037961307257
"CAN","cpi",0.1,1979,3,1979,NA,0,8.59821097624209,8.62330795195366,8.65147652410481,8.61075946409788,FALSE,0.0876938027141215
"CAN","cpi",0.1,1979,3,1979,NA,0.5,8.00378170295118,8.19747500254025,8.65147652410481,8.10062835274572,FALSE,1.20258556973253
"CAN","cpi",0.1,1979,3,1978,NA,1,9.37978437290945,9.78548539645635,8.65147652410481,9.5826348846829,FALSE,2.02416290977944
"CAN","cpi",0.1,1979,3,1978,NA,1.5,7.73052356108143,8.15315333244912,8.65147652410481,7.94183844676527,FALSE,1.53001464171367
"CAN","cpi",0.1,1980,3,1980,NA,0,9.51598350222984,9.54619743277587,9.5171912664748,9.53109046750286,TRUE,0.0302139305460294
"CAN","cpi",0.1,1980,3,1980,NA,0.5,8.59134118076549,8.77993111754294,9.5171912664748,8.68563614915422,FALSE,1.82694582329268
"CAN","cpi",0.1,1980,3,1979,NA,1,8.12420399038118,8.52677069295048,9.5171912664748,8.32548734166583,FALSE,2.60350131040112
"CAN","cpi",0.1,1980,3,1979,NA,1.5,7.76873582051388,8.19220622140855,9.5171912664748,7.98047102096121,FALSE,3.367881612153
"CAN","cpi",0.1,1981,3,1981,NA,0,11.6930693735028,11.7248425815431,11.5813425032741,11.708955977523,FALSE,0.280055141881784
"CAN","cpi",0.1,1981,3,1981,NA,0.5,12.0365000577833,12.2162925237066,11.5813425032741,12.1263962907449,FALSE,1.19125369816588
"CAN","cpi",0.1,1981,3,1980,NA,1,10.7706814317807,11.1991988988249,11.5813425032741,10.9849401653028,FALSE,1.27772547693136
"CAN","cpi",0.1,1981,3,1980,NA,1.5,8.41309351913439,8.84161098617854,11.5813425032741,8.62735225265647,FALSE,6.51680972725659
"CAN","cpi",0.1,1982,3,1982,NA,0,10.296655889016,10.3252940605164,10.1124203763629,10.3109749747662,FALSE,0.43805042184052
"CAN","cpi",0.1,1982,3,1982,NA,0.5,10.0182326447324,10.1811346792669,10.1124203763629,10.0996836619997,TRUE,0.162902034534518
"CAN","cpi",0.1,1982,3,1981,NA,1,11.4013506989056,11.837608340925,10.1124203763629,11.6194795199153,FALSE,3.3005472476697
"CAN","cpi",0.1,1982,3,1981,NA,1.5,12.5013068551345,12.937564497154,10.1124203763629,12.7194356761443,FALSE,5.74489426151185
"CAN","cpi",0.1,1983,3,1983,NA,0,5.81394919709243,5.84134561014826,5.67091787896303,5.82764740362034,FALSE,0.345243786676706
"CAN","cpi",0.1,1983,3,1983,NA,0.5,4.90142403290117,5.04945486298544,5.67091787896303,4.97543944794331,FALSE,1.52905975447892
"CAN","cpi",0.1,1983,3,1982,NA,1,9.01721999344026,9.45834794020486,5.67091787896303,9.23778396682256,FALSE,7.87735486782511
"CAN","cpi",0.1,1983,3,1982,NA,1.5,9.54478705238573,10.0326158310913,5.67091787896303,9.78870144173853,FALSE,9.09642694186715
"CAN","cpi",0.1,1984,3,1984,NA,0,4.20121739696177,4.22593334890465,4.19799576814029,4.21357537293321,FALSE,0.031875127101731
"CAN","cpi",0.1,1984,3,1984,NA,0.5,4.56882426123906,4.71635440003225,4.19799576814029,4.64258933063566,FALSE,0.971593456790465
"CAN","cpi",0.1,1984,3,1983,NA,1,5.88834148843862,6.37441160898573,4.19799576814029,6.13137654871218,FALSE,4.2423939434323
"CAN","cpi",0.1,1984,3,1983,NA,1.5,3.16522923454638,3.77141953739175,4.19799576814029,3.46832438596907,FALSE,1.55413748228656
"CAN","cpi",0.1,1985,3,1985,NA,0,3.90748691412945,3.93069960107491,3.86444262005169,3.91909325760218,FALSE,0.118866673784916
"CAN","cpi",0.1,1985,3,1985,NA,0.5,3.81581487133408,3.96718889256669,3.86444262005169,3.89150188195039,TRUE,0.151374021232614
"CAN","cpi",0.1,1985,3,1984,NA,1,3.05005745140804,3.53788404813267,3.86444262005169,3.29397074977035,FALSE,1.21351231210024
"CAN","cpi",0.1,1985,3,1984,NA,1.5,4.17387759312349,4.7593431020733,3.86444262005169,4.4666103475984,FALSE,1.2730987824427
"CAN","cpi",0.1,1986,3,1986,NA,0,4.09430394287918,4.11747313843262,4.08685396749431,4.1058885406559,FALSE,0.0397246964087002
"CAN","cpi",0.1,1986,3,1986,NA,0.5,4.34738804025459,4.47264008292038,4.08685396749431,4.41001406158749,FALSE,0.704216648799749
"CAN","cpi",0.1,1986,3,1985,NA,1,3.74129207764173,4.2447855087471,4.08685396749431,3.99303879319441,TRUE,0.50349343110537
"CAN","cpi",0.1,1986,3,1985,NA,1.5,3.96813285864496,4.47839361897312,4.08685396749431,4.22326323880904,TRUE,0.510260760328167
"CAN","cpi",0.1,1987,3,1987,NA,0,4.34975851478192,4.36977585483572,4.23980729277887,4.35976718480882,FALSE,0.264353388949467
"CAN","cpi",0.1,1987,3,1987,NA,0.5,3.84827236138302,3.97045406651235,4.23980729277887,3.90936321394769,FALSE,0.72074443016604
"CAN","cpi",0.1,1987,3,1986,NA,1,4.08045060215177,4.58154258087732,4.23980729277887,4.33099659151455,TRUE,0.501091978725547
"CAN","cpi",0.1,1987,3,1986,NA,1.5,4.50192523099938,5.00301720972493,4.23980729277887,4.75247122036215,FALSE,1.08357628588223
"CAN","cpi",0.1,1988,3,1988,NA,0,4.00273073645912,4.02266046658905,3.92899537638065,4.01269560152408,FALSE,0.183786085859854
"CAN","cpi",0.1,1988,3,1988,NA,0.5,3.41085989378133,3.53065202450538,3.92899537638065,3.47075595914335,FALSE,1.00499957933578
"CAN","cpi",0.1,1988,3,1987,NA,1,4.39024785246638,4.77300091743494,3.92899537638065,4.58162438495066,FALSE,1.40775856738129
"CAN","cpi",0.1,1988,3,1987,NA,1.5,3.56465132548385,4.0626442011563,3.92899537638065,3.81364776332008,TRUE,0.497992875672445
"CAN","cpi",0.1,1989,3,1989,NA,0,5.01414726298787,5.03375915447428,4.82821664544208,5.02395320873108,FALSE,0.432791041588173
"CAN","cpi",0.1,1989,3,1989,NA,0.5,4.30887636964175,4.4269205872613,4.82821664544208,4.36789847845152,FALSE,1.00981323579906
"CAN","cpi",0.1,1989,3,1988,NA,1,4.29083216683129,4.63241906988777,4.82821664544208,4.46162561835953,FALSE,0.776692626510496
"CAN","cpi",0.1,1989,3,1988,NA,1.5,3.03622839873067,3.52053465354954,4.82821664544208,3.27838152614011,FALSE,3.39026623680228
"CAN","cpi",0.1,1990,3,1990,NA,0,4.50955599235613,4.52970657803521,4.64347549432717,4.51963128519567,FALSE,0.272970399661211
"CAN","cpi",0.1,1990,3,1990,NA,0.5,4.92478815429433,5.04390038567377,4.64347549432717,4.98434426998405,FALSE,0.744251475750899
"CAN","cpi",0.1,1990,3,1989,NA,1,5.74384478637228,6.09165399840993,4.64347549432717,5.9177493923911,FALSE,2.79307430547122
"CAN","cpi",0.1,1990,3,1989,NA,1.5,4.31394434851435,4.80977281925584,4.64347549432717,4.56185858388509,TRUE,0.49582847074149
"CAN","cpi",0.1,1991,3,1991,NA,0,5.61203982826744,5.6360954276415,5.4258100696218,5.62406762795447,FALSE,0.437899507475497
"CAN","cpi",0.1,1991,3,1991,NA,0.5,8.33131319344628,8.45212848322906,5.4258100696218,8.39172083833767,FALSE,6.57748889828162
"CAN","cpi",0.1,1991,3,1990,NA,1,3.69355374768676,4.04479858335117,5.4258100696218,3.86917616551897,FALSE,3.42015924959913
"CAN","cpi",0.1,1991,3,1990,NA,1.5,4.87681283741227,5.36895711969198,5.4258100696218,5.12288497855213,FALSE,0.618484171012633
"CAN","cpi",0.1,1992,3,1992,NA,0,1.46811810598659,1.49309375381723,1.47496888572843,1.48060592990191,TRUE,0.0249756478306455
"CAN","cpi",0.1,1992,3,1992,NA,0.5,1.0471446209883,1.29682968384234,1.47496888572843,1.17198715241532,FALSE,0.645549955934246
"CAN","cpi",0.1,1992,3,1991,NA,1,2.33842636202798,2.70206419943594,1.47496888572843,2.52024528073196,FALSE,2.28243222918473
"CAN","cpi",0.1,1992,3,1991,NA,1.5,9.91586875258457,10.3908066658206,1.47496888572843,10.1533377092026,FALSE,19.2324931729163
"CAN","cpi",0.1,1993,3,1993,NA,0,1.78978499040719,1.81545789610597,1.84351085411351,1.80262144325658,FALSE,0.0880128123822042
"CAN","cpi",0.1,1993,3,1993,NA,0.5,2.21666313666709,2.46816317450453,1.84351085411351,2.34241315558581,FALSE,1.08072733240095
"CAN","cpi",0.1,1993,3,1992,NA,1,1.64175979895763,1.99435912929406,1.84351085411351,1.81805946412584,TRUE,0.352599330336432
"CAN","cpi",0.1,1993,3,1992,NA,1.5,0.77335079996944,1.50717640208338,1.84351085411351,1.14026360102641,FALSE,1.48123549551423
"CAN","cpi",0.1,1994,3,1994,NA,0,0.150949683603127,0.176283573113528,0.161630694655448,0.163616628358327,TRUE,0.0253338895104008
"CAN","cpi",0.1,1994,3,1994,NA,0.5,-0.511226499736258,-0.259053696322501,0.161630694655448,-0.385140098029379,FALSE,1.18702700558698
"CAN","cpi",0.1,1994,3,1993,NA,1,1.20024360596928,1.54925095669838,0.161630694655448,1.37474728133383,FALSE,2.65703604253761
"CAN","cpi",0.1,1994,3,1993,NA,1.5,2.22768493281805,2.96602737341244,0.161630694655448,2.59685615311524,FALSE,5.32957408095573
"CAN","cpi",0.1,1995,3,1995,NA,0,2.18137249169465,2.20575647217121,2.11688403676572,2.19356448193293,FALSE,0.167691658096414
"CAN","cpi",0.1,1995,3,1995,NA,0.5,2.55300024822893,2.80201782262801,2.11688403676572,2.67750903542847,FALSE,1.218164710984
"CAN","cpi",0.1,1995,3,1994,NA,1,1.21478534616034,1.46706701594363,2.11688403676572,1.34092618105198,FALSE,1.69631949383237
"CAN","cpi",0.1,1995,3,1994,NA,1.5,-1.66551500441861,-0.962453430702388,2.11688403676572,-1.3139842175605,FALSE,7.54603372364534
"CAN","cpi",0.1,1996,3,1996,NA,0,1.46991127137125,1.49421897668317,1.55309584667184,1.48206512402721,FALSE,0.155145194175638
"CAN","cpi",0.1,1996,3,1996,NA,0.5,1.11717832148313,1.35479529602211,1.55309584667184,1.23598680875262,FALSE,0.678284864871724
"CAN","cpi",0.1,1996,3,1995,NA,1,1.21102612634398,1.44864310088296,1.55309584667184,1.32983461361347,FALSE,0.469734187403161
"CAN","cpi",0.1,1996,3,1995,NA,1.5,3.04219009240764,3.80942202659508,1.55309584667184,3.42580605950136,FALSE,4.07633025804476
"CAN","cpi",0.1,1997,3,1997,NA,0,1.67746109003882,1.70353955835845,1.60528783555959,1.69050032419864,FALSE,0.186463478273472
"CAN","cpi",0.1,1997,3,1997,NA,0.5,2.0014021936672,2.23818158603115,1.60528783555959,2.11979188984917,FALSE,1.11703352149197
"CAN","cpi",0.1,1997,3,1996,NA,1,1.07685115255494,1.31363054491889,1.60528783555959,1.19524084873691,FALSE,0.884906704898848
"CAN","cpi",0.1,1997,3,1996,NA,1.5,0.968775625861025,1.74244245138103,1.60528783555959,1.35560903862103,TRUE,0.773666825520001
"CAN","cpi",0.1,1998,3,1998,NA,0,0.96699422751705,0.993181814345999,0.988908029337191,0.980088020931525,TRUE,0.0261875868289483
"CAN","cpi",0.1,1998,3,1998,NA,0.5,1.19136493373013,1.4302020091947,0.988908029337191,1.31078347146242,FALSE,0.688741307448885
"CAN","cpi",0.1,1998,3,1997,NA,1,0.946289387968494,1.18512646343307,0.988908029337191,1.06570792570078,TRUE,0.238837075464571
"CAN","cpi",0.1,1998,3,1997,NA,1.5,1.86564569778463,2.64156768754525,0.988908029337191,2.25360669266494,FALSE,2.72422791964382
"CAN","cpi",0.1,1999,3,1999,NA,0,1.80422443565089,1.83000147121199,1.7107350135213,1.81711295343144,FALSE,0.233531306960199
"CAN","cpi",0.1,1999,3,1999,NA,0.5,0.670024461943439,0.90675066950565,1.7107350135213,0.788387565724544,FALSE,2.02335808315254
"CAN","cpi",0.1,1999,3,1998,NA,1,0.45700338907302,0.69372959663523,1.7107350135213,0.575366492854125,FALSE,2.4967382450868
"CAN","cpi",0.1,1999,3,1998,NA,1.5,1.29855983382809,2.07577970038307,1.7107350135213,1.68716976710558,TRUE,0.777219866554981
"CAN","cpi",0.1,2000,3,2000,NA,0,2.71694694593526,2.74304102859468,2.6718361971244,2.72999398726497,FALSE,0.126340191127996
"CAN","cpi",0.1,2000,3,2000,NA,0.5,1.94391156969072,2.19206577881987,2.6718361971244,2.06798867425529,FALSE,1.31431069425033
"CAN","cpi",0.1,2000,3,1999,NA,1,2.96744685605849,3.21560106518764,2.6718361971244,3.09152396062306,FALSE,0.905066784538236
"CAN","cpi",0.1,2000,3,1999,NA,1.5,0.454544538858323,1.23117917166974,2.6718361971244,0.842861855264031,FALSE,3.97809468937733
"CAN","cpi",0.1,2001,3,2001,NA,0,2.8307202599383,2.85344905383391,2.47906219852806,2.84208465688611,FALSE,0.804191152585028
"CAN","cpi",0.1,2001,3,2001,NA,0.5,1.76127054612974,2.0114988259285,2.47906219852806,1.88638468602912,FALSE,1.28925799668668
"CAN","cpi",0.1,2001,3,2000,NA,1,3.57277940036576,3.82300768016452,2.47906219852806,3.69789354026514,FALSE,2.6807109505492
"CAN","cpi",0.1,2001,3,2000,NA,1.5,1.47713473837657,2.25918931238602,2.47906219852806,1.8681620253813,FALSE,1.27066098765843
"CAN","cpi",0.1,2002,3,2002,NA,0,2.36054303512328,2.39144827880186,2.20880570551249,2.37599565696257,FALSE,0.368099309480333
"CAN","cpi",0.1,2002,3,2002,NA,0.5,0.78720681254789,1.03994642282767,2.20880570551249,0.913576617687781,FALSE,2.8502046829127
"CAN","cpi",0.1,2002,3,2001,NA,1,1.81097101571488,2.06371062599466,2.20880570551249,1.93734082085477,FALSE,0.575173120319388
"CAN","cpi",0.1,2002,3,2001,NA,1.5,0.829485455161121,1.61587057396666,2.20880570551249,1.22267801456389,FALSE,2.10401874446293
"CAN","cpi",0.1,2003,3,2003,NA,0,2.71743158824916,2.74760613918397,2.71189071546809,2.73251886371656,FALSE,0.0424876015594108
"CAN","cpi",0.1,2003,3,2003,NA,0.5,4.23716581676014,4.39634787662824,2.71189071546809,4.31675684669419,FALSE,3.54868228496155
"CAN","cpi",0.1,2003,3,2002,NA,1,4.51889290183084,4.71835528969999,2.71189071546809,4.61862409576541,FALSE,4.21502280200859
"CAN","cpi",0.1,2003,3,2002,NA,1.5,0.968954695708313,1.76221855763089,2.71189071546809,1.3655866266696,FALSE,2.90364643489413
"CAN","cpi",0.1,2004,3,2004,NA,0,1.81490549568792,1.84490651102757,1.83151661303942,1.82990600335775,TRUE,0.0300010153396535
"CAN","cpi",0.1,2004,3,2004,NA,0.5,1.33397217163374,1.54568020348553,1.83151661303942,1.43982618755963,FALSE,0.846900053082668
"CAN","cpi",0.1,2004,3,2003,NA,1,0.912954637112295,1.14598170934398,1.83151661303942,1.02946817322814,FALSE,1.75643796933267
"CAN","cpi",0.1,2004,3,2003,NA,1.5,4.43366449408747,4.85932588839339,1.83151661303942,4.64649519124043,FALSE,6.20821224107935
"CAN","cpi",0.1,2005,3,2005,NA,0,2.36992799480179,2.39915837911491,2.18071628336509,2.38454318695835,FALSE,0.449700854172456
"CAN","cpi",0.1,2005,3,2005,NA,0.5,1.50252464205283,1.70980910706033,2.18071628336509,1.60616687455658,FALSE,1.25374485679585
"CAN","cpi",0.1,2005,3,2004,NA,1,1.52955547390978,1.77408034139883,2.18071628336509,1.65181790765431,FALSE,1.14816029408074
"CAN","cpi",0.1,2005,3,2004,NA,1.5,1.5199094165785,2.00527657437197,2.18071628336509,1.76259299547523,FALSE,0.875233177778187
"CAN","cpi",0.1,2006,3,2006,NA,0,2.12128081385975,2.15142187816154,1.97519342012289,2.13635134601064,FALSE,0.354779717050376
"CAN","cpi",0.1,2006,3,2006,NA,0.5,1.68303609502544,1.89066544251254,1.97519342012289,1.78685076876899,FALSE,0.395469297732309
"CAN","cpi",0.1,2006,3,2005,NA,1,3.38978855519423,3.6199104966073,1.97519342012289,3.50484952590076,FALSE,3.37366668601605
"CAN","cpi",0.1,2006,3,2005,NA,1.5,1.24776272461928,1.68851412140096,1.97519342012289,1.46813842301012,FALSE,1.07781650505263
"CAN","cpi",0.1,2007,3,2007,NA,0,2.18946848976487,2.22003502302676,2.10062087284572,2.20475175639581,FALSE,0.228005681971102
"CAN","cpi",0.1,2007,3,2007,NA,0.5,1.88581860282742,2.08473633197434,2.10062087284572,1.98527746740088,FALSE,0.2342167088611
"CAN","cpi",0.1,2007,3,2006,NA,1,1.12263266849562,1.37217196915803,2.10062087284572,1.24740231882683,FALSE,1.86831464219061
"CAN","cpi",0.1,2007,3,2006,NA,1.5,1.42713247899458,1.78281168081474,2.10062087284572,1.60497207990466,FALSE,1.0619218507779
"CAN","cpi",0.1,2008,3,2008,NA,0,3.00411812969013,3.03123339189116,2.31447335265955,3.01767576079065,FALSE,1.55965921115787
"CAN","cpi",0.1,2008,3,2008,NA,0.5,0.938174919269425,1.13707236493121,2.31447335265955,1.03762364210032,FALSE,2.8153440850581
"CAN","cpi",0.1,2008,3,2007,NA,1,1.27289914492279,1.53292512045957,2.31447335265955,1.40291213269118,FALSE,1.99679982487007
"CAN","cpi",0.1,2008,3,2007,NA,1.5,2.53916251240039,2.85953282060853,2.31447335265955,2.69934766650446,FALSE,0.819679552076662
"CAN","cpi",0.1,2009,3,2009,NA,0,0.295746771182514,0.347705691486297,0.284533874408197,0.321726231334406,FALSE,0.0768764686911542
"CAN","cpi",0.1,2009,3,2009,NA,0.5,-1.42707760408368,-1.22279980159601,0.284533874408197,-1.32493870283985,FALSE,3.55390819360814
"CAN","cpi",0.1,2009,3,2008,NA,1,4.94164712712639,5.21056773122454,0.284533874408197,5.07610742917547,FALSE,10.6180611656941
"CAN","cpi",0.1,2009,3,2008,NA,1.5,0.849288690830264,1.17284248975155,0.284533874408197,1.01106559029091,FALSE,1.57856450208144
"CAN","cpi",0.1,2010,3,2010,NA,0,1.72879382017286,1.77985811355562,1.75525687020327,1.75432596686424,TRUE,0.0510642933827627
"CAN","cpi",0.1,2010,3,2010,NA,0.5,1.38580425745588,1.60108834265581,1.75525687020327,1.49344630005585,FALSE,0.55788081308317
"CAN","cpi",0.1,2010,3,2009,NA,1,0.940286584379203,1.31992082612425,1.75525687020327,1.13010370525173,FALSE,1.34704767303177
"CAN","cpi",0.1,2010,3,2009,NA,1.5,-2.4490089641397,-2.06937472239466,1.75525687020327,-2.25919184326718,FALSE,8.87881555862933
"CAN","cpi",0.1,2011,3,2011,NA,0,2.88202448559614,2.93462196153735,2.85717434028225,2.90832322356675,FALSE,0.107820021083201
"CAN","cpi",0.1,2011,3,2011,NA,0.5,2.70808423441818,2.9218164784631,2.85717434028225,2.81495035644064,TRUE,0.213732244044927
"CAN","cpi",0.1,2011,3,2010,NA,1,2.03468006764807,2.46523243096629,2.85717434028225,2.24995624930718,FALSE,1.30153438402034
"CAN","cpi",0.1,2011,3,2010,NA,1.5,1.47593600139207,1.90648836471029,2.85717434028225,1.69121218305118,FALSE,2.54318786458924
"CAN","cpi",0.1,2012,3,2012,NA,0,1.48224866826535,1.53493874551984,1.50118536134935,1.50859370689259,TRUE,0.0526900772544896
"CAN","cpi",0.1,2012,3,2012,NA,0.5,1.64328266376565,1.85922263372818,1.50118536134935,1.75125264874692,FALSE,0.531711753109874
"CAN","cpi",0.1,2012,3,2011,NA,1,1.63243439329544,2.06245472821816,1.50118536134935,1.8474445607568,FALSE,0.721684850358489
"CAN","cpi",0.1,2012,3,2011,NA,1.5,2.85425041306939,3.28427074799211,1.50118536134935,3.06926058053075,FALSE,3.43683156096726
"CAN","cpi",0.1,2013,3,2013,NA,0,1.03061017172549,1.08170172759849,0.931270594714462,1.05615594966199,FALSE,0.271846171453071
"CAN","cpi",0.1,2013,3,2013,NA,0.5,0.913511804476727,1.13484692462184,0.931270594714462,1.02417936454929,TRUE,0.221335120145117
"CAN","cpi",0.1,2013,3,2012,NA,1,-0.152406320401599,0.289575357553829,0.931270594714462,0.0685845185761151,FALSE,1.86797109386794
"CAN","cpi",0.1,2013,3,2012,NA,1.5,1.49817874819004,1.94016042614546,0.931270594714462,1.71916958716775,FALSE,1.70177757456782
"CAN","cpi",0.1,2014,3,2014,NA,0,2.03836542902444,2.0893740828773,1.87639912240215,2.06386975595087,FALSE,0.410933779680173
"CAN","cpi",0.1,2014,3,2014,NA,0.5,1.82279801955414,2.0315062048601,1.87639912240215,1.92715211220712,TRUE,0.208708185305968
"CAN","cpi",0.1,2014,3,2013,NA,1,0.890005174814872,1.33744129397459,1.87639912240215,1.11372323439473,FALSE,1.64512018233207
"CAN","cpi",0.1,2014,3,2013,NA,1.5,1.17668582282138,1.6241219419811,1.87639912240215,1.40040388240124,FALSE,1.00805207565095
"CAN","cpi",0.1,2015,3,2015,NA,0,1.28215420043973,1.33250136238484,1.11090953952792,1.30732778141228,FALSE,0.430890852860243
"CAN","cpi",0.1,2015,3,2015,NA,0.5,0.0100476632563087,0.156458416154859,1.11090953952792,0.0832530397055839,FALSE,2.26741324928312
"CAN","cpi",0.1,2015,3,2014,NA,1,1.21650449172673,1.65137224186701,1.11090953952792,1.43393836679687,FALSE,0.669523199470973
"CAN","cpi",0.1,2015,3,2014,NA,1.5,2.45786535534886,2.89318153964362,1.11090953952792,2.67552344749624,FALSE,3.42855133056353
"CAN","cpi",0.1,2016,3,2016,NA,0,1.48443504271505,1.53339568051528,1.41168586698797,1.50891536161516,FALSE,0.2106254727493
"CAN","cpi",0.1,2016,3,2016,NA,0.5,0.70949656564307,0.864206918395361,1.41168586698797,0.786851742019216,FALSE,1.37133023851363
"CAN","cpi",0.1,2016,3,2015,NA,1,1.95160073691054,2.36160425577328,1.41168586698797,2.15660249634191,FALSE,1.60981434091291
"CAN","cpi",0.1,2016,3,2015,NA,1.5,-0.322222044937118,0.0877814739256126,1.41168586698797,-0.117220285505753,FALSE,3.35201328122352
"CAN","cpi",0.1,2017,3,2017,NA,0,1.52429133172639,1.57333541268894,1.57888581671161,1.54881337220766,FALSE,0.0613783121240452
"CAN","cpi",0.1,2017,3,2017,NA,0.5,1.83584059578089,1.99089936258607,1.57888581671161,1.91336997918348,FALSE,0.726069386959129
"CAN","cpi",0.1,2017,3,2016,NA,1,0.979984598576954,1.39539251484814,1.57888581671161,1.18768855671255,FALSE,0.823170809301128
"CAN","cpi",0.1,2017,3,2016,NA,1.5,0.456787744703809,0.872195660974991,1.57888581671161,0.6644917028394,FALSE,1.98583048457478
"CAN","cpi",0.1,2018,3,2018,NA,0,2.41977181032116,2.47068931123408,2.23316270166586,2.44523056077762,FALSE,0.465604409035814
"CAN","cpi",0.1,2018,3,2018,NA,0.5,2.71906884280655,2.88406148456851,2.23316270166586,2.80156516368753,FALSE,1.24478406651905
"CAN","cpi",0.1,2018,3,2017,NA,1,0.614532551055913,1.02584996219583,2.23316270166586,0.82019125662587,FALSE,3.09423460996221
"CAN","cpi",0.1,2018,3,2017,NA,1.5,2.22690624676071,2.63822365790062,2.23316270166586,2.43256495233066,TRUE,0.411317411139914
"CAN","cpi",0.1,2019,3,2019,NA,0,2.05930923627922,2.11047813423072,1.91921619871868,2.08489368525497,FALSE,0.362486759197143
"CAN","cpi",0.1,2019,3,2019,NA,0.5,1.38205287039143,1.56158634141726,1.91921619871868,1.47181960590434,FALSE,0.974266487251218
"CAN","cpi",0.1,2019,3,2018,NA,1,1.97263982965364,2.38983850062896,1.91921619871868,2.1812391651413,FALSE,0.535917850830787
"CAN","cpi",0.1,2019,3,2018,NA,1.5,3.38488063486321,3.80207930583852,1.91921619871868,3.59347997035086,FALSE,3.67423075129648
"CAN","cpi",0.1,2020,3,2020,NA,0,0.681162748920355,0.703103732448931,0.71139989671781,0.692133240684643,FALSE,0.0403769041260858
"CAN","cpi",0.1,2020,3,2020,NA,0.5,0.974676661052073,1.13648440617088,0.71139989671781,1.05558053361148,FALSE,0.746867221417172
"CAN","cpi",0.1,2020,3,2019,NA,1,1.80555607495359,2.22418344463306,0.71139989671781,2.01486975979332,FALSE,2.85008554353676
"CAN","cpi",0.1,2020,3,2019,NA,1.5,1.55668674312588,1.98869358894888,0.71139989671781,1.77269016603738,FALSE,2.31042206006316
"CAN","cpi",0.1,2021,3,2021,NA,0,3.36247746089296,3.38574045490858,3.31148121717802,3.37410895790077,FALSE,0.136587980048808
"CAN","cpi",0.1,2021,3,2021,NA,0.5,2.62175817099437,2.74205770860728,3.31148121717802,2.68190793980083,FALSE,1.38568511221456
"CAN","cpi",0.1,2021,3,2020,NA,1,1.09097223455641,1.29397709785516,3.31148121717802,1.19247466620579,FALSE,4.68634735068289
"CAN","cpi",0.1,2021,3,2020,NA,1.5,0.77560678526336,1.21258826370405,3.31148121717802,0.994097524483704,FALSE,5.10118804171619
"CAN","cpi",0.1,2022,3,2022,NA,0,6.70107225475322,6.72323540202736,6.50977236228281,6.71215382839029,FALSE,0.447274019430602
"CAN","cpi",0.1,2022,3,2022,NA,0.5,6.35801627146317,6.48506985274798,6.50977236228281,6.42154306210558,FALSE,0.181948046917766
"CAN","cpi",0.1,2022,3,2021,NA,1,4.84655876029018,5.09743030558853,6.50977236228281,4.97199453293936,FALSE,3.38940944906341
"CAN","cpi",0.1,2022,3,2021,NA,1.5,3.2810554878902,3.63298128831688,6.50977236228281,3.45701838810354,FALSE,6.7447948536843
"CAN","cpi",0.1,2023,3,2023,NA,0,4.03053609299882,4.05370758992917,3.78831288758619,4.042121841464,FALSE,0.561445286736196
"CAN","cpi",0.1,2023,3,2023,NA,0.5,2.99649052095966,3.12345333492417,3.78831288758619,3.05997192794191,FALSE,1.60442848654678
"CAN","cpi",0.1,2023,3,2022,NA,1,5.14967747059202,5.41735784264546,3.78831288758619,5.28351765661874,FALSE,3.29293500095528
"CAN","cpi",0.1,2023,3,2022,NA,1.5,7.07952129664479,7.49553303080944,3.78831288758619,7.28752716372712,FALSE,7.72980819873932
"CAN","cpi",0.1,2024,3,2023,NA,1,4.22820634409594,4.52766757439837,NA,4.37793695924716,NA,NA
"CAN","cpi",0.1,2024,3,2023,NA,1.5,2.1261251903671,2.61183448444826,NA,2.36897983740768,NA,NA
"CAN","cpi",0.2,1959,3,1959,NA,0,1.15156795473249,1.24202622519923,1.19382698397654,1.19679708996586,TRUE,0.0904582704667334
"CAN","cpi",0.2,1959,3,1959,NA,0.5,0.284269982700328,1.02608200695349,1.19382698397654,0.655175994826909,FALSE,1.16117446681079
"CAN","cpi",0.2,1959,3,1958,NA,1,0.943959337718916,2.57481781860071,1.19382698397654,1.75938857815981,TRUE,1.63085848088179
"CAN","cpi",0.2,1959,3,1958,NA,1.5,0.00852339284720127,3.5414098274118,1.19382698397654,1.7749666101295,TRUE,3.5328864345646
"CAN","cpi",0.2,1960,3,1960,NA,0,0.991719669339976,1.070885260887,1.34209404870695,1.03130246511349,FALSE,0.757187561096901
"CAN","cpi",0.2,1960,3,1960,NA,0.5,0.463049387338851,1.02815591892564,1.34209404870695,0.745602653132245,FALSE,1.34995185604007
"CAN","cpi",0.2,1960,3,1959,NA,1,2.52996723088567,4.14178051518308,1.34209404870695,3.33587387303437,FALSE,4.5814962397442
"CAN","cpi",0.2,1960,3,1959,NA,1.5,-1.90730552136182,1.25646733278604,1.34209404870695,-0.32541909428789,FALSE,3.37783964395014
"CAN","cpi",0.2,1961,3,1961,NA,0,0.963304403121704,1.05512255875844,1.00921348094007,1.00921348094007,TRUE,0.0918181556367346
"CAN","cpi",0.2,1961,3,1961,NA,0.5,1.0335455578764,1.58927707228619,1.00921348094007,1.31141131508129,FALSE,0.616561706750602
"CAN","cpi",0.2,1961,3,1960,NA,1,-0.548436277609678,0.835688088949602,1.00921348094007,0.143625905669962,FALSE,1.81793784653545
"CAN","cpi",0.2,1961,3,1960,NA,1.5,-1.5165122535672,0.836289405262755,1.00921348094007,-0.34011142415222,FALSE,2.78511184802324
"CAN","cpi",0.2,1962,3,1962,NA,0,1.07214221064501,1.15051775397251,1.04957947883042,1.11132998230876,FALSE,0.134782372863993
"CAN","cpi",0.2,1962,3,1962,NA,0.5,-0.233565971499697,0.233565971499697,1.04957947883042,1.64134322488006e-44,FALSE,2.50716571132619
"CAN","cpi",0.2,1962,3,1961,NA,1,-0.691946546025049,0.691946546025049,1.04957947883042,-9.44308782563385e-19,FALSE,2.27797542406351
"CAN","cpi",0.2,1962,3,1961,NA,1.5,-0.422067113441841,1.93083561082334,1.04957947883042,0.754384248690751,TRUE,2.35290272426518
"CAN","cpi",0.2,1963,3,1963,NA,0,1.81797778556238,1.89401243221091,1.60677118395228,1.85599510888664,FALSE,0.604051150673768
"CAN","cpi",0.2,1963,3,1963,NA,0.5,0.69509338709953,1.16950720017532,1.60677118395228,0.932300293637426,FALSE,1.5675737725182
"CAN","cpi",0.2,1963,3,1962,NA,1,2.05618800919354,3.27878243768101,1.60677118395228,2.66748522343727,FALSE,2.34613649159061
"CAN","cpi",0.2,1963,3,1962,NA,1.5,-0.860242356443947,0.860242356443947,1.60677118395228,4.10321927477868e-44,FALSE,3.58680678165874
"CAN","cpi",0.2,1964,3,1964,NA,0,1.94763338160895,2.0302497097711,1.88764670034376,1.98894154569002,FALSE,0.232583031325124
"CAN","cpi",0.2,1964,3,1964,NA,0.5,1.24397042741581,1.52358122752607,1.88764670034376,1.38377582747094,FALSE,1.18977448215449
"CAN","cpi",0.2,1964,3,1963,NA,1,4.31958305056598,5.10614800754263,1.88764670034376,4.71286552905431,FALSE,6.86640583253221
"CAN","cpi",0.2,1964,3,1963,NA,1.5,-0.274239081941539,0.751798428286193,1.88764670034376,0.238779673172327,FALSE,3.86565819037165
"CAN","cpi",0.2,1965,3,1965,NA,0,2.31341616495958,2.39647404525149,2.29538304394236,2.35494510510554,FALSE,0.128140682834969
"CAN","cpi",0.2,1965,3,1965,NA,0.5,1.42230926379425,1.69858866540052,2.29538304394236,1.56044896459738,FALSE,1.76826534796086
"CAN","cpi",0.2,1965,3,1964,NA,1,2.04920822375773,2.80500641421441,2.29538304394236,2.42710731898607,TRUE,0.755798190456683
"CAN","cpi",0.2,1965,3,1964,NA,1.5,0.440416662674775,1.19621485313146,2.29538304394236,0.818315757903116,FALSE,3.50371866748393
"CAN","cpi",0.2,1966,3,1966,NA,0,3.80718907901155,3.88609364878868,3.72486065470629,3.84664136390011,FALSE,0.284725630540272
"CAN","cpi",0.2,1966,3,1966,NA,0.5,3.70901078932921,3.98481721527683,3.72486065470629,3.84691400230302,TRUE,0.27580642594762
"CAN","cpi",0.2,1966,3,1965,NA,1,2.94421297864715,3.68314696314714,3.72486065470629,3.31367997089714,FALSE,0.843218213397872
"CAN","cpi",0.2,1966,3,1965,NA,1.5,1.11203683188514,1.85097081638513,3.72486065470629,1.48150382413513,FALSE,5.4236585803029
"CAN","cpi",0.2,1967,3,1967,NA,0,3.72952364865936,3.80773573260347,3.49360316391996,3.76862969063141,FALSE,0.668013295792607
"CAN","cpi",0.2,1967,3,1967,NA,0.5,2.21206732043349,2.51142109410527,3.49360316391996,2.36174420726938,FALSE,2.7548089482085
"CAN","cpi",0.2,1967,3,1966,NA,1,3.11880582045153,3.84587108864927,3.49360316391996,3.4823384545504,TRUE,0.72706526819774
"CAN","cpi",0.2,1967,3,1966,NA,1.5,3.92904437033735,4.65610963853509,3.49360316391996,4.29257700443622,FALSE,1.81566828424122
"CAN","cpi",0.2,1968,3,1968,NA,0,4.07176068891269,4.15504533627271,3.95128347779386,4.1134030125927,FALSE,0.384477675157101
"CAN","cpi",0.2,1968,3,1968,NA,0.5,3.7754620542889,4.00902662058976,3.95128347779386,3.89224433743933,TRUE,0.233564566300855
"CAN","cpi",0.2,1968,3,1967,NA,1,5.4845978036568,6.22733642652776,3.95128347779386,5.85596711509228,FALSE,4.57602443752832
"CAN","cpi",0.2,1968,3,1967,NA,1.5,1.76837028979299,2.51537161321516,3.95128347779386,2.14187095150408,FALSE,4.33678098486891
"CAN","cpi",0.2,1969,3,1969,NA,0,4.60097449678466,4.68428680614168,4.42679496126681,4.64263065146317,FALSE,0.518761148151629
"CAN","cpi",0.2,1969,3,1969,NA,0.5,2.94440210303521,3.17958775452022,4.42679496126681,3.06199492877772,FALSE,3.35320366835149
"CAN","cpi",0.2,1969,3,1968,NA,1,5.76393033145528,6.3477172435173,4.42679496126681,6.05582378748629,FALSE,3.92662533753319
"CAN","cpi",0.2,1969,3,1968,NA,1.5,3.58038139516221,4.16416830722423,4.42679496126681,3.87227485119322,FALSE,1.24035354716847
"CAN","cpi",0.2,1970,3,1970,NA,0,3.54914876676005,3.6307807317284,3.28128405769805,3.58996474924422,FALSE,0.751293737623355
"CAN","cpi",0.2,1970,3,1970,NA,0.5,4.03962050030114,4.30398489275389,3.28128405769805,4.17180269652751,FALSE,2.16020549896048
"CAN","cpi",0.2,1970,3,1969,NA,1,5.14928752826369,5.72802240103707,3.28128405769805,5.43865496465038,FALSE,5.24874354918749
"CAN","cpi",0.2,1970,3,1969,NA,1.5,2.02735987341197,2.60609474618535,3.28128405769805,2.31672730979866,FALSE,2.26670815155512
"CAN","cpi",0.2,1971,3,1971,NA,0,2.85079613674582,2.9376986596149,2.64123406634756,2.89424739818036,FALSE,0.610807698864731
"CAN","cpi",0.2,1971,3,1971,NA,0.5,0.902430366053902,1.24824951321723,2.64123406634756,1.07533993963556,FALSE,3.82828052998916
"CAN","cpi",0.2,1971,3,1970,NA,1,2.70216983796574,3.26104946470912,2.64123406634756,2.98160965133743,FALSE,0.711219055788822
"CAN","cpi",0.2,1971,3,1970,NA,1.5,3.87764279353954,4.43652242028293,2.64123406634756,4.15708260691123,FALSE,3.64990144472334
"CAN","cpi",0.2,1972,3,1972,NA,0,5.07724127879556,5.129188515242,4.83230569625923,5.10321489701878,FALSE,0.66428619278726
"CAN","cpi",0.2,1972,3,1972,NA,0.5,4.38194573269762,4.76858995679184,4.83230569625923,4.57526784474473,FALSE,0.545933572762688
"CAN","cpi",0.2,1972,3,1971,NA,1,6.25637945036543,6.87828327992777,4.83230569625923,6.5673313651466,FALSE,4.18208821482784
"CAN","cpi",0.2,1972,3,1971,NA,1.5,0.890319010387295,1.51222283994964,4.83230569625923,1.20127092516847,FALSE,8.92211097033632
"CAN","cpi",0.2,1973,3,1973,NA,0,7.33964018229514,7.38573480004231,7.12388603531779,7.36268749116872,FALSE,0.585479985190543
"CAN","cpi",0.2,1973,3,1973,NA,0.5,5.71194732449288,6.07671253699345,7.12388603531779,5.89432993074317,FALSE,2.98269895831141
"CAN","cpi",0.2,1973,3,1972,NA,1,7.06329487060158,7.67950385016042,7.12388603531779,7.371399360381,TRUE,0.616208979558845
"CAN","cpi",0.2,1973,3,1972,NA,1.5,4.14204970497254,4.86444372067005,7.12388603531779,4.50324671282129,FALSE,6.37099980231686
"CAN","cpi",0.2,1974,3,1974,NA,0,10.3016766055109,10.342899660935,10.2717243737774,10.3222881332229,FALSE,0.116103634757748
"CAN","cpi",0.2,1974,3,1974,NA,0.5,8.66125799202034,9.03300006670706,10.2717243737774,8.8471290293637,FALSE,3.46855284236262
"CAN","cpi",0.2,1974,3,1973,NA,1,10.7207469583278,11.2561336067467,10.2717243737774,10.9884402825372,FALSE,1.65794310979482
"CAN","cpi",0.2,1974,3,1973,NA,1.5,5.82340371394879,6.56769332764566,10.2717243737774,6.19554852079723,FALSE,10.0043672290263
"CAN","cpi",0.2,1975,3,1975,NA,0,10.2413998066824,10.2879885337895,10.0232981493341,10.2646941702359,FALSE,0.591842870477785
"CAN","cpi",0.2,1975,3,1975,NA,0.5,9.02201338471735,9.41509437938902,10.0232981493341,9.21855388205318,FALSE,1.91359041953442
"CAN","cpi",0.2,1975,3,1974,NA,1,11.7215782417682,12.2594505450125,10.0232981493341,11.9905143933903,FALSE,4.78357253432946
"CAN","cpi",0.2,1975,3,1974,NA,1.5,8.25117800270685,9.10900457990163,10.0232981493341,8.68009129130424,FALSE,3.14356050077601
"CAN","cpi",0.2,1976,3,1976,NA,0,7.23140470886616,7.27625663757828,7.22784311401172,7.25383067322222,FALSE,0.0537559158482375
"CAN","cpi",0.2,1976,3,1976,NA,0.5,7.21912577887111,7.61182773322431,7.22784311401172,7.41547675604771,TRUE,0.392701954353196
"CAN","cpi",0.2,1976,3,1975,NA,1,11.6768560265131,12.1534460897154,7.22784311401172,11.9151510581142,FALSE,11.5991223444557
"CAN","cpi",0.2,1976,3,1975,NA,1.5,7.58435985885065,8.44227090354308,7.22784311401172,8.01331538119686,FALSE,1.74920290678977
"CAN","cpi",0.2,1977,3,1977,NA,0,7.59479790727432,7.64254468654583,7.58101410153764,7.61867129691007,FALSE,0.0822062936131918
"CAN","cpi",0.2,1977,3,1977,NA,0.5,6.81562171563667,7.23013572415997,7.58101410153764,7.02287871989832,FALSE,1.29170995196748
"CAN","cpi",0.2,1977,3,1976,NA,1,5.51171087746066,6.23352720006409,7.58101410153764,5.87261903876238,FALSE,4.09053357628731
"CAN","cpi",0.2,1977,3,1976,NA,1.5,5.69031371156004,6.61613918892183,7.58101410153764,6.15322645024094,FALSE,3.33801275890132
"CAN","cpi",0.2,1978,3,1978,NA,0,8.65494482043233,8.70756332446777,8.50208927062595,8.68125407245005,FALSE,0.434757378551401
"CAN","cpi",0.2,1978,3,1978,NA,0.5,7.92679272082366,8.32338212578078,8.50208927062595,8.12508742330222,FALSE,0.843357267070033
"CAN","cpi",0.2,1978,3,1977,NA,1,8.23139643795557,9.05497889910366,8.50208927062595,8.64318766852961,TRUE,0.823582461148085
"CAN","cpi",0.2,1978,3,1977,NA,1.5,7.20406227889684,8.11651645703324,8.50208927062595,7.66028936796504,FALSE,1.87638621211817
"CAN","cpi",0.2,1979,3,1979,NA,0,8.58546033173488,8.63605859646087,8.65147652410481,8.61075946409788,FALSE,0.089143083835836
"CAN","cpi",0.2,1979,3,1979,NA,0.5,7.90537484967647,8.29588185581496,8.65147652410481,8.10062835274572,FALSE,1.27949367686311
"CAN","cpi",0.2,1979,3,1978,NA,1,9.17366593111369,9.99160383825212,8.65147652410481,9.5826348846829,FALSE,2.12341142466062
"CAN","cpi",0.2,1979,3,1978,NA,1.5,7.51580438396616,8.36787250956438,8.65147652410481,7.94183844676527,FALSE,1.56107816194928
"CAN","cpi",0.2,1980,3,1980,NA,0,9.50063316312981,9.5615477718759,9.5171912664748,9.53109046750286,TRUE,0.060914608746085
"CAN","cpi",0.2,1980,3,1980,NA,0.5,8.49552711658817,8.87574518172027,9.5171912664748,8.68563614915422,FALSE,1.98383327701842
"CAN","cpi",0.2,1980,3,1979,NA,1,7.91967795609364,8.73129672723802,9.5171912664748,8.32548734166583,FALSE,2.77635511923632
"CAN","cpi",0.2,1980,3,1979,NA,1.5,7.55358955734713,8.40735248457529,9.5171912664748,7.98047102096121,FALSE,3.62835988197692
"CAN","cpi",0.2,1981,3,1981,NA,0,11.6769268356436,11.7409851194023,11.5813425032741,11.708955977523,FALSE,0.303019114682384
"CAN","cpi",0.2,1981,3,1981,NA,0.5,11.9451555928404,12.3076369886495,11.5813425032741,12.1263962907449,FALSE,1.27201411972472
"CAN","cpi",0.2,1981,3,1980,NA,1,10.5529709813185,11.4169093492872,11.5813425032741,10.9849401653028,FALSE,1.27502125293611
"CAN","cpi",0.2,1981,3,1980,NA,1.5,8.1953830686721,9.05932143664083,11.5813425032741,8.62735225265647,FALSE,7.168991034552
"CAN","cpi",0.2,1982,3,1982,NA,0,10.28210612221,10.3398438273224,10.1124203763629,10.3109749747662,FALSE,0.481952069730036
"CAN","cpi",0.2,1982,3,1982,NA,0.5,9.93546944825325,10.2638978757461,10.1124203763629,10.0996836619997,TRUE,0.328428427492874
"CAN","cpi",0.2,1982,3,1981,NA,1,11.1797078136882,12.0592512261423,10.1124203763629,11.6194795199153,FALSE,3.54776200576733
"CAN","cpi",0.2,1982,3,1981,NA,1.5,12.2796639699172,13.1592073823713,10.1124203763629,12.7194356761443,FALSE,6.29765239633974
"CAN","cpi",0.2,1983,3,1983,NA,0,5.80003031189838,5.85526449534231,5.67091787896303,5.82764740362034,FALSE,0.37801526578229
"CAN","cpi",0.2,1983,3,1983,NA,0.5,4.82621622650239,5.12466266938423,5.67091787896303,4.97543944794331,FALSE,1.66408446682886
"CAN","cpi",0.2,1983,3,1982,NA,1,8.79310272544631,9.68246520819882,5.67091787896303,9.23778396682256,FALSE,8.69482459896069
"CAN","cpi",0.2,1983,3,1982,NA,1.5,9.29694319226712,10.2804596912099,5.67091787896303,9.78870144173853,FALSE,10.048579782203
"CAN","cpi",0.2,1984,3,1984,NA,0,4.18866033349314,4.23849041237328,4.19799576814029,4.21357537293321,TRUE,0.049830078880138
"CAN","cpi",0.2,1984,3,1984,NA,0.5,4.49387083356438,4.79130782770693,4.19799576814029,4.64258933063566,FALSE,1.03712465770278
"CAN","cpi",0.2,1984,3,1983,NA,1,5.64139112342662,6.62136197399774,4.19799576814029,6.13137654871218,FALSE,4.58845923878695
"CAN","cpi",0.2,1984,3,1983,NA,1.5,2.85725120786598,4.07939756407215,4.19799576814029,3.46832438596907,FALSE,1.51864186637651
"CAN","cpi",0.2,1985,3,1985,NA,0,3.89569359198976,3.9424929232146,3.86444262005169,3.91909325760218,FALSE,0.124926761070002
"CAN","cpi",0.2,1985,3,1985,NA,0.5,3.73890853988821,4.04409522401256,3.86444262005169,3.89150188195039,TRUE,0.305186684124349
"CAN","cpi",0.2,1985,3,1984,NA,1,2.80221469985583,3.78572679968488,3.86444262005169,3.29397074977035,FALSE,1.18030165074609
"CAN","cpi",0.2,1985,3,1984,NA,1.5,3.87642890202856,5.05679179316823,3.86444262005169,4.4666103475984,FALSE,1.21032859608184
"CAN","cpi",0.2,1986,3,1986,NA,0,4.08253271675955,4.12924436455225,4.08685396749431,4.1058885406559,TRUE,0.0467116477927014
"CAN","cpi",0.2,1986,3,1986,NA,0.5,4.28375311116247,4.5362750120125,4.08685396749431,4.41001406158749,FALSE,0.744769760020434
"CAN","cpi",0.2,1986,3,1985,NA,1,3.48548971222855,4.50058787416027,4.08685396749431,3.99303879319441,TRUE,1.01509816193172
"CAN","cpi",0.2,1986,3,1985,NA,1.5,3.70889231764542,4.73763415997266,4.08685396749431,4.22326323880904,TRUE,1.02874184232724
"CAN","cpi",0.2,1987,3,1987,NA,0,4.33958860467247,4.37994576494517,4.23980729277887,4.35976718480882,FALSE,0.2898104400067
"CAN","cpi",0.2,1987,3,1987,NA,0.5,3.78619733269063,4.03252909520474,4.23980729277887,3.90936321394769,FALSE,0.764527256449433
"CAN","cpi",0.2,1987,3,1986,NA,1,3.82586830667643,4.83612487635267,4.23980729277887,4.33099659151455,TRUE,1.01025656967624
"CAN","cpi",0.2,1987,3,1986,NA,1.5,4.24734293552403,5.25759950520027,4.23980729277887,4.75247122036215,FALSE,1.02909567653915
"CAN","cpi",0.2,1988,3,1988,NA,0,3.99260533701133,4.03278586603684,3.92899537638065,4.01269560152408,FALSE,0.199205430602199
"CAN","cpi",0.2,1988,3,1988,NA,0.5,3.34999890036216,3.59151301792454,3.92899537638065,3.47075595914335,FALSE,1.08522001370266
"CAN","cpi",0.2,1988,3,1987,NA,1,4.19578823623435,4.96746053366698,3.92899537638065,4.58162438495066,FALSE,1.43865444706686
"CAN","cpi",0.2,1988,3,1987,NA,1.5,3.31164354487338,4.31565198176677,3.92899537638065,3.81364776332008,TRUE,1.00400843689339
"CAN","cpi",0.2,1989,3,1989,NA,0,5.00418334305859,5.04372307440356,4.82821664544208,5.02395320873108,FALSE,0.479456475386253
"CAN","cpi",0.2,1989,3,1989,NA,0.5,4.24890341225056,4.48689354465249,4.82821664544208,4.36789847845152,FALSE,1.0912978843759
"CAN","cpi",0.2,1989,3,1988,NA,1,4.11728722582942,4.80596401088964,4.82821664544208,4.46162561835953,FALSE,0.744308371441312
"CAN","cpi",0.2,1989,3,1988,NA,1.5,2.79017417455722,3.766588877723,4.82821664544208,3.27838152614011,FALSE,3.63048412246348
"CAN","cpi",0.2,1990,3,1990,NA,0,4.49931838613781,4.53994418425353,4.64347549432717,4.51963128519567,FALSE,0.299454073299819
"CAN","cpi",0.2,1990,3,1990,NA,0.5,4.86427258715056,5.10441595281754,4.64347549432717,4.98434426998405,FALSE,0.792136097725447
"CAN","cpi",0.2,1990,3,1989,NA,1,5.56713857005403,6.26836021472818,4.64347549432717,5.9177493923911,FALSE,3.01037933399129
"CAN","cpi",0.2,1990,3,1989,NA,1.5,4.06203620469523,5.06168096307495,4.64347549432717,4.56185858388509,TRUE,0.999644758379715
"CAN","cpi",0.2,1991,3,1991,NA,0,5.59981826023664,5.6483169956723,5.4258100696218,5.62406762795447,FALSE,0.483519211972776
"CAN","cpi",0.2,1991,3,1991,NA,0.5,8.26993237893065,8.51350929774468,5.4258100696218,8.39172083833767,FALSE,7.35388269208617
"CAN","cpi",0.2,1991,3,1990,NA,1,3.51510204553673,4.22325028550121,5.4258100696218,3.86917616551897,FALSE,3.71454770026595
"CAN","cpi",0.2,1991,3,1990,NA,1.5,4.62677646403728,5.61899349306697,5.4258100696218,5.12288497855213,TRUE,0.992217029029694
"CAN","cpi",0.2,1992,3,1992,NA,0,1.4554291027184,1.50578275708542,1.47496888572843,1.48060592990191,TRUE,0.0503536543670151
"CAN","cpi",0.2,1992,3,1992,NA,0.5,0.920290871285586,1.42368343354505,1.47496888572843,1.17198715241532,FALSE,0.631606192717915
"CAN","cpi",0.2,1992,3,1991,NA,1,2.15367833312426,2.88681222833966,1.47496888572843,2.52024528073196,FALSE,2.42990751370497
"CAN","cpi",0.2,1992,3,1991,NA,1.5,9.67457416138513,10.63210125702,1.47496888572843,10.1533377092026,FALSE,21.4565402847766
"CAN","cpi",0.2,1993,3,1993,NA,0,1.77674174177859,1.82850114473457,1.84351085411351,1.80262144325658,FALSE,0.0892836764033308
"CAN","cpi",0.2,1993,3,1993,NA,0.5,2.08888727981216,2.59593903135946,1.84351085411351,2.34241315558581,FALSE,1.12049281579392
"CAN","cpi",0.2,1993,3,1992,NA,1,1.46261993898935,2.17349898926233,1.84351085411351,1.81805946412584,TRUE,0.710879050272974
"CAN","cpi",0.2,1993,3,1992,NA,1.5,0.400527018714967,1.88000018333785,1.84351085411351,1.14026360102641,TRUE,1.47947316462289
"CAN","cpi",0.2,1994,3,1994,NA,0,0.138078673851025,0.18915458286563,0.161630694655448,0.163616628358327,TRUE,0.051075909014605
"CAN","cpi",0.2,1994,3,1994,NA,0.5,-0.639344158519796,-0.130936037538963,0.161630694655448,-0.385140098029379,FALSE,1.23982495146686
"CAN","cpi",0.2,1994,3,1993,NA,1,1.0229286692737,1.72656589339396,0.161630694655448,1.37474728133383,FALSE,2.85688216066588
"CAN","cpi",0.2,1994,3,1993,NA,1.5,1.85256634909724,3.34114595713325,0.161630694655448,2.59685615311524,FALSE,5.71591874414049
"CAN","cpi",0.2,1995,3,1995,NA,0,2.16898408799612,2.21814487586974,2.11688403676572,2.19356448193293,FALSE,0.179410915949629
"CAN","cpi",0.2,1995,3,1995,NA,0.5,2.42648561938682,2.92853245147012,2.11688403676572,2.67750903542847,FALSE,1.27605078863606
"CAN","cpi",0.2,1995,3,1994,NA,1,1.08661237727121,1.59523998483276,2.11688403676572,1.34092618105198,FALSE,1.81273773739394
"CAN","cpi",0.2,1995,3,1994,NA,1.5,-2.0227089665978,-0.605259468523205,2.11688403676572,-1.3139842175605,FALSE,8.22280826129689
"CAN","cpi",0.2,1996,3,1996,NA,0,1.45756161965305,1.50656862840137,1.55309584667184,1.48206512402721,FALSE,0.165325054424503
"CAN","cpi",0.2,1996,3,1996,NA,0.5,0.996455824635548,1.47551779286969,1.55309584667184,1.23598680875262,FALSE,0.673007102739528
"CAN","cpi",0.2,1996,3,1995,NA,1,1.0903036294964,1.56936559773054,1.55309584667184,1.32983461361347,TRUE,0.479061968234141
"CAN","cpi",0.2,1996,3,1995,NA,1.5,2.65239405642997,4.19921806257275,1.55309584667184,3.42580605950136,FALSE,4.29506953053809
"CAN","cpi",0.2,1997,3,1997,NA,0,1.66421179328461,1.71678885511267,1.60528783555959,1.69050032419864,FALSE,0.199886956140595
"CAN","cpi",0.2,1997,3,1997,NA,0.5,1.88110523464864,2.3584785450497,1.60528783555959,2.11979188984917,FALSE,1.16691680812369
"CAN","cpi",0.2,1997,3,1996,NA,1,0.956554193536382,1.43392750393744,1.60528783555959,1.19524084873691,FALSE,0.905774139456433
"CAN","cpi",0.2,1997,3,1996,NA,1.5,0.575710311036091,2.13550776620596,1.60528783555959,1.35560903862103,TRUE,1.55979745516987
"CAN","cpi",0.2,1998,3,1998,NA,0,0.953689492556355,1.00648654930669,0.988908029337191,0.980088020931525,TRUE,0.0527970567503382
"CAN","cpi",0.2,1998,3,1998,NA,0.5,1.07002255848191,1.55154438444292,0.988908029337191,1.31078347146242,FALSE,0.684308148822813
"CAN","cpi",0.2,1998,3,1997,NA,1,0.824947012720274,1.30646883868129,0.988908029337191,1.06570792570078,TRUE,0.481521825961012
"CAN","cpi",0.2,1998,3,1997,NA,1.5,1.47143463544541,3.03577874988447,0.988908029337191,2.25360669266494,FALSE,2.77066062970961
"CAN","cpi",0.2,1999,3,1999,NA,0,1.79112828332296,1.84309762353992,1.7107350135213,1.81711295343144,FALSE,0.252952514721122
"CAN","cpi",0.2,1999,3,1999,NA,0.5,0.549754523730421,1.02702060771867,1.7107350135213,0.788387565724544,FALSE,2.18655209849482
"CAN","cpi",0.2,1999,3,1998,NA,1,0.336733450860001,0.813999534848249,1.7107350135213,0.575366492854125,FALSE,2.71910478067087
"CAN","cpi",0.2,1999,3,1998,NA,1.5,0.903689378667638,2.47065015554353,1.7107350135213,1.68716976710558,TRUE,1.56696077687589
"CAN","cpi",0.2,2000,3,2000,NA,0,2.70368971623731,2.75629825829263,2.6718361971244,2.72999398726497,FALSE,0.132242339837596
"CAN","cpi",0.2,2000,3,2000,NA,0.5,1.81783557790844,2.31814177060214,2.6718361971244,2.06798867425529,FALSE,1.38454225899934
"CAN","cpi",0.2,2000,3,1999,NA,1,2.84137086427621,3.34167705696991,2.6718361971244,3.09152396062306,FALSE,0.924142860573234
"CAN","cpi",0.2,2000,3,1999,NA,1.5,0.0599714146393964,1.62575229588867,2.6718361971244,0.842861855264031,FALSE,4.1809906343386
"CAN","cpi",0.2,2001,3,2001,NA,0,2.81917278209193,2.86499653168029,2.47906219852806,2.84208465688611,FALSE,0.896100208498017
"CAN","cpi",0.2,2001,3,2001,NA,0.5,1.63414081233109,2.13862855972715,2.47906219852806,1.88638468602912,FALSE,1.35557184439835
"CAN","cpi",0.2,2001,3,2000,NA,1,3.44564966656711,3.95013741396317,2.47906219852806,3.69789354026514,FALSE,2.92095641749368
"CAN","cpi",0.2,2001,3,2000,NA,1.5,1.0798079858217,2.65651606494089,2.47906219852806,1.8681620253813,TRUE,1.5767080791192
"CAN","cpi",0.2,2002,3,2002,NA,0,2.34484147091558,2.40714984300955,2.20880570551249,2.37599565696257,FALSE,0.402397785601706
"CAN","cpi",0.2,2002,3,2002,NA,0.5,0.65880118469047,1.16835205068509,2.20880570551249,0.913576617687781,FALSE,3.11068500306311
"CAN","cpi",0.2,2002,3,2001,NA,1,1.68256538785746,2.19211625385208,2.20880570551249,1.93734082085477,FALSE,0.551274495145628
"CAN","cpi",0.2,2002,3,2001,NA,1.5,0.429958547581508,2.01539748154627,2.20880570551249,1.22267801456389,FALSE,2.0689594938803
"CAN","cpi",0.2,2003,3,2003,NA,0,2.70210125615832,2.76293647127481,2.71189071546809,2.73251886371656,TRUE,0.0608352151164935
"CAN","cpi",0.2,2003,3,2003,NA,0.5,4.15629257208602,4.47722112130236,2.71189071546809,4.31675684669419,FALSE,3.93193319076116
"CAN","cpi",0.2,2003,3,2002,NA,1,4.41755503429228,4.81969315723854,2.71189071546809,4.61862409576541,FALSE,4.66629892000674
"CAN","cpi",0.2,2003,3,2002,NA,1.5,0.565933008154023,2.16524024518518,2.71189071546809,1.3655866266696,FALSE,2.96593341273843
"CAN","cpi",0.2,2004,3,2004,NA,0,1.79966332922741,1.86014867748808,1.83151661303942,1.82990600335775,TRUE,0.0604853482606691
"CAN","cpi",0.2,2004,3,2004,NA,0.5,1.22641284319173,1.65323953192754,1.83151661303942,1.43982618755963,FALSE,0.872519391515525
"CAN","cpi",0.2,2004,3,2003,NA,1,0.794564063175099,1.26437228328118,1.83151661303942,1.02946817322814,FALSE,1.88766904450169
"CAN","cpi",0.2,2004,3,2003,NA,1.5,4.21740508571847,5.07558529676239,1.83151661303942,4.64649519124043,FALSE,6.82290139274153
"CAN","cpi",0.2,2005,3,2005,NA,0,2.35507735130319,2.41400902261351,2.18071628336509,2.38454318695835,FALSE,0.494834341155573
"CAN","cpi",0.2,2005,3,2005,NA,0.5,1.39721272895416,1.81512102015901,2.18071628336509,1.60616687455658,FALSE,1.33189644922006
"CAN","cpi",0.2,2005,3,2004,NA,1,1.40532338736852,1.89831242794009,2.18071628336509,1.65181790765431,FALSE,1.19899867913407
"CAN","cpi",0.2,2005,3,2004,NA,1.5,1.27331619532264,2.25186979562783,2.18071628336509,1.76259299547523,TRUE,0.978553600305183
"CAN","cpi",0.2,2006,3,2006,NA,0,2.10596749482092,2.16673519720037,1.97519342012289,2.13635134601064,FALSE,0.387702889124536
"CAN","cpi",0.2,2006,3,2006,NA,0.5,1.57754896265155,1.99615257488643,1.97519342012289,1.78685076876899,TRUE,0.418603612234883
"CAN","cpi",0.2,2006,3,2005,NA,1,3.27287394755436,3.73682510424717,1.97519342012289,3.50484952590076,FALSE,3.70815247527149
"CAN","cpi",0.2,2006,3,2005,NA,1.5,1.02383676473458,1.91244008128566,1.97519342012289,1.46813842301012,FALSE,1.04548666364415
"CAN","cpi",0.2,2007,3,2007,NA,0,2.17393900908484,2.23556450370679,2.10062087284572,2.20475175639581,FALSE,0.244920835219738
"CAN","cpi",0.2,2007,3,2007,NA,0.5,1.7847574518871,2.18579748291467,2.10062087284572,1.98527746740088,TRUE,0.40104003102757
"CAN","cpi",0.2,2007,3,2006,NA,1,0.995852974006153,1.4989516636475,2.10062087284572,1.24740231882683,FALSE,2.0072717126369
"CAN","cpi",0.2,2007,3,2006,NA,1.5,1.2464278748568,1.96351628495252,2.10062087284572,1.60497207990466,FALSE,1.05984987982873
"CAN","cpi",0.2,2008,3,2008,NA,0,2.99034208459934,3.04500943698195,2.31447335265955,3.01767576079065,FALSE,1.74433918223208
"CAN","cpi",0.2,2008,3,2008,NA,0.5,0.837124073455557,1.23812321074508,2.31447335265955,1.03762364210032,FALSE,3.0918744920757
"CAN","cpi",0.2,2008,3,2007,NA,1,1.14079164261606,1.6650326227663,2.31447335265955,1.40291213269118,FALSE,2.14784280488337
"CAN","cpi",0.2,2008,3,2007,NA,1.5,2.37639676892708,3.02229856408183,2.31447335265955,2.69934766650446,FALSE,0.800710335823575
"CAN","cpi",0.2,2009,3,2009,NA,0,0.269348780867441,0.37410368180137,0.284533874408197,0.321726231334406,TRUE,0.104754900933929
"CAN","cpi",0.2,2009,3,2009,NA,0.5,-1.5308619671945,-1.1190154384852,0.284533874408197,-1.32493870283985,FALSE,3.92071981094279
"CAN","cpi",0.2,2009,3,2008,NA,1,4.80502066412443,5.3471941942265,0.284533874408197,5.07610742917547,FALSE,11.8433905043927
"CAN","cpi",0.2,2009,3,2008,NA,1.5,0.684905558917739,1.33722562166408,0.284533874408197,1.01106559029091,FALSE,1.65324927402019
"CAN","cpi",0.2,2010,3,2010,NA,0,1.7028503495564,1.80580158417208,1.75525687020327,1.75432596686424,TRUE,0.102951234615684
"CAN","cpi",0.2,2010,3,2010,NA,0.5,1.27642809715713,1.71046450295457,1.75525687020327,1.49344630005585,FALSE,0.546017323919196
"CAN","cpi",0.2,2010,3,2009,NA,1,0.747411501943626,1.51279590855982,1.75525687020327,1.13010370525173,FALSE,1.37153681072482
"CAN","cpi",0.2,2010,3,2009,NA,1.5,-2.64188404657528,-1.87649963995908,1.75525687020327,-2.25919184326718,FALSE,9.84477568202207
"CAN","cpi",0.2,2011,3,2011,NA,0,2.85530207388366,2.96134437324983,2.85717434028225,2.90832322356675,TRUE,0.106042299366169
"CAN","cpi",0.2,2011,3,2011,NA,0.5,2.59949649480908,3.03040421807219,2.85717434028225,2.81495035644064,TRUE,0.43090772326311
"CAN","cpi",0.2,2011,3,2010,NA,1,1.81593577791774,2.68397672069663,2.85717434028225,2.24995624930718,FALSE,1.30103499174293
"CAN","cpi",0.2,2011,3,2010,NA,1.5,1.25719171166173,2.12523265444062,2.85717434028225,1.69121218305118,FALSE,2.69789515738295
"CAN","cpi",0.2,2012,3,2012,NA,0,1.45547920999076,1.56170820379442,1.50118536134935,1.50859370689259,TRUE,0.106228993803654
"CAN","cpi",0.2,2012,3,2012,NA,0.5,1.53357327792044,1.96893201957339,1.50118536134935,1.75125264874692,FALSE,0.516328533080689
"CAN","cpi",0.2,2012,3,2011,NA,1,1.41396040326243,2.28092871825117,1.50118536134935,1.8474445607568,TRUE,0.866968314988734
"CAN","cpi",0.2,2012,3,2011,NA,1.5,2.63577642303638,3.50274473802512,1.50118536134935,3.06926058053075,FALSE,3.70344596920632
"CAN","cpi",0.2,2013,3,2013,NA,0,1.004652850264,1.10765904905999,0.931270594714462,1.05615594966199,FALSE,0.286461837669832
"CAN","cpi",0.2,2013,3,2013,NA,0.5,0.801061385495429,1.24729734360314,0.931270594714462,1.02417936454929,TRUE,0.446235958107712
"CAN","cpi",0.2,2013,3,2012,NA,1,-0.376957330813136,0.514126367965366,0.931270594714462,0.0685845185761151,FALSE,1.93394426565124
"CAN","cpi",0.2,2013,3,2012,NA,1.5,1.2736277377785,2.164711436557,0.931270594714462,1.71916958716775,FALSE,1.7469765564386
"CAN","cpi",0.2,2014,3,2014,NA,0,2.01245022635048,2.11528928555127,1.87639912240215,2.06386975595087,FALSE,0.442966819071605
"CAN","cpi",0.2,2014,3,2014,NA,0.5,1.71676277821017,2.13754144620407,1.87639912240215,1.92715211220712,TRUE,0.420778667993894
"CAN","cpi",0.2,2014,3,2013,NA,1,0.662683008165999,1.56476346062347,1.87639912240215,1.11372323439473,FALSE,1.68116960690418
"CAN","cpi",0.2,2014,3,2013,NA,1.5,0.949363656172505,1.85144410862997,1.87639912240215,1.40040388240124,FALSE,0.964467986887911
"CAN","cpi",0.2,2015,3,2015,NA,0,1.25657507205046,1.35808049077411,1.11090953952792,1.30732778141228,FALSE,0.465669250029999
"CAN","cpi",0.2,2015,3,2015,NA,0.5,-0.0643370547948293,0.230843134205997,1.11090953952792,0.0832530397055839,FALSE,2.49534620230563
"CAN","cpi",0.2,2015,3,2014,NA,1,0.995567748056459,1.87230898553728,1.11090953952792,1.43393836679687,TRUE,0.876741237480821
"CAN","cpi",0.2,2015,3,2014,NA,1.5,2.2367007824551,3.11434611253739,1.11090953952792,2.67552344749624,FALSE,3.69212343740024
"CAN","cpi",0.2,2016,3,2016,NA,0,1.45956034487849,1.55827037835183,1.41168586698797,1.50891536161516,FALSE,0.218396228199657
"CAN","cpi",0.2,2016,3,2016,NA,0.5,0.630895194218901,0.942808289819531,1.41168586698797,0.786851742019216,FALSE,1.48410703852172
"CAN","cpi",0.2,2016,3,2015,NA,1,1.74329639076931,2.56990860191451,1.41168586698797,2.15660249634191,FALSE,1.65563852059856
"CAN","cpi",0.2,2016,3,2015,NA,1.5,-0.530526391078354,0.296085820066849,1.41168586698797,-0.117220285505753,FALSE,3.615612328448
"CAN","cpi",0.2,2017,3,2017,NA,0,1.4993742401723,1.59825250424303,1.57888581671161,1.54881337220766,TRUE,0.0988782640707266
"CAN","cpi",0.2,2017,3,2017,NA,0.5,1.75706221084798,2.06967774751898,1.57888581671161,1.91336997918348,FALSE,0.758056522011915
"CAN","cpi",0.2,2017,3,2016,NA,1,0.7689345212001,1.60644259222499,1.57888581671161,1.18768855671255,TRUE,0.83750807102489
"CAN","cpi",0.2,2017,3,2016,NA,1.5,0.245737667326955,1.08324573835184,1.57888581671161,0.6644917028394,FALSE,2.07660826692431
"CAN","cpi",0.2,2018,3,2018,NA,0,2.39390291835597,2.49655820319928,2.23316270166586,2.44523056077762,FALSE,0.504505826568578
"CAN","cpi",0.2,2018,3,2018,NA,0.5,2.63524350282978,2.96788682454528,2.23316270166586,2.80156516368753,FALSE,1.33784532462531
"CAN","cpi",0.2,2018,3,2017,NA,1,0.405560675346984,1.23482183790476,2.23316270166586,0.82019125662587,FALSE,3.32511332196053
"CAN","cpi",0.2,2018,3,2017,NA,1.5,2.01793437105178,2.84719553360955,2.23316270166586,2.43256495233066,TRUE,0.829261162557771
"CAN","cpi",0.2,2019,3,2019,NA,0,2.03331262078646,2.13647474972348,1.91921619871868,2.08489368525497,FALSE,0.388403184106469
"CAN","cpi",0.2,2019,3,2019,NA,0.5,1.29083998910632,1.65279922270236,1.91921619871868,1.47181960590434,FALSE,1.02800167363684
"CAN","cpi",0.2,2019,3,2018,NA,1,1.76067995035904,2.60179837992356,1.91921619871868,2.1812391651413,TRUE,0.841118429564512
"CAN","cpi",0.2,2019,3,2018,NA,1.5,3.17292075556861,4.01403918513312,1.91921619871868,3.59347997035086,FALSE,3.97537982168932
"CAN","cpi",0.2,2020,3,2020,NA,0,0.670015522086076,0.71425095928321,0.71139989671781,0.692133240684643,TRUE,0.0442354371971332
"CAN","cpi",0.2,2020,3,2020,NA,0.5,0.892469423804321,1.21869164341864,0.71139989671781,1.05558053361148,FALSE,0.778896037330591
"CAN","cpi",0.2,2020,3,2019,NA,1,1.5928703381097,2.43686918147694,0.71139989671781,2.01486975979332,FALSE,3.04767494684697
"CAN","cpi",0.2,2020,3,2019,NA,1.5,1.33720349625691,2.20817683581785,0.71139989671781,1.77269016603738,FALSE,2.43548233840869
"CAN","cpi",0.2,2021,3,2021,NA,0,3.35065857999371,3.39755933580782,3.31148121717802,3.37410895790077,FALSE,0.144844162853334
"CAN","cpi",0.2,2021,3,2021,NA,0.5,2.56063938695794,2.80317649264371,3.31148121717802,2.68190793980083,FALSE,1.51329891702155
"CAN","cpi",0.2,2021,3,2020,NA,1,0.987834594591186,1.39711473782039,3.31148121717802,1.19247466620579,FALSE,5.1951963416233
"CAN","cpi",0.2,2021,3,2020,NA,1.5,0.553596151318305,1.4345988976491,3.31148121717802,0.994097524483704,FALSE,5.5732085451531
"CAN","cpi",0.2,2022,3,2022,NA,0,6.68981215651266,6.73449550026792,6.50977236228281,6.71215382839029,FALSE,0.494782829329878
"CAN","cpi",0.2,2022,3,2022,NA,0.5,6.2934660616312,6.54962006257995,6.50977236228281,6.42154306210558,TRUE,0.256154000948749
"CAN","cpi",0.2,2022,3,2021,NA,1,4.71910221222502,5.22488685365369,6.50977236228281,4.97199453293936,FALSE,3.71799841300147
"CAN","cpi",0.2,2022,3,2021,NA,1.5,3.10225781817398,3.8117789580331,6.50977236228281,3.45701838810354,FALSE,7.45450465048339
"CAN","cpi",0.2,2023,3,2023,NA,0,4.0187636976531,4.0654799852749,3.78831288758619,4.042121841464,FALSE,0.622843312789064
"CAN","cpi",0.2,2023,3,2023,NA,0.5,2.93198642592046,3.18795742996337,3.78831288758619,3.05997192794191,FALSE,1.75685964809997
"CAN","cpi",0.2,2023,3,2022,NA,1,5.01368111370684,5.55335419953064,3.78831288758619,5.28351765661874,FALSE,3.60309365112542
"CAN","cpi",0.2,2023,3,2022,NA,1.5,6.86816444655575,7.70688988089849,3.78831288758619,7.28752716372712,FALSE,8.53835433176663
"CAN","cpi",0.2,2024,3,2023,NA,1,4.07606356262464,4.67981035586968,NA,4.37793695924716,NA,NA
"CAN","cpi",0.2,2024,3,2023,NA,1.5,1.87935814505261,2.85860152976274,NA,2.36897983740768,NA,NA
"CAN","cpi",0.3,1959,3,1959,NA,0,1.12800723104259,1.26558694888913,1.19382698397654,1.19679708996586,TRUE,0.137579717846548
"CAN","cpi",0.3,1959,3,1959,NA,0.5,0.0910579298598189,1.219294059794,1.19382698397654,0.655175994826909,TRUE,1.12823612993418
"CAN","cpi",0.3,1959,3,1958,NA,1,0.51918661271387,2.99959054360575,1.19382698397654,1.75938857815981,TRUE,2.48040393089188
"CAN","cpi",0.3,1959,3,1958,NA,1.5,-0.911650745826046,4.46158396608504,1.19382698397654,1.7749666101295,TRUE,5.37323471191109
"CAN","cpi",0.3,1960,3,1960,NA,0,0.971100232128058,1.09150469809892,1.34209404870695,1.03130246511349,FALSE,0.836374039136668
"CAN","cpi",0.3,1960,3,1960,NA,0.5,0.315861973989238,1.17534333227525,1.34209404870695,0.745602653132245,FALSE,1.3359119766623
"CAN","cpi",0.3,1960,3,1959,NA,1,2.1101550099012,4.56159273616755,1.34209404870695,3.33587387303437,FALSE,4.64589761539277
"CAN","cpi",0.3,1960,3,1959,NA,1.5,-2.73134048963617,2.08050230106039,1.34209404870695,-0.32541909428789,TRUE,4.81184279069656
"CAN","cpi",0.3,1961,3,1961,NA,0,0.939389484303202,1.07903747757694,1.00921348094007,1.00921348094007,TRUE,0.139647993273738
"CAN","cpi",0.3,1961,3,1961,NA,0.5,0.888799957620882,1.7340226725417,1.00921348094007,1.31141131508129,TRUE,0.84522271492082
"CAN","cpi",0.3,1961,3,1960,NA,1,-0.908944737308385,1.19619654864831,1.00921348094007,0.143625905669962,TRUE,2.10514128595669
"CAN","cpi",0.3,1961,3,1960,NA,1.5,-2.12932199992681,1.44909915162236,1.00921348094007,-0.34011142415222,TRUE,3.57842115154917
"CAN","cpi",0.3,1962,3,1962,NA,0,1.05172854906539,1.17093141555213,1.04957947883042,1.11132998230876,FALSE,0.125343067158105
"CAN","cpi",0.3,1962,3,1962,NA,0.5,-0.355234964052299,0.355234964052299,1.04957947883042,1.64134322488006e-44,FALSE,2.69431139889922
"CAN","cpi",0.3,1962,3,1961,NA,1,-1.05239476806081,1.05239476806081,1.04957947883042,-9.44308782563385e-19,TRUE,2.10478953612161
"CAN","cpi",0.3,1962,3,1961,NA,1.5,-1.03490318326289,2.54367168064439,1.04957947883042,0.754384248690751,TRUE,3.57857486390728
"CAN","cpi",0.3,1963,3,1963,NA,0,1.79817383296299,1.91381638481029,1.60677118395228,1.85599510888664,FALSE,0.662507263306472
"CAN","cpi",0.3,1963,3,1963,NA,0.5,0.571527761680407,1.29307282559444,1.60677118395228,0.932300293637426,FALSE,1.61782608779358
"CAN","cpi",0.3,1963,3,1962,NA,1,1.73775157031638,3.59721887655817,1.60677118395228,2.66748522343727,FALSE,2.23369698156778
"CAN","cpi",0.3,1963,3,1962,NA,1.5,-1.30835909274578,1.30835909274578,1.60677118395228,4.10321927477868e-44,FALSE,3.46932416036728
"CAN","cpi",0.3,1964,3,1964,NA,0,1.92611516696633,2.05176792441372,1.88764670034376,1.98894154569002,FALSE,0.235562662083305
"CAN","cpi",0.3,1964,3,1964,NA,0.5,1.17114311413511,1.59640854080677,1.88764670034376,1.38377582747094,FALSE,1.2573744539202
"CAN","cpi",0.3,1964,3,1963,NA,1,4.11471466738917,5.31101639071944,1.88764670034376,4.71286552905431,FALSE,7.55935305774573
"CAN","cpi",0.3,1964,3,1963,NA,1.5,-0.541480387233201,1.01903973357785,1.88764670034376,0.238779673172327,FALSE,4.04225431157078
"CAN","cpi",0.3,1965,3,1965,NA,0,2.29178294383198,2.41810726637909,2.29538304394236,2.35494510510554,TRUE,0.126324322547109
"CAN","cpi",0.3,1965,3,1965,NA,0.5,1.3503496451892,1.77054828400556,2.29538304394236,1.56044896459738,FALSE,1.91972652435005
"CAN","cpi",0.3,1965,3,1964,NA,1,1.85235333985598,3.00186129811616,2.29538304394236,2.42710731898607,TRUE,1.14950795826018
"CAN","cpi",0.3,1965,3,1964,NA,1.5,0.243561778773026,1.39306973703321,2.29538304394236,0.818315757903116,FALSE,3.72754597800061
"CAN","cpi",0.3,1966,3,1966,NA,0,3.78663762742179,3.90664510037843,3.72486065470629,3.84664136390011,FALSE,0.296513109286645
"CAN","cpi",0.3,1966,3,1966,NA,0.5,3.63717436176848,4.05665364283757,3.72486065470629,3.84691400230302,TRUE,0.419479281069087
"CAN","cpi",0.3,1966,3,1965,NA,1,2.75175053884968,3.8756094029446,3.72486065470629,3.31367997089714,TRUE,1.12385886409492
"CAN","cpi",0.3,1966,3,1965,NA,1.5,0.919574392087673,2.04343325618259,3.72486065470629,1.48150382413513,FALSE,5.9279371455912
"CAN","cpi",0.3,1967,3,1967,NA,0,3.70915256164309,3.82810681961974,3.49360316391996,3.76862969063141,FALSE,0.734809680042732
"CAN","cpi",0.3,1967,3,1967,NA,0.5,2.13409776042952,2.58939065410925,3.49360316391996,2.36174420726938,FALSE,3.03875720742462
"CAN","cpi",0.3,1967,3,1966,NA,1,2.92943470159032,4.03524220751048,3.49360316391996,3.4823384545504,TRUE,1.10580750592016
"CAN","cpi",0.3,1967,3,1966,NA,1.5,3.73967325147614,4.8454807573963,3.49360316391996,4.29257700443622,FALSE,1.80886489893782
"CAN","cpi",0.3,1968,3,1968,NA,0,4.05006840412837,4.17673762105703,3.95128347779386,4.1134030125927,FALSE,0.4089118635987
"CAN","cpi",0.3,1968,3,1968,NA,0.5,3.71462792401011,4.06986075086855,3.95128347779386,3.89224433743933,TRUE,0.355232826858439
"CAN","cpi",0.3,1968,3,1967,NA,1,5.29114440932377,6.42078982086079,3.95128347779386,5.85596711509228,FALSE,4.95781950162248
"CAN","cpi",0.3,1968,3,1967,NA,1.5,1.57380663423849,2.70993526876966,3.95128347779386,2.14187095150408,FALSE,4.68283780317173
"CAN","cpi",0.3,1969,3,1969,NA,0,4.57927500716805,4.70598629575828,4.42679496126681,4.64263065146317,FALSE,0.562368562593768
"CAN","cpi",0.3,1969,3,1969,NA,0.5,2.88314574558024,3.2408441119752,4.42679496126681,3.06199492877772,FALSE,3.74612936437101
"CAN","cpi",0.3,1969,3,1968,NA,1,5.6118774339379,6.49977014103468,4.42679496126681,6.05582378748629,FALSE,4.27384262901417
"CAN","cpi",0.3,1969,3,1968,NA,1.5,3.42832849764484,4.31622120474161,4.42679496126681,3.87227485119322,FALSE,1.20381772574021
"CAN","cpi",0.3,1970,3,1970,NA,0,3.52788693894751,3.65204255954094,3.28128405769805,3.58996474924422,FALSE,0.828735281306181
"CAN","cpi",0.3,1970,3,1970,NA,0.5,3.97076426004923,4.3728411330058,3.28128405769805,4.17180269652751,FALSE,2.37202030824566
"CAN","cpi",0.3,1970,3,1969,NA,1,4.99855048280867,5.87875944649209,3.28128405769805,5.43865496465038,FALSE,5.78668446399949
"CAN","cpi",0.3,1970,3,1969,NA,1.5,1.87662282795695,2.75683179164038,3.28128405769805,2.31672730979866,FALSE,2.37864400956249
"CAN","cpi",0.3,1971,3,1971,NA,0,2.82816154160367,2.96033325475706,2.64123406634756,2.89424739818036,FALSE,0.666250213885118
"CAN","cpi",0.3,1971,3,1971,NA,0.5,0.81235845409986,1.33832142517127,2.64123406634756,1.07533993963556,FALSE,4.24857051728939
"CAN","cpi",0.3,1971,3,1970,NA,1,2.55660428167465,3.40661502100021,2.64123406634756,2.98160965133743,TRUE,0.850010739325556
"CAN","cpi",0.3,1971,3,1970,NA,1.5,3.73207723724846,4.58208797657401,2.64123406634756,4.15708260691123,FALSE,3.96670551332811
"CAN","cpi",0.3,1972,3,1972,NA,0,5.06371112308891,5.14271867094865,4.83230569625923,5.10321489701878,FALSE,0.74016591023025
"CAN","cpi",0.3,1972,3,1972,NA,0.5,4.28124053810148,4.86929515138798,4.83230569625923,4.57526784474473,TRUE,0.588054613286502
"CAN","cpi",0.3,1972,3,1971,NA,1,6.09439863629048,7.04026409400272,4.83230569625923,6.5673313651466,FALSE,4.55184528637295
"CAN","cpi",0.3,1972,3,1971,NA,1.5,0.728338196312345,1.67420365402459,4.83230569625923,1.20127092516847,FALSE,9.96901414981122
"CAN","cpi",0.3,1973,3,1973,NA,0,7.32763439723282,7.39774058510463,7.12388603531779,7.36268749116872,FALSE,0.652244364771892
"CAN","cpi",0.3,1973,3,1973,NA,0.5,5.61694072820187,6.17171913328447,7.12388603531779,5.89432993074317,FALSE,3.27525526803495
"CAN","cpi",0.3,1973,3,1972,NA,1,6.90279733480174,7.84000138596026,7.12388603531779,7.371399360381,TRUE,0.937204051158513
"CAN","cpi",0.3,1973,3,1972,NA,1.5,3.95389525860436,5.05259816703822,7.12388603531779,4.50324671282129,FALSE,7.01666824637548
"CAN","cpi",0.3,1974,3,1974,NA,0,10.2909396655552,10.3536366008907,10.2717243737774,10.3222881332229,FALSE,0.117597768986216
"CAN","cpi",0.3,1974,3,1974,NA,0.5,8.56443420509167,9.12982385363572,10.2717243737774,8.8471290293637,FALSE,3.82796256323461
"CAN","cpi",0.3,1974,3,1973,NA,1,10.5813003734486,11.3955801916259,10.2717243737774,10.9884402825372,FALSE,1.69878267438065
"CAN","cpi",0.3,1974,3,1973,NA,1.5,5.62954634918712,6.76155069240733,10.2717243737774,6.19554852079723,FALSE,11.1610720042776
"CAN","cpi",0.3,1975,3,1975,NA,0,10.2292653261007,10.3001230143712,10.0232981493341,10.2646941702359,FALSE,0.659335336174982
"CAN","cpi",0.3,1975,3,1975,NA,0.5,8.91963167152045,9.51747609258592,10.0232981493341,9.21855388205318,FALSE,2.0430502974889
"CAN","cpi",0.3,1975,3,1974,NA,1,11.5814842442618,12.3995445425188,10.0232981493341,11.9905143933903,FALSE,5.27002056947905
"CAN","cpi",0.3,1975,3,1974,NA,1.5,8.02774884741941,9.33243373518907,10.0232981493341,8.68009129130424,FALSE,3.27858321389837
"CAN","cpi",0.3,1976,3,1976,NA,0,7.21972259407563,7.28793875236882,7.22784311401172,7.25383067322222,TRUE,0.0682161582931915
"CAN","cpi",0.3,1976,3,1976,NA,0.5,7.11684279035869,7.71411072173673,7.22784311401172,7.41547675604771,TRUE,0.597267931378036
"CAN","cpi",0.3,1976,3,1975,NA,1,11.5527235758867,12.2775785403418,7.22784311401172,11.9151510581142,FALSE,13.0816562840979
"CAN","cpi",0.3,1976,3,1975,NA,1.5,7.36090870319373,8.6657220592,7.22784311401172,8.01331538119686,FALSE,1.68500075366917
"CAN","cpi",0.3,1977,3,1977,NA,0,7.58236180090511,7.65498079291504,7.58101410153764,7.61867129691007,FALSE,0.0764695616312514
"CAN","cpi",0.3,1977,3,1977,NA,0.5,6.70765756852195,7.33809987127469,7.58101410153764,7.02287871989832,FALSE,1.32448296064689
"CAN","cpi",0.3,1977,3,1976,NA,1,5.32370689679668,6.42153118072807,7.58101410153764,5.87261903876238,FALSE,4.4106326291016
"CAN","cpi",0.3,1977,3,1976,NA,1.5,5.44917359087622,6.85727930960565,7.58101410153764,6.15322645024094,FALSE,3.47591940996369
"CAN","cpi",0.3,1978,3,1978,NA,0,8.64123982664726,8.72126831825284,8.50208927062595,8.68125407245005,FALSE,0.477601508809331
"CAN","cpi",0.3,1978,3,1978,NA,0.5,7.82349720853575,8.42667763806869,8.50208927062595,8.12508742330222,FALSE,0.818642236839382
"CAN","cpi",0.3,1978,3,1977,NA,1,8.01688649096184,9.26948884609739,8.50208927062595,8.64318766852961,TRUE,1.25260235513555
"CAN","cpi",0.3,1978,3,1977,NA,1.5,6.9664048412756,8.35417389465448,8.50208927062595,7.66028936796504,FALSE,1.81038441329737
"CAN","cpi",0.3,1979,3,1979,NA,0,8.57228152864427,8.64923739955148,8.65147652410481,8.61075946409788,FALSE,0.0833533696310076
"CAN","cpi",0.3,1979,3,1979,NA,0.5,7.80366355646768,8.39759314902375,8.65147652410481,8.10062835274572,FALSE,1.31931066421623
"CAN","cpi",0.3,1979,3,1978,NA,1,8.96062616232133,10.2046436070445,8.65147652410481,9.5826348846829,FALSE,2.12730212534177
"CAN","cpi",0.3,1979,3,1978,NA,1.5,7.29387507259845,8.5898018209321,8.65147652410481,7.94183844676527,FALSE,1.47214018596996
"CAN","cpi",0.3,1980,3,1980,NA,0,9.48476736934512,9.57741356566059,9.5171912664748,9.53109046750286,TRUE,0.0926461963154743
"CAN","cpi",0.3,1980,3,1980,NA,0.5,8.39649567669586,8.97477662161257,9.5171912664748,8.68563614915422,FALSE,2.12803707309449
"CAN","cpi",0.3,1980,3,1979,NA,1,7.70828406684714,8.94269061648452,9.5171912664748,8.32548734166583,FALSE,2.87583697818103
"CAN","cpi",0.3,1980,3,1979,NA,1.5,7.33121881864827,8.62972322327415,9.5171912664748,7.98047102096121,FALSE,3.83412738519915
"CAN","cpi",0.3,1981,3,1981,NA,0,11.6602422415662,11.7576697134797,11.5813425032741,11.708955977523,FALSE,0.322855295605096
"CAN","cpi",0.3,1981,3,1981,NA,0.5,11.8507438384996,12.4020487429903,11.5813425032741,12.1263962907449,FALSE,1.32102300513489
"CAN","cpi",0.3,1981,3,1980,NA,1,10.3279499515354,11.6419303790703,11.5813425032741,10.9849401653028,TRUE,1.31398042753489
"CAN","cpi",0.3,1981,3,1980,NA,1.5,7.97036203888902,9.28434246642391,11.5813425032741,8.62735225265647,FALSE,7.8768376756784
"CAN","cpi",0.3,1982,3,1982,NA,0,10.267067783431,10.3548821661014,10.1124203763629,10.3109749747662,FALSE,0.529664117150529
"CAN","cpi",0.3,1982,3,1982,NA,0.5,9.84992711594748,10.3494402080519,10.1124203763629,10.0996836619997,TRUE,0.499513092104412
"CAN","cpi",0.3,1982,3,1981,NA,1,10.9506223004766,12.288336739354,10.1124203763629,11.6194795199153,FALSE,3.73257707920211
"CAN","cpi",0.3,1982,3,1981,NA,1.5,12.0505784567056,13.3882928955829,10.1124203763629,12.7194356761443,FALSE,6.87530895414201
"CAN","cpi",0.3,1983,3,1983,NA,0,5.78564403933705,5.86965076790363,5.67091787896303,5.82764740362034,FALSE,0.411795758206636
"CAN","cpi",0.3,1983,3,1983,NA,0.5,4.74848298950046,5.20239590638615,5.67091787896303,4.97543944794331,FALSE,1.79254712424821
"CAN","cpi",0.3,1983,3,1982,NA,1,8.56145974124833,9.9141081923968,5.67091787896303,9.23778396682256,FALSE,9.61133948624931
"CAN","cpi",0.3,1983,3,1982,NA,1.5,9.04077689197755,10.5366259914995,5.67091787896303,9.78870144173853,FALSE,11.1240177081349
"CAN","cpi",0.3,1984,3,1984,NA,0,4.17568161177004,4.25146913409639,4.19799576814029,4.21357537293321,TRUE,0.0757875223263511
"CAN","cpi",0.3,1984,3,1984,NA,0.5,4.41640051716334,4.86877814410797,4.19799576814029,4.64258933063566,FALSE,1.07639119558192
"CAN","cpi",0.3,1984,3,1983,NA,1,5.38614832124458,6.87660477617977,4.19799576814029,6.13137654871218,FALSE,4.88517803523318
"CAN","cpi",0.3,1984,3,1983,NA,1.5,2.53893147370977,4.39771729822836,4.19799576814029,3.46832438596907,TRUE,1.85878582451859
"CAN","cpi",0.3,1985,3,1985,NA,0,3.88350425754668,3.95468225765767,3.86444262005169,3.91909325760218,FALSE,0.125639821525247
"CAN","cpi",0.3,1985,3,1985,NA,0.5,3.65941974244169,4.12358402145908,3.86444262005169,3.89150188195039,TRUE,0.464164279017391
"CAN","cpi",0.3,1985,3,1984,NA,1,2.54604954535761,4.0418919541831,3.86444262005169,3.29397074977035,TRUE,1.49584240882549
"CAN","cpi",0.3,1985,3,1984,NA,1.5,3.56899207189163,5.36422862330516,3.86444262005169,4.4666103475984,TRUE,1.79523655141353
"CAN","cpi",0.3,1986,3,1986,NA,0,4.07036622030692,4.14141086100487,4.08685396749431,4.1058885406559,TRUE,0.0710446406979504
"CAN","cpi",0.3,1986,3,1986,NA,0.5,4.21798136137243,4.60204676180254,4.08685396749431,4.41001406158749,FALSE,0.758715097224744
"CAN","cpi",0.3,1986,3,1985,NA,1,3.22109766506686,4.76497992132197,4.08685396749431,3.99303879319441,TRUE,1.54388225625511
"CAN","cpi",0.3,1986,3,1985,NA,1.5,3.4409466431343,5.00557983448378,4.08685396749431,4.22326323880904,TRUE,1.56463319134949
"CAN","cpi",0.3,1987,3,1987,NA,0,4.32907719540952,4.39045717420812,4.23980729277887,4.35976718480882,FALSE,0.3164368434576
"CAN","cpi",0.3,1987,3,1987,NA,0.5,3.7220378637698,4.09668856412558,4.23980729277887,3.90936321394769,FALSE,0.783561353650907
"CAN","cpi",0.3,1987,3,1986,NA,1,3.56273729862992,5.09925588439918,4.23980729277887,4.33099659151455,TRUE,1.53651858576926
"CAN","cpi",0.3,1987,3,1986,NA,1.5,3.98421192747752,5.52073051324678,4.23980729277887,4.75247122036215,TRUE,1.53651858576926
"CAN","cpi",0.3,1988,3,1988,NA,0,3.98213993304993,4.04325126999824,3.92899537638065,4.01269560152408,FALSE,0.212952927431951
"CAN","cpi",0.3,1988,3,1988,NA,0.5,3.28709423325169,3.65441768503501,3.92899537638065,3.47075595914335,FALSE,1.1518311413423
"CAN","cpi",0.3,1988,3,1987,NA,1,3.99479878899909,5.16844998090223,3.92899537638065,4.58162438495066,FALSE,1.36166094224153
"CAN","cpi",0.3,1988,3,1987,NA,1.5,3.05013992290573,4.57715560373443,3.92899537638065,3.81364776332008,TRUE,1.5270156808287
"CAN","cpi",0.3,1989,3,1989,NA,0,4.99388484099586,5.05402157646629,4.82821664544208,5.02395320873108,FALSE,0.533474437052672
"CAN","cpi",0.3,1989,3,1989,NA,0.5,4.18691660085658,4.54888035604646,4.82821664544208,4.36789847845152,FALSE,1.16006743917735
"CAN","cpi",0.3,1989,3,1988,NA,1,3.93791475539926,4.9853364813198,4.82821664544208,4.46162561835953,TRUE,1.04742172592055
"CAN","cpi",0.3,1989,3,1988,NA,1.5,2.53585760505668,4.02090544722354,4.82821664544208,3.27838152614011,FALSE,3.7916512656484
"CAN","cpi",0.3,1990,3,1990,NA,0,4.48873700757345,4.55052556281789,4.64347549432717,4.51963128519567,FALSE,0.327359788128091
"CAN","cpi",0.3,1990,3,1990,NA,0.5,4.80172494551148,5.16696359445662,4.64347549432717,4.98434426998405,FALSE,0.817379938043162
"CAN","cpi",0.3,1990,3,1989,NA,1,5.38449867068048,6.45100011410173,4.64347549432717,5.9177493923911,FALSE,3.18371051871641
"CAN","cpi",0.3,1990,3,1989,NA,1.5,3.80166914462735,5.32204802314283,4.64347549432717,4.56185858388509,TRUE,1.52037887851547
"CAN","cpi",0.3,1991,3,1991,NA,0,5.58718629967611,5.66094895623283,5.4258100696218,5.62406762795447,FALSE,0.534837599569052
"CAN","cpi",0.3,1991,3,1991,NA,0.5,8.20649043545986,8.57695124121547,5.4258100696218,8.39172083833767,FALSE,8.31526185100723
"CAN","cpi",0.3,1991,3,1990,NA,1,3.3306580480204,4.40769428301753,5.4258100696218,3.86917616551897,FALSE,3.98593848243788
"CAN","cpi",0.3,1991,3,1990,NA,1.5,4.36834402728196,5.87742592982229,5.4258100696218,5.12288497855213,TRUE,1.50908190254033
"CAN","cpi",0.3,1992,3,1992,NA,0,1.44231401074067,1.51889784906316,1.47496888572843,1.48060592990191,TRUE,0.0765838383224917
"CAN","cpi",0.3,1992,3,1992,NA,0.5,0.789177452846844,1.5547968519838,1.47496888572843,1.17198715241532,TRUE,0.765619399136953
"CAN","cpi",0.3,1992,3,1991,NA,1,1.96272658218151,3.07776397928241,1.47496888572843,2.52024528073196,FALSE,2.50863081553826
"CAN","cpi",0.3,1992,3,1991,NA,1.5,9.4251770503255,10.8814983680797,1.47496888572843,10.1533377092026,FALSE,24.1712017880315
"CAN","cpi",0.3,1993,3,1993,NA,0,1.76326050910513,1.84198237740803,1.84351085411351,1.80262144325658,FALSE,0.083088944604275
"CAN","cpi",0.3,1993,3,1993,NA,0.5,1.95682079044586,2.72800552072576,1.84351085411351,2.34241315558581,FALSE,1.09492740551518
"CAN","cpi",0.3,1993,3,1992,NA,1,1.27746467575022,2.35865425250147,1.84351085411351,1.81805946412584,TRUE,1.08118957675125
"CAN","cpi",0.3,1993,3,1992,NA,1.5,0.0151840505323992,2.26534315152042,1.84351085411351,1.14026360102641,TRUE,2.25015910098802
"CAN","cpi",0.3,1994,3,1994,NA,0,0.124775463726678,0.202457792989976,0.161630694655448,0.163616628358327,TRUE,0.0776823292632986
"CAN","cpi",0.3,1994,3,1994,NA,0.5,-0.771763927307433,0.00148373124867418,0.161630694655448,-0.385140098029379,FALSE,1.23081041114689
"CAN","cpi",0.3,1994,3,1993,NA,1,0.839659609077287,1.90983495359037,0.161630694655448,1.37474728133383,FALSE,3.00740081428976
"CAN","cpi",0.3,1994,3,1993,NA,1.5,1.46485152043196,3.72886078579853,0.161630694655448,2.59685615311524,FALSE,5.98749733901374
"CAN","cpi",0.3,1995,3,1995,NA,0,2.15617968953158,2.23094927433428,2.11688403676572,2.19356448193293,FALSE,0.187042878419457
"CAN","cpi",0.3,1995,3,1995,NA,0.5,2.29572270927284,3.05929536158411,2.11688403676572,2.67750903542847,FALSE,1.2745402880459
"CAN","cpi",0.3,1995,3,1994,NA,1,0.954135441099591,1.72771692100438,2.11688403676572,1.34092618105198,FALSE,1.88548752493718
"CAN","cpi",0.3,1995,3,1994,NA,1.5,-2.39189727625949,-0.236071158861516,2.11688403676572,-1.3139842175605,FALSE,8.87855524776149
"CAN","cpi",0.3,1996,3,1996,NA,0,1.44479727443586,1.51933297361856,1.55309584667184,1.48206512402721,FALSE,0.171001050763504
"CAN","cpi",0.3,1996,3,1996,NA,0.5,0.871679542647505,1.60029407485773,1.55309584667184,1.23598680875262,TRUE,0.728614532210225
"CAN","cpi",0.3,1996,3,1995,NA,1,0.965527347508359,1.69414187971858,1.55309584667184,1.32983461361347,TRUE,0.728614532210225
"CAN","cpi",0.3,1996,3,1995,NA,1.5,2.24950891593805,4.60210320306466,1.55309584667184,3.42580605950136,FALSE,4.3423459136015
"CAN","cpi",0.3,1997,3,1997,NA,0,1.65051759351971,1.73048305487756,1.60528783555959,1.69050032419864,FALSE,0.209193341243908
"CAN","cpi",0.3,1997,3,1997,NA,0.5,1.75676877978096,2.48281499991739,1.60528783555959,2.11979188984917,FALSE,1.15884891791176
"CAN","cpi",0.3,1997,3,1996,NA,1,0.832217738668698,1.55826395880513,1.60528783555959,1.19524084873691,FALSE,0.860400153720614
"CAN","cpi",0.3,1997,3,1996,NA,1.5,0.169446111379601,2.54177196586245,1.60528783555959,1.35560903862103,TRUE,2.37232585448285
"CAN","cpi",0.3,1998,3,1998,NA,0,0.939937993005051,1.020238048858,0.988908029337191,0.980088020931525,TRUE,0.080300055852947
"CAN","cpi",0.3,1998,3,1998,NA,0.5,0.944605582968332,1.6769613599565,0.988908029337191,1.31078347146242,TRUE,0.73235577698817
"CAN","cpi",0.3,1998,3,1997,NA,1,0.699530037206695,1.43188581419486,0.988908029337191,1.06570792570078,TRUE,0.73235577698817
"CAN","cpi",0.3,1998,3,1997,NA,1.5,1.06398621479729,3.44322717053259,0.988908029337191,2.25360669266494,FALSE,2.59375005704987
"CAN","cpi",0.3,1999,3,1999,NA,0,1.7775923704774,1.85663353638548,1.7107350135213,1.81711295343144,FALSE,0.270062185782661
"CAN","cpi",0.3,1999,3,1999,NA,0.5,0.425445997009843,1.15132913443925,1.7107350135213,0.788387565724544,FALSE,2.3241856490924
"CAN","cpi",0.3,1999,3,1998,NA,1,0.212424924139424,0.938308061568826,1.7107350135213,0.575366492854125,FALSE,2.93281728586503
"CAN","cpi",0.3,1999,3,1998,NA,1.5,0.495559423204115,2.87878011100705,1.7107350135213,1.68716976710558,TRUE,2.38322068780293
"CAN","cpi",0.3,2000,3,2000,NA,0,2.68998731714546,2.77000065738448,2.6718361971244,2.72999398726497,FALSE,0.131873683156332
"CAN","cpi",0.3,2000,3,2000,NA,0.5,1.68752603400952,2.44845131450107,2.6718361971244,2.06798867425529,FALSE,1.39916780227249
"CAN","cpi",0.3,2000,3,1999,NA,1,2.71106132037729,3.47198660086884,2.6718361971244,3.09152396062306,FALSE,0.872997061214088
"CAN","cpi",0.3,2000,3,1999,NA,1.5,-0.347851225697513,2.03357493622558,2.6718361971244,0.842861855264031,FALSE,4.20502976449116
"CAN","cpi",0.3,2001,3,2001,NA,0,2.80723754723815,2.87693176653406,2.47906219852806,2.84208465688611,FALSE,1.0073380727533
"CAN","cpi",0.3,2001,3,2001,NA,0.5,1.50274214242491,2.27002722963333,2.47906219852806,1.88638468602912,FALSE,1.36452785547909
"CAN","cpi",0.3,2001,3,2000,NA,1,3.31425099666093,4.08153608386935,2.47906219852806,3.69789354026514,FALSE,3.15353879615947
"CAN","cpi",0.3,2001,3,2000,NA,1.5,0.669139252049773,3.06718479871282,2.47906219852806,1.8681620253813,TRUE,2.39804554666305
"CAN","cpi",0.3,2002,3,2002,NA,0,2.32861265810611,2.42337865581902,2.20880570551249,2.37599565696257,FALSE,0.437071576551831
"CAN","cpi",0.3,2002,3,2002,NA,0.5,0.526083777009462,1.3010694583661,2.20880570551249,0.913576617687781,FALSE,3.3685178160606
"CAN","cpi",0.3,2002,3,2001,NA,1,1.54984798017645,2.32483366153309,2.20880570551249,1.93734082085477,TRUE,0.774985681356639
"CAN","cpi",0.3,2002,3,2001,NA,1.5,0.0170157789697405,2.42834025015804,2.20880570551249,1.22267801456389,TRUE,2.4113244711883
"CAN","cpi",0.3,2003,3,2003,NA,0,2.68625614120553,2.7787815862276,2.71189071546809,2.73251886371656,TRUE,0.0925254450220692
"CAN","cpi",0.3,2003,3,2003,NA,0.5,4.07270365497235,4.56081003841603,2.71189071546809,4.31675684669419,FALSE,4.37614335345586
"CAN","cpi",0.3,2003,3,2002,NA,1,4.31281430521324,4.92443388631758,2.71189071546809,4.61862409576541,FALSE,5.18568698037621
"CAN","cpi",0.3,2003,3,2002,NA,1.5,0.149378107064934,2.58179514627427,2.71189071546809,1.3655866266696,FALSE,2.80411866547739
"CAN","cpi",0.3,2004,3,2004,NA,0,1.7839093404511,1.87590266626439,1.83151661303942,1.82990600335775,TRUE,0.091993325813291
"CAN","cpi",0.3,2004,3,2004,NA,0.5,1.11524174048442,1.76441063463484,1.83151661303942,1.43982618755963,FALSE,0.840900261020651
"CAN","cpi",0.3,2004,3,2003,NA,1,0.672198008594859,1.38673833786142,1.83151661303942,1.02946817322814,FALSE,1.98533540120372
"CAN","cpi",0.3,2004,3,2003,NA,1.5,3.99388382310503,5.29910655937582,1.83151661303942,4.64649519124043,FALSE,7.48341476502967
"CAN","cpi",0.3,2005,3,2005,NA,0,2.33972803258238,2.42935834133432,2.18071628336509,2.38454318695835,FALSE,0.543949592229917
"CAN","cpi",0.3,2005,3,2005,NA,0.5,1.28836450837691,1.92396924073625,2.18071628336509,1.60616687455658,FALSE,1.36916771129888
"CAN","cpi",0.3,2005,3,2004,NA,1,1.27691966588315,2.02671614942546,2.18071628336509,1.65181790765431,FALSE,1.18979686622697
"CAN","cpi",0.3,2005,3,2004,NA,1.5,1.01844252955835,2.50674346139212,2.18071628336509,1.76259299547523,TRUE,1.48830093183377
"CAN","cpi",0.3,2006,3,2006,NA,0,2.09013996420769,2.1825627278136,1.97519342012289,2.13635134601064,FALSE,0.420841460991061
"CAN","cpi",0.3,2006,3,2006,NA,0.5,1.46851963904658,2.1051818984914,1.97519342012289,1.78685076876899,TRUE,0.636662259444818
"CAN","cpi",0.3,2006,3,2005,NA,1,3.15203342128681,3.85766563051471,1.97519342012289,3.50484952590076,FALSE,4.06803221255341
"CAN","cpi",0.3,2006,3,2005,NA,1.5,0.792391512651249,2.14388533336899,1.97519342012289,1.46813842301012,TRUE,1.35149382071774
"CAN","cpi",0.3,2007,3,2007,NA,0,2.15788805825911,2.25161545453252,2.10062087284572,2.20475175639581,FALSE,0.257347926025942
"CAN","cpi",0.3,2007,3,2007,NA,0.5,1.68030273137475,2.29025220342701,2.10062087284572,1.98527746740088,TRUE,0.609949472052253
"CAN","cpi",0.3,2007,3,2006,NA,1,0.864816097507907,1.62998854014575,2.10062087284572,1.24740231882683,FALSE,2.10983625035206
"CAN","cpi",0.3,2007,3,2006,NA,1.5,1.05965532432796,2.15028883548136,2.10062087284572,1.60497207990466,TRUE,1.09063351115341
"CAN","cpi",0.3,2008,3,2008,NA,0,2.97610344862167,3.05924807295962,2.31447335265955,3.01767576079065,FALSE,1.97351632708686
"CAN","cpi",0.3,2008,3,2008,NA,0.5,0.732680004109303,1.34256728009134,2.31447335265955,1.03762364210032,FALSE,3.38676176903408
"CAN","cpi",0.3,2008,3,2007,NA,1,1.00424805388153,1.80157621150083,2.31447335265955,1.40291213269118,FALSE,2.26274856092993
"CAN","cpi",0.3,2008,3,2007,NA,1.5,2.20816545466541,3.1905298783435,2.31447335265955,2.69934766650446,TRUE,0.982364423678094
"CAN","cpi",0.3,2009,3,2009,NA,0,0.242064362722662,0.401388099946149,0.284533874408197,0.321726231334406,TRUE,0.159323737223487
"CAN","cpi",0.3,2009,3,2009,NA,0.5,-1.63813134362079,-1.0117460620589,0.284533874408197,-1.32493870283985,FALSE,4.33004224289647
"CAN","cpi",0.3,2009,3,2008,NA,1,4.66380637085078,5.48840848750015,0.284533874408197,5.07610742917547,FALSE,13.3368092493425
"CAN","cpi",0.3,2009,3,2008,NA,1.5,0.515002545335343,1.50712863524647,0.284533874408197,1.01106559029091,FALSE,1.65060800684583
"CAN","cpi",0.3,2010,3,2010,NA,0,1.67603571359443,1.83261622013405,1.75525687020327,1.75432596686424,TRUE,0.156580506539626
"CAN","cpi",0.3,2010,3,2010,NA,0.5,1.16337915452766,1.82351344558403,1.75525687020327,1.49344630005585,TRUE,0.660134291056369
"CAN","cpi",0.3,2010,3,2009,NA,1,0.548059796148194,1.71214761435526,1.75525687020327,1.13010370525173,FALSE,1.28725712062996
"CAN","cpi",0.3,2010,3,2009,NA,1.5,-2.84123575237071,-1.67714793416365,1.75525687020327,-2.25919184326718,FALSE,10.9709586878268
"CAN","cpi",0.3,2011,3,2011,NA,0,2.82768234047601,2.98896410665749,2.85717434028225,2.90832322356675,TRUE,0.161281766181479
"CAN","cpi",0.3,2011,3,2011,NA,0.5,2.48726244753772,3.14263826534356,2.85717434028225,2.81495035644064,TRUE,0.655375817805838
"CAN","cpi",0.3,2011,3,2010,NA,1,1.58984619319744,2.91006630541692,2.85717434028225,2.24995624930718,TRUE,1.32022011221948
"CAN","cpi",0.3,2011,3,2010,NA,1.5,1.03110212694144,2.35132223916092,2.85717434028225,1.69121218305118,FALSE,2.76551182970899
"CAN","cpi",0.3,2012,3,2012,NA,0,1.42781085022718,1.589376563558,1.50118536134935,1.50859370689259,TRUE,0.161565713330813
"CAN","cpi",0.3,2012,3,2012,NA,0.5,1.4201799202413,2.08232537725253,1.50118536134935,1.75125264874692,TRUE,0.662145457011223
"CAN","cpi",0.3,2012,3,2011,NA,1,1.18815019473246,2.50673892678115,1.50118536134935,1.8474445607568,TRUE,1.31858873204869
"CAN","cpi",0.3,2012,3,2011,NA,1.5,2.40996621450641,3.72855494655509,1.50118536134935,3.06926058053075,FALSE,3.91510545535457
"CAN","cpi",0.3,2013,3,2013,NA,0,0.977823898354373,1.13448800096961,0.931270594714462,1.05615594966199,FALSE,0.289673541586416
"CAN","cpi",0.3,2013,3,2013,NA,0.5,0.68483495251998,1.36352377657859,0.931270594714462,1.02417936454929,TRUE,0.678688824058611
"CAN","cpi",0.3,2013,3,2012,NA,1,-0.609048622224923,0.746217659377153,0.931270594714462,0.0685845185761151,FALSE,1.88398895399439
"CAN","cpi",0.3,2013,3,2012,NA,1.5,1.04153644636671,2.39680272796879,0.931270594714462,1.71916958716775,FALSE,1.67031157203708
"CAN","cpi",0.3,2014,3,2014,NA,0,1.98566480755065,2.1420747043511,1.87639912240215,2.06386975595087,FALSE,0.468597568653295
"CAN","cpi",0.3,2014,3,2014,NA,0.5,1.60716694048235,2.24713728393189,1.87639912240215,1.92715211220712,TRUE,0.639970343449534
"CAN","cpi",0.3,2014,3,2013,NA,1,0.427727506841959,1.79971896194751,1.87639912240215,1.11372323439473,FALSE,1.5910776278331
"CAN","cpi",0.3,2014,3,2013,NA,1.5,0.714408154848466,2.08639960995401,1.87639912240215,1.40040388240124,TRUE,1.37199145510555
"CAN","cpi",0.3,2015,3,2015,NA,0,1.23013701269738,1.38451855012719,1.11090953952792,1.30732778141228,FALSE,0.495031460771124
"CAN","cpi",0.3,2015,3,2015,NA,0.5,-0.141219564662633,0.307725644073801,1.11090953952792,0.0832530397055839,FALSE,2.74375633860534
"CAN","cpi",0.3,2015,3,2014,NA,1,0.767212088178685,2.10066464541505,1.11090953952792,1.43393836679687,TRUE,1.33345255723637
"CAN","cpi",0.3,2015,3,2014,NA,1.5,2.0081096429925,3.34293725199999,1.11090953952792,2.67552344749624,FALSE,3.89825647604915
"CAN","cpi",0.3,2016,3,2016,NA,0,1.43385037041085,1.58398035281947,1.41168586698797,1.50891536161516,FALSE,0.213457135045438
"CAN","cpi",0.3,2016,3,2016,NA,0.5,0.54965443842297,1.02404904561546,1.41168586698797,0.786851742019216,FALSE,1.5819283825425
"CAN","cpi",0.3,2016,3,2015,NA,1,1.52799731634518,2.78520767633864,1.41168586698797,2.15660249634191,FALSE,1.58952878672836
"CAN","cpi",0.3,2016,3,2015,NA,1.5,-0.745825465502485,0.51138489449098,1.41168586698797,-0.117220285505753,FALSE,3.829498852842
"CAN","cpi",0.3,2017,3,2017,NA,0,1.47362044843288,1.62400629598244,1.57888581671161,1.54881337220766,TRUE,0.15038584754956
"CAN","cpi",0.3,2017,3,2017,NA,0.5,1.67563849754156,2.1511014608254,1.57888581671161,1.91336997918348,FALSE,0.751899194226545
"CAN","cpi",0.3,2017,3,2016,NA,1,0.550797515620922,1.82457959780417,1.57888581671161,1.18768855671255,TRUE,1.27378208218325
"CAN","cpi",0.3,2017,3,2016,NA,1.5,0.0276006617477769,1.30138274393102,1.57888581671161,0.6644917028394,FALSE,2.0666480044135
"CAN","cpi",0.3,2018,3,2018,NA,0,2.36716536534923,2.52329575620601,2.23316270166586,2.44523056077762,FALSE,0.538995144237842
"CAN","cpi",0.3,2018,3,2018,NA,0.5,2.54860336091911,3.05452696645595,2.23316270166586,2.80156516368753,FALSE,1.4071826319747
"CAN","cpi",0.3,2018,3,2017,NA,1,0.189571656134195,1.45081085711754,2.23316270166586,0.82019125662587,FALSE,3.4965301854071
"CAN","cpi",0.3,2018,3,2017,NA,1.5,1.80194535183899,3.06318455282234,2.23316270166586,2.43256495233066,TRUE,1.26123920098335
"CAN","cpi",0.3,2019,3,2019,NA,0,2.00644305537684,2.1633443151331,1.91921619871868,2.08489368525497,FALSE,0.40612085020814
"CAN","cpi",0.3,2019,3,2019,NA,0.5,1.19656423691953,1.74707497488915,1.91921619871868,1.47181960590434,FALSE,1.04234280605399
"CAN","cpi",0.3,2019,3,2018,NA,1,1.54160259228877,2.82087573799383,1.91921619871868,2.1812391651413,TRUE,1.27927314570506
"CAN","cpi",0.3,2019,3,2018,NA,1.5,2.95384339749833,4.23311654320339,1.91921619871868,3.59347997035086,FALSE,4.23535085650406
"CAN","cpi",0.3,2020,3,2020,NA,0,0.658493978420401,0.725772502948885,0.71139989671781,0.692133240684643,TRUE,0.067278524528483
"CAN","cpi",0.3,2020,3,2020,NA,0.5,0.80750171948957,1.30365934773339,0.71139989671781,1.05558053361148,FALSE,0.770734264734558
"CAN","cpi",0.3,2020,3,2019,NA,1,1.37304274865242,2.65669677093423,0.71139989671781,2.01486975979332,FALSE,3.17406217066641
"CAN","cpi",0.3,2020,3,2019,NA,1.5,1.11035014068432,2.43503019139044,0.71139989671781,1.77269016603738,FALSE,2.46453789061044
"CAN","cpi",0.3,2021,3,2021,NA,0,3.33844282854409,3.40977508725744,3.31148121717802,3.37410895790077,FALSE,0.148365434044978
"CAN","cpi",0.3,2021,3,2021,NA,0.5,2.49746827278421,2.86634760681745,3.31148121717802,2.68190793980083,FALSE,1.64068964934918
"CAN","cpi",0.3,2021,3,2020,NA,1,0.881233657864952,1.50371567454662,3.31148121717802,1.19247466620579,FALSE,5.78752642419997
"CAN","cpi",0.3,2021,3,2020,NA,1.5,0.324130540609078,1.66406450835833,3.31148121717802,0.994097524483704,FALSE,6.04683885009123
"CAN","cpi",0.3,2022,3,2022,NA,0,6.67817395129021,6.74613370549036,6.50977236228281,6.71215382839029,FALSE,0.549107151364158
"CAN","cpi",0.3,2022,3,2022,NA,0.5,6.22674829655258,6.61633782765857,6.50977236228281,6.42154306210558,TRUE,0.389589531105988
"CAN","cpi",0.3,2022,3,2021,NA,1,4.58736575383582,5.35662331204289,6.50977236228281,4.97199453293936,FALSE,4.06396913032112
"CAN","cpi",0.3,2022,3,2021,NA,1.5,2.91745623571926,3.99658054048782,6.50977236228281,3.45701838810354,FALSE,8.25967236703996
"CAN","cpi",0.3,2023,3,2023,NA,0,4.0065959927125,4.07764769021549,3.78831288758619,4.042121841464,FALSE,0.694717712149594
"CAN","cpi",0.3,2023,3,2023,NA,0.5,2.8653163241402,3.25462753174363,3.78831288758619,3.05997192794191,FALSE,1.91412651001076
"CAN","cpi",0.3,2023,3,2022,NA,1,4.8731180851151,5.69391722812237,3.78831288758619,5.28351765661874,FALSE,3.92024256451845
"CAN","cpi",0.3,2023,3,2022,NA,1.5,6.64971036703061,7.92534396042363,3.78831288758619,7.28752716372712,FALSE,9.45105496323421
"CAN","cpi",0.3,2024,3,2023,NA,1,3.91881192271466,4.83706199577965,NA,4.37793695924716,NA,NA
"CAN","cpi",0.3,2024,3,2023,NA,1.5,1.62430481832767,3.11365485648768,NA,2.36897983740768,NA,NA
"CAN","cpi",0.4,1959,3,1959,NA,0,1.1031777771253,1.29041640280641,1.19382698397654,1.19679708996586,TRUE,0.18723862568111
"CAN","cpi",0.4,1959,3,1959,NA,0.5,-0.11255847112203,1.42291046077585,1.19382698397654,0.655175994826909,TRUE,1.53546893189788
"CAN","cpi",0.4,1959,3,1958,NA,1,0.0715401422725281,3.4472370140471,1.19382698397654,1.75938857815981,TRUE,3.37569687177457
"CAN","cpi",0.4,1959,3,1958,NA,1.5,-1.88137568605988,5.43130890631888,1.19382698397654,1.7749666101295,TRUE,7.31268459237876
"CAN","cpi",0.4,1960,3,1960,NA,0,0.94937045112507,1.11323447910191,1.34209404870695,1.03130246511349,FALSE,0.926729259993652
"CAN","cpi",0.4,1960,3,1960,NA,0.5,0.160748610534552,1.33045669572994,1.34209404870695,0.745602653132245,FALSE,1.20849926178543
"CAN","cpi",0.4,1960,3,1959,NA,1,1.66773616351787,5.00401158255088,1.34209404870695,3.33587387303437,FALSE,4.4217491350694
"CAN","cpi",0.4,1960,3,1959,NA,1.5,-3.59974922530504,2.94891103672926,1.34209404870695,-0.32541909428789,TRUE,6.54866026203431
"CAN","cpi",0.4,1961,3,1961,NA,0,0.914186762071293,1.10424019980885,1.00921348094007,1.00921348094007,TRUE,0.190053437737558
"CAN","cpi",0.4,1961,3,1961,NA,0.5,0.736259897367427,1.88656273279516,1.00921348094007,1.31141131508129,TRUE,1.15030283542773
"CAN","cpi",0.4,1961,3,1960,NA,1,-1.28886635197056,1.57611816331049,1.00921348094007,0.143625905669962,TRUE,2.86498451528105
