isdrw/probabilistic-benchmark-forecasts/results/gauss_quantiles_prediction/unbiased VAR est/mean 0 assumption/gauss_prediction_rw_2026-02-15_11-28.csv
"country","target","tau","target_year","target_quarter","forecast_year","forecast_quarter","horizon","lower_bound","upper_bound","truth_value","prediction","covered","IS"
"CAN","cpi",0.1,1959,3,1959,NA,0,1.2286442919544,1.27118003667146,1.19382698397654,1.24991216431293,FALSE,0.119907540223416
"CAN","cpi",0.1,1959,3,1959,NA,0.5,0.266177337544042,0.609502125636613,1.19382698397654,0.437839731590327,FALSE,1.64182447329241
"CAN","cpi",0.1,1959,3,1958,NA,1,1.3815315678893,2.13572368982962,1.19382698397654,1.75862762885946,FALSE,1.17131341952423
"CAN","cpi",0.1,1959,3,1958,NA,1.5,0.904333211592338,2.64381024268297,1.19382698397654,1.77407172713766,TRUE,1.73947703109063
"CAN","cpi",0.1,1960,3,1960,NA,0,1.00474936029122,1.04247672489832,1.34209404870695,1.02361304259477,FALSE,0.703543639737388
"CAN","cpi",0.1,1960,3,1960,NA,0.5,0.39935543004133,0.67861153032199,1.34209404870695,0.53898348018166,FALSE,1.75366169669169
"CAN","cpi",0.1,1960,3,1959,NA,1,3.58710802122716,4.32807945256169,1.34209404870695,3.95759373689442,FALSE,5.72989137026832
"CAN","cpi",0.1,1960,3,1959,NA,1.5,-1.64312980021095,-0.103823830598819,1.34209404870695,-0.873476815404885,FALSE,4.75245681251384
"CAN","cpi",0.1,1961,3,1961,NA,0,0.986401205935607,1.03202575594454,1.00921348094007,1.00921348094007,TRUE,0.0456245500089296
"CAN","cpi",0.1,1961,3,1961,NA,0.5,0.870479574808049,1.14794738707209,1.00921348094007,1.00921348094007,TRUE,0.277467812264045
"CAN","cpi",0.1,1961,3,1960,NA,1,-0.263607542779692,0.371148467986759,1.00921348094007,0.0537704626035329,FALSE,2.05267826177381
"CAN","cpi",0.1,1961,3,1960,NA,1.5,-1.46284691090447,-0.261516686975604,1.00921348094007,-0.862181798940035,FALSE,4.02517504151925
"CAN","cpi",0.1,1962,3,1962,NA,0,1.08196479792868,1.12268325670088,1.04957947883042,1.10232402731478,FALSE,0.11268583454612
"CAN","cpi",0.1,1962,3,1962,NA,0.5,-0.108189581126626,0.108189581126626,1.04957947883042,0,FALSE,2.30835671270612
"CAN","cpi",0.1,1962,3,1961,NA,1,-0.322190321831911,0.322190321831912,1.04957947883042,0,FALSE,2.26080099254939
"CAN","cpi",0.1,1962,3,1961,NA,1.5,-0.600195266422939,0.60019526642294,1.04957947883042,0,FALSE,2.1990221159736
"CAN","cpi",0.1,1963,3,1963,NA,0,1.89460186400306,1.93523272662098,1.60677118395228,1.91491729531202,FALSE,0.680254596064079
"CAN","cpi",0.1,1963,3,1963,NA,0.5,0.72830912588586,0.945348303349148,1.60677118395228,0.836828714617504,FALSE,1.68686780102581
"CAN","cpi",0.1,1963,3,1962,NA,1,2.27152310096061,2.85670670734226,1.60677118395228,2.56411490415144,FALSE,2.06241008862238
"CAN","cpi",0.1,1963,3,1962,NA,1.5,-0.427218034928146,0.427218034928146,1.60677118395228,0,FALSE,3.47566528990993
"CAN","cpi",0.1,1964,3,1964,NA,0,1.96618642199689,2.01135870692407,1.88764670034376,1.98877256446048,FALSE,0.21970499971191
"CAN","cpi",0.1,1964,3,1964,NA,0.5,1.31595831591855,1.4514218086336,1.88764670034376,1.38369006227607,FALSE,1.10485214095985
"CAN","cpi",0.1,1964,3,1963,NA,1,5.17010466452063,5.61078114242448,1.88764670034376,5.39044290347256,FALSE,7.73502750940801
"CAN","cpi",0.1,1964,3,1963,NA,1.5,-0.240793488366631,0.240793488366631,1.88764670034376,0,FALSE,4.14126078112688
"CAN","cpi",0.1,1965,3,1965,NA,0,2.32292264833152,2.36821830004846,2.29538304394236,2.34557047418999,FALSE,0.106494772581737
"CAN","cpi",0.1,1965,3,1965,NA,0.5,1.54301270406587,1.67857625506721,2.29538304394236,1.61079447956654,FALSE,1.50624530405722
"CAN","cpi",0.1,1965,3,1964,NA,1,2.21917881224411,2.63119843135282,2.29538304394236,2.42518862179847,TRUE,0.412019619108706
"CAN","cpi",0.1,1965,3,1964,NA,1.5,0.612092742762046,1.02411236187075,2.29538304394236,0.818102552316399,FALSE,3.23706557926783
"CAN","cpi",0.1,1966,3,1966,NA,0,3.79865866627888,3.84156109099529,3.72486065470629,3.82010987863709,FALSE,0.206898005988837
"CAN","cpi",0.1,1966,3,1966,NA,0.5,3.92376687140624,4.05870110650503,3.72486065470629,3.99123398895563,FALSE,0.576948049987568
"CAN","cpi",0.1,1966,3,1965,NA,1,3.00526286881158,3.40917850610549,3.72486065470629,3.20722068745854,FALSE,1.10543152307346
"CAN","cpi",0.1,1966,3,1965,NA,1.5,1.40468042767263,1.80859606496654,3.72486065470629,1.60663824631958,FALSE,4.66228139227113
"CAN","cpi",0.1,1967,3,1967,NA,0,3.74660953022829,3.78876745634435,3.49360316391996,3.76768849328632,FALSE,0.604394295690128
"CAN","cpi",0.1,1967,3,1967,NA,0.5,2.3296416516394,2.48526783675581,3.49360316391996,2.4074547441976,FALSE,2.3963713565923
"CAN","cpi",0.1,1967,3,1966,NA,1,2.98239016583583,3.37967629556985,3.49360316391996,3.18103323070284,FALSE,0.650456948289826
"CAN","cpi",0.1,1967,3,1966,NA,1.5,4.45263854000547,4.84992466973949,3.49360316391996,4.65128160487248,FALSE,2.52847585436849
"CAN","cpi",0.1,1968,3,1968,NA,0,4.15121359098006,4.19454532246785,3.95128347779386,4.17287945672396,FALSE,0.487620871901582
"CAN","cpi",0.1,1968,3,1968,NA,0.5,4.013783588334,4.12816052726305,3.95128347779386,4.07097205779852,FALSE,0.253266073462696
"CAN","cpi",0.1,1968,3,1967,NA,1,5.63411660175505,6.05631704072191,3.95128347779386,5.84521682123848,FALSE,4.16182960332507
"CAN","cpi",0.1,1968,3,1967,NA,1.5,2.04455836291883,2.46675880188569,3.95128347779386,2.25565858240226,FALSE,3.72114416320722
"CAN","cpi",0.1,1969,3,1969,NA,0,4.57303860525498,4.61737468195739,4.42679496126681,4.59520664360618,FALSE,0.369321952231663
"CAN","cpi",0.1,1969,3,1969,NA,0.5,2.90602533296477,3.02621505494952,4.42679496126681,2.96612019395715,FALSE,3.23258951380095
"CAN","cpi",0.1,1969,3,1968,NA,1,6.55960526555565,6.8901473352605,4.42679496126681,6.72487630040807,FALSE,5.07012052368003
"CAN","cpi",0.1,1969,3,1968,NA,1.5,4.15137349459298,4.48191556429783,4.42679496126681,4.31664452944541,TRUE,0.330542069704849
"CAN","cpi",0.1,1970,3,1970,NA,0,3.58643337477471,3.6287973902238,3.28128405769805,3.60761538249925,FALSE,0.720473608952786
"CAN","cpi",0.1,1970,3,1970,NA,0.5,4.29229043469854,4.42803111373529,3.28128405769805,4.36016077421692,FALSE,2.38242151681563
"CAN","cpi",0.1,1970,3,1969,NA,1,4.74423057964851,5.08315837645418,3.28128405769805,4.91369447805135,FALSE,3.58992006780671
"CAN","cpi",0.1,1970,3,1969,NA,1.5,1.91027457442846,2.24920237123413,3.28128405769805,2.07973847283129,FALSE,2.63244265561438
"CAN","cpi",0.1,1971,3,1971,NA,0,2.89585792186104,2.9416000977457,2.64123406634756,2.91872900980337,FALSE,0.611572965914621
"CAN","cpi",0.1,1971,3,1971,NA,0.5,1.29081934157799,1.47632277114815,2.64123406634756,1.38357105636307,FALSE,2.77419519667996
"CAN","cpi",0.1,1971,3,1970,NA,1,3.01571847647783,3.33801374310772,2.64123406634756,3.17686610979278,FALSE,1.15448284469715
"CAN","cpi",0.1,1971,3,1970,NA,1.5,4.4595154899478,4.7818107565777,2.64123406634756,4.62066312326275,FALSE,4.36292065240821
"CAN","cpi",0.1,1972,3,1972,NA,0,5.15745726538025,5.18675657793677,4.83230569625923,5.17210692165851,FALSE,0.751858355047677
"CAN","cpi",0.1,1972,3,1972,NA,0.5,4.6652176961255,4.85926741345343,4.83230569625923,4.76224255478946,TRUE,0.194049717327923
"CAN","cpi",0.1,1972,3,1971,NA,1,6.66208315916185,7.01518680207164,4.83230569625923,6.83863498061675,FALSE,4.41927578269339
"CAN","cpi",0.1,1972,3,1971,NA,1.5,1.77785980443574,2.13096344734554,4.83230569625923,1.95441162589064,FALSE,6.35608641827356
"CAN","cpi",0.1,1973,3,1973,NA,0,7.39652811916414,7.42462839491576,7.12388603531779,7.41057825703995,FALSE,0.633971573187947
"CAN","cpi",0.1,1973,3,1973,NA,0.5,6.1454085721242,6.33841945414996,7.12388603531779,6.24191401313708,FALSE,1.93849217350982
"CAN","cpi",0.1,1973,3,1972,NA,1,7.95105536361819,8.30076231002051,7.12388603531779,8.12590883681935,FALSE,2.18786100929209
"CAN","cpi",0.1,1973,3,1972,NA,1.5,4.77915856770026,5.14345532012419,7.12388603531779,4.96130694391223,FALSE,4.76525389729859
"CAN","cpi",0.1,1974,3,1974,NA,0,10.279090220069,10.3048705996774,10.2717243737774,10.2919804098732,FALSE,0.042148926922998
"CAN","cpi",0.1,1974,3,1974,NA,0.5,8.92162152090851,9.11197652395735,10.2717243737774,9.01679902243293,FALSE,2.76757244709344
"CAN","cpi",0.1,1974,3,1973,NA,1,11.3550245129228,11.6602528520274,10.2717243737774,11.5076386824751,FALSE,2.71256198164987
"CAN","cpi",0.1,1974,3,1973,NA,1.5,6.85098284434617,7.2260375138918,10.2717243737774,7.03851017911898,FALSE,7.14324769151367
"CAN","cpi",0.1,1975,3,1975,NA,0,10.3022981251374,10.331100815349,10.0232981493341,10.3166994702432,FALSE,0.648802636441066
"CAN","cpi",0.1,1975,3,1975,NA,0.5,8.77895798550799,8.9773985299271,10.0232981493341,8.87817825771755,FALSE,2.52266192087916
"CAN","cpi",0.1,1975,3,1974,NA,1,11.5111502872424,11.8157467360749,10.0232981493341,11.6634485116586,FALSE,3.61093453307313
"CAN","cpi",0.1,1975,3,1974,NA,1.5,8.88766578587633,9.29565300107597,10.0232981493341,9.09165939347615,FALSE,2.02497643355108
"CAN","cpi",0.1,1976,3,1976,NA,0,7.24488096022617,7.27334638785235,7.22784311401172,7.25911367403926,FALSE,0.0663273081027413
"CAN","cpi",0.1,1976,3,1976,NA,0.5,7.12304753887472,7.32700376650612,7.22784311401172,7.22502565269042,TRUE,0.203956227631402
"CAN","cpi",0.1,1976,3,1975,NA,1,12.3566726072126,12.5994854803441,7.22784311401172,12.4780790437784,FALSE,11.6402117469113
"CAN","cpi",0.1,1976,3,1975,NA,1.5,6.98345843699315,7.38826183975821,7.22784311401172,7.18586013837568,TRUE,0.404803402765056
"CAN","cpi",0.1,1977,3,1977,NA,0,7.57680016262118,7.60598013657278,7.58101410153764,7.59139014959698,TRUE,0.0291799739515959
"CAN","cpi",0.1,1977,3,1977,NA,0.5,7.14626716095403,7.35450597013094,7.58101410153764,7.25038656554249,FALSE,0.711590212302917
"CAN","cpi",0.1,1977,3,1976,NA,1,5.73628201248737,6.12360836082145,7.58101410153764,5.92994518665441,FALSE,3.62600577214785
"CAN","cpi",0.1,1977,3,1976,NA,1.5,5.48351187157509,5.89557442770367,7.58101410153764,5.68954314963938,FALSE,4.15748405353741
"CAN","cpi",0.1,1978,3,1978,NA,0,8.67285565125263,8.70476588494861,8.50208927062595,8.68881076810062,FALSE,0.411391079533053
"CAN","cpi",0.1,1978,3,1978,NA,0.5,8.01271597237883,8.21145420291992,8.50208927062595,8.11208508764938,FALSE,0.844593936554475
"CAN","cpi",0.1,1978,3,1977,NA,1,8.13660620953912,8.55683225513574,8.50208927062595,8.34671923233743,TRUE,0.420226045596621
"CAN","cpi",0.1,1978,3,1977,NA,1.5,8.00399429345944,8.42422033905606,8.50208927062595,8.21410731625775,FALSE,0.593268115751933
"CAN","cpi",0.1,1979,3,1979,NA,0,8.54567047587539,8.57706019142283,8.65147652410481,8.56136533364911,FALSE,0.196759343729621
"CAN","cpi",0.1,1979,3,1979,NA,0.5,8.13376922691915,8.32808256678886,8.65147652410481,8.23092589685401,FALSE,0.912966578349594
"CAN","cpi",0.1,1979,3,1978,NA,1,9.46442396430497,9.86521295368162,8.65147652410481,9.66481845899329,FALSE,2.20733885648811
"CAN","cpi",0.1,1979,3,1978,NA,1.5,7.70975356901414,8.11054255839079,8.65147652410481,7.91014806370246,FALSE,1.60286446874115
"CAN","cpi",0.1,1980,3,1980,NA,0,9.51676238902952,9.55477172814042,9.5171912664748,9.53576705858497,TRUE,0.0380093391109
"CAN","cpi",0.1,1980,3,1980,NA,0.5,8.54973924156947,8.73720997928774,9.5171912664748,8.6434746104286,FALSE,1.92076248702284
"CAN","cpi",0.1,1980,3,1979,NA,1,7.59002171338993,7.98932326941656,9.5171912664748,7.78967249140325,FALSE,3.7945637717116
"CAN","cpi",0.1,1980,3,1979,NA,1.5,8.09816494763853,8.49746650366516,9.5171912664748,8.29781572565185,FALSE,2.66535658449248
"CAN","cpi",0.1,1981,3,1981,NA,0,11.6922003970527,11.7318652501141,11.5813425032741,11.7120328235834,FALSE,0.286015728124851
"CAN","cpi",0.1,1981,3,1981,NA,0.5,12.2423993783082,12.4168376707742,11.5813425032741,12.3296185245412,FALSE,1.64345357031939
"CAN","cpi",0.1,1981,3,1980,NA,1,10.8256814985478,11.2455713696739,11.5813425032741,11.0356264341109,FALSE,1.16604794579327
"CAN","cpi",0.1,1981,3,1980,NA,1.5,8.31480365127879,8.73469352240492,11.5813425032741,8.52474858684185,FALSE,6.74577649527996
"CAN","cpi",0.1,1982,3,1982,NA,0,10.2347260445527,10.2717220181973,10.1124203763629,10.253224031375,FALSE,0.308786347399652
"CAN","cpi",0.1,1982,3,1982,NA,0.5,10.043958749931,10.2003042633159,10.1124203763629,10.1221315066235,TRUE,0.156345513384924
"CAN","cpi",0.1,1982,3,1981,NA,1,11.4334413313501,11.8721137624118,10.1124203763629,11.652777546881,FALSE,3.37427455325539
"CAN","cpi",0.1,1982,3,1981,NA,1.5,12.9946172680904,13.4332896991522,10.1124203763629,13.2139534836213,FALSE,6.8435544126784
"CAN","cpi",0.1,1983,3,1983,NA,0,5.82606975739847,5.86118528953859,5.67091787896303,5.84362752346853,FALSE,0.379897484218871
"CAN","cpi",0.1,1983,3,1983,NA,0.5,4.63204029555087,4.78066266731985,5.67091787896303,4.70635148143536,FALSE,2.12696728653162
"CAN","cpi",0.1,1983,3,1982,NA,1,8.37841727492633,8.85032992374732,5.67091787896303,8.61437359933683,FALSE,6.48857797318387
"CAN","cpi",0.1,1983,3,1982,NA,1.5,9.60734670494489,10.0792593537659,5.67091787896303,9.84330302935538,FALSE,9.219532262114
"CAN","cpi",0.1,1984,3,1984,NA,0,4.19783701419001,4.22847624938833,4.19799576814029,4.21315663178917,TRUE,0.0306392351983238
"CAN","cpi",0.1,1984,3,1984,NA,0.5,4.65464772472994,4.80543640432271,4.19799576814029,4.73004206452632,FALSE,1.16557080534755
"CAN","cpi",0.1,1984,3,1983,NA,1,6.05156315511583,6.55903608156655,4.19799576814029,6.30529961834119,FALSE,4.62651156417415
"CAN","cpi",0.1,1984,3,1983,NA,1.5,2.51861863374558,3.10517016260993,4.19799576814029,2.81189439817776,FALSE,3.01505287448736
"CAN","cpi",0.1,1985,3,1985,NA,0,3.89174527771587,3.91919261316698,3.86444262005169,3.90546894544143,FALSE,0.0881199080381743
"CAN","cpi",0.1,1985,3,1985,NA,0.5,3.92899205911686,4.09453792393654,3.86444262005169,4.0117649915267,FALSE,0.30898906274227
"CAN","cpi",0.1,1985,3,1984,NA,1,3.03195919133926,3.54688476990808,3.86444262005169,3.28942198062367,FALSE,1.22060968999908
"CAN","cpi",0.1,1985,3,1984,NA,1.5,4.39164857206036,4.96775882483151,3.86444262005169,4.67970369844593,FALSE,1.74767903501263
"CAN","cpi",0.1,1986,3,1986,NA,0,4.1136854878233,4.14086946108529,4.08685396749431,4.12727747445429,FALSE,0.0868095739930743
"CAN","cpi",0.1,1986,3,1986,NA,0.5,4.49921954340847,4.65106287310189,4.08685396749431,4.57514120825518,FALSE,1.06821127616933
"CAN","cpi",0.1,1986,3,1985,NA,1,3.58047234157251,4.10956267243413,4.08685396749431,3.84501750700332,TRUE,0.529090330861619
"CAN","cpi",0.1,1986,3,1985,NA,1.5,4.24870221658752,4.78377779519123,4.08685396749431,4.51624000588938,FALSE,0.894738354366399
"CAN","cpi",0.1,1987,3,1987,NA,0,4.32706907182222,4.34816376812538,4.23980729277887,4.3376164199738,FALSE,0.215009760843932
"CAN","cpi",0.1,1987,3,1987,NA,0.5,3.81949322107475,3.96018391938765,4.23980729277887,3.8898385702312,FALSE,0.762075972515605
"CAN","cpi",0.1,1987,3,1986,NA,1,4.29707296718836,4.82862576128319,4.23980729277887,4.56284936423577,FALSE,0.658809848338136
"CAN","cpi",0.1,1987,3,1986,NA,1.5,4.88865547054789,5.42083771806558,4.23980729277887,5.15474659430673,FALSE,1.97406708700439
"CAN","cpi",0.1,1988,3,1988,NA,0,3.98975466293442,4.01081132916211,3.92899537638065,4.00028299604827,FALSE,0.156077303013841
"CAN","cpi",0.1,1988,3,1988,NA,0.5,3.46096616704685,3.6026594111839,3.92899537638065,3.53181278911538,FALSE,0.866884277907613
"CAN","cpi",0.1,1988,3,1987,NA,1,4.15452340209405,4.52894231882517,3.92899537638065,4.34173286045961,FALSE,0.875592307205327
"CAN","cpi",0.1,1988,3,1987,NA,1.5,3.4977550617962,4.03449080983792,3.92899537638065,3.76612293581706,TRUE,0.536735748041728
"CAN","cpi",0.1,1989,3,1989,NA,0,4.99583075024017,5.01630549981551,4.82821664544208,5.00606812502784,FALSE,0.392950538015552
"CAN","cpi",0.1,1989,3,1989,NA,0.5,4.44402257145099,4.58640618799709,4.82821664544208,4.51521437972404,FALSE,0.679740188646072
"CAN","cpi",0.1,1989,3,1988,NA,1,4.15791062480121,4.49616733217898,4.82821664544208,4.3270389784901,FALSE,1.07614407018465
"CAN","cpi",0.1,1989,3,1988,NA,1.5,3.17094039082012,3.6830446253438,4.82821664544208,3.42699250808196,FALSE,3.05693094585319
"CAN","cpi",0.1,1990,3,1990,NA,0,4.5116232637522,4.53180121122898,4.64347549432717,4.52171223749059,FALSE,0.268343021028318
"CAN","cpi",0.1,1990,3,1990,NA,0.5,5.15253976311277,5.29416530208639,4.64347549432717,5.22335253259958,FALSE,1.27287946960829
"CAN","cpi",0.1,1990,3,1989,NA,1,5.55202863844826,5.89525784013434,4.64347549432717,5.7236432392913,FALSE,2.36223618862184
"CAN","cpi",0.1,1990,3,1989,NA,1.5,4.65739516655357,5.18343167611398,4.64347549432717,4.92041342133377,FALSE,0.556969114507962
"CAN","cpi",0.1,1991,3,1991,NA,0,5.60524317110527,5.62712016532893,5.4258100696218,5.6161816682171,FALSE,0.420617219742491
"CAN","cpi",0.1,1991,3,1991,NA,0.5,8.74973629350526,8.89836571852974,5.4258100696218,8.8240510060175,FALSE,7.53513214476552
"CAN","cpi",0.1,1991,3,1990,NA,1,3.71971664022936,4.06369762823902,5.4258100696218,3.89170713423419,FALSE,3.37089752441583
"CAN","cpi",0.1,1991,3,1990,NA,1.5,5.44413152383077,5.96510932511807,5.4258100696218,5.70462042447442,FALSE,0.561692143973906
"CAN","cpi",0.1,1992,3,1992,NA,0,1.46389482317092,1.48699452165693,1.47496888572843,1.47544467241393,TRUE,0.023099698486011
"CAN","cpi",0.1,1992,3,1992,NA,0.5,1.21781408862883,1.50357359664755,1.47496888572843,1.36069384263819,TRUE,0.285759508018714
"CAN","cpi",0.1,1992,3,1991,NA,1,2.26674617340787,2.60326824216963,1.47496888572843,2.43500720778875,FALSE,2.09602715249384
"CAN","cpi",0.1,1992,3,1991,NA,1.5,10.953844406292,11.4607508424567,1.47496888572843,11.2072976243743,FALSE,21.5710742596393
"CAN","cpi",0.1,1993,3,1993,NA,0,1.8031388284239,1.82678191636814,1.84351085411351,1.81496037239602,FALSE,0.0608185051561756
"CAN","cpi",0.1,1993,3,1993,NA,0.5,2.29054060665069,2.57623209509876,1.84351085411351,2.43338635087472,FALSE,1.27909093853068
"CAN","cpi",0.1,1993,3,1992,NA,1,1.59856257293493,1.9260127534523,1.84351085411351,1.76228766319361,TRUE,0.327450180517371
"CAN","cpi",0.1,1993,3,1992,NA,1.5,1.19756314634418,1.99993808085182,1.84351085411351,1.598750613598,TRUE,0.802374934507633
"CAN","cpi",0.1,1994,3,1994,NA,0,0.208073192895117,0.23222126142074,0.161630694655448,0.220147227157928,FALSE,0.127353620169332
"CAN","cpi",0.1,1994,3,1994,NA,0.5,-0.88438311280498,-0.598701939282402,0.161630694655448,-0.741542526043691,FALSE,1.97530924894002
"CAN","cpi",0.1,1994,3,1993,NA,1,1.34755522552246,1.66833741043361,0.161630694655448,1.50794631797803,FALSE,2.95617003128228
"CAN","cpi",0.1,1994,3,1993,NA,1.5,2.41752558095074,3.21842876587116,0.161630694655448,2.81797717341095,FALSE,5.8140029322433
"CAN","cpi",0.1,1995,3,1995,NA,0,2.14372259554626,2.16597112364352,2.11688403676572,2.15484685959489,FALSE,0.0818897698317953
"CAN","cpi",0.1,1995,3,1995,NA,0.5,2.77307223537144,3.04460619784372,2.11688403676572,2.90883921660758,FALSE,1.72972995937389
"CAN","cpi",0.1,1995,3,1994,NA,1,1.81596721997701,2.08750118244929,2.11688403676572,1.95173420121315,FALSE,0.33682919428656
"CAN","cpi",0.1,1995,3,1994,NA,1.5,-2.56652227144161,-1.79314685019491,2.11688403676572,-2.17983456081826,FALSE,9.46233294782587
"CAN","cpi",0.1,1996,3,1996,NA,0,1.43062194090519,1.45271584659057,1.55309584667184,1.44166889374788,FALSE,0.245160572532652
"CAN","cpi",0.1,1996,3,1996,NA,0.5,1.23794768058783,1.48678765934788,1.55309584667184,1.36236766996786,FALSE,0.396191506146634
"CAN","cpi",0.1,1996,3,1995,NA,1,0.787054278770672,1.03589425753073,1.55309584667184,0.911474268150699,FALSE,1.39817684351809
"CAN","cpi",0.1,1996,3,1995,NA,1.5,3.5584506286741,4.41724475032212,1.55309584667184,3.98784768949811,FALSE,5.31513808165304
"CAN","cpi",0.1,1997,3,1997,NA,0,1.67545244062155,1.70078185028002,1.60528783555959,1.68811714545079,FALSE,0.181250754240608
"CAN","cpi",0.1,1997,3,1997,NA,0.5,1.98076925405712,2.23164809918858,1.60528783555959,2.10620867662285,FALSE,1.0852819973482
"CAN","cpi",0.1,1997,3,1996,NA,1,0.633020863493652,0.883899708625114,1.60528783555959,0.758460286059383,FALSE,1.85396357165252
"CAN","cpi",0.1,1997,3,1996,NA,1.5,1.22913592032533,2.09662113352809,1.60528783555959,1.66287852692671,TRUE,0.867485213202766
"CAN","cpi",0.1,1998,3,1998,NA,0,0.957962703158804,0.983525342982451,0.988908029337191,0.970744023070627,FALSE,0.0375241650564022
"CAN","cpi",0.1,1998,3,1998,NA,0.5,1.39287801541132,1.64905928467452,0.988908029337191,1.52096865004292,FALSE,1.15389234942793
"CAN","cpi",0.1,1998,3,1997,NA,1,0.911869955153389,1.16805122441659,0.988908029337191,1.03996058978499,TRUE,0.256181269263205
"CAN","cpi",0.1,1998,3,1997,NA,1.5,1.78590009203533,2.65529139011725,0.988908029337191,2.22059574107629,FALSE,2.64048477074445
"CAN","cpi",0.1,1999,3,1999,NA,0,1.7786864156997,1.80414288311405,1.7107350135213,1.79141464940687,FALSE,0.17645958336635
"CAN","cpi",0.1,1999,3,1999,NA,0.5,0.674126925502247,0.926977819920157,1.7107350135213,0.800552372711202,FALSE,1.99453354686489
"CAN","cpi",0.1,1999,3,1998,NA,1,0.348099977700656,0.600950872118566,1.7107350135213,0.474525424909611,FALSE,2.71903787531287
"CAN","cpi",0.1,1999,3,1998,NA,1.5,1.76292270298914,2.63260724393338,1.7107350135213,2.19776497346126,FALSE,0.985657184206114
"CAN","cpi",0.1,2000,3,2000,NA,0,2.72110839146368,2.74666882103087,2.6718361971244,2.73388860624727,FALSE,0.135054194765588
"CAN","cpi",0.1,2000,3,2000,NA,0.5,1.98203567812743,2.24848096657732,2.6718361971244,2.11525832235237,FALSE,1.20723468966563
"CAN","cpi",0.1,2000,3,1999,NA,1,2.68115818456318,2.94760347301308,2.6718361971244,2.81438082878813,FALSE,0.287160816091634
"CAN","cpi",0.1,2000,3,1999,NA,1.5,0.439529215387821,1.3052980139159,2.6718361971244,0.872413614651861,FALSE,3.90252031676919
"CAN","cpi",0.1,2001,3,2001,NA,0,2.72370331354425,2.7464310000884,2.47906219852806,2.73506715681632,FALSE,0.566374608802342
"CAN","cpi",0.1,2001,3,2001,NA,0.5,1.58967939911961,1.85759159347527,2.47906219852806,1.72363549629744,FALSE,1.64895798336187
"CAN","cpi",0.1,2001,3,2000,NA,1,3.60600151676322,3.87391371111888,2.47906219852806,3.73995761394105,FALSE,2.77222179043378
"CAN","cpi",0.1,2001,3,2000,NA,1.5,1.54635266148581,2.41964656845883,2.47906219852806,1.98299961497232,FALSE,1.0053286404602
"CAN","cpi",0.1,2002,3,2002,NA,0,2.33722885730596,2.36279916144185,2.20880570551249,2.3500140093739,FALSE,0.310955085899161
"CAN","cpi",0.1,2002,3,2002,NA,0.5,1.33277306830393,1.60871597900702,2.20880570551249,1.47074452365548,FALSE,1.60947563627079
"CAN","cpi",0.1,2002,3,2001,NA,1,0.658001275741341,0.933944186444439,2.20880570551249,0.79597273109289,FALSE,3.10896850863209
"CAN","cpi",0.1,2002,3,2001,NA,1.5,0.387425706935787,1.26661251261368,2.20880570551249,0.827019109774735,FALSE,2.97294945656413
"CAN","cpi",0.1,2003,3,2003,NA,0,2.75658264786794,2.78074811847103,2.71189071546809,2.76866538316948,FALSE,0.123480875936087
"CAN","cpi",0.1,2003,3,2003,NA,0.5,4.51359136243951,4.67931899683563,2.71189071546809,4.59645517963757,FALSE,4.16950684988816
"CAN","cpi",0.1,2003,3,2002,NA,1,4.21826099688747,4.45666959600738,2.71189071546809,4.33746529644743,FALSE,3.58589811338521
"CAN","cpi",0.1,2003,3,2002,NA,1.5,2.26688736196015,3.16249044359353,2.71189071546809,2.71468890277684,TRUE,0.89560308163338
"CAN","cpi",0.1,2004,3,2004,NA,0,1.75657947135014,1.78037440665405,1.83151661303942,1.7684769390021,FALSE,0.137444282826959
"CAN","cpi",0.1,2004,3,2004,NA,0.5,1.44899751527513,1.67603786429206,1.83151661303942,1.5625176897836,FALSE,0.572548679566619
"CAN","cpi",0.1,2004,3,2003,NA,1,1.28722730516966,1.54786062830692,1.83151661303942,1.41754396673829,FALSE,0.890979955876153
"CAN","cpi",0.1,2004,3,2003,NA,1.5,5.07997628743828,5.5730524387598,1.83151661303942,5.32651436309904,FALSE,7.71187542776343
"CAN","cpi",0.1,2005,3,2005,NA,0,2.36962107823632,2.39431807497941,2.18071628336509,2.38196957660787,FALSE,0.444485429790266
"CAN","cpi",0.1,2005,3,2005,NA,0.5,1.46115619330825,1.68392265334625,2.18071628336509,1.57253942332725,FALSE,1.32675230452432
"CAN","cpi",0.1,2005,3,2004,NA,1,0.861966837267552,1.1244990756524,2.18071628336509,0.993232956459974,FALSE,2.6096815888575
"CAN","cpi",0.1,2005,3,2004,NA,1.5,1.77808999091555,2.34170373125486,2.18071628336509,2.05989686108521,TRUE,0.563613740339312
"CAN","cpi",0.1,2006,3,2006,NA,0,2.05315323348149,2.08029751048031,1.97519342012289,2.0667253719809,FALSE,0.200388306684604
"CAN","cpi",0.1,2006,3,2006,NA,0.5,1.82943490063049,2.04615300480457,1.97519342012289,1.93779395271753,TRUE,0.216718104174083
"CAN","cpi",0.1,2006,3,2005,NA,1,3.35291533796185,3.60161222607384,1.97519342012289,3.47726378201784,FALSE,3.31030114997635
"CAN","cpi",0.1,2006,3,2005,NA,1.5,1.1238317041465,1.64955158364527,1.97519342012289,1.38669164389589,FALSE,1.24936840500458
"CAN","cpi",0.1,2007,3,2007,NA,0,2.09452434575526,2.12162246440428,2.10062087284572,2.10807340507977,TRUE,0.0270981186490129
"CAN","cpi",0.1,2007,3,2007,NA,0.5,2.31626822683194,2.52197571159803,2.10062087284572,2.41912196921498,FALSE,0.684923826957685
"CAN","cpi",0.1,2007,3,2006,NA,1,0.361141886233258,0.643524284350355,2.10062087284572,0.502333085291807,FALSE,3.52037481699569
"CAN","cpi",0.1,2007,3,2006,NA,1.5,1.77312849906885,2.16772486330036,2.10062087284572,1.9704266811846,TRUE,0.394596364231518
"CAN","cpi",0.1,2008,3,2008,NA,0,2.94237807914646,2.96565194588959,2.31447335265955,2.95401501251803,FALSE,1.41861770338071
"CAN","cpi",0.1,2008,3,2008,NA,0.5,1.05567879645413,1.26364275429626,2.31447335265955,1.1596607753752,FALSE,2.54314306531611
"CAN","cpi",0.1,2008,3,2007,NA,1,0.213803332931405,0.516257027840941,2.31447335265955,0.365030180386173,FALSE,4.29848997228423
"CAN","cpi",0.1,2008,3,2007,NA,1.5,3.57336749712054,3.92604106444603,2.31447335265955,3.74970428078329,FALSE,3.15021611057214
"CAN","cpi",0.1,2009,3,2009,NA,0,0.253191490162035,0.30145463048932,0.284533874408197,0.277323060325678,TRUE,0.0482631403272846
"CAN","cpi",0.1,2009,3,2009,NA,0.5,-1.03558317281573,-0.81810052918216,0.284533874408197,-0.926841850998946,FALSE,2.66778131827881
"CAN","cpi",0.1,2009,3,2008,NA,1,4.22767451807288,4.55566603161609,0.284533874408197,4.39167027484448,FALSE,9.0905262772425
"CAN","cpi",0.1,2009,3,2008,NA,1.5,1.12341451724275,1.49094769616899,0.284533874408197,1.30718110670587,FALSE,2.23171238522524
"CAN","cpi",0.1,2010,3,2010,NA,0,1.72490390989906,1.7729580494932,1.75525687020327,1.74893097969613,TRUE,0.0480541395941367
"CAN","cpi",0.1,2010,3,2010,NA,0.5,1.49510016823383,1.71519097296198,1.75525687020327,1.60514557059791,FALSE,0.30912613193102
"CAN","cpi",0.1,2010,3,2009,NA,1,0.438679074238304,0.855075168581879,1.75525687020327,0.646877121410091,FALSE,2.41679987572445
"CAN","cpi",0.1,2010,3,2009,NA,1.5,-1.49926941553358,-1.08287332119001,1.75525687020327,-1.29107136836179,FALSE,6.72335207521753
"CAN","cpi",0.1,2011,3,2011,NA,0,2.81203583900291,2.86113266323465,2.85717434028225,2.83658425111878,TRUE,0.0490968242317411
"CAN","cpi",0.1,2011,3,2011,NA,0.5,2.78730013523245,3.00303741881899,2.85717434028225,2.89516877702572,TRUE,0.215737283586539
"CAN","cpi",0.1,2011,3,2010,NA,1,1.96550351541983,2.41689967636852,2.85717434028225,2.19120159589417,FALSE,1.4297843029792
"CAN","cpi",0.1,2011,3,2010,NA,1.5,1.73791694626485,2.18931310721355,2.85717434028225,1.9636150267392,FALSE,1.9355322344347
"CAN","cpi",0.1,2012,3,2012,NA,0,1.43504401889519,1.48520211801411,1.50118536134935,1.46012306845465,FALSE,0.0856764176416599
"CAN","cpi",0.1,2012,3,2012,NA,0.5,1.70521717770053,1.92115753007602,1.50118536134935,1.81318735388827,FALSE,0.669344388711453
"CAN","cpi",0.1,2012,3,2011,NA,1,0.845058308793188,1.28986243450461,1.50118536134935,1.0674603716489,FALSE,0.91441062981083
"CAN","cpi",0.1,2012,3,2011,NA,1.5,3.04251972149461,3.48732384720604,1.50118536134935,3.26492178435033,FALSE,3.86999159270091
"CAN","cpi",0.1,2013,3,2013,NA,0,1.01462533528692,1.06466727259606,0.931270594714462,1.03964630394149,FALSE,0.235274694136825
"CAN","cpi",0.1,2013,3,2013,NA,0.5,1.0576691065555,1.27278688795483,0.931270594714462,1.16522799725517,FALSE,0.496003363268305
"CAN","cpi",0.1,2013,3,2012,NA,1,-0.683387218864797,-0.234186679745403,0.931270594714462,-0.4587869493051,FALSE,3.03910559347465
"CAN","cpi",0.1,2013,3,2012,NA,1.5,1.64558570136144,2.09478624048084,0.931270594714462,1.87018597092114,FALSE,2.03656744277935
"CAN","cpi",0.1,2014,3,2014,NA,0,1.96446939174089,2.01436433722166,1.87639912240215,1.98941686448128,FALSE,0.245606655122414
"CAN","cpi",0.1,2014,3,2014,NA,0.5,2.17994190585425,2.39075445509587,1.87639912240215,2.28534818047506,FALSE,0.885352068024071
"CAN","cpi",0.1,2014,3,2013,NA,1,0.713466388906329,1.15451012704647,1.87639912240215,0.933988257976399,FALSE,2.04524150559721
"CAN","cpi",0.1,2014,3,2013,NA,1.5,1.52380635321674,1.96485009135688,1.87639912240215,1.74432822228681,TRUE,0.441043738140141
"CAN","cpi",0.1,2015,3,2015,NA,0,1.23675297190985,1.28660844159276,1.11090953952792,1.2616807067513,FALSE,0.329507541642752
"CAN","cpi",0.1,2015,3,2015,NA,0.5,0.146383993163959,0.290342197101185,1.11090953952792,0.218363095132572,FALSE,1.96744118710774
"CAN","cpi",0.1,2015,3,2014,NA,1,0.407947373557504,0.838612132901356,1.11090953952792,0.62327975322943,FALSE,1.03577010740288
"CAN","cpi",0.1,2015,3,2014,NA,1.5,3.3331129516196,3.76377771096345,1.11090953952792,3.54844533129153,FALSE,5.36889456399204
"CAN","cpi",0.1,2016,3,2016,NA,0,1.4199129659591,1.46814801908669,1.41168586698797,1.44403049252289,FALSE,0.0665174952856643
"CAN","cpi",0.1,2016,3,2016,NA,0.5,0.866958218585519,1.02044350310063,1.41168586698797,0.943700860843074,FALSE,1.0229127598203
"CAN","cpi",0.1,2016,3,2015,NA,1,1.45380795940457,1.86230879960051,1.41168586698797,1.65805837950254,FALSE,0.502105490010622
"CAN","cpi",0.1,2016,3,2015,NA,1.5,0.00850278471647845,0.417003624912413,1.41168586698797,0.212753204814446,FALSE,2.61890582258605
"CAN","cpi",0.1,2017,3,2017,NA,0,1.49774138449081,1.54570929666256,1.57888581671161,1.52172534057668,FALSE,0.121693512280758
"CAN","cpi",0.1,2017,3,2017,NA,0.5,2.10407086141493,2.25584416145194,1.57888581671161,2.17995751143343,FALSE,1.31885117715549
"CAN","cpi",0.1,2017,3,2016,NA,1,0.271474806714045,0.685845506058712,1.57888581671161,0.478660156386378,FALSE,2.39890472301778
"CAN","cpi",0.1,2017,3,2016,NA,1.5,0.84062044222418,1.25499114156885,1.57888581671161,1.04780579189651,FALSE,1.13413664410637
"CAN","cpi",0.1,2018,3,2018,NA,0,2.40137911248813,2.45075816427284,2.23316270166586,2.42606863838048,FALSE,0.423193298056417
"CAN","cpi",0.1,2018,3,2018,NA,0.5,2.9388791733711,3.10314330771899,2.23316270166586,3.02101124054505,FALSE,1.73252296035954
"CAN","cpi",0.1,2018,3,2017,NA,1,0.322182306280484,0.725213748396656,2.23316270166586,0.52369802733857,FALSE,3.75402911604773
"CAN","cpi",0.1,2018,3,2017,NA,1.5,2.88256612216319,3.28559756427936,2.23316270166586,3.08408184322128,FALSE,1.84615015433247
"CAN","cpi",0.1,2019,3,2019,NA,0,1.99813687232631,2.0477098305974,1.91921619871868,2.02292335146186,FALSE,0.224952232954718
"CAN","cpi",0.1,2019,3,2019,NA,0.5,1.6722404388493,1.8488610490077,1.91921619871868,1.7605507439285,FALSE,0.332965387293907
"CAN","cpi",0.1,2019,3,2018,NA,1,1.76871219530044,2.17402165129325,1.91921619871868,1.97136692329685,TRUE,0.405309455992803
"CAN","cpi",0.1,2019,3,2018,NA,1.5,3.92736015117754,4.33266960717034,1.91921619871868,4.13001487917394,FALSE,4.86785157256804
"CAN","cpi",0.1,2020,3,2020,NA,0,0.737551142187282,0.758924564349488,0.71139989671781,0.748237853268385,FALSE,0.0794873009832543
"CAN","cpi",0.1,2020,3,2020,NA,0.5,1.12880675709992,1.28395494072846,0.71139989671781,1.20638084891419,FALSE,1.08271898447768
"CAN","cpi",0.1,2020,3,2019,NA,1,1.13792095993976,1.53459834882859,0.71139989671781,1.33625965438418,FALSE,1.3445019738265
"CAN","cpi",0.1,2020,3,2019,NA,1.5,2.27048982886884,2.68606227903371,0.71139989671781,2.47827605395127,FALSE,3.88021674383382
"CAN","cpi",0.1,2021,3,2021,NA,0,3.35030690866306,3.37116787351128,3.31148121717802,3.36073739108717,FALSE,0.107140279259411
"CAN","cpi",0.1,2021,3,2021,NA,0.5,2.8153051855236,2.94042680011705,3.31148121717802,2.87786599282032,FALSE,0.949686985840064
"CAN","cpi",0.1,2021,3,2020,NA,1,1.71542191677639,1.89593019781908,3.31148121717802,1.80567605729774,FALSE,3.32617721295145
"CAN","cpi",0.1,2021,3,2020,NA,1.5,1.14951010533304,1.57679235331652,3.31148121717802,1.36315122932478,FALSE,4.28214638989793
"CAN","cpi",0.1,2022,3,2022,NA,0,6.57130110127872,6.59153375425593,6.50977236228281,6.58141742776733,FALSE,0.156963184079236
"CAN","cpi",0.1,2022,3,2022,NA,0.5,6.67765544926966,6.80822222626208,6.50977236228281,6.74293883776587,FALSE,0.503640303629867
"CAN","cpi",0.1,2022,3,2021,NA,1,4.73090701156848,4.92037728836294,6.50977236228281,4.82564214996571,FALSE,3.72145932994972
"CAN","cpi",0.1,2022,3,2021,NA,1.5,3.74734667568653,4.12415461061772,6.50977236228281,3.93575064315212,FALSE,5.67818071640917
"CAN","cpi",0.1,2023,3,2023,NA,0,4.00500108408658,4.02406462823635,3.78831288758619,4.01453285616146,FALSE,0.500592869706189
"CAN","cpi",0.1,2023,3,2023,NA,0.5,3.01339951392471,3.14436892086019,3.78831288758619,3.07888421739245,FALSE,1.56195599965992
"CAN","cpi",0.1,2023,3,2022,NA,1,3.75442490168074,3.95904070971341,3.78831288758619,3.85673280569707,TRUE,0.204615808032669
"CAN","cpi",0.1,2023,3,2022,NA,1.5,7.85651516025619,8.28933050866888,3.78831288758619,8.07292283446253,FALSE,9.4732648432349
"CAN","cpi",0.1,2024,3,2023,NA,1,3.96854879703124,4.18154628289881,NA,4.07504753996503,NA,NA
"CAN","cpi",0.1,2024,3,2023,NA,1.5,2.15567110680828,2.67490985958549,NA,2.41529048319689,NA,NA
"CAN","cpi",0.2,1959,3,1959,NA,0,1.2070337933043,1.29279053532156,1.19382698397654,1.24991216431293,FALSE,0.118773765336661
"CAN","cpi",0.2,1959,3,1959,NA,0.5,0.091749455324706,0.783930007855948,1.19382698397654,0.437839731590327,FALSE,1.71692299283272
"CAN","cpi",0.2,1959,3,1958,NA,1,0.998360473988894,2.51889478373003,1.19382698397654,1.75862762885946,TRUE,1.52053430974113
"CAN","cpi",0.2,1959,3,1958,NA,1.5,0.0205831730704853,3.52756028120483,1.19382698397654,1.77407172713766,TRUE,3.50697710813434
"CAN","cpi",0.2,1960,3,1960,NA,0,0.985581783296,1.06164430189354,1.34209404870695,1.02361304259477,FALSE,0.777186885631063
"CAN","cpi",0.2,1960,3,1960,NA,0.5,0.257477966315488,0.820488994047831,1.34209404870695,0.53898348018166,FALSE,1.86702366438014
"CAN","cpi",0.2,1960,3,1959,NA,1,3.21065376556222,4.70453370822663,1.34209404870695,3.95759373689442,FALSE,6.16527923480258
"CAN","cpi",0.2,1960,3,1959,NA,1.5,-2.42518192600919,0.678228295199418,1.34209404870695,-0.873476815404885,FALSE,4.76307460497744
"CAN","cpi",0.2,1961,3,1961,NA,0,0.963221424249928,1.05520553763022,1.00921348094007,1.00921348094007,TRUE,0.091984113380287
"CAN","cpi",0.2,1961,3,1961,NA,0.5,0.729510659786976,1.28891630209317,1.00921348094007,1.00921348094007,TRUE,0.559405642306192
"CAN","cpi",0.2,1961,3,1960,NA,1,-0.58609852078077,0.693639445987835,1.00921348094007,0.0537704626035329,FALSE,2.0686730541492
"CAN","cpi",0.2,1961,3,1960,NA,1.5,-2.07318876233377,0.348825164453695,1.00921348094007,-0.862181798940035,FALSE,4.0729847180034
"CAN","cpi",0.2,1962,3,1962,NA,0,1.06127758052637,1.14337047410318,1.04957947883042,1.10232402731478,FALSE,0.111338147816708
"CAN","cpi",0.2,1962,3,1962,NA,0.5,-0.218122100820054,0.218122100820054,1.04957947883042,0,FALSE,2.51488764666601
"CAN","cpi",0.2,1962,3,1961,NA,1,-0.649571142896037,0.649571142896037,1.04957947883042,0,FALSE,2.29916312562802
"CAN","cpi",0.2,1962,3,1961,NA,1.5,-1.2100597030799,1.2100597030799,1.04957947883042,0,TRUE,2.4201194061598
"CAN","cpi",0.2,1963,3,1963,NA,0,1.8739591502667,1.95587544035733,1.60677118395228,1.91491729531202,FALSE,0.749886205876674
"CAN","cpi",0.2,1963,3,1963,NA,0.5,0.618041282151431,1.05561614708358,1.60677118395228,0.836828714617504,FALSE,1.81546245710391
"CAN","cpi",0.2,1963,3,1962,NA,1,1.9742176318807,3.15401217642217,1.60677118395228,2.56411490415144,FALSE,2.09841066436251
"CAN","cpi",0.2,1963,3,1962,NA,1.5,-0.861318569832314,0.861318569832314,1.60677118395228,0,FALSE,3.58626867496455
"CAN","cpi",0.2,1964,3,1964,NA,0,1.94323641585654,2.03430871306441,1.88764670034376,1.98877256446048,FALSE,0.230046585989829
"CAN","cpi",0.2,1964,3,1964,NA,0.5,1.24713540836331,1.52024471618884,1.88764670034376,1.38369006227607,FALSE,1.19161426821283
"CAN","cpi",0.2,1964,3,1963,NA,1,4.94621676754793,5.83466903939718,1.88764670034376,5.39044290347256,FALSE,8.53487743985968
"CAN","cpi",0.2,1964,3,1963,NA,1.5,-0.48546616965682,0.48546616965682,1.88764670034376,0,FALSE,4.47638366603099
"CAN","cpi",0.2,1965,3,1965,NA,0,2.29990996507428,2.39123098330569,2.29538304394236,2.34557047418999,FALSE,0.102638321061222
"CAN","cpi",0.2,1965,3,1965,NA,0.5,1.47413896139595,1.74744999773713,2.29538304394236,1.61079447956654,FALSE,1.64314365185425
"CAN","cpi",0.2,1965,3,1964,NA,1,2.00985017625127,2.84052706734566,2.29538304394236,2.42518862179847,TRUE,0.830676891094389
"CAN","cpi",0.2,1965,3,1964,NA,1.5,0.402764106769205,1.23344099786359,2.29538304394236,0.818102552316399,FALSE,3.4855320062913
"CAN","cpi",0.2,1966,3,1966,NA,0,3.77686187401424,3.86335788325993,3.72486065470629,3.82010987863709,FALSE,0.216499057515569
"CAN","cpi",0.2,1966,3,1966,NA,0.5,3.85521285584002,4.12725512207124,3.72486065470629,3.99123398895563,FALSE,0.597922769065557
"CAN","cpi",0.2,1966,3,1965,NA,1,2.800051501465,3.61438987345207,3.72486065470629,3.20722068745854,FALSE,1.09051532512262
"CAN","cpi",0.2,1966,3,1965,NA,1.5,1.19946906032605,2.01380743231312,3.72486065470629,1.60663824631958,FALSE,5.09197142797
"CAN","cpi",0.2,1967,3,1967,NA,0,3.72519098421523,3.81018600235741,3.49360316391996,3.76768849328632,FALSE,0.663964568880355
"CAN","cpi",0.2,1967,3,1967,NA,0.5,2.2505749869848,2.56433450141041,3.49360316391996,2.4074547441976,FALSE,2.63693117069949
"CAN","cpi",0.2,1967,3,1966,NA,1,2.78054695308786,3.58151950831782,3.49360316391996,3.18103323070284,TRUE,0.80097255522996
"CAN","cpi",0.2,1967,3,1966,NA,1.5,4.2507953272575,5.05176788248746,3.49360316391996,4.65128160487248,FALSE,2.69395296357381
"CAN","cpi",0.2,1968,3,1968,NA,0,4.12919868725492,4.21656022619299,3.95128347779386,4.17287945672396,FALSE,0.532149562590735
"CAN","cpi",0.2,1968,3,1968,NA,0.5,3.95567381029273,4.18627030530432,3.95128347779386,4.07097205779852,FALSE,0.241572326258765
"CAN","cpi",0.2,1968,3,1967,NA,1,5.41961554912145,6.27081809335551,3.95128347779386,5.84521682123848,FALSE,4.52203272255305
"CAN","cpi",0.2,1968,3,1967,NA,1.5,1.83005731028523,2.68125985451929,3.95128347779386,2.25565858240226,FALSE,4.02626160242047
"CAN","cpi",0.2,1969,3,1969,NA,0,4.55051343890134,4.63989984831103,4.42679496126681,4.59520664360618,FALSE,0.398682603495998
"CAN","cpi",0.2,1969,3,1969,NA,0.5,2.84496234130954,3.08727804660476,4.42679496126681,2.96612019395715,FALSE,3.59110799195036
"CAN","cpi",0.2,1969,3,1968,NA,1,6.39167170758759,7.05808089322855,4.42679496126681,6.72487630040807,FALSE,5.5786010514429
"CAN","cpi",0.2,1969,3,1968,NA,1.5,3.98343993662493,4.64984912226588,4.42679496126681,4.31664452944541,TRUE,0.666409185640955
"CAN","cpi",0.2,1970,3,1970,NA,0,3.56491012404136,3.65032064095715,3.28128405769805,3.60761538249925,FALSE,0.794475682774072
"CAN","cpi",0.2,1970,3,1970,NA,0.5,4.22332670124097,4.49699484719287,3.28128405769805,4.36016077421692,FALSE,2.6287747548092
"CAN","cpi",0.2,1970,3,1969,NA,1,4.57203661092716,5.25535234517554,3.28128405769805,4.91369447805135,FALSE,3.91019711732116
"CAN","cpi",0.2,1970,3,1969,NA,1.5,1.7380806057071,2.42139633995548,3.28128405769805,2.07973847283129,FALSE,2.83303502860479
"CAN","cpi",0.2,1971,3,1971,NA,0,2.87261837975867,2.96483963984808,2.64123406634756,2.91872900980337,FALSE,0.67068204361718
"CAN","cpi",0.2,1971,3,1971,NA,0.5,1.19657339288284,1.5705687198433,2.64123406634756,1.38357105636307,FALSE,3.05065869322111
"CAN","cpi",0.2,1971,3,1970,NA,1,2.85197474821428,3.50175747137127,2.64123406634756,3.17686610979278,FALSE,1.17663442782379
"CAN","cpi",0.2,1971,3,1970,NA,1.5,4.29577176168426,4.94555448484124,2.64123406634756,4.62066312326275,FALSE,4.78612696149873
"CAN","cpi",0.2,1972,3,1972,NA,0,5.14257160254155,5.20164224077547,4.83230569625923,5.17210692165851,FALSE,0.834735403939721
"CAN","cpi",0.2,1972,3,1972,NA,0.5,4.56662976302921,4.95785534654972,4.83230569625923,4.76224255478946,TRUE,0.391225583520516
"CAN","cpi",0.2,1972,3,1971,NA,1,6.48268708065883,7.19458288057466,4.83230569625923,6.83863498061675,FALSE,4.83784926091483
"CAN","cpi",0.2,1972,3,1971,NA,1.5,1.59846372593272,2.31035952584856,4.83230569625923,1.95441162589064,FALSE,7.01676122594252
"CAN","cpi",0.2,1973,3,1973,NA,0,7.38225163299381,7.43890488108609,7.12388603531779,7.41057825703995,FALSE,0.702567242282323
"CAN","cpi",0.2,1973,3,1973,NA,0.5,6.04734842451855,6.43647960175562,7.12388603531779,6.24191401313708,FALSE,2.1076472611425
"CAN","cpi",0.2,1973,3,1972,NA,1,7.77338499382857,8.47843267981012,7.12388603531779,8.12590883681935,FALSE,2.32879508225851
"CAN","cpi",0.2,1973,3,1972,NA,1.5,4.59407577371466,5.3285381141098,7.12388603531779,4.96130694391223,FALSE,5.22283214341513
"CAN","cpi",0.2,1974,3,1974,NA,0,10.2659923687811,10.3179684509653,10.2717243737774,10.2919804098732,TRUE,0.051976082184261
"CAN","cpi",0.2,1974,3,1974,NA,0.5,8.82491070595066,9.2086873389152,10.2717243737774,9.01679902243293,FALSE,3.04136922012009
"CAN","cpi",0.2,1974,3,1973,NA,1,11.1999517228713,11.8153256420789,10.2717243737774,11.5076386824751,FALSE,2.93594229194228
"CAN","cpi",0.2,1974,3,1973,NA,1.5,6.6604344365578,7.41658592168017,10.2717243737774,7.03851017911898,FALSE,7.8939976153655
"CAN","cpi",0.2,1975,3,1975,NA,0,10.2876647737742,10.3457341667121,10.0232981493341,10.3166994702432,FALSE,0.718985954038182
"CAN","cpi",0.2,1975,3,1975,NA,0.5,8.6781392706643,9.07821724477079,10.0232981493341,8.87817825771755,FALSE,2.76278023551481
"CAN","cpi",0.2,1975,3,1974,NA,1,11.3563985322161,11.9704984911012,10.0232981493341,11.6634485116586,FALSE,3.94685091609005
"CAN","cpi",0.2,1975,3,1974,NA,1.5,8.68038583293379,9.50293295401851,10.0232981493341,9.09165939347615,FALSE,2.12346010937374
"CAN","cpi",0.2,1976,3,1976,NA,0,7.23041895681276,7.28780839126576,7.22784311401172,7.25911367403926,FALSE,0.0638290414556062
"CAN","cpi",0.2,1976,3,1976,NA,0.5,7.01942655348406,7.43062475189678,7.22784311401172,7.22502565269042,TRUE,0.411198198412713
"CAN","cpi",0.2,1976,3,1975,NA,1,12.2333103079997,12.7228477795571,7.22784311401172,12.4780790437784,FALSE,13.0032054565273
"CAN","cpi",0.2,1976,3,1975,NA,1.5,6.77779603594202,7.59392424080934,7.22784311401172,7.18586013837568,TRUE,0.816128204867322
"CAN","cpi",0.2,1977,3,1977,NA,0,7.56197513035984,7.62080516883412,7.58101410153764,7.59139014959698,TRUE,0.058830038474289
"CAN","cpi",0.2,1977,3,1977,NA,0.5,7.04047038850889,7.46030274257608,7.58101410153764,7.25038656554249,FALSE,0.721610751471097
"CAN","cpi",0.2,1977,3,1976,NA,1,5.53949891668176,6.32039145662706,7.58101410153764,5.92994518665441,FALSE,3.93244915222176
"CAN","cpi",0.2,1977,3,1976,NA,1.5,5.27416142121374,6.10492487806501,7.58101410153764,5.68954314963938,FALSE,4.52098651553285
"CAN","cpi",0.2,1978,3,1978,NA,0,8.65664349682114,8.7209780393801,8.50208927062595,8.68881076810062,FALSE,0.450720108046942
"CAN","cpi",0.2,1978,3,1978,NA,0.5,7.91174601660636,8.31242415869239,8.50208927062595,8.11208508764938,FALSE,0.874840921919913
"CAN","cpi",0.2,1978,3,1977,NA,1,7.92310825736952,8.77033020730533,8.50208927062595,8.34671923233743,TRUE,0.847221949935815
"CAN","cpi",0.2,1978,3,1977,NA,1.5,7.79049634128984,8.63771829122565,8.50208927062595,8.21410731625775,TRUE,0.847221949935815
"CAN","cpi",0.2,1979,3,1979,NA,0,8.52972277330248,8.59300789399574,8.65147652410481,8.56136533364911,FALSE,0.209456695965939
"CAN","cpi",0.2,1979,3,1979,NA,0.5,8.03504735906701,8.426804434641,8.65147652410481,8.23092589685401,FALSE,0.953437299233509
"CAN","cpi",0.2,1979,3,1978,NA,1,9.26080110612979,10.0688358118568,8.65147652410481,9.66481845899329,FALSE,2.33134616078945
"CAN","cpi",0.2,1979,3,1978,NA,1.5,7.50613071083896,8.31416541656596,8.65147652410481,7.91014806370246,FALSE,1.65131247457412
"CAN","cpi",0.2,1980,3,1980,NA,0,9.49745155347201,9.57408256369792,9.5171912664748,9.53576705858497,TRUE,0.0766310102259098
"CAN","cpi",0.2,1980,3,1980,NA,0.5,8.45449379209298,8.83245542876422,9.5171912664748,8.6434746104286,FALSE,2.08980123094767
"CAN","cpi",0.2,1980,3,1979,NA,1,7.38715455319575,8.19219042961075,9.5171912664748,7.78967249140325,FALSE,4.11753796857513
"CAN","cpi",0.2,1980,3,1979,NA,1.5,7.89529778744435,8.70033366385935,9.5171912664748,8.29781572565185,FALSE,2.84717988295362
"CAN","cpi",0.2,1981,3,1981,NA,0,11.6720484693212,11.7520171778456,11.5813425032741,11.7120328235834,FALSE,0.306733623642055
"CAN","cpi",0.2,1981,3,1981,NA,0.5,12.1537751280703,12.5054619210121,11.5813425032741,12.3296185245412,FALSE,1.78276835493211
"CAN","cpi",0.2,1981,3,1980,NA,1,10.6123543415057,11.4588985267161,11.5813425032741,11.0356264341109,FALSE,1.1526541266056
"CAN","cpi",0.2,1981,3,1980,NA,1.5,8.10147649423666,8.94802067944704,11.5813425032741,8.52474858684185,FALSE,7.42984874477812
"CAN","cpi",0.2,1982,3,1982,NA,0,10.2159300544079,10.2905180083421,10.1124203763629,10.253224031375,FALSE,0.333362149046624
"CAN","cpi",0.2,1982,3,1982,NA,0.5,9.96452662693828,10.2797363863087,10.1124203763629,10.1221315066235,TRUE,0.315209759370411
"CAN","cpi",0.2,1982,3,1981,NA,1,11.2105716004366,12.0949834933253,10.1124203763629,11.652777546881,FALSE,3.62978995307286
"CAN","cpi",0.2,1982,3,1981,NA,1.5,12.771747537177,13.6561594300657,10.1124203763629,13.2139534836213,FALSE,7.53272979492375
"CAN","cpi",0.2,1983,3,1983,NA,0,5.80822913500054,5.87902591193652,5.67091787896303,5.84362752346853,FALSE,0.414074917029751
"CAN","cpi",0.2,1983,3,1983,NA,0.5,4.55653195342939,4.85617100944132,5.67091787896303,4.70635148143536,FALSE,2.33650622981621
"CAN","cpi",0.2,1983,3,1982,NA,1,8.138659684501,9.09008751417265,5.67091787896303,8.61437359933683,FALSE,7.12078234351657
"CAN","cpi",0.2,1983,3,1982,NA,1.5,9.36758911451956,10.3190169441912,5.67091787896303,9.84330302935538,FALSE,10.193105918563
"CAN","cpi",0.2,1984,3,1984,NA,0,4.18227059692618,4.24404266665216,4.19799576814029,4.21315663178917,TRUE,0.0617720697259774
"CAN","cpi",0.2,1984,3,1984,NA,0.5,4.57803877904284,4.88204535000981,4.19799576814029,4.73004206452632,FALSE,1.25411409822335
"CAN","cpi",0.2,1984,3,1983,NA,1,5.79373898711378,6.8168602495686,4.19799576814029,6.30529961834119,FALSE,5.01247930988855
"CAN","cpi",0.2,1984,3,1983,NA,1.5,2.2206181847808,3.40317061157471,4.19799576814029,2.81189439817776,FALSE,3.16961531820785
"CAN","cpi",0.2,1985,3,1985,NA,0,3.87780052114324,3.93313736973961,3.86444262005169,3.90546894544143,FALSE,0.0887316013252426
"CAN","cpi",0.2,1985,3,1985,NA,0.5,3.84488565138821,4.17864433166518,3.86444262005169,4.0117649915267,TRUE,0.333758680276969
"CAN","cpi",0.2,1985,3,1984,NA,1,2.77034866601329,3.80849529523404,3.86444262005169,3.28942198062367,FALSE,1.17801494126487
"CAN","cpi",0.2,1985,3,1984,NA,1.5,4.09895286583416,5.26045453105771,3.86444262005169,4.67970369844593,FALSE,1.74777727967972
"CAN","cpi",0.2,1986,3,1986,NA,0,4.09987453373303,4.15468041517555,4.08685396749431,4.12727747445429,FALSE,0.0873572970393273
"CAN","cpi",0.2,1986,3,1986,NA,0.5,4.42207477744297,4.72820763906739,4.08685396749431,4.57514120825518,FALSE,1.14418488649607
"CAN","cpi",0.2,1986,3,1985,NA,1,3.31166534273142,4.37836967127523,4.08685396749431,3.84501750700332,TRUE,1.06670432854381
"CAN","cpi",0.2,1986,3,1985,NA,1.5,3.9768543825827,5.05562562919605,4.08685396749431,4.51624000588938,TRUE,1.07877124661335
"CAN","cpi",0.2,1987,3,1987,NA,0,4.31635180546151,4.35888103448608,4.23980729277887,4.3376164199738,FALSE,0.233890510731176
"CAN","cpi",0.2,1987,3,1987,NA,0.5,3.74801460547284,4.03166253498957,4.23980729277887,3.8898385702312,FALSE,0.804009823989985
"CAN","cpi",0.2,1987,3,1986,NA,1,4.02701490153908,5.09868382693247,4.23980729277887,4.56284936423577,TRUE,1.07166892539339
"CAN","cpi",0.2,1987,3,1986,NA,1.5,4.61827760792701,5.69121558068646,4.23980729277887,5.15474659430673,FALSE,2.01911376062979
"CAN","cpi",0.2,1988,3,1988,NA,0,3.97905671794449,4.02150927415205,3.92899537638065,4.00028299604827,FALSE,0.167605910117143
"CAN","cpi",0.2,1988,3,1988,NA,0.5,3.38897820300578,3.67464737522497,3.92899537638065,3.53181278911538,FALSE,0.9215391751084
"CAN","cpi",0.2,1988,3,1987,NA,1,3.96429799171483,4.71916772920438,3.92899537638065,4.34173286045961,FALSE,0.843126275824996
"CAN","cpi",0.2,1988,3,1987,NA,1.5,3.22506377037367,4.30718210126045,3.92899537638065,3.76612293581706,TRUE,1.08211833088679
"CAN","cpi",0.2,1989,3,1989,NA,0,4.98542845092692,5.02670779912876,4.82821664544208,5.00606812502784,FALSE,0.434308861913954
"CAN","cpi",0.2,1989,3,1989,NA,0.5,4.37168386024157,4.65874489920651,4.82821664544208,4.51521437972404,FALSE,0.710740404553857
"CAN","cpi",0.2,1989,3,1988,NA,1,3.98605760643285,4.66802035054734,4.82821664544208,4.3270389784901,FALSE,1.08245348135133
"CAN","cpi",0.2,1989,3,1988,NA,1.5,2.91076326350056,3.94322175266335,4.82821664544208,3.42699250808196,FALSE,3.2449457211096
"CAN","cpi",0.2,1990,3,1990,NA,0,4.50137175623519,4.54205271874599,4.64347549432717,4.52171223749059,FALSE,0.294237901463755
"CAN","cpi",0.2,1990,3,1990,NA,0.5,5.08058619701989,5.36611886817927,4.64347549432717,5.22335253259958,FALSE,1.37830942789118
"CAN","cpi",0.2,1990,3,1989,NA,1,5.37764931938263,6.06963715919997,4.64347549432717,5.7236432392913,FALSE,2.52742240245599
"CAN","cpi",0.2,1990,3,1989,NA,1.5,4.39013967695597,5.45068716571158,4.64347549432717,4.92041342133377,TRUE,1.06054748875561
"CAN","cpi",0.2,1991,3,1991,NA,0,5.5941284543586,5.6382348820756,5.4258100696218,5.6161816682171,FALSE,0.464902389559011
"CAN","cpi",0.2,1991,3,1991,NA,0.5,8.67422436794191,8.97387764409309,5.4258100696218,8.8240510060175,FALSE,8.42068902195147
"CAN","cpi",0.2,1991,3,1990,NA,1,3.54495537234777,4.23845889612061,5.4258100696218,3.89170713423419,FALSE,3.6618814575258
"CAN","cpi",0.2,1991,3,1990,NA,1.5,5.17944613636807,6.22979471258077,5.4258100696218,5.70462042447442,TRUE,1.0503485762127
"CAN","cpi",0.2,1992,3,1992,NA,0,1.4521589053853,1.49873043944255,1.47496888572843,1.47544467241393,TRUE,0.0465715340572523
"CAN","cpi",0.2,1992,3,1992,NA,0.5,1.07263253595194,1.64875514932443,1.47496888572843,1.36069384263819,TRUE,0.576122613372492
"CAN","cpi",0.2,1992,3,1991,NA,1,2.09577444689695,2.77423996868055,1.47496888572843,2.43500720778875,FALSE,2.23047942470489
"CAN","cpi",0.2,1992,3,1991,NA,1.5,10.6963080465237,11.718287202225,1.47496888572843,11.2072976243743,FALSE,24.0753270576894
"CAN","cpi",0.2,1993,3,1993,NA,0,1.79112683889599,1.83879390589605,1.84351085411351,1.81496037239602,FALSE,0.059459437543713
"CAN","cpi",0.2,1993,3,1993,NA,0.5,2.14539361165815,2.72137909009129,1.84351085411351,2.43338635087472,FALSE,1.33069237229474
"CAN","cpi",0.2,1993,3,1992,NA,1,1.4321998647911,2.09237546159612,1.84351085411351,1.76228766319361,TRUE,0.660175596805016
"CAN","cpi",0.2,1993,3,1992,NA,1.5,0.789912532621799,2.4075886945742,1.84351085411351,1.598750613598,TRUE,1.6176761619524
"CAN","cpi",0.2,1994,3,1994,NA,0,0.195804645447632,0.244489808868225,0.161630694655448,0.220147227157928,FALSE,0.134120040401053
"CAN","cpi",0.2,1994,3,1994,NA,0.5,-1.02952486724784,-0.453560184839545,0.161630694655448,-0.741542526043691,FALSE,2.11394188114577
"CAN","cpi",0.2,1994,3,1993,NA,1,1.1845802260224,1.83131240993366,0.161630694655448,1.50794631797803,FALSE,3.20410601232865
"CAN","cpi",0.2,1994,3,1993,NA,1.5,2.01062269699491,3.62533164982699,0.161630694655448,2.81797717341095,FALSE,6.23718895868074
"CAN","cpi",0.2,1995,3,1995,NA,0,2.13241911914986,2.17727460003991,2.11688403676572,2.15484685959489,FALSE,0.083693186850414
"CAN","cpi",0.2,1995,3,1995,NA,0.5,2.63511804252739,3.18256039068777,2.11688403676572,2.90883921660758,FALSE,1.84302736256457
"CAN","cpi",0.2,1995,3,1994,NA,1,1.67801302713296,2.22545537529334,2.11688403676572,1.95173420121315,TRUE,0.547442348160381
"CAN","cpi",0.2,1995,3,1994,NA,1.5,-2.95943953686253,-1.40022958477399,2.11688403676572,-2.17983456081826,FALSE,10.3519940059378
"CAN","cpi",0.2,1996,3,1996,NA,0,1.41939702120142,1.46394076629434,1.55309584667184,1.44166889374788,FALSE,0.267431446036676
"CAN","cpi",0.2,1996,3,1996,NA,0.5,1.11152328010173,1.61321205983398,1.55309584667184,1.36236766996786,TRUE,0.501688779732254
"CAN","cpi",0.2,1996,3,1995,NA,1,0.660629878284572,1.16231865801683,1.55309584667184,0.911474268150699,FALSE,1.4786317513698
"CAN","cpi",0.2,1996,3,1995,NA,1.5,3.12213596367797,4.85355941531826,1.55309584667184,3.98784768949811,FALSE,5.6540237441556
"CAN","cpi",0.2,1997,3,1997,NA,0,1.66258370688072,1.71365058402086,1.60528783555959,1.68811714545079,FALSE,0.194306555442956
"CAN","cpi",0.2,1997,3,1997,NA,0.5,1.8533089972751,2.35910835597061,1.60528783555959,2.10620867662285,FALSE,1.12585226298428
"CAN","cpi",0.2,1997,3,1996,NA,1,0.505560606711627,1.01135996540714,1.60528783555959,0.758460286059383,FALSE,1.99061903407665
"CAN","cpi",0.2,1997,3,1996,NA,1.5,0.788405702632019,2.5373513512214,1.60528783555959,1.66287852692671,TRUE,1.74894564858938
"CAN","cpi",0.2,1998,3,1998,NA,0,0.944975475661639,0.996512570479616,0.988908029337191,0.970744023070627,TRUE,0.0515370948179776
"CAN","cpi",0.2,1998,3,1998,NA,0.5,1.26272383542885,1.77921346465699,0.988908029337191,1.52096865004292,FALSE,1.20102914445729
"CAN","cpi",0.2,1998,3,1997,NA,1,0.781715775170924,1.29820540439906,0.988908029337191,1.03996058978499,TRUE,0.516489629228135
"CAN","cpi",0.2,1998,3,1997,NA,1.5,1.34420147834985,3.09699000380273,0.988908029337191,2.22059574107629,FALSE,2.64102214798453
"CAN","cpi",0.2,1999,3,1999,NA,0,1.7657531296281,1.81707616918564,1.7107350135213,1.79141464940687,FALSE,0.188868329824554
"CAN","cpi",0.2,1999,3,1999,NA,0.5,0.545664759179759,1.05543998624264,1.7107350135213,0.800552372711202,FALSE,2.14801279525951
"CAN","cpi",0.2,1999,3,1998,NA,1,0.219637811378168,0.729413038441054,1.7107350135213,0.474525424909611,FALSE,2.96308016476349
"CAN","cpi",0.2,1999,3,1998,NA,1.5,1.32107510579526,3.07445484112726,1.7107350135213,2.19776497346126,TRUE,1.753379735332
"CAN","cpi",0.2,2000,3,2000,NA,0,2.7081222868984,2.75965492559615,2.6718361971244,2.73388860624727,FALSE,0.142247863132748
"CAN","cpi",0.2,2000,3,2000,NA,0.5,1.84666681166765,2.3838498330371,2.6718361971244,2.11525832235237,FALSE,1.2571489315877
"CAN","cpi",0.2,2000,3,1999,NA,1,2.54578931810341,3.08297233947285,2.6718361971244,2.81438082878813,TRUE,0.537183021369447
"CAN","cpi",0.2,2000,3,1999,NA,1.5,-0.000328969212918917,1.74515619851664,2.6718361971244,0.872413614651861,FALSE,4.06218516424896
"CAN","cpi",0.2,2001,3,2001,NA,0,2.71215639829334,2.75797791533931,2.47906219852806,2.73506715681632,FALSE,0.628557016459163
"CAN","cpi",0.2,2001,3,2001,NA,0.5,1.45356526374994,1.99370572884493,2.47906219852806,1.72363549629744,FALSE,1.75353163930282
"CAN","cpi",0.2,2001,3,2000,NA,1,3.46988738139355,4.01002784648854,2.47906219852806,3.73995761394105,FALSE,3.01720342225871
"CAN","cpi",0.2,2001,3,2000,NA,1.5,1.10267130776054,2.8633279221841,2.47906219852806,1.98299961497232,TRUE,1.76065661442356
"CAN","cpi",0.2,2002,3,2002,NA,0,2.32423773591648,2.37579028283133,2.20880570551249,2.3500140093739,FALSE,0.340132622924831
"CAN","cpi",0.2,2002,3,2002,NA,0.5,1.19257888717651,1.74891016013444,2.20880570551249,1.47074452365548,FALSE,1.70607013640305
"CAN","cpi",0.2,2002,3,2001,NA,1,0.517807094613927,1.07413836757185,2.20880570551249,0.79597273109289,FALSE,3.39299961780951
"CAN","cpi",0.2,2002,3,2001,NA,1.5,-0.0592495635612234,1.71328778311069,2.20880570551249,0.827019109774735,FALSE,3.0113321526764
"CAN","cpi",0.2,2003,3,2003,NA,0,2.74430525920763,2.79302550713133,2.71189071546809,2.76866538316948,FALSE,0.129756607272559
"CAN","cpi",0.2,2003,3,2003,NA,0.5,4.429392605765,4.76351775351014,2.71189071546809,4.59645517963757,FALSE,4.62787987348741
"CAN","cpi",0.2,2003,3,2002,NA,1,4.09713631119728,4.57779428169757,2.71189071546809,4.33746529644743,FALSE,3.94377195982327
"CAN","cpi",0.2,2003,3,2002,NA,1.5,1.81187172004763,3.61750608550605,2.71189071546809,2.71468890277684,TRUE,1.80563436545842
"CAN","cpi",0.2,2004,3,2004,NA,0,1.74449033500881,1.79246354299538,1.83151661303942,1.7684769390021,FALSE,0.145605883096676
"CAN","cpi",0.2,2004,3,2004,NA,0.5,1.33364852612296,1.79138685344423,1.83151661303942,1.5625176897836,FALSE,0.558062726309245
"CAN","cpi",0.2,2004,3,2003,NA,1,1.15481123686538,1.6802766966112,1.83151661303942,1.41754396673829,FALSE,0.903565250816373
"CAN","cpi",0.2,2004,3,2003,NA,1.5,4.82946647331824,5.82356225287984,1.83151661303942,5.32651436309904,FALSE,8.48897043025865
"CAN","cpi",0.2,2005,3,2005,NA,0,2.35707364505211,2.40686550816362,2.18071628336509,2.38196957660787,FALSE,0.490685267329056
"CAN","cpi",0.2,2005,3,2005,NA,0.5,1.34797857490847,1.79710027174603,2.18071628336509,1.57253942332725,FALSE,1.40816172588522
"CAN","cpi",0.2,2005,3,2004,NA,1,0.728586015538411,1.25787989738154,2.18071628336509,0.993232956459974,FALSE,2.83638484680201
"CAN","cpi",0.2,2005,3,2004,NA,1.5,1.49174320056787,2.62805052160254,2.18071628336509,2.05989686108521,TRUE,1.13630732103467
"CAN","cpi",0.2,2006,3,2006,NA,0,2.03936244727702,2.09408829668477,1.97519342012289,2.0667253719809,FALSE,0.215148417293094
"CAN","cpi",0.2,2006,3,2006,NA,0.5,1.71933017979255,2.1562577256425,1.97519342012289,1.93779395271753,TRUE,0.436927545849946
"CAN","cpi",0.2,2006,3,2005,NA,1,3.22656363539787,3.72796392863782,1.97519342012289,3.47726378201784,FALSE,3.62982583142741
"CAN","cpi",0.2,2006,3,2005,NA,1.5,0.856737080041332,1.91664620775044,1.97519342012289,1.38669164389589,FALSE,1.20627715864022
"CAN","cpi",0.2,2007,3,2007,NA,0,2.08075701053215,2.13538979962739,2.10062087284572,2.10807340507977,TRUE,0.054632789095244
"CAN","cpi",0.2,2007,3,2007,NA,0.5,2.211757506462,2.62648643196797,2.10062087284572,2.41912196921498,FALSE,0.692570509546662
"CAN","cpi",0.2,2007,3,2006,NA,1,0.21767609119634,0.786990079387274,2.10062087284572,0.502333085291807,FALSE,3.85339097183706
"CAN","cpi",0.2,2007,3,2006,NA,1.5,1.57265183518813,2.36820152718108,2.10062087284572,1.9704266811846,TRUE,0.795549691992954
"CAN","cpi",0.2,2008,3,2008,NA,0,2.93055367430342,2.97747635073263,2.31447335265955,2.95401501251803,FALSE,1.58712348053888
"CAN","cpi",0.2,2008,3,2008,NA,0.5,0.950021663609492,1.3692998871409,2.31447335265955,1.1596607753752,FALSE,2.78221188732804
"CAN","cpi",0.2,2008,3,2007,NA,1,0.0601402147930816,0.669920145979264,2.31447335265955,0.365030180386173,FALSE,4.7211629478869
"CAN","cpi",0.2,2008,3,2007,NA,1.5,3.39418992067728,4.10521864088929,2.31447335265955,3.74970428078329,FALSE,3.41032014025634
"CAN","cpi",0.2,2009,3,2009,NA,0,0.228671159418329,0.325974961233027,0.284533874408197,0.277323060325678,TRUE,0.0973038018146979
"CAN","cpi",0.2,2009,3,2009,NA,0.5,-1.14607632176435,-0.707607380233539,0.284533874408197,-0.926841850998946,FALSE,2.91882207813515
"CAN","cpi",0.2,2009,3,2008,NA,1,4.06103678296757,4.72230376672139,0.284533874408197,4.39167027484448,FALSE,10.1025242551523
"CAN","cpi",0.2,2009,3,2008,NA,1.5,0.936687440524486,1.67767477288725,0.284533874408197,1.30718110670587,FALSE,2.37137124765349
"CAN","cpi",0.2,2010,3,2010,NA,0,1.7004897630271,1.79737219636516,1.75525687020327,1.74893097969613,TRUE,0.0968824333380631
"CAN","cpi",0.2,2010,3,2010,NA,0.5,1.38328192994709,1.82700921124872,1.75525687020327,1.60514557059791,TRUE,0.443727281301638
"CAN","cpi",0.2,2010,3,2009,NA,1,0.227126948030717,1.06662729478946,1.75525687020327,0.646877121410091,FALSE,2.56107428529327
"CAN","cpi",0.2,2010,3,2009,NA,1.5,-1.71082154174117,-0.87132119498242,1.75525687020327,-1.29107136836179,FALSE,7.40594550972298
"CAN","cpi",0.2,2011,3,2011,NA,0,2.78709195096612,2.88607655127145,2.85717434028225,2.83658425111878,TRUE,0.0989846003053314
"CAN","cpi",0.2,2011,3,2011,NA,0.5,2.67769372521814,3.11264382883331,2.85717434028225,2.89516877702572,TRUE,0.43495010361517
"CAN","cpi",0.2,2011,3,2010,NA,1,1.73616942965906,2.64623376212929,2.85717434028225,2.19120159589417,FALSE,1.43741577785263
"CAN","cpi",0.2,2011,3,2010,NA,1.5,1.50858286050408,2.41864719297431,2.85717434028225,1.9636150267392,FALSE,2.00638220074006
"CAN","cpi",0.2,2012,3,2012,NA,0,1.40956094482394,1.51068519208537,1.50118536134935,1.46012306845465,TRUE,0.101124247261425
"CAN","cpi",0.2,2012,3,2012,NA,0.5,1.5955075975685,2.03086711020805,1.50118536134935,1.81318735388827,FALSE,0.671165103187434
"CAN","cpi",0.2,2012,3,2011,NA,1,0.619073339629391,1.51584740366841,1.50118536134935,1.0674603716489,TRUE,0.896774064039021
"CAN","cpi",0.2,2012,3,2011,NA,1.5,2.81653475233082,3.71330881636984,1.50118536134935,3.26492178435033,FALSE,4.18514754149269
"CAN","cpi",0.2,2013,3,2013,NA,0,0.989201277806298,1.09009133007668,0.931270594714462,1.03964630394149,FALSE,0.245716759999974
"CAN","cpi",0.2,2013,3,2013,NA,0.5,0.948377437737546,1.38207855677278,0.931270594714462,1.16522799725517,FALSE,0.476468226592949
"CAN","cpi",0.2,2013,3,2012,NA,1,-0.911605807932282,-0.00596809067791831,0.931270594714462,-0.4587869493051,FALSE,3.24873443073531
"CAN","cpi",0.2,2013,3,2012,NA,1.5,1.41736711229396,2.32300482954832,0.931270594714462,1.87018597092114,FALSE,2.1208790112031
"CAN","cpi",0.2,2014,3,2014,NA,0,1.93912001419663,2.03971371476592,1.87639912240215,1.98941686448128,FALSE,0.25739593005549
"CAN","cpi",0.2,2014,3,2014,NA,0.5,2.07283753184803,2.4978588291021,1.87639912240215,2.28534818047506,FALSE,0.916117320868763
"CAN","cpi",0.2,2014,3,2013,NA,1,0.489391903526784,1.37858461242601,1.87639912240215,0.933988257976399,FALSE,2.13372898383957
"CAN","cpi",0.2,2014,3,2013,NA,1.5,1.2997318678372,2.18892457673642,1.87639912240215,1.74432822228681,TRUE,0.889192708899229
"CAN","cpi",0.2,2015,3,2015,NA,0,1.21142365024288,1.31193776325972,1.11090953952792,1.2616807067513,FALSE,0.351799389804249
"CAN","cpi",0.2,2015,3,2015,NA,0.5,0.073245304925407,0.363480885339736,1.11090953952792,0.218363095132572,FALSE,2.15880721588478
"CAN","cpi",0.2,2015,3,2014,NA,1,0.189145980462074,1.05741352599679,1.11090953952792,0.62327975322943,FALSE,1.00200757936254
"CAN","cpi",0.2,2015,3,2014,NA,1.5,3.11431155852417,3.98257910405888,1.11090953952792,3.54844533129153,FALSE,5.87677259302535
"CAN","cpi",0.2,2016,3,2016,NA,0,1.39540690505821,1.49265407998758,1.41168586698797,1.44403049252289,TRUE,0.097247174929366
"CAN","cpi",0.2,2016,3,2016,NA,0.5,0.788979249229585,1.09842247245656,1.41168586698797,0.943700860843074,FALSE,1.09260170955548
"CAN","cpi",0.2,2016,3,2015,NA,1,1.24626705670406,2.06984970230103,1.41168586698797,1.65805837950254,TRUE,0.82358264559697
"CAN","cpi",0.2,2016,3,2015,NA,1.5,-0.199038117984039,0.624544527612931,1.41168586698797,0.212753204814446,FALSE,2.79143599403456
"CAN","cpi",0.2,2017,3,2017,NA,0,1.47337104589369,1.57007963525968,1.57888581671161,1.52172534057668,FALSE,0.118724042995824
"CAN","cpi",0.2,2017,3,2017,NA,0.5,2.02696167436795,2.33295334849892,1.57888581671161,2.17995751143343,FALSE,1.42618131827182
"CAN","cpi",0.2,2017,3,2016,NA,1,0.0609516926039534,0.896368620168803,1.57888581671161,0.478660156386378,FALSE,2.54170991892187
"CAN","cpi",0.2,2017,3,2016,NA,1.5,0.630097328114089,1.46551425567894,1.57888581671161,1.04780579189651,FALSE,1.11884583014653
"CAN","cpi",0.2,2018,3,2018,NA,0,2.37629183732615,2.47584543943482,2.23316270166586,2.42606863838048,FALSE,0.45737644125939
"CAN","cpi",0.2,2018,3,2018,NA,0.5,2.85542395524345,3.18659852584665,2.23316270166586,3.02101124054505,FALSE,1.88682770454717
"CAN","cpi",0.2,2018,3,2017,NA,1,0.117420158732974,0.929975895944166,2.23316270166586,0.52369802733857,FALSE,4.07052275151542
"CAN","cpi",0.2,2018,3,2017,NA,1.5,2.67780397461568,3.49035971182687,2.23316270166586,3.08408184322128,FALSE,1.92415891958575
"CAN","cpi",0.2,2019,3,2019,NA,0,1.97295108200044,2.07289562092327,1.91921619871868,2.02292335146186,FALSE,0.234281747127236
"CAN","cpi",0.2,2019,3,2019,NA,0.5,1.58250745115163,1.93859403670538,1.91921619871868,1.7605507439285,TRUE,0.356086585553749
"CAN","cpi",0.2,2019,3,2018,NA,1,1.56279269136636,2.37994115522733,1.91921619871868,1.97136692329685,TRUE,0.817148463860964
"CAN","cpi",0.2,2019,3,2018,NA,1.5,3.72144064724346,4.53858911110442,1.91921619871868,4.13001487917394,FALSE,5.3227095851729
"CAN","cpi",0.2,2020,3,2020,NA,0,0.726692267754573,0.769783438782197,0.71139989671781,0.748237853268385,FALSE,0.081322098619531
"CAN","cpi",0.2,2020,3,2020,NA,0.5,1.04998294350099,1.36277875432739,0.71139989671781,1.20638084891419,FALSE,1.15925342778435
"CAN","cpi",0.2,2020,3,2019,NA,1,0.936387021034306,1.73613228773405,0.71139989671781,1.33625965438418,FALSE,1.36221307749098
"CAN","cpi",0.2,2020,3,2019,NA,1.5,2.05935615922127,2.89719594868127,0.71139989671781,2.47827605395127,FALSE,4.20773044571866
"CAN","cpi",0.2,2021,3,2021,NA,0,3.33970839074147,3.38176639143287,3.31148121717802,3.36073739108717,FALSE,0.112625934600013
"CAN","cpi",0.2,2021,3,2021,NA,0.5,2.75173652106842,3.00399546457222,3.31148121717802,2.87786599282032,FALSE,1.0209733250183
"CAN","cpi",0.2,2021,3,2020,NA,1,1.62371377836828,1.98763833622719,3.31148121717802,1.80567605729774,FALSE,3.67353176023599
"CAN","cpi",0.2,2021,3,2020,NA,1.5,0.932427214115816,1.79387524453375,3.31148121717802,1.36315122932478,FALSE,4.65546296202862
"CAN","cpi",0.2,2022,3,2022,NA,0,6.56102180035757,6.60181305517709,6.50977236228281,6.58141742776733,FALSE,0.168914850006413
"CAN","cpi",0.2,2022,3,2022,NA,0.5,6.61132034272079,6.87455733281095,6.50977236228281,6.74293883776587,FALSE,0.517106941185111
"CAN","cpi",0.2,2022,3,2021,NA,1,4.63464568622585,5.01663861370557,6.50977236228281,4.82564214996571,FALSE,4.11482729892282
"CAN","cpi",0.2,2022,3,2021,NA,1.5,3.55590751261693,4.31559377368732,6.50977236228281,3.93575064315212,FALSE,6.24513273255912
"CAN","cpi",0.2,2023,3,2023,NA,0,3.99531575477461,4.03374995754832,3.78831288758619,4.01453285616146,FALSE,0.555941370744757
"CAN","cpi",0.2,2023,3,2023,NA,0.5,2.9468598492119,3.21090858557301,3.78831288758619,3.07888421739245,FALSE,1.70755949139406
"CAN","cpi",0.2,2023,3,2022,NA,1,3.65046881315586,4.06299679823828,3.78831288758619,3.85673280569707,TRUE,0.412527985082425
"CAN","cpi",0.2,2023,3,2022,NA,1.5,7.63662114958751,8.50922451933755,3.78831288758619,8.07292283446253,FALSE,10.4933740247533
"CAN","cpi",0.2,2024,3,2023,NA,1,3.86033435500294,4.28976072492712,NA,4.07504753996503,NA,NA
"CAN","cpi",0.2,2024,3,2023,NA,1.5,1.89186925167186,2.93871171472192,NA,2.41529048319689,NA,NA
"CAN","cpi",0.3,1959,3,1959,NA,0,1.18469762776863,1.31512670085723,1.19382698397654,1.24991216431293,TRUE,0.130429073088596
"CAN","cpi",0.3,1959,3,1959,NA,0.5,-0.0885356049309332,0.964215068111588,1.19382698397654,0.437839731590327,FALSE,1.70878471837096
"CAN","cpi",0.3,1959,3,1958,NA,1,0.602322736941848,2.91493252077708,1.19382698397654,1.75862762885946,TRUE,2.31260978383523
"CAN","cpi",0.3,1959,3,1958,NA,1.5,-0.892842633163228,4.44098608743854,1.19382698397654,1.77407172713766,TRUE,5.33382872060177
"CAN","cpi",0.3,1960,3,1960,NA,0,0.965770571180307,1.08145551400924,1.34209404870695,1.02361304259477,FALSE,0.860366470536686
"CAN","cpi",0.3,1960,3,1960,NA,0.5,0.110836347032586,0.967130613330733,1.34209404870695,0.53898348018166,FALSE,1.92761836737306
"CAN","cpi",0.3,1960,3,1959,NA,1,2.82155841393316,5.09362905985569,1.34209404870695,3.95759373689442,FALSE,6.49911168942598
"CAN","cpi",0.3,1960,3,1959,NA,1.5,-3.23349486788905,1.48654123707928,1.34209404870695,-0.873476815404885,TRUE,4.72003610496834
"CAN","cpi",0.3,1961,3,1961,NA,0,0.939263280146222,1.07916368173392,1.00921348094007,1.00921348094007,TRUE,0.1399004015877
"CAN","cpi",0.3,1961,3,1961,NA,0.5,0.583808097700093,1.43461886418005,1.00921348094007,1.00921348094007,TRUE,0.850810766479958
"CAN","cpi",0.3,1961,3,1960,NA,1,-0.919418541989966,1.02695946719703,1.00921348094007,0.0537704626035329,TRUE,1.946378009187
"CAN","cpi",0.3,1961,3,1960,NA,1.5,-2.70402550736232,0.979661909482248,1.00921348094007,-0.862181798940035,FALSE,3.76812047815263
"CAN","cpi",0.3,1962,3,1962,NA,0,1.03989569943923,1.16475235519033,1.04957947883042,1.10232402731478,TRUE,0.124856655751093
"CAN","cpi",0.3,1962,3,1962,NA,0.5,-0.331746085041006,0.331746085041006,1.04957947883042,0,FALSE,2.71444472376604
"CAN","cpi",0.3,1962,3,1961,NA,1,-0.987945205007673,0.987945205007673,1.04957947883042,0,FALSE,2.15198833522318
"CAN","cpi",0.3,1962,3,1961,NA,1.5,-1.84040300204982,1.84040300204982,1.04957947883042,0,TRUE,3.68080600409963
"CAN","cpi",0.3,1963,3,1963,NA,0,1.85262326725049,1.97721132337354,1.60677118395228,1.91491729531202,FALSE,0.827022579832211
"CAN","cpi",0.3,1963,3,1963,NA,0.5,0.504070713920124,1.16958671531488,1.60677118395228,0.836828714617504,FALSE,1.9146144832159
"CAN","cpi",0.3,1963,3,1962,NA,1,1.66692883306353,3.46130097523935,1.60677118395228,2.56411490415144,FALSE,1.96625113963651
"CAN","cpi",0.3,1963,3,1962,NA,1.5,-1.30999592632164,1.30999592632164,1.60677118395228,0,FALSE,3.4679211601594
"CAN","cpi",0.3,1964,3,1964,NA,0,1.91951576301575,2.05802936590521,1.88764670034376,1.98877256446048,FALSE,0.229568067666573
"CAN","cpi",0.3,1964,3,1964,NA,0.5,1.17600147107246,1.59137865347969,1.88764670034376,1.38369006227607,FALSE,1.26185731630458
"CAN","cpi",0.3,1964,3,1963,NA,1,4.71481085650513,6.06607495043998,1.88764670034376,5.39044290347256,FALSE,9.42887596868163
"CAN","cpi",0.3,1964,3,1963,NA,1.5,-0.738354804937291,0.738354804937291,1.88764670034376,0,FALSE,4.76040073960735
"CAN","cpi",0.3,1965,3,1965,NA,0,2.27612453045864,2.41501641792133,2.29538304394236,2.34557047418999,TRUE,0.138891887462696
"CAN","cpi",0.3,1965,3,1965,NA,0.5,1.4029524819794,1.81863647715368,2.29538304394236,1.61079447956654,FALSE,1.77781704314192
"CAN","cpi",0.3,1965,3,1964,NA,1,1.79349241696973,3.0568848266272,2.29538304394236,2.42518862179847,TRUE,1.26339240965747
"CAN","cpi",0.3,1965,3,1964,NA,1.5,0.186406347487663,1.44979875714513,2.29538304394236,0.818102552316399,FALSE,3.67934751479239
"CAN","cpi",0.3,1966,3,1966,NA,0,3.7543331592422,3.88588659803198,3.72486065470629,3.82010987863709,FALSE,0.215760594606657
"CAN","cpi",0.3,1966,3,1966,NA,0.5,3.78435683976124,4.19811113815003,3.72486065470629,3.99123398895563,FALSE,0.583743398545789
"CAN","cpi",0.3,1966,3,1965,NA,1,2.58794926610851,3.82649210880856,3.72486065470629,3.20722068745854,TRUE,1.23854284270005
"CAN","cpi",0.3,1966,3,1965,NA,1.5,0.987366824969559,2.22590966766961,3.72486065470629,1.60663824631958,FALSE,5.52125994851914
"CAN","cpi",0.3,1967,3,1967,NA,0,3.70305321696482,3.83232376960782,3.49360316391996,3.76768849328632,FALSE,0.727699275628317
"CAN","cpi",0.3,1967,3,1967,NA,0.5,2.16885331370585,2.64605617468936,3.49360316391996,2.4074547441976,FALSE,2.89876568735665
"CAN","cpi",0.3,1967,3,1966,NA,1,2.57192597283252,3.79014048857315,3.49360316391996,3.18103323070284,TRUE,1.21821451574063
"CAN","cpi",0.3,1967,3,1966,NA,1.5,4.04217434700216,5.26038886274279,3.49360316391996,4.65128160487248,FALSE,2.78556075311836
"CAN","cpi",0.3,1968,3,1968,NA,0,4.1064445369774,4.23931437647052,3.95128347779386,4.17287945672396,FALSE,0.576187151446096
"CAN","cpi",0.3,1968,3,1968,NA,0.5,3.89561274263361,4.24633137296343,3.95128347779386,4.07097205779852,TRUE,0.350718630329819
"CAN","cpi",0.3,1968,3,1967,NA,1,5.19791168671763,6.49252195575934,3.95128347779386,5.84521682123848,FALSE,4.85640515168105
"CAN","cpi",0.3,1968,3,1967,NA,1.5,1.60835344788141,2.90296371692312,3.95128347779386,2.25565858240226,FALSE,4.28980958581525
"CAN","cpi",0.3,1969,3,1969,NA,0,4.52723189169876,4.66318139551361,4.42679496126681,4.59520664360618,FALSE,0.422912162191831
"CAN","cpi",0.3,1969,3,1969,NA,0.5,2.78184889298991,3.15039149492439,4.42679496126681,2.96612019395715,FALSE,4.01540964862713
"CAN","cpi",0.3,1969,3,1968,NA,1,6.2180990468868,7.23165355392934,4.42679496126681,6.72487630040807,FALSE,6.1315661802425
"CAN","cpi",0.3,1969,3,1968,NA,1.5,3.80986727592414,4.82342178296667,4.42679496126681,4.31664452944541,TRUE,1.01355450704254
"CAN","cpi",0.3,1970,3,1970,NA,0,3.54266413615233,3.67256662884618,3.28128405769805,3.60761538249925,FALSE,0.876702716848947
"CAN","cpi",0.3,1970,3,1970,NA,0.5,4.152047209203,4.56827433923083,3.28128405769805,4.36016077421692,FALSE,2.90412184861342
"CAN","cpi",0.3,1970,3,1969,NA,1,4.3940604775728,5.4333284785299,3.28128405769805,4.91369447805135,FALSE,4.21862920059925
"CAN","cpi",0.3,1970,3,1969,NA,1.5,1.56010447235274,2.59937247330985,3.28128405769805,2.07973847283129,FALSE,2.98758681349482
"CAN","cpi",0.3,1971,3,1971,NA,0,2.84859846852125,2.9888595510855,2.64123406634756,2.91872900980337,FALSE,0.732730803060501
"CAN","cpi",0.3,1971,3,1971,NA,0.5,1.09916272479946,1.66797938792668,2.64123406634756,1.38357105636307,FALSE,3.34954431575831
"CAN","cpi",0.3,1971,3,1970,NA,1,2.68273260905126,3.67099961053429,2.64123406634756,3.17686610979278,FALSE,1.10683426635074
"CAN","cpi",0.3,1971,3,1970,NA,1.5,4.12652962252124,5.11479662400427,2.64123406634756,4.62066312326275,FALSE,5.23196859055067
"CAN","cpi",0.3,1972,3,1972,NA,0,5.12718608855334,5.21702775476368,4.83230569625923,5.17210692165851,FALSE,0.932357072764937
"CAN","cpi",0.3,1972,3,1972,NA,0.5,4.46473130945288,5.05975380012605,4.83230569625923,4.76224255478946,TRUE,0.595022490673177
"CAN","cpi",0.3,1972,3,1971,NA,1,6.29726699522849,7.380002966005,4.83230569625923,6.83863498061675,FALSE,5.26833968211725
"CAN","cpi",0.3,1972,3,1971,NA,1.5,1.41304364050238,2.4957796112789,4.83230569625923,1.95441162589064,FALSE,7.75852478500604
"CAN","cpi",0.3,1973,3,1973,NA,0,7.36749575144145,7.45366076263845,7.12388603531779,7.41057825703995,FALSE,0.782192771550309
"CAN","cpi",0.3,1973,3,1973,NA,0.5,5.94599547913604,6.53783254713813,7.12388603531779,6.24191401313708,FALSE,2.26627560565827
"CAN","cpi",0.3,1973,3,1972,NA,1,7.58974856531949,8.6620691083192,7.12388603531779,8.12590883681935,FALSE,2.40335634300457
"CAN","cpi",0.3,1973,3,1972,NA,1.5,4.40277801649017,5.51983587133429,7.12388603531779,4.96130694391223,FALSE,5.70005832336842
"CAN","cpi",0.3,1974,3,1974,NA,0,10.2524546999255,10.3315061198209,10.2717243737774,10.2919804098732,TRUE,0.0790514198954213
"CAN","cpi",0.3,1974,3,1974,NA,0.5,8.72495240295342,9.30864564191244,10.2717243737774,9.01679902243293,FALSE,3.33534675857324
"CAN","cpi",0.3,1974,3,1973,NA,1,11.039671686545,11.9756056784052,10.2717243737774,11.5076386824751,FALSE,3.13006917119609
"CAN","cpi",0.3,1974,3,1973,NA,1.5,6.46348753367364,7.61353282456433,10.2717243737774,7.03851017911898,FALSE,8.74487828864238
"CAN","cpi",0.3,1975,3,1975,NA,0,10.2725400437215,10.3608588967649,10.0232981493341,10.3166994702432,FALSE,0.800438551292992
"CAN","cpi",0.3,1975,3,1975,NA,0.5,8.57393512709948,9.18242138833561,10.0232981493341,8.87817825771755,FALSE,3.01099129266044
"CAN","cpi",0.3,1975,3,1974,NA,1,11.1964503110681,12.1304467122491,10.0232981493341,11.6634485116586,FALSE,4.28585972042108
"CAN","cpi",0.3,1975,3,1974,NA,1.5,8.46614555018449,9.71717323676782,10.0232981493341,9.09165939347615,FALSE,2.12567029391562
"CAN","cpi",0.3,1976,3,1976,NA,0,7.21547132846556,7.30275601961296,7.22784311401172,7.25911367403926,TRUE,0.0872846911474028
"CAN","cpi",0.3,1976,3,1976,NA,0.5,6.91232604089851,7.53772526448233,7.22784311401172,7.22502565269042,TRUE,0.625399223583814
"CAN","cpi",0.3,1976,3,1975,NA,1,12.1058055807513,12.8503525068055,7.22784311401172,12.4780790437784,FALSE,14.6815825453101
"CAN","cpi",0.3,1976,3,1975,NA,1.5,6.56522762145425,7.80649265529711,7.22784311401172,7.18586013837568,TRUE,1.24126503384285
"CAN","cpi",0.3,1977,3,1977,NA,0,7.54665228288544,7.63612801630852,7.58101410153764,7.59139014959698,TRUE,0.0894757334230771
"CAN","cpi",0.3,1977,3,1977,NA,0.5,6.93112102731479,7.56965210377018,7.58101410153764,7.25038656554249,FALSE,0.670993927219567
"CAN","cpi",0.3,1977,3,1976,NA,1,5.33610796889742,6.5237824044114,7.58101410153764,5.92994518665441,FALSE,4.20833642730325
"CAN","cpi",0.3,1977,3,1976,NA,1.5,5.05778111505099,6.32130518422777,7.58101410153764,5.68954314963938,FALSE,4.86269240434786
"CAN","cpi",0.3,1978,3,1978,NA,0,8.63988694849087,8.73773458771037,8.50208927062595,8.68881076810062,FALSE,0.491555290262134
"CAN","cpi",0.3,1978,3,1978,NA,0.5,7.80738555353797,8.41678462176079,8.50208927062595,8.11208508764938,FALSE,0.853126636408986
"CAN","cpi",0.3,1978,3,1977,NA,1,7.70244117890926,8.99099728576559,8.50208927062595,8.34671923233743,TRUE,1.28855610685634
"CAN","cpi",0.3,1978,3,1977,NA,1.5,7.56982926282958,8.85838536968591,8.50208927062595,8.21410731625775,TRUE,1.28855610685634
"CAN","cpi",0.3,1979,3,1979,NA,0,8.51323955695706,8.60949111034116,8.65147652410481,8.56136533364911,FALSE,0.216209878423101
"CAN","cpi",0.3,1979,3,1979,NA,0.5,7.93301047329039,8.52884132041762,8.65147652410481,8.23092589685401,FALSE,0.946217143376336
"CAN","cpi",0.3,1979,3,1978,NA,1,9.05034072107864,10.2792961969079,8.65147652410481,9.66481845899329,FALSE,2.3685674671831
"CAN","cpi",0.3,1979,3,1978,NA,1.5,7.29567032578781,8.52462580161711,8.65147652410481,7.91014806370246,FALSE,1.59138611150844
"CAN","cpi",0.3,1980,3,1980,NA,0,9.47749227226206,9.59404184490787,9.5171912664748,9.53576705858497,TRUE,0.116549572645805
"CAN","cpi",0.3,1980,3,1980,NA,0.5,8.35605006062377,8.93089916023343,9.5171912664748,8.6434746104286,FALSE,2.24996940315641
"CAN","cpi",0.3,1980,3,1979,NA,1,7.17747524198615,8.40186974082034,9.5171912664748,7.78967249140325,FALSE,4.41102742927549
"CAN","cpi",0.3,1980,3,1979,NA,1.5,7.68561847623475,8.91001297506894,9.5171912664748,8.29781572565185,FALSE,2.95918961713663
"CAN","cpi",0.3,1981,3,1981,NA,0,11.6512198525938,11.772845794573,11.5813425032741,11.7120328235834,FALSE,0.321275511463904
"CAN","cpi",0.3,1981,3,1981,NA,0.5,12.0621749315251,12.5970621175573,11.5813425032741,12.3296185245412,FALSE,1.90869412389199
"CAN","cpi",0.3,1981,3,1980,NA,1,10.3918637933653,11.6793890748564,11.5813425032741,11.0356264341109,TRUE,1.28752528149111
"CAN","cpi",0.3,1981,3,1980,NA,1.5,7.8809859460963,9.16851122758741,11.5813425032741,8.52474858684185,FALSE,8.18132892631034
"CAN","cpi",0.3,1982,3,1982,NA,0,10.1965029067942,10.3099451559559,10.1124203763629,10.253224031375,FALSE,0.353678050393773
"CAN","cpi",0.3,1982,3,1982,NA,0.5,9.88242722346119,10.3618357897858,10.1124203763629,10.1221315066235,TRUE,0.479408566324597
"CAN","cpi",0.3,1982,3,1981,NA,1,10.9802180448258,12.3253370489361,10.1124203763629,11.652777546881,FALSE,3.82454091400417
"CAN","cpi",0.3,1982,3,1981,NA,1.5,12.5413939815661,13.8865129856765,10.1124203763629,13.2139534836213,FALSE,8.28504359040519
"CAN","cpi",0.3,1983,3,1983,NA,0,5.78978943577881,5.89746561115825,5.67091787896303,5.84362752346853,FALSE,0.447309194853093
"CAN","cpi",0.3,1983,3,1983,NA,0.5,4.47848808890516,4.93421487396555,5.67091787896303,4.70635148143536,FALSE,2.56059251362463
"CAN","cpi",0.3,1983,3,1982,NA,1,7.89085118573001,9.33789601294364,5.67091787896303,8.61437359933683,FALSE,7.78971141797642
"CAN","cpi",0.3,1983,3,1982,NA,1.5,9.11978061574857,10.5668254429622,5.67091787896303,9.84330302935538,FALSE,11.3009383608866
"CAN","cpi",0.3,1984,3,1984,NA,0,4.16618146920952,4.26013179436882,4.19799576814029,4.21315663178917,TRUE,0.0939503251592981
"CAN","cpi",0.3,1984,3,1984,NA,0.5,4.49885735338091,4.96122677567174,4.19799576814029,4.73004206452632,FALSE,1.32197395154975
"CAN","cpi",0.3,1984,3,1983,NA,1,5.52725724651017,7.08334199017222,4.19799576814029,6.30529961834119,FALSE,5.3539746818617
"CAN","cpi",0.3,1984,3,1983,NA,1.5,1.9126110690935,3.71117772726201,4.19799576814029,2.81189439817776,FALSE,3.18947534639215
"CAN","cpi",0.3,1985,3,1985,NA,0,3.86338750845881,3.94755038242405,3.86444262005169,3.90546894544143,TRUE,0.0841628739652416
"CAN","cpi",0.3,1985,3,1985,NA,0.5,3.75795500364821,4.26557497940519,3.86444262005169,4.0117649915267,TRUE,0.507619975756981
"CAN","cpi",0.3,1985,3,1984,NA,1,2.49995342460003,4.07889053664731,3.86444262005169,3.28942198062367,TRUE,1.57893711204728
"CAN","cpi",0.3,1985,3,1984,NA,1.5,3.79642862279368,5.56297877409819,3.86444262005169,4.67970369844593,TRUE,1.76655015130452
"CAN","cpi",0.3,1986,3,1986,NA,0,4.08559981653375,4.16895513237484,4.08685396749431,4.12727747445429,TRUE,0.0833553158410894
"CAN","cpi",0.3,1986,3,1986,NA,0.5,4.34233953899636,4.807942877514,4.08685396749431,4.57514120825518,FALSE,1.19556211423778
"CAN","cpi",0.3,1986,3,1985,NA,1,3.03383197477098,4.65620303923567,4.08685396749431,3.84501750700332,TRUE,1.62237106446469
"CAN","cpi",0.3,1986,3,1985,NA,1.5,3.69587807013573,5.33660194164303,4.08685396749431,4.51624000588938,TRUE,1.6407238715073
"CAN","cpi",0.3,1987,3,1987,NA,0,4.30527466007036,4.36995817987724,4.23980729277887,4.3376164199738,FALSE,0.2517331406397
"CAN","cpi",0.3,1987,3,1987,NA,0.5,3.67413578313767,4.10554135732473,4.23980729277887,3.8898385702312,FALSE,0.815022532627452
"CAN","cpi",0.3,1987,3,1986,NA,1,3.74788845673778,5.37781027173377,4.23980729277887,4.56284936423577,TRUE,1.62992181499599
"CAN","cpi",0.3,1987,3,1986,NA,1.5,4.33882062757394,5.97067256103953,4.23980729277887,5.15474659430673,FALSE,1.91474717573721
"CAN","cpi",0.3,1988,3,1988,NA,0,3.96799954272352,4.03256644937302,3.92899537638065,4.00028299604827,FALSE,0.176007381914823
"CAN","cpi",0.3,1988,3,1988,NA,0.5,3.31457292863282,3.74905264959793,3.92899537638065,3.53181278911538,FALSE,0.948601797487177
"CAN","cpi",0.3,1988,3,1987,NA,1,3.76768493228867,4.91578078863055,3.92899537638065,4.34173286045961,TRUE,1.14809585634188
"CAN","cpi",0.3,1988,3,1987,NA,1.5,2.94321567774201,4.58903019389211,3.92899537638065,3.76612293581706,TRUE,1.6458145161501
"CAN","cpi",0.3,1989,3,1989,NA,0,4.97467684897759,5.03745940107809,4.82821664544208,5.00606812502784,FALSE,0.481240276487689
"CAN","cpi",0.3,1989,3,1989,NA,0.5,4.29691606083203,4.73351269861605,4.82821664544208,4.51521437972404,FALSE,0.707179343001238
"CAN","cpi",0.3,1989,3,1988,NA,1,3.80843387232883,4.84564408465136,4.82821664544208,4.3270389784901,TRUE,1.03721021232254
"CAN","cpi",0.3,1989,3,1988,NA,1.5,2.64184955269278,4.21213546347113,4.82821664544208,3.42699250808196,FALSE,3.33051785926676
"CAN","cpi",0.3,1990,3,1990,NA,0,4.49077600957531,4.55264846540587,4.64347549432717,4.52171223749059,FALSE,0.321378252748565
"CAN","cpi",0.3,1990,3,1990,NA,0.5,5.00621647565648,5.44048858954268,4.64347549432717,5.22335253259958,FALSE,1.47067491768423
"CAN","cpi",0.3,1990,3,1989,NA,1,5.1974144530007,6.2498720255819,4.64347549432717,5.7236432392913,FALSE,2.63514031164843
"CAN","cpi",0.3,1990,3,1989,NA,1.5,4.11390991693878,5.72691692572877,4.64347549432717,4.92041342133377,TRUE,1.61300700878999
"CAN","cpi",0.3,1991,3,1991,NA,0,5.58264051244874,5.64972282398546,5.4258100696218,5.6161816682171,FALSE,0.51516929104227
"CAN","cpi",0.3,1991,3,1991,NA,0.5,8.5961767996461,9.0519252123889,5.4258100696218,8.8240510060175,FALSE,9.5139390699551
"CAN","cpi",0.3,1991,3,1990,NA,1,3.36432573155004,4.41908853691834,5.4258100696218,3.89170713423419,FALSE,3.93111004166389
"CAN","cpi",0.3,1991,3,1990,NA,1.5,4.90587278089102,6.50336806805782,5.4258100696218,5.70462042447442,TRUE,1.59749528716681
"CAN","cpi",0.3,1992,3,1992,NA,0,1.44002890289823,1.51086044192963,1.47496888572843,1.47544467241393,TRUE,0.0708315390314036
"CAN","cpi",0.3,1992,3,1992,NA,0.5,0.922575878499394,1.79881180677698,1.47496888572843,1.36069384263819,TRUE,0.876235928277588
"CAN","cpi",0.3,1992,3,1991,NA,1,1.91906159787392,2.95095281770358,1.47496888572843,2.43500720778875,FALSE,2.30072754024533
"CAN","cpi",0.3,1992,3,1991,NA,1.5,10.4301237785725,11.9844714701762,1.47496888572843,11.2072976243743,FALSE,27.140504528301
"CAN","cpi",0.3,1993,3,1993,NA,0,1.77871149435202,1.85120925044003,1.84351085411351,1.81496037239602,TRUE,0.0724977560880116
"CAN","cpi",0.3,1993,3,1993,NA,0.5,1.99537267231516,2.87140002943429,1.84351085411351,2.43338635087472,FALSE,1.30991826626669
"CAN","cpi",0.3,1993,3,1992,NA,1,1.26025080205877,2.26432452432845,1.84351085411351,1.76228766319361,TRUE,1.00407372226968
"CAN","cpi",0.3,1993,3,1992,NA,1.5,0.368573268949642,2.82892795824636,1.84351085411351,1.598750613598,TRUE,2.46035468929672
"CAN","cpi",0.3,1994,3,1994,NA,0,0.183124127931299,0.257170326384558,0.161630694655448,0.220147227157928,FALSE,0.135456007812834
"CAN","cpi",0.3,1994,3,1994,NA,0.5,-1.17954039006681,-0.303544662020574,0.161630694655448,-0.741542526043691,FALSE,2.20506817569201
"CAN","cpi",0.3,1994,3,1993,NA,1,1.01613262904887,1.9997600069072,0.161630694655448,1.50794631797803,FALSE,3.42506147612524
"CAN","cpi",0.3,1994,3,1993,NA,1.5,1.59005627138227,4.04589807543964,0.161630694655448,2.81797717341095,FALSE,6.53705773756257
"CAN","cpi",0.3,1995,3,1995,NA,0,2.12073607916053,2.18895764002924,2.11688403676572,2.15484685959489,FALSE,0.0792273962824688
"CAN","cpi",0.3,1995,3,1995,NA,0.5,2.49253143508275,3.32514699813241,2.11688403676572,2.90883921660758,FALSE,1.90589384395548
"CAN","cpi",0.3,1995,3,1994,NA,1,1.53542641968832,2.36804198273797,2.11688403676572,1.95173420121315,TRUE,0.832615563049651
"CAN","cpi",0.3,1995,3,1994,NA,1.5,-3.3655507157096,-0.994118405926923,2.11688403676572,-2.17983456081826,FALSE,11.2600107174759
"CAN","cpi",0.3,1996,3,1996,NA,0,1.4077951757888,1.47554261170696,1.55309584667184,1.44166889374788,FALSE,0.289328107246397
"CAN","cpi",0.3,1996,3,1996,NA,0.5,0.980853628154919,1.74388171178079,1.55309584667184,1.36236766996786,TRUE,0.763028083625873
"CAN","cpi",0.3,1996,3,1995,NA,1,0.529960226337763,1.29298830996364,1.55309584667184,0.911474268150699,FALSE,1.50619247422075
"CAN","cpi",0.3,1996,3,1995,NA,1.5,2.67117012800764,5.30452525098858,1.55309584667184,3.98784768949811,FALSE,5.82785306965465
"CAN","cpi",0.3,1997,3,1997,NA,0,1.64928284919465,1.72695144170693,1.60528783555959,1.68811714545079,FALSE,0.203368631469588
"CAN","cpi",0.3,1997,3,1997,NA,0.5,1.72156870563267,2.49084864761304,1.60528783555959,2.10620867662285,FALSE,1.10151099933202
"CAN","cpi",0.3,1997,3,1996,NA,1,0.373820315069197,1.14310025704957,1.60528783555959,0.758460286059383,FALSE,2.08981588058044
"CAN","cpi",0.3,1997,3,1996,NA,1.5,0.332876042795841,2.99288101105757,1.60528783555959,1.66287852692671,TRUE,2.66000496826173
"CAN","cpi",0.3,1998,3,1998,NA,0,0.931552145273806,1.00993590086745,0.988908029337191,0.970744023070627,TRUE,0.0783837555936437
"CAN","cpi",0.3,1998,3,1998,NA,0.5,1.12819916034763,1.91373813973821,0.988908029337191,1.52096865004292,FALSE,1.1835136394204
"CAN","cpi",0.3,1998,3,1997,NA,1,0.647191100089701,1.43273007948028,0.988908029337191,1.03996058978499,TRUE,0.785538979390582
"CAN","cpi",0.3,1998,3,1997,NA,1.5,0.887670904396161,3.55352057775642,0.988908029337191,2.22059574107629,TRUE,2.66584967336026
"CAN","cpi",0.3,1999,3,1999,NA,0,1.75238555198482,1.83044374682892,1.7107350135213,1.79141464940687,FALSE,0.197059733311313
"CAN","cpi",0.3,1999,3,1999,NA,0.5,0.412888914507762,1.18821583091464,1.7107350135213,0.800552372711202,FALSE,2.26823886671161
"CAN","cpi",0.3,1999,3,1998,NA,1,0.0868619667061716,0.86218888311305,1.7107350135213,0.474525424909611,FALSE,3.19974443185901
"CAN","cpi",0.3,1999,3,1998,NA,1.5,0.864390545561134,3.53113940136138,1.7107350135213,2.19776497346126,TRUE,2.66674885580025
"CAN","cpi",0.3,2000,3,2000,NA,0,2.69470011714979,2.77307709534475,2.6718361971244,2.73388860624727,FALSE,0.143702463981801
"CAN","cpi",0.3,2000,3,2000,NA,0.5,1.70675234423319,2.52376430047155,2.6718361971244,2.11525832235237,FALSE,1.24007451810363
"CAN","cpi",0.3,2000,3,1999,NA,1,2.40587485066895,3.22288680690731,2.6718361971244,2.81438082878813,TRUE,0.817011956238361
"CAN","cpi",0.3,2000,3,1999,NA,1.5,-0.454957313636456,2.19978454294018,2.6718361971244,0.872413614651861,FALSE,4.00346086853155
"CAN","cpi",0.3,2001,3,2001,NA,0,2.70022174492664,2.76991256870601,2.47906219852806,2.73506715681632,FALSE,0.701575242061014
"CAN","cpi",0.3,2001,3,2001,NA,0.5,1.31288050174666,2.13439049084822,2.47906219852806,1.72363549629744,FALSE,1.80628629675826
"CAN","cpi",0.3,2001,3,2000,NA,1,3.32920261939027,4.15071260849183,2.47906219852806,3.73995761394105,FALSE,3.25048262013643
"CAN","cpi",0.3,2001,3,2000,NA,1.5,0.644091414609735,3.32190781533491,2.47906219852806,1.98299961497232,TRUE,2.67781640072517
"CAN","cpi",0.3,2002,3,2002,NA,0,2.31081038088189,2.38921763786592,2.20880570551249,2.3500140093739,FALSE,0.369849186610896
"CAN","cpi",0.3,2002,3,2002,NA,0.5,1.04767707405776,1.89381197325319,2.20880570551249,1.47074452365548,FALSE,1.74611699136485
"CAN","cpi",0.3,2002,3,2001,NA,1,0.372905281495177,1.2190401806906,2.20880570551249,0.79597273109289,FALSE,3.67403639868652
"CAN","cpi",0.3,2002,3,2001,NA,1.5,-0.520923907316632,2.1749621268661,2.20880570551249,0.827019109774735,FALSE,2.7925819731724
"CAN","cpi",0.3,2003,3,2003,NA,0,2.73161560359614,2.80571516274283,2.71189071546809,2.76866538316948,FALSE,0.130456382369689
"CAN","cpi",0.3,2003,3,2003,NA,0.5,4.34236650805989,4.85054385121525,2.71189071546809,4.59645517963757,FALSE,5.16667960770336
"CAN","cpi",0.3,2003,3,2002,NA,1,3.9719443351195,4.70298625777536,2.71189071546809,4.33746529644743,FALSE,4.33119512165988
"CAN","cpi",0.3,2003,3,2002,NA,1.5,1.34157694047618,4.0878008650775,2.71189071546809,2.71468890277684,TRUE,2.74622392460132
"CAN","cpi",0.3,2004,3,2004,NA,0,1.73199525311018,1.80495862489401,1.83151661303942,1.7684769390021,FALSE,0.148843337913582
"CAN","cpi",0.3,2004,3,2004,NA,0.5,1.21442619082237,1.91060918874483,1.83151661303942,1.5625176897836,TRUE,0.696182997922456
"CAN","cpi",0.3,2004,3,2003,NA,1,1.01794872068213,1.81713921279445,1.83151661303942,1.41754396673829,FALSE,0.840268778526528
"CAN","cpi",0.3,2004,3,2003,NA,1.5,4.5705446979769,6.08248402822118,1.83151661303942,5.32651436309904,FALSE,9.33773385863708
"CAN","cpi",0.3,2005,3,2005,NA,0,2.34410487699228,2.41983427622345,2.18071628336509,2.38196957660787,FALSE,0.542553952451709
"CAN","cpi",0.3,2005,3,2005,NA,0.5,1.2310005236177,1.9140783230368,2.18071628336509,1.57253942332725,FALSE,1.44490054321422
"CAN","cpi",0.3,2005,3,2004,NA,1,0.590726350120085,1.39573956279986,2.18071628336509,0.993232956459974,FALSE,3.04780384286614
"CAN","cpi",0.3,2005,3,2004,NA,1.5,1.19578106598824,2.92401265618218,2.18071628336509,2.05989686108521,TRUE,1.72823159019394
"CAN","cpi",0.3,2006,3,2006,NA,0,2.02510857518839,2.1083421687734,1.97519342012289,2.0667253719809,FALSE,0.225848322343604
"CAN","cpi",0.3,2006,3,2006,NA,0.5,1.60552821202151,2.27005969341355,1.97519342012289,1.93779395271753,TRUE,0.664531481392041
"CAN","cpi",0.3,2006,3,2005,NA,1,3.09596912252346,3.85855844151223,1.97519342012289,3.47726378201784,FALSE,3.96480561156183
"CAN","cpi",0.3,2006,3,2005,NA,1.5,0.580673587278129,2.19270970051364,1.97519342012289,1.38669164389589,TRUE,1.61203611323551
"CAN","cpi",0.3,2007,3,2007,NA,0,2.066527376894,2.14961943326554,2.10062087284572,2.10807340507977,TRUE,0.0830920563715374
"CAN","cpi",0.3,2007,3,2007,NA,0.5,2.10373738215892,2.73450655627105,2.10062087284572,2.41912196921498,FALSE,0.639673486435548
"CAN","cpi",0.3,2007,3,2006,NA,1,0.069392805440853,0.93527336514276,2.10062087284572,0.502333085291807,FALSE,4.19544486742466
"CAN","cpi",0.3,2007,3,2006,NA,1.5,1.36544329164727,2.57541007072194,2.10062087284572,1.9704266811846,TRUE,1.20996677907467
"CAN","cpi",0.3,2008,3,2008,NA,0,2.91833221341947,2.98969781161658,2.31447335265955,2.95401501251803,FALSE,1.79667662893973
"CAN","cpi",0.3,2008,3,2008,NA,0.5,0.840816631025417,1.47850491972497,2.31447335265955,1.1596607753752,FALSE,3.0261695256555
"CAN","cpi",0.3,2008,3,2007,NA,1,-0.0986828137282498,0.828743174500596,2.31447335265955,0.365030180386173,FALSE,5.17236935439729
"CAN","cpi",0.3,2008,3,2007,NA,1.5,3.20899567446777,4.29041288709881,2.31447335265955,3.74970428078329,FALSE,3.63719527494023
"CAN","cpi",0.3,2009,3,2009,NA,0,0.203327451466531,0.351318669184824,0.284533874408197,0.277323060325678,TRUE,0.147991217718293
"CAN","cpi",0.3,2009,3,2009,NA,0.5,-1.26027976081654,-0.593403941181354,0.284533874408197,-0.926841850998946,FALSE,3.17526957846247
"CAN","cpi",0.3,2009,3,2008,NA,1,3.88880345804222,4.89453709164674,0.284533874408197,4.39167027484448,FALSE,11.3036467297017
"CAN","cpi",0.3,2009,3,2008,NA,1.5,0.743690186592455,1.87067202681928,0.284533874408197,1.30718110670587,FALSE,2.43885701789613
"CAN","cpi",0.3,2010,3,2010,NA,0,1.67525580453434,1.82260615485792,1.75525687020327,1.74893097969613,TRUE,0.147350350323573
"CAN","cpi",0.3,2010,3,2010,NA,0.5,1.26770890589434,1.94258223530147,1.75525687020327,1.60514557059791,TRUE,0.674873329407131
"CAN","cpi",0.3,2010,3,2009,NA,1,0.00847103513839509,1.28528320768179,1.75525687020327,0.646877121410091,FALSE,2.61959406546192
"CAN","cpi",0.3,2010,3,2009,NA,1.5,-1.92947745463349,-0.652665282090098,1.75525687020327,-1.29107136836179,FALSE,8.15658975052445
"CAN","cpi",0.3,2011,3,2011,NA,0,2.76131046293504,2.91185803930252,2.85717434028225,2.83658425111878,TRUE,0.15054757636748
"CAN","cpi",0.3,2011,3,2011,NA,0.5,2.5644068012332,3.22593075281824,2.85717434028225,2.89516877702572,TRUE,0.66152395158504
"CAN","cpi",0.3,2011,3,2010,NA,1,1.499134450251,2.88326874153735,2.85717434028225,2.19120159589417,TRUE,1.38413429128635
"CAN","cpi",0.3,2011,3,2010,NA,1.5,1.27154788109602,2.65568217238237,2.85717434028225,1.9636150267392,FALSE,1.9598261995717
"CAN","cpi",0.3,2012,3,2012,NA,0,1.38322216523217,1.53702397167714,1.50118536134935,1.46012306845465,TRUE,0.153801806444971
"CAN","cpi",0.3,2012,3,2012,NA,0.5,1.48211403907851,2.14426066869804,1.50118536134935,1.81318735388827,TRUE,0.662146629619533
"CAN","cpi",0.3,2012,3,2011,NA,1,0.385499938036788,1.74942080526101,1.50118536134935,1.0674603716489,TRUE,1.36392086722423
"CAN","cpi",0.3,2012,3,2011,NA,1.5,2.58296135073821,3.94688221796244,1.50118536134935,3.26492178435033,FALSE,4.45470940833528
"CAN","cpi",0.3,2013,3,2013,NA,0,0.962923496544971,1.11636911133801,0.931270594714462,1.03964630394149,FALSE,0.243882477165921
"CAN","cpi",0.3,2013,3,2013,NA,0.5,0.835415823759412,1.49504017075092,0.931270594714462,1.16522799725517,TRUE,0.659624346991506
"CAN","cpi",0.3,2013,3,2012,NA,1,-1.14748783297316,0.229913934362958,0.931270594714462,-0.4587869493051,FALSE,3.38127793976898
"CAN","cpi",0.3,2013,3,2012,NA,1.5,1.18148508725308,2.5588868545892,0.931270594714462,1.87018597092114,FALSE,2.09230031744646
"CAN","cpi",0.3,2014,3,2014,NA,0,1.91291942057673,2.06591430838583,1.87639912240215,1.98941686448128,FALSE,0.257338596879314
"CAN","cpi",0.3,2014,3,2014,NA,0.5,1.9621366606589,2.60855970029123,1.87639912240215,2.28534818047506,FALSE,0.891387434651609
"CAN","cpi",0.3,2014,3,2013,NA,1,0.257793138556373,1.61018337739642,1.87639912240215,0.933988257976399,FALSE,2.11300665314213
"CAN","cpi",0.3,2014,3,2013,NA,1.5,1.06813310286678,2.42052334170684,1.87639912240215,1.74432822228681,TRUE,1.35239023884005
"CAN","cpi",0.3,2015,3,2015,NA,0,1.18524378596395,1.33811762753865,1.11090953952792,1.2616807067513,FALSE,0.365257402820508
"CAN","cpi",0.3,2015,3,2015,NA,0.5,-0.0023493342362676,0.439075524501411,1.11090953952792,0.218363095132572,FALSE,2.36095061595627
"CAN","cpi",0.3,2015,3,2014,NA,1,-0.0370026251182253,1.28356213157708,1.11090953952792,0.62327975322943,TRUE,1.32056475669531
"CAN","cpi",0.3,2015,3,2014,NA,1.5,2.88816295294387,4.20872770963918,1.11090953952792,3.54844533129153,FALSE,6.39843165216947
"CAN","cpi",0.3,2016,3,2016,NA,0,1.37007794612153,1.51798303892426,1.41168586698797,1.44403049252289,TRUE,0.147905092802723
"CAN","cpi",0.3,2016,3,2016,NA,0.5,0.708381795369948,1.1790199263162,1.41168586698797,0.943700860843074,FALSE,1.13539796143701
"CAN","cpi",0.3,2016,3,2015,NA,1,1.03175706166884,2.28435969733624,1.41168586698797,1.65805837950254,TRUE,1.2526026356674
"CAN","cpi",0.3,2016,3,2015,NA,1.5,-0.413548113019254,0.839054522648146,1.41168586698797,0.212753204814446,FALSE,2.88869219092403
"CAN","cpi",0.3,2017,3,2017,NA,0,1.44818236672995,1.59526831442341,1.57888581671161,1.52172534057668,TRUE,0.147085947693457
"CAN","cpi",0.3,2017,3,2017,NA,0.5,1.94726320955745,2.41265181330942,1.57888581671161,2.17995751143343,FALSE,1.51789544045436
"CAN","cpi",0.3,2017,3,2016,NA,1,-0.156640654615036,1.11396096738779,1.57888581671161,0.478660156386378,FALSE,2.5989583343566
"CAN","cpi",0.3,2017,3,2016,NA,1.5,0.4125049808951,1.68310660289793,1.57888581671161,1.04780579189651,TRUE,1.27060162200283
"CAN","cpi",0.3,2018,3,2018,NA,0,2.35036214732085,2.50177512944011,2.23316270166586,2.42606863838048,FALSE,0.486268541133527
"CAN","cpi",0.3,2018,3,2018,NA,0.5,2.76916636363965,3.27285611745045,2.23316270166586,3.02101124054505,FALSE,2.03512878802162
"CAN","cpi",0.3,2018,3,2017,NA,1,-0.09421777230753,1.14161382698467,2.23316270166586,0.52369802733857,FALSE,4.35454266980988
"CAN","cpi",0.3,2018,3,2017,NA,1.5,2.46616604357518,3.70199764286738,2.23316270166586,3.08408184322128,FALSE,1.90155543331882
"CAN","cpi",0.3,2019,3,2019,NA,0,1.94691956875432,2.0989271341694,1.91921619871868,2.02292335146186,FALSE,0.23116005123119
"CAN","cpi",0.3,2019,3,2019,NA,0.5,1.48976128644356,2.03134020141344,1.91921619871868,1.7605507439285,TRUE,0.541578914969881
"CAN","cpi",0.3,2019,3,2018,NA,1,1.34995854064334,2.59277530595035,1.91921619871868,1.97136692329685,TRUE,1.242816765307
"CAN","cpi",0.3,2019,3,2018,NA,1.5,3.50860649652044,4.75142326182744,1.91921619871868,4.13001487917394,FALSE,5.78393190188345
"CAN","cpi",0.3,2020,3,2020,NA,0,0.715468759181858,0.781006947354912,0.71139989671781,0.748237853268385,FALSE,0.0771635094989046
"CAN","cpi",0.3,2020,3,2020,NA,0.5,0.968512276062663,1.44424942176572,0.71139989671781,1.20638084891419,FALSE,1.21034394383121
"CAN","cpi",0.3,2020,3,2019,NA,1,0.728085699841644,1.94443360892671,0.71139989671781,1.33625965438418,FALSE,1.26402163229602
"CAN","cpi",0.3,2020,3,2019,NA,1.5,1.84113275439577,3.11541935350678,0.71139989671781,2.47827605395127,FALSE,4.50209476390517
"CAN","cpi",0.3,2021,3,2021,NA,0,3.32875398128695,3.39272080088739,3.31148121717802,3.36073739108717,FALSE,0.11331757419737
"CAN","cpi",0.3,2021,3,2021,NA,0.5,2.68603326103996,3.06969872460069,3.31148121717802,2.87786599282032,FALSE,1.07447258521026
"CAN","cpi",0.3,2021,3,2020,NA,1,1.52892613863733,2.08242597595814,3.31148121717802,1.80567605729774,FALSE,4.06508624080618
"CAN","cpi",0.3,2021,3,2020,NA,1.5,0.7080548166206,2.01824764202896,3.31148121717802,1.36315122932478,FALSE,5.00514589726282
"CAN","cpi",0.3,2022,3,2022,NA,0,6.55039732700861,6.61243752852605,6.50977236228281,6.58141742776733,FALSE,0.178111529305429
"CAN","cpi",0.3,2022,3,2022,NA,0.5,6.54275774522167,6.94311993031007,6.50977236228281,6.74293883776587,FALSE,0.494606136342286
"CAN","cpi",0.3,2022,3,2021,NA,1,4.53515196642101,5.11613233351042,6.50977236228281,4.82564214996571,FALSE,4.56280902072482
"CAN","cpi",0.3,2022,3,2021,NA,1.5,3.3580399434522,4.51346134285205,6.50977236228281,3.93575064315212,FALSE,6.85916716920202
"CAN","cpi",0.3,2023,3,2023,NA,0,3.98530519822604,4.04376051409689,3.78831288758619,4.01453285616146,FALSE,0.62129048912756
"CAN","cpi",0.3,2023,3,2023,NA,0.5,2.87808582461498,3.27968261016992,3.78831288758619,3.07888421739245,FALSE,1.85482614960142
"CAN","cpi",0.3,2023,3,2022,NA,1,3.54302194488464,4.1704436665095,3.78831288758619,3.85673280569707,TRUE,0.627421721624858
"CAN","cpi",0.3,2023,3,2022,NA,1.5,7.40934323702645,8.73650243189861,3.78831288758619,8.07292283446253,FALSE,11.6729601932729
"CAN","cpi",0.3,2024,3,2023,NA,1,3.74848614040918,4.40160893952087,NA,4.07504753996503,NA,NA
"CAN","cpi",0.3,2024,3,2023,NA,1.5,1.61920909697815,3.21137186941562,NA,2.41529048319689,NA,NA
"CAN","cpi",0.4,1959,3,1959,NA,0,1.16115867369592,1.33866565492994,1.19382698397654,1.24991216431293,TRUE,0.177506981234026
"CAN","cpi",0.4,1959,3,1959,NA,0.5,-0.278528902866395,1.15420836604705,1.19382698397654,0.437839731590327,FALSE,1.56479932867842
"CAN","cpi",0.4,1959,3,1958,NA,1,0.184958615578876,3.33229664214005,1.19382698397654,1.75862762885946,TRUE,3.14733802656117
"CAN","cpi",0.4,1959,3,1958,NA,1.5,-1.85545584747849,5.4035993017538,1.19382698397654,1.77407172713766,TRUE,7.25905514923229
"CAN","cpi",0.4,1960,3,1960,NA,0,0.944892537689222,1.10233354750032,1.34209404870695,1.02361304259477,FALSE,0.956642680499865
"CAN","cpi",0.4,1960,3,1960,NA,0.5,-0.0437018316864313,1.12166879204975,1.34209404870695,0.53898348018166,FALSE,1.90012147926018
"CAN","cpi",0.4,1960,3,1959,NA,1,2.41151052109867,5.50367695269018,1.34209404870695,3.95759373689442,FALSE,6.65688800623056
"CAN","cpi",0.4,1960,3,1959,NA,1.5,-4.0853349558803,2.33838132507053,1.34209404870695,-0.873476815404885,TRUE,6.42371628095083
"CAN","cpi",0.4,1961,3,1961,NA,0,0.914015004974548,1.1044119569056,1.00921348094007,1.00921348094007,TRUE,0.190396951931048
"CAN","cpi",0.4,1961,3,1961,NA,0.5,0.430259543819476,1.58816741806067,1.00921348094007,1.00921348094007,TRUE,1.15790787424119
"CAN","cpi",0.4,1961,3,1960,NA,1,-1.27068763776338,1.37822856297044,1.00921348094007,0.0537704626035329,TRUE,2.64891620073382
"CAN","cpi",0.4,1961,3,1960,NA,1.5,-3.36883241635908,1.64446881847901,1.00921348094007,-0.862181798940035,TRUE,5.01330123483809
"CAN","cpi",0.4,1962,3,1962,NA,0,1.01736241743545,1.18728563719411,1.04957947883042,1.10232402731478,TRUE,0.169923219758665
