isdrw/probabilistic-benchmark-forecasts/results/gauss_quantiles_prediction/unbiased VAR est/mean 0 assumption/gauss_prediction_ar1_2026-02-25_21-18.csv
"country","target","tau","target_year","target_quarter","forecast_year","forecast_quarter","horizon","lower_bound","upper_bound","truth_value","prediction","covered","IS"
"CAN","cpi",0.1,1959,3,1959,NA,0,1.16994079870461,1.20915118431892,1.19382698397654,1.18954599151176,TRUE,0.0392103856143131
"CAN","cpi",0.1,1959,3,1959,NA,0.5,0.414112926116841,0.676503728205008,1.19382698397654,0.545308327160925,FALSE,1.41199803713602
"CAN","cpi",0.1,1959,3,1958,NA,1,0.720284239827606,1.54561804515332,1.19382698397654,1.13295114249046,TRUE,0.825333805325712
"CAN","cpi",0.1,1959,3,1958,NA,1.5,0.0919398278004129,1.34290434835817,1.19382698397654,0.717422088079289,TRUE,1.25096452055775
"CAN","cpi",0.1,1960,3,1960,NA,0,1.00538154425706,1.04184454093249,1.34209404870695,1.02361304259477,FALSE,0.703684125063128
"CAN","cpi",0.1,1960,3,1960,NA,0.5,0.523068852483686,0.774153162943628,1.34209404870695,0.648611007713657,FALSE,1.51317516771177
"CAN","cpi",0.1,1960,3,1959,NA,1,2.06413724852355,2.68920021518917,1.34209404870695,2.37666873185636,FALSE,2.22960341070251
"CAN","cpi",0.1,1960,3,1959,NA,1.5,-0.811048988794739,0.112864629660185,1.34209404870695,-0.349092179567277,FALSE,3.65553454966996
"CAN","cpi",0.1,1961,3,1961,NA,0,0.987909270217081,1.03051769166306,1.00921348094007,1.00921348094007,TRUE,0.0426084214459808
"CAN","cpi",0.1,1961,3,1961,NA,0.5,0.884493715462307,1.13393324641784,1.00921348094007,1.00921348094007,TRUE,0.249439530955529
"CAN","cpi",0.1,1961,3,1960,NA,1,-0.235182929461155,0.342723854668221,1.00921348094007,0.0537704626035329,FALSE,2.05899484251127
"CAN","cpi",0.1,1961,3,1960,NA,1.5,-0.758212057822264,0.0935792855094665,1.00921348094007,-0.332316386156399,FALSE,2.88653399984419
"CAN","cpi",0.1,1962,3,1962,NA,0,1.04804354100159,1.08271668409501,1.04957947883042,1.0653801125483,TRUE,0.0346731430934204
"CAN","cpi",0.1,1962,3,1962,NA,0.5,-0.0996204633784322,0.0996204633784323,1.04957947883042,0,FALSE,2.3102609610946
"CAN","cpi",0.1,1962,3,1961,NA,1,-0.286366310933647,0.286366310933647,1.04957947883042,0,FALSE,2.26876188386011
"CAN","cpi",0.1,1962,3,1961,NA,1.5,-0.426160045952202,0.426160045952202,1.04957947883042,0,FALSE,2.23769660941154
"CAN","cpi",0.1,1963,3,1963,NA,0,1.81288362812555,1.84761545742141,1.60677118395228,1.83024954277348,FALSE,0.492759483014226
"CAN","cpi",0.1,1963,3,1963,NA,0.5,0.739889963395758,0.93376746583925,1.60677118395228,0.836828714617504,FALSE,1.68944132047246
"CAN","cpi",0.1,1963,3,1962,NA,1,1.42612918849174,1.79257282541479,1.60677118395228,1.60935100695326,TRUE,0.366443636923052
"CAN","cpi",0.1,1963,3,1962,NA,1.5,-0.216202438137641,0.216202438137641,1.60677118395228,0,FALSE,3.52255764475227
"CAN","cpi",0.1,1964,3,1964,NA,0,1.93258387073718,1.97130909812331,1.88764670034376,1.95194648443024,FALSE,0.138585606038171
"CAN","cpi",0.1,1964,3,1964,NA,0.5,1.21537760571368,1.33077873115429,1.88764670034376,1.27307816843398,FALSE,1.35288550141722
"CAN","cpi",0.1,1964,3,1963,NA,1,3.07308726620073,3.33035938654943,1.88764670034376,3.20172332637508,FALSE,2.89158448891975
"CAN","cpi",0.1,1964,3,1963,NA,1.5,-0.165856678691519,0.165856678691519,1.88764670034376,0,FALSE,4.15791340549913
"CAN","cpi",0.1,1965,3,1965,NA,0,2.27854821960289,2.31745556979357,2.29538304394236,2.29800189469823,TRUE,0.0389073501906809
"CAN","cpi",0.1,1965,3,1965,NA,0.5,1.33641980580588,1.45244455933064,2.29538304394236,1.39443218256826,FALSE,1.98922138599524
"CAN","cpi",0.1,1965,3,1964,NA,1,1.35664452921791,1.60492283157106,2.29538304394236,1.48078368039448,FALSE,1.78263432984492
"CAN","cpi",0.1,1965,3,1964,NA,1.5,0.169118248356885,0.417396550710037,2.29538304394236,0.293257399533461,FALSE,4.4215816206472
"CAN","cpi",0.1,1966,3,1966,NA,0,3.75696618433556,3.79325918056138,3.72486065470629,3.77511268244847,FALSE,0.107638617624192
"CAN","cpi",0.1,1966,3,1966,NA,0.5,3.31923041662173,3.4356439779467,3.72486065470629,3.37743719728421,FALSE,0.759117287457393
"CAN","cpi",0.1,1966,3,1965,NA,1,1.86074052353457,2.10899893935631,3.72486065470629,1.98486973144544,FALSE,3.83906222771058
"CAN","cpi",0.1,1966,3,1965,NA,1.5,0.454511626090167,0.702770041911908,3.72486065470629,0.578640834001038,FALSE,6.96401533314259
"CAN","cpi",0.1,1967,3,1967,NA,0,3.66580271324913,3.70171270104304,3.49360316391996,3.68375770714608,FALSE,0.418575652969841
"CAN","cpi",0.1,1967,3,1967,NA,0.5,2.05000174406276,2.17109241690242,3.49360316391996,2.11054708048259,FALSE,3.06000344398976
"CAN","cpi",0.1,1967,3,1966,NA,1,1.89467201490172,2.14539413576831,3.49360316391996,2.02003307533501,FALSE,3.24674218342581
"CAN","cpi",0.1,1967,3,1966,NA,1.5,1.59022430336343,1.84094642423002,3.49360316391996,1.71558536379673,FALSE,3.92329265351089
"CAN","cpi",0.1,1968,3,1968,NA,0,4.0522222955463,4.08949206084085,3.95128347779386,4.07085717819357,FALSE,0.261578249188865
"CAN","cpi",0.1,1968,3,1968,NA,0.5,3.45742243813025,3.55722222739978,3.95128347779386,3.50732233276501,FALSE,0.975491456811925
"CAN","cpi",0.1,1968,3,1967,NA,1,3.53370530277737,3.79236828325648,3.95128347779386,3.66303679301692,FALSE,0.611807857228845
"CAN","cpi",0.1,1968,3,1967,NA,1.5,0.705550028805499,0.964213009284606,3.95128347779386,0.834881519045053,FALSE,6.89659735494411
"CAN","cpi",0.1,1969,3,1969,NA,0,4.50660146310784,4.54405133705722,4.42679496126681,4.52532640008253,FALSE,0.21479765581833
"CAN","cpi",0.1,1969,3,1969,NA,0.5,2.64316482252015,2.73864759317348,4.42679496126681,2.69090620784681,FALSE,3.8469213664163
"CAN","cpi",0.1,1969,3,1968,NA,1,3.96602728779136,4.18985136747644,4.42679496126681,4.0779393276339,FALSE,0.750365399219246
"CAN","cpi",0.1,1969,3,1968,NA,1.5,1.50030667351204,1.72413075319713,4.42679496126681,1.61221871335458,FALSE,6.22974454206217
"CAN","cpi",0.1,1970,3,1970,NA,0,3.54098306382912,3.57658904489046,3.28128405769805,3.55878605435979,FALSE,0.612714883574835
"CAN","cpi",0.1,1970,3,1970,NA,0.5,3.68909607584281,3.81028947222727,3.28128405769805,3.74969277403504,FALSE,1.02744232559505
"CAN","cpi",0.1,1970,3,1969,NA,1,2.99891261548111,3.22481955017106,3.28128405769805,3.11186608282608,FALSE,0.351383618083258
"CAN","cpi",0.1,1970,3,1969,NA,1.5,0.651988509914663,0.877895444604613,3.28128405769805,0.764941977259638,FALSE,5.56677051934203
"CAN","cpi",0.1,1971,3,1971,NA,0,2.79536256819,2.83492849758742,2.64123406634756,2.81514553288871,FALSE,0.382073711269506
"CAN","cpi",0.1,1971,3,1971,NA,0.5,1.03973749645386,1.19373711887657,2.64123406634756,1.11673730766521,FALSE,3.37065950569159
"CAN","cpi",0.1,1971,3,1970,NA,1,1.81589589285649,2.02497311635141,2.64123406634756,1.92043450460395,FALSE,1.57854600126415
"CAN","cpi",0.1,1971,3,1970,NA,1.5,1.59740214025856,1.80647936375347,2.64123406634756,1.70194075200601,FALSE,2.064087673704
"CAN","cpi",0.1,1972,3,1972,NA,0,5.03637786758626,5.06019737553321,4.83230569625923,5.04828762155974,FALSE,0.477313222007019
"CAN","cpi",0.1,1972,3,1972,NA,0.5,4.01260930631133,4.17943840088301,4.83230569625923,4.09602385359717,FALSE,1.61764530651883
"CAN","cpi",0.1,1972,3,1971,NA,1,4.06692704367566,4.26931518899866,4.83230569625923,4.16812111633716,FALSE,1.4534781614576
"CAN","cpi",0.1,1972,3,1971,NA,1.5,0.590835932689591,0.793224078012588,4.83230569625923,0.692030005351089,FALSE,9.17812507475998
"CAN","cpi",0.1,1973,3,1973,NA,0,7.23941161531962,7.26251102922003,7.12388603531779,7.25096132226983,FALSE,0.279822925015591
"CAN","cpi",0.1,1973,3,1973,NA,0.5,5.22712096194566,5.38179938385597,7.12388603531779,5.30446017290082,FALSE,4.02598209182546
"CAN","cpi",0.1,1973,3,1972,NA,1,4.82017925745338,5.02534145839193,7.12388603531779,4.92276035792265,FALSE,4.86859459410713
"CAN","cpi",0.1,1973,3,1972,NA,1.5,1.66940348257968,1.91435409890438,7.12388603531779,1.79187879074203,FALSE,11.8216882527989
"CAN","cpi",0.1,1974,3,1974,NA,0,10.1383769331103,10.1594454871917,10.2717243737774,10.148911210151,FALSE,0.270577190938538
"CAN","cpi",0.1,1974,3,1974,NA,0.5,7.81851877822075,7.99040700668024,10.2717243737774,7.90446289245049,FALSE,5.24148237756433
"CAN","cpi",0.1,1974,3,1973,NA,1,7.18528072005913,7.42424121507304,10.2717243737774,7.30476096756609,FALSE,6.5667008476903
"CAN","cpi",0.1,1974,3,1973,NA,1.5,2.40888896354647,2.72376922812734,10.2717243737774,2.5663290958369,FALSE,17.0881139215811
"CAN","cpi",0.1,1975,3,1975,NA,0,10.1607950566107,10.1885191641479,10.0232981493341,10.1746571103793,FALSE,0.333272790373976
"CAN","cpi",0.1,1975,3,1975,NA,0.5,7.96936963561789,8.1736765026714,10.0232981493341,8.07152306914465,FALSE,4.31457719297066
"CAN","cpi",0.1,1975,3,1974,NA,1,7.67437116633014,7.96318450505267,10.0232981493341,7.8187778356914,FALSE,4.86684365934798
"CAN","cpi",0.1,1975,3,1974,NA,1.5,3.40860351632492,3.8896819776838,10.0232981493341,3.64914274700436,FALSE,14.1113366205818
"CAN","cpi",0.1,1976,3,1976,NA,0,7.17613859431566,7.20376426656044,7.22784311401172,7.18995143043805,FALSE,0.0811342221365048
"CAN","cpi",0.1,1976,3,1976,NA,0.5,6.50741363498152,6.71925365072464,7.22784311401172,6.61333364285308,FALSE,1.34203882304773
"CAN","cpi",0.1,1976,3,1975,NA,1,8.46729796233466,8.70264418947133,7.22784311401172,8.584971075903,FALSE,2.98969033452099
"CAN","cpi",0.1,1976,3,1975,NA,1.5,2.88675197733873,3.40801942257309,7.22784311401172,3.14738569995591,FALSE,9.0097645373202
"CAN","cpi",0.1,1977,3,1977,NA,0,7.48735587984933,7.51618301022958,7.58101410153764,7.50176944503946,FALSE,0.172896222175941
"CAN","cpi",0.1,1977,3,1977,NA,0.5,6.29815383626409,6.51327894027339,7.58101410153764,6.40571638826874,FALSE,2.58786990681876
"CAN","cpi",0.1,1977,3,1976,NA,1,3.89577819208825,4.20240752945203,7.58101410153764,4.04909286077014,FALSE,7.81464394199847
"CAN","cpi",0.1,1977,3,1976,NA,1.5,2.34236584471125,2.8462891098386,7.58101410153764,2.59432747727492,FALSE,11.0255343577919
"CAN","cpi",0.1,1978,3,1978,NA,0,8.57500137194118,8.6070955757418,8.50208927062595,8.59104847384149,FALSE,0.194121095612257
"CAN","cpi",0.1,1978,3,1978,NA,0.5,7.23866281968777,7.44361535498212,8.50208927062595,7.34113908733495,FALSE,2.55711679228063
"CAN","cpi",0.1,1978,3,1977,NA,1,5.69990227536226,6.05815509500076,8.50208927062595,5.87902868518151,FALSE,5.78921765436114
"CAN","cpi",0.1,1978,3,1977,NA,1.5,3.63902242719917,4.14684728964511,8.50208927062595,3.89293485842214,FALSE,10.1861403757367
"CAN","cpi",0.1,1979,3,1979,NA,0,8.47089974133486,8.50212846154066,8.65147652410481,8.48651410143776,FALSE,0.363113303681683
"CAN","cpi",0.1,1979,3,1979,NA,0.5,7.35964650842787,7.5640884328696,8.65147652410481,7.46186747064873,FALSE,2.62085990496443
"CAN","cpi",0.1,1979,3,1978,NA,1,6.7498523332878,7.12386883430557,8.65147652410481,6.93686058379669,FALSE,3.76870025612719
"CAN","cpi",0.1,1979,3,1978,NA,1.5,3.68072323988589,4.15521880105971,8.65147652410481,3.9179710204728,FALSE,10.4661793901629
"CAN","cpi",0.1,1980,3,1980,NA,0,9.41879929990711,9.45542326319726,9.5171912664748,9.43711128155219,FALSE,0.173886192795784
"CAN","cpi",0.1,1980,3,1980,NA,0.5,7.79399050934484,7.98889102037218,9.5171912664748,7.89144076485851,FALSE,3.59112328014427
"CAN","cpi",0.1,1980,3,1979,NA,1,5.51136853286838,5.87638736136769,9.5171912664748,5.69387794711803,FALSE,8.45569417318177
"CAN","cpi",0.1,1980,3,1979,NA,1.5,4.03893709814755,4.5050438669872,9.5171912664748,4.27199048256738,FALSE,11.6042121010343
"CAN","cpi",0.1,1981,3,1981,NA,0,11.5984888790838,11.6365886392242,11.5813425032741,11.617538759154,FALSE,0.0762028174952418
"CAN","cpi",0.1,1981,3,1981,NA,0.5,11.2071472539207,11.4005045662607,11.5813425032741,11.3038259100907,FALSE,0.595219394592068
"CAN","cpi",0.1,1981,3,1980,NA,1,8.03245663579301,8.42599281601588,11.5813425032741,8.22922472590444,FALSE,7.40542437413012
"CAN","cpi",0.1,1981,3,1980,NA,1.5,4.32292373310271,4.77344361782971,11.5813425032741,4.54818367546621,FALSE,15.5791840746035
"CAN","cpi",0.1,1982,3,1982,NA,0,10.1698715551848,10.2029228694849,10.1124203763629,10.1863972123348,FALSE,0.160720600570871
"CAN","cpi",0.1,1982,3,1982,NA,0.5,9.30195760560853,9.45827419775075,10.1124203763629,9.38011590167964,FALSE,1.609974766836
"CAN","cpi",0.1,1982,3,1981,NA,1,8.73446199418751,9.12103719586658,10.1124203763629,8.92774959502704,FALSE,2.58964893611544
"CAN","cpi",0.1,1982,3,1981,NA,1.5,7.43277103412357,7.88099018470556,10.1124203763629,7.65688060941457,FALSE,5.40695290982062
"CAN","cpi",0.1,1983,3,1983,NA,0,5.77677754511616,5.80785145362616,5.67091787896303,5.79231449937116,FALSE,0.266317611072503
"CAN","cpi",0.1,1983,3,1983,NA,0.5,4.40885365900445,4.56985607600632,5.67091787896303,4.48935486750539,FALSE,2.60780642357234
"CAN","cpi",0.1,1983,3,1982,NA,1,6.49689025874021,6.87032661451161,5.67091787896303,6.68360843662591,FALSE,2.20893053305401
"CAN","cpi",0.1,1983,3,1982,NA,1.5,5.61821118555858,5.99164754132998,5.67091787896303,5.80492936344428,TRUE,0.373436355771403
"CAN","cpi",0.1,1984,3,1984,NA,0,4.17236617663754,4.20032229895127,4.19799576814029,4.1863442377944,TRUE,0.0279561223137215
"CAN","cpi",0.1,1984,3,1984,NA,0.5,4.29587308707206,4.45150529363223,4.19799576814029,4.37368919035215,FALSE,0.373137359741891
"CAN","cpi",0.1,1984,3,1983,NA,1,4.60779036507397,5.04268935219282,4.19799576814029,4.8252398586334,FALSE,1.34555364697148
"CAN","cpi",0.1,1984,3,1983,NA,1.5,1.36464565453719,1.90839134736489,4.19799576814029,1.63651850095104,FALSE,5.63175551677304
"CAN","cpi",0.1,1985,3,1985,NA,0,3.86177940475812,3.88799986351145,3.86444262005169,3.87488963413478,TRUE,0.0262204587533326
"CAN","cpi",0.1,1985,3,1985,NA,0.5,3.57800372448787,3.76108547887761,3.86444262005169,3.66954460168274,FALSE,0.412764290332146
"CAN","cpi",0.1,1985,3,1984,NA,1,2.28023132696388,2.75498695756673,3.86444262005169,2.51760914226531,FALSE,2.94021265834721
"CAN","cpi",0.1,1985,3,1984,NA,1.5,2.46188631020042,3.02749214985529,3.86444262005169,2.74468923002786,FALSE,2.42549577342465
"CAN","cpi",0.1,1986,3,1986,NA,0,4.07798468101522,4.10220293940032,4.08685396749431,4.09009381020777,TRUE,0.0242182583851012
"CAN","cpi",0.1,1986,3,1986,NA,0.5,4.10830029764338,4.26905457539719,4.08685396749431,4.18867743652029,FALSE,0.208412789196189
"CAN","cpi",0.1,1986,3,1985,NA,1,2.73217329202309,3.19475744186963,4.08685396749431,2.96346536694636,FALSE,2.44502087345694
"CAN","cpi",0.1,1986,3,1985,NA,1.5,2.38103760809642,2.93187268194805,4.08685396749431,2.65645514502224,FALSE,3.11746015284331
"CAN","cpi",0.1,1987,3,1987,NA,0,4.29324748651519,4.31440749187271,4.23980729277887,4.30382748919395,FALSE,0.139915991438226
"CAN","cpi",0.1,1987,3,1987,NA,0.5,3.53188659780646,3.68301428938467,4.23980729277887,3.60745044359556,FALSE,1.38844547689866
"CAN","cpi",0.1,1987,3,1986,NA,1,3.25963835250424,3.71944953301704,4.23980729277887,3.48954394276064,FALSE,1.61616175776132
"CAN","cpi",0.1,1987,3,1986,NA,1.5,2.781274270687,3.31995802576704,4.23980729277887,3.05061614822702,FALSE,2.58279323732855
"CAN","cpi",0.1,1988,3,1988,NA,0,3.95575053163871,3.97727348586066,3.92899537638065,3.96651200874969,FALSE,0.0809788547954122
"CAN","cpi",0.1,1988,3,1988,NA,0.5,3.20035529636606,3.35141339489825,3.92899537638065,3.27588434563216,FALSE,1.43457361293753
"CAN","cpi",0.1,1988,3,1987,NA,1,3.1638394240524,3.56731764071303,3.92899537638065,3.36557853238272,FALSE,1.20720651814424
"CAN","cpi",0.1,1988,3,1987,NA,1.5,1.94796063595412,2.50985268381575,3.92899537638065,2.22890665988493,FALSE,3.71554247578364
"CAN","cpi",0.1,1989,3,1989,NA,0,4.95203973620533,4.97244270869702,4.82821664544208,4.96224122245117,FALSE,0.295565396410029
"CAN","cpi",0.1,1989,3,1989,NA,0.5,4.07937875771044,4.2255448775431,4.82821664544208,4.15246181762677,FALSE,1.48543671516371
"CAN","cpi",0.1,1989,3,1988,NA,1,3.16242644067245,3.53880909480725,4.82821664544208,3.35061776773985,FALSE,3.24173276665664
"CAN","cpi",0.1,1989,3,1988,NA,1.5,1.75739606678372,2.30846814593286,4.82821664544208,2.03293210635829,FALSE,6.15051318916962
"CAN","cpi",0.1,1990,3,1990,NA,0,4.48033542995749,4.50199921921059,4.64347549432717,4.49116732458404,FALSE,0.336055511734385
"CAN","cpi",0.1,1990,3,1990,NA,0.5,4.73615975189799,4.87654292610484,4.64347549432717,4.80635133900141,FALSE,0.34634819103089
"CAN","cpi",0.1,1990,3,1989,NA,1,4.27252157922388,4.63413703130015,4.64347549432717,4.45332930526201,FALSE,0.382367592136316
"CAN","cpi",0.1,1990,3,1989,NA,1.5,2.67371796459148,3.20616490134715,4.64347549432717,2.93994143296931,FALSE,3.72647047671127
"CAN","cpi",0.1,1991,3,1991,NA,0,5.58614615642288,5.60713691382333,5.4258100696218,5.5966415351231,FALSE,0.377293172513972
"CAN","cpi",0.1,1991,3,1991,NA,0.5,7.97073098665692,8.11418989365468,5.4258100696218,8.0424604401558,FALSE,5.79883872263136
"CAN","cpi",0.1,1991,3,1990,NA,1,2.82390532755487,3.19142238024258,5.4258100696218,3.00766385389873,FALSE,5.33282302908596
"CAN","cpi",0.1,1991,3,1990,NA,1.5,3.16972315718048,3.67950329783826,5.4258100696218,3.42461322750937,FALSE,4.39046185573231
"CAN","cpi",0.1,1992,3,1992,NA,0,1.45022787811518,1.47213814087714,1.47496888572843,1.46118300949616,FALSE,0.0282008068759496
"CAN","cpi",0.1,1992,3,1992,NA,0.5,1.11171967026051,1.36421668090889,1.47496888572843,1.2379681755847,FALSE,0.49861302135848
"CAN","cpi",0.1,1992,3,1991,NA,1,1.71566725700693,2.02900580128527,1.47496888572843,1.8723365291461,FALSE,0.848223813786112
"CAN","cpi",0.1,1992,3,1991,NA,1.5,6.67222881782535,7.1264451189534,1.47496888572843,6.89933696838937,FALSE,12.003682816899
"CAN","cpi",0.1,1993,3,1993,NA,0,1.79103043816546,1.8133809129526,1.84351085411351,1.80220567555903,FALSE,0.0893058995891628
"CAN","cpi",0.1,1993,3,1993,NA,0.5,2.09200834871497,2.34436161587194,1.84351085411351,2.21818498229346,FALSE,0.804569921826879
"CAN","cpi",0.1,1993,3,1992,NA,1,1.22311243207818,1.48097355168421,1.84351085411351,1.3520429918812,FALSE,1.06349956944892
"CAN","cpi",0.1,1993,3,1992,NA,1.5,0.645430889531468,1.22154008514225,1.84351085411351,0.933485487336859,FALSE,1.95826645999136
"CAN","cpi",0.1,1994,3,1994,NA,0,0.19064153351221,0.213577781462172,0.161630694655448,0.202109657487191,FALSE,0.0874047787427681
"CAN","cpi",0.1,1994,3,1994,NA,0.5,-0.697205956606532,-0.448073458319023,0.161630694655448,-0.572639707462777,FALSE,1.60403061600855
"CAN","cpi",0.1,1994,3,1993,NA,1,1.01415675468557,1.26805390685115,0.161630694655448,1.14110533076836,FALSE,2.14839950778807
"CAN","cpi",0.1,1994,3,1993,NA,1.5,1.36831875582167,1.93215049009679,0.161630694655448,1.65023462295923,FALSE,3.24536075908895
"CAN","cpi",0.1,1995,3,1995,NA,0,2.13767806904875,2.15934692119752,2.11688403676572,2.14851249512314,FALSE,0.0678778127777403
"CAN","cpi",0.1,1995,3,1995,NA,0.5,2.48175713512816,2.7196917310567,2.11688403676572,2.60072443309243,FALSE,1.04876370340064
"CAN","cpi",0.1,1995,3,1994,NA,1,1.30744252002587,1.56003693281796,2.11688403676572,1.43373972642191,FALSE,1.49003242156489
"CAN","cpi",0.1,1995,3,1994,NA,1.5,-1.56024884543634,-0.971977823055206,2.11688403676572,-1.26611333424577,FALSE,7.45240848864985
"CAN","cpi",0.1,1996,3,1996,NA,0,1.4259065323446,1.44739887615617,1.55309584667184,1.43665270425039,FALSE,0.256374500513065
"CAN","cpi",0.1,1996,3,1996,NA,0.5,1.11475274672535,1.35077386057539,1.55309584667184,1.23276330365037,FALSE,0.685625527397719
"CAN","cpi",0.1,1996,3,1995,NA,1,0.611742702468896,0.847763816318933,1.55309584667184,0.729753259393914,FALSE,1.80342562574539
"CAN","cpi",0.1,1996,3,1995,NA,1.5,2.01552591389947,2.6225708698314,1.55309584667184,2.31904839186543,FALSE,1.63466732754888
"CAN","cpi",0.1,1997,3,1997,NA,0,1.6674622361658,1.6915273383061,1.60528783555959,1.67949478723595,FALSE,0.162230436820772
"CAN","cpi",0.1,1997,3,1997,NA,0.5,1.81614433438632,2.04969550758182,1.60528783555959,1.93291992098407,FALSE,0.702121170588231
"CAN","cpi",0.1,1997,3,1996,NA,1,0.497854865023209,0.7314060382187,1.60528783555959,0.614630451620954,FALSE,2.17551072284192
"CAN","cpi",0.1,1997,3,1996,NA,1.5,0.652956989316582,1.27136613908116,1.60528783555959,0.962161564198873,FALSE,1.36045736416109
"CAN","cpi",0.1,1998,3,1998,NA,0,0.954835801394352,0.979291559381232,0.988908029337191,0.967063680387792,FALSE,0.0458256912223447
"CAN","cpi",0.1,1998,3,1998,NA,0.5,1.23234796230425,1.46560123502249,0.988908029337191,1.34897459866337,FALSE,0.774230901533921
"CAN","cpi",0.1,1998,3,1997,NA,1,0.676063322887006,0.909316595605251,0.988908029337191,0.792689959246129,FALSE,0.410123125455889
"CAN","cpi",0.1,1998,3,1997,NA,1.5,0.976234700941478,1.59144530659745,0.988908029337191,1.28384000376946,TRUE,0.615210605655969
"CAN","cpi",0.1,1999,3,1999,NA,0,1.75646495255544,1.78082772533664,1.7107350135213,1.76864633894604,FALSE,0.12598485952374
"CAN","cpi",0.1,1999,3,1999,NA,0.5,0.616546879006175,0.847652542194887,1.7107350135213,0.732099710600531,FALSE,2.14906671058073
"CAN","cpi",0.1,1999,3,1998,NA,1,0.253499740365273,0.484605403553986,1.7107350135213,0.369052571959629,FALSE,2.95583812978274
"CAN","cpi",0.1,1999,3,1998,NA,1.5,0.960182590688058,1.57675754977453,1.7107350135213,1.26847007023129,FALSE,0.914302656301507
"CAN","cpi",0.1,2000,3,2000,NA,0,2.69030772059489,2.71484849288579,2.6718361971244,2.70257810674034,FALSE,0.0655886022253327
"CAN","cpi",0.1,2000,3,2000,NA,0.5,1.84011706760865,2.07884905000887,2.6718361971244,1.95948305880876,FALSE,1.55648119821251
"CAN","cpi",0.1,2000,3,1999,NA,1,2.04218062865987,2.2809126110601,2.6718361971244,2.16154661985999,FALSE,1.10745106254312
"CAN","cpi",0.1,2000,3,1999,NA,1.5,0.198772051432978,0.806795704694543,2.6718361971244,0.50278387806376,FALSE,4.75255808088347
"CAN","cpi",0.1,2001,3,2001,NA,0,2.72027587896415,2.74281510875759,2.47906219852806,2.73154549386087,FALSE,0.558569630762522
"CAN","cpi",0.1,2001,3,2001,NA,0.5,1.54160107005739,1.77563549522113,2.47906219852806,1.65861828263926,FALSE,1.79720487695693
"CAN","cpi",0.1,2001,3,2000,NA,1,2.724321745308,2.95835617047173,2.47906219852806,2.84133895788986,FALSE,0.779055640230255
"CAN","cpi",0.1,2001,3,2000,NA,1.5,0.844996325486394,1.43883076347299,2.47906219852806,1.14191354447969,FALSE,2.90545984922009
"CAN","cpi",0.1,2002,3,2002,NA,0,2.30015531833947,2.3254952309646,2.20880570551249,2.31282527465204,FALSE,0.22833905224065
"CAN","cpi",0.1,2002,3,2002,NA,0.5,1.12536551944179,1.36927345324006,2.20880570551249,1.24731948634093,FALSE,2.10953516107032
"CAN","cpi",0.1,2002,3,2001,NA,1,0.57353757398774,0.817445507786011,2.20880570551249,0.695491540886875,FALSE,3.33581948430155
"CAN","cpi",0.1,2002,3,2001,NA,1.5,0.181568448957957,0.770554788684724,2.20880570551249,0.47606161882134,FALSE,3.78509948823291
"CAN","cpi",0.1,2003,3,2003,NA,0,2.74277994235279,2.76642800320371,2.71189071546809,2.75460397277825,FALSE,0.0922907872613618
"CAN","cpi",0.1,2003,3,2003,NA,0.5,4.0873684704456,4.23457094540293,2.71189071546809,4.16096970792426,FALSE,3.20381970824068
"CAN","cpi",0.1,2003,3,2002,NA,1,3.18138848969377,3.37444967407565,2.71189071546809,3.27791908188471,FALSE,1.23638957155005
"CAN","cpi",0.1,2003,3,2002,NA,1.5,1.22614011683467,1.81046013830335,2.71189071546809,1.51830012756901,FALSE,2.58749908183477
"CAN","cpi",0.1,2004,3,2004,NA,0,1.74989176360989,1.77317031442888,1.83151661303942,1.76153103901938,FALSE,0.152936992175754
"CAN","cpi",0.1,2004,3,2004,NA,0.5,1.29049107514067,1.48842101447076,1.83151661303942,1.38945604480572,FALSE,0.960364602816002
"CAN","cpi",0.1,2004,3,2003,NA,1,0.919732981055291,1.11775940213665,1.83151661303942,1.01874619159597,FALSE,1.78415355642085
"CAN","cpi",0.1,2004,3,2003,NA,1.5,2.81832634300031,3.16378083908791,1.83151661303942,2.99105359104411,FALSE,2.53836500711179
"CAN","cpi",0.1,2005,3,2005,NA,0,2.3386190594131,2.36263056343323,2.18071628336509,2.35062481142317,FALSE,0.3749065619046
"CAN","cpi",0.1,2005,3,2005,NA,0.5,1.35819651892518,1.55237092353542,2.18071628336509,1.4552837212303,FALSE,1.59049742645395
"CAN","cpi",0.1,2005,3,2004,NA,1,0.696375412181321,0.896598011866219,2.18071628336509,0.79648671202377,FALSE,3.05381875857128
"CAN","cpi",0.1,2005,3,2004,NA,1.5,0.948293603464284,1.32532542355166,2.18071628336509,1.13680951350797,FALSE,2.27790039745056
"CAN","cpi",0.1,2006,3,2006,NA,0,2.05148406411532,2.07747678237171,1.97519342012289,2.06448042324351,FALSE,0.195527482684018
"CAN","cpi",0.1,2006,3,2006,NA,0.5,1.67932422530577,1.86214205709833,1.97519342012289,1.77073314120205,FALSE,0.434043082958233
"CAN","cpi",0.1,2006,3,2005,NA,1,2.49667313129313,2.67949096308569,1.97519342012289,2.58808204718941,FALSE,1.3416616343931
"CAN","cpi",0.1,2006,3,2005,NA,1.5,0.595912706723674,0.928237831109782,1.97519342012289,0.762075268916728,FALSE,2.65889309997078
"CAN","cpi",0.1,2007,3,2007,NA,0,2.09502564653022,2.12112116362932,2.10062087284572,2.10807340507977,TRUE,0.0260955170990957
"CAN","cpi",0.1,2007,3,2007,NA,0.5,2.00498847125411,2.19021695723939,2.10062087284572,2.09760271424675,TRUE,0.185228485985272
"CAN","cpi",0.1,2007,3,2006,NA,1,0.340353238531394,0.53737167871635,2.10062087284572,0.438862458623872,FALSE,3.67090553825023
"CAN","cpi",0.1,2007,3,2006,NA,1.5,0.949575270672152,1.21220868483234,2.10062087284572,1.08089197775225,FALSE,2.23688272085659
"CAN","cpi",0.1,2008,3,2008,NA,0,2.90349111148007,2.92584395614332,2.31447335265955,2.9146675338117,FALSE,1.33128119759774
"CAN","cpi",0.1,2008,3,2008,NA,0.5,0.952477992058435,1.13877691237687,2.31447335265955,1.04562745221765,FALSE,2.79895767650217
"CAN","cpi",0.1,2008,3,2007,NA,1,0.258065587775194,0.471994772997152,2.31447335265955,0.365030180386173,FALSE,4.30832602891618
"CAN","cpi",0.1,2008,3,2007,NA,1.5,1.92433111515722,2.15781667388547,2.31447335265955,2.04107389452134,FALSE,0.581611511559547
"CAN","cpi",0.1,2009,3,2009,NA,0,0.249509180577905,0.295728491854953,0.284533874408197,0.272618836216429,TRUE,0.0462193112770485
"CAN","cpi",0.1,2009,3,2009,NA,0.5,-0.904591411581019,-0.710261265455052,0.284533874408197,-0.807426338518035,FALSE,2.40498601248874
"CAN","cpi",0.1,2009,3,2008,NA,1,3.16578717484101,3.4013267204587,0.284533874408197,3.28355694764985,FALSE,6.6383246576906
"CAN","cpi",0.1,2009,3,2008,NA,1.5,0.584778355697398,0.821975554780427,0.284533874408197,0.703376955238912,FALSE,0.904407157503475
"CAN","cpi",0.1,2010,3,2010,NA,0,1.70406053458825,1.75010019342522,1.75525687020327,1.72708036400674,FALSE,0.0574989405659752
"CAN","cpi",0.1,2010,3,2010,NA,0.5,1.32745501459566,1.51741030936766,1.75525687020327,1.42243266198166,FALSE,0.71850320774003
"CAN","cpi",0.1,2010,3,2009,NA,1,0.363750262730943,0.667908611427974,1.75525687020327,0.515829437079458,FALSE,2.72048781264214
"CAN","cpi",0.1,2010,3,2009,NA,1.5,-0.818478806355308,-0.514320457658278,1.75525687020327,-0.666399632006793,FALSE,5.3476635217227
"CAN","cpi",0.1,2011,3,2011,NA,0,2.80512590290274,2.85229647166423,2.85717434028225,2.82871118728348,FALSE,0.0580102768015337
"CAN","cpi",0.1,2011,3,2011,NA,0.5,2.49982879772725,2.6862841211736,2.85717434028225,2.59305645945043,FALSE,0.566211365910003
"CAN","cpi",0.1,2011,3,2010,NA,1,1.42364318393931,1.74025380230358,2.85717434028225,1.58194849312145,FALSE,2.79865625831686
"CAN","cpi",0.1,2011,3,2010,NA,1.5,0.850357008395103,1.16696762675938,2.85717434028225,1.00866231757724,FALSE,4.07262553730398
"CAN","cpi",0.1,2012,3,2012,NA,0,1.44282331899982,1.49081170990772,1.50118536134935,1.46681751445377,FALSE,0.071040949667066
"CAN","cpi",0.1,2012,3,2012,NA,0.5,1.54577081816838,1.73156112304673,1.50118536134935,1.63866597060755,FALSE,0.284869097809535
"CAN","cpi",0.1,2012,3,2011,NA,1,0.690470177551685,1.00601092042318,1.50118536134935,0.848240548987433,FALSE,1.41592838937409
"CAN","cpi",0.1,2012,3,2011,NA,1.5,1.5260726204494,1.84161336332089,1.50118536134935,1.68384299188515,FALSE,0.370845763093835
"CAN","cpi",0.1,2013,3,2013,NA,0,1.00720976304149,1.05445254524107,0.931270594714462,1.03083115414128,FALSE,0.21599648959297
"CAN","cpi",0.1,2013,3,2013,NA,0.5,0.908310661147633,1.09537060278288,0.931270594714462,1.00184063196526,TRUE,0.187059941635249
"CAN","cpi",0.1,2013,3,2012,NA,1,-0.431447431314906,-0.113644550429865,0.931270594714462,-0.272545990872386,FALSE,2.63983653676132
"CAN","cpi",0.1,2013,3,2012,NA,1.5,0.799707363693551,1.11751024457859,0.931270594714462,0.958608804136071,TRUE,0.317802880885041
"CAN","cpi",0.1,2014,3,2014,NA,0,1.9625190167511,2.00974655346293,1.87639912240215,1.98613278510701,FALSE,0.238605079709495
"CAN","cpi",0.1,2014,3,2014,NA,0.5,1.8614553953475,2.04302230712853,1.87639912240215,1.95223885123801,TRUE,0.181566911781021
"CAN","cpi",0.1,2014,3,2013,NA,1,0.53203352250801,0.845283852059683,1.87639912240215,0.688658687283847,FALSE,2.60461759697938
"CAN","cpi",0.1,2014,3,2013,NA,1.5,0.734969035108665,1.04821936466034,1.87639912240215,0.891594199884501,FALSE,2.15364979120015
"CAN","cpi",0.1,2015,3,2015,NA,0,1.22281763513471,1.27001969241037,1.11090953952792,1.24641866377254,FALSE,0.295886714179643
"CAN","cpi",0.1,2015,3,2015,NA,0.5,0.138039491799495,0.258194832379901,1.11090953952792,0.198117162089698,FALSE,2.01507691202044
"CAN","cpi",0.1,2015,3,2014,NA,1,0.378479067673909,0.685733077519624,1.11090953952792,0.532106072596766,FALSE,1.25209059208637
"CAN","cpi",0.1,2015,3,2014,NA,1.5,1.65673219742982,1.96398620727554,1.11090953952792,1.81035920235268,FALSE,1.52019324962772
"CAN","cpi",0.1,2016,3,2016,NA,0,1.41906977338689,1.46462937450489,1.41168586698797,1.44184957394589,FALSE,0.0619682820044963
"CAN","cpi",0.1,2016,3,2016,NA,0.5,0.779559416380239,0.906640678432005,1.41168586698797,0.843100047406122,FALSE,1.24940390328723
"CAN","cpi",0.1,2016,3,2015,NA,1,1.08575544427566,1.3839416311298,1.41168586698797,1.23484853770273,FALSE,0.359840044316731
"CAN","cpi",0.1,2016,3,2015,NA,1.5,-0.0416303412497857,0.256555845604351,1.41168586698797,0.107462752177283,FALSE,2.86514178992884
"CAN","cpi",0.1,2017,3,2017,NA,0,1.49467372068561,1.54012479210786,1.57888581671161,1.51739925639673,FALSE,0.131586681652812
"CAN","cpi",0.1,2017,3,2017,NA,0.5,1.81911747726428,1.94428790829347,1.57888581671161,1.88170269277887,FALSE,0.65901856559067
"CAN","cpi",0.1,2017,3,2016,NA,1,0.269270629189207,0.567406064321282,1.57888581671161,0.418338346755244,FALSE,2.5458682182217
"CAN","cpi",0.1,2017,3,2016,NA,1.5,0.376508369771253,0.674643804903328,1.57888581671161,0.52557608733729,FALSE,2.30756212803937
"CAN","cpi",0.1,2018,3,2018,NA,0,2.38269343568949,2.42953413601361,2.23316270166586,2.40611378585155,FALSE,0.379131220376629
"CAN","cpi",0.1,2018,3,2018,NA,0.5,2.55429005642261,2.68985036006146,2.23316270166586,2.62207020824204,FALSE,0.849176647542752
"CAN","cpi",0.1,2018,3,2017,NA,1,0.258614953025168,0.549611248187172,2.23316270166586,0.40411310060617,FALSE,4.03222174733686
"CAN","cpi",0.1,2018,3,2017,NA,1.5,1.39237709956826,1.68337339473027,2.23316270166586,1.53787524714926,FALSE,1.51275031057443
"CAN","cpi",0.1,2019,3,2019,NA,0,1.98791565038101,2.03494114752146,1.91921619871868,2.01142839895124,FALSE,0.199690945278965
"CAN","cpi",0.1,2019,3,2019,NA,0.5,1.44641645786805,1.59125770294367,1.91921619871868,1.51883708040586,FALSE,0.873637902353421
"CAN","cpi",0.1,2019,3,2018,NA,1,1.27352655936097,1.565333122676,1.91921619871868,1.41942984101848,FALSE,1.07821339896543
"CAN","cpi",0.1,2019,3,2018,NA,1.5,1.9151484292426,2.20695499255763,1.91921619871868,2.06105171090012,TRUE,0.291806563315028
"CAN","cpi",0.1,2020,3,2020,NA,0,0.715988446210654,0.736371259371495,0.71139989671781,0.726179852791075,FALSE,0.0305795898116048
"CAN","cpi",0.1,2020,3,2020,NA,0.5,1.01134200902164,1.13317689193941,0.71139989671781,1.07225945048052,FALSE,0.788372910259611
"CAN","cpi",0.1,2020,3,2019,NA,1,0.87545803465669,1.16282125189944,0.71139989671781,1.01913964327806,FALSE,0.651936857106927
"CAN","cpi",0.1,2020,3,2019,NA,1.5,1.08393484488381,1.37129806212656,0.71139989671781,1.22761645350518,FALSE,1.11521865761163
"CAN","cpi",0.1,2021,3,2021,NA,0,3.29987567985703,3.31989938396081,3.31148121717802,3.30988753190892,TRUE,0.0200237041037816
"CAN","cpi",0.1,2021,3,2021,NA,0.5,2.43686507916898,2.54294307815243,3.31148121717802,2.4899040786607,FALSE,1.81394053015144
"CAN","cpi",0.1,2021,3,2020,NA,1,1.12195389413361,1.27385951493259,3.31148121717802,1.1979067045331,FALSE,4.67995384801105
"CAN","cpi",0.1,2021,3,2020,NA,1.5,0.543560043502713,0.797693578478593,3.31148121717802,0.670626810990653,FALSE,5.84032828764128
"CAN","cpi",0.1,2022,3,2022,NA,0,6.53580844943294,6.55530733414418,6.50977236228281,6.54555789178856,FALSE,0.0773568561559753
"CAN","cpi",0.1,2022,3,2022,NA,0.5,5.90544890907468,6.02393106304938,6.50977236228281,5.96468998606203,FALSE,1.19812948560455
"CAN","cpi",0.1,2022,3,2021,NA,1,3.33214765158772,3.5099576448719,6.50977236228281,3.42105264822981,FALSE,6.84406492086399
"CAN","cpi",0.1,2022,3,2021,NA,1.5,1.8005992392854,2.06492607839384,6.50977236228281,1.93276265883962,FALSE,10.1417630255284
"CAN","cpi",0.1,2023,3,2023,NA,0,3.96264326221205,3.9811304426743,3.78831288758619,3.97188685244318,FALSE,0.405888012964158
"CAN","cpi",0.1,2023,3,2023,NA,0.5,2.77816223313715,2.90023797395544,3.78831288758619,2.8392001035463,FALSE,2.09557554888662
"CAN","cpi",0.1,2023,3,2022,NA,1,2.74831275412615,2.98938707566902,3.78831288758619,2.86884991489758,FALSE,2.01646501469214
"CAN","cpi",0.1,2023,3,2022,NA,1.5,3.83662462664733,4.22972032367086,3.78831288758619,4.03317247515909,FALSE,0.500455117159393
"CAN","cpi",0.1,2024,3,2023,NA,1,2.78010065928955,3.01883442429769,NA,2.89946754179362,NA,NA
"CAN","cpi",0.1,2024,3,2023,NA,1.5,0.982823885462864,1.37700915018015,NA,1.17991651782151,NA,NA
"CAN","cpi",0.2,1959,3,1959,NA,0,1.1500197654413,1.22907221758222,1.19382698397654,1.18954599151176,TRUE,0.0790524521409171
"CAN","cpi",0.2,1959,3,1959,NA,0.5,0.280803961808295,0.809812692513555,1.19382698397654,0.545308327160925,FALSE,1.48904445936273
"CAN","cpi",0.2,1959,3,1958,NA,1,0.300969256523304,1.96493302845762,1.19382698397654,1.13295114249046,TRUE,1.66396377193431
"CAN","cpi",0.2,1959,3,1958,NA,1.5,-0.543618977215382,1.97846315337396,1.19382698397654,0.717422088079289,TRUE,2.52208213058934
"CAN","cpi",0.2,1960,3,1960,NA,0,0.986856335737152,1.06036974945239,1.34209404870695,1.02361304259477,FALSE,0.777824161851639
"CAN","cpi",0.2,1960,3,1960,NA,0.5,0.395504208010007,0.901717807417307,1.34209404870695,0.648611007713657,FALSE,1.60715420263141
"CAN","cpi",0.2,1960,3,1959,NA,1,1.74657087024089,3.00676659347183,1.34209404870695,2.37666873185636,FALSE,2.27138777706579
"CAN","cpi",0.2,1960,3,1959,NA,1.5,-1.28044794106976,0.582263581935202,1.34209404870695,-0.349092179567277,FALSE,3.76228768993433
"CAN","cpi",0.2,1961,3,1961,NA,0,0.96626184778999,1.05216511409015,1.00921348094007,1.00921348094007,TRUE,0.0859032663001629
"CAN","cpi",0.2,1961,3,1961,NA,0.5,0.757764709473302,1.26066225240684,1.00921348094007,1.00921348094007,TRUE,0.502897542933538
"CAN","cpi",0.2,1961,3,1960,NA,1,-0.52879137246322,0.636332297670285,1.00921348094007,0.0537704626035329,FALSE,2.09732662830797
"CAN","cpi",0.2,1961,3,1960,NA,1.5,-1.19096892613803,0.526336153825237,1.00921348094007,-0.332316386156399,FALSE,2.92449839775036
"CAN","cpi",0.2,1962,3,1962,NA,0,1.03042767657981,1.10033254851678,1.04957947883042,1.0653801125483,TRUE,0.0699048719369704
"CAN","cpi",0.2,1962,3,1962,NA,0.5,-0.200845816487067,0.200845816487067,1.04957947883042,0,FALSE,2.5235257888325
"CAN","cpi",0.2,1962,3,1961,NA,1,-0.577345994822079,0.577345994822079,1.04957947883042,0,FALSE,2.335275699665
"CAN","cpi",0.2,1962,3,1961,NA,1.5,-0.859185547634851,0.859185547634851,1.04957947883042,0,FALSE,2.19435592325861
"CAN","cpi",0.2,1963,3,1963,NA,0,1.795237947884,1.86526113766296,1.60677118395228,1.83024954277348,FALSE,0.541190099608246
"CAN","cpi",0.2,1963,3,1963,NA,0.5,0.641389524936085,1.03226790429892,1.60677118395228,0.836828714617504,FALSE,1.82713657849624
"CAN","cpi",0.2,1963,3,1962,NA,1,1.23995565905813,1.97874635484839,1.60677118395228,1.60935100695326,TRUE,0.738790695790265
"CAN","cpi",0.2,1963,3,1962,NA,1.5,-0.435887906376173,0.435887906376173,1.60677118395228,0,FALSE,3.79898400669262
"CAN","cpi",0.2,1964,3,1964,NA,0,1.91290932454739,1.9909836443131,1.88764670034376,1.95194648443024,FALSE,0.141230880274782
"CAN","cpi",0.2,1964,3,1964,NA,0.5,1.15674748457338,1.38940885229458,1.88764670034376,1.27307816843398,FALSE,1.47825598784415
"CAN","cpi",0.2,1964,3,1963,NA,1,2.94237887384777,3.46106777890239,1.88764670034376,3.20172332637508,FALSE,3.15551933881465
"CAN","cpi",0.2,1964,3,1963,NA,1.5,-0.334385315244812,0.334385315244812,1.88764670034376,0,FALSE,4.55192409323699
"CAN","cpi",0.2,1965,3,1965,NA,0,2.25878114500792,2.33722264438853,2.29538304394236,2.29800189469823,TRUE,0.0784414993806122
"CAN","cpi",0.2,1965,3,1965,NA,0.5,1.27747284728657,1.51139151784995,2.29538304394236,1.39443218256826,FALSE,2.1938974857944
"CAN","cpi",0.2,1965,3,1964,NA,1,1.23050549125018,1.73106186953879,2.29538304394236,1.48078368039448,FALSE,1.91135931429753
"CAN","cpi",0.2,1965,3,1964,NA,1.5,0.0429792103891538,0.543535588677768,2.29538304394236,0.293257399533461,FALSE,4.88017501645009
"CAN","cpi",0.2,1966,3,1966,NA,0,3.73852734539755,3.81169801949938,3.72486065470629,3.77511268244847,FALSE,0.107337400829987
"CAN","cpi",0.2,1966,3,1966,NA,0.5,3.26008592234755,3.49478847222088,3.72486065470629,3.37743719728421,FALSE,0.809883006086856
"CAN","cpi",0.2,1966,3,1965,NA,1,1.73461158901896,2.23512787387192,3.72486065470629,1.98486973144544,FALSE,4.22484823693888
"CAN","cpi",0.2,1966,3,1965,NA,1.5,0.328382691574557,0.828898976427518,3.72486065470629,0.578640834001038,FALSE,7.74042048054989
"CAN","cpi",0.2,1967,3,1967,NA,0,3.64755846366781,3.71995695062436,3.49360316391996,3.68375770714608,FALSE,0.457286736326171
"CAN","cpi",0.2,1967,3,1967,NA,0.5,1.98848101980255,2.23261314116262,3.49360316391996,2.11054708048259,FALSE,3.39660717825342
"CAN","cpi",0.2,1967,3,1966,NA,1,1.76729138266928,2.27277476800075,3.49360316391996,2.02003307533501,FALSE,3.5575543751295
"CAN","cpi",0.2,1967,3,1966,NA,1.5,1.46284367113099,1.96832705646246,3.49360316391996,1.71558536379673,FALSE,4.31867365397521
"CAN","cpi",0.2,1968,3,1968,NA,0,4.03328720417915,4.108427152208,3.95128347779386,4.07085717819357,FALSE,0.28014926399208
"CAN","cpi",0.2,1968,3,1968,NA,0.5,3.40671865415668,3.60792601137335,3.95128347779386,3.50732233276501,FALSE,1.05960102326794
"CAN","cpi",0.2,1968,3,1967,NA,1,3.40229027695247,3.92378330908137,3.95128347779386,3.66303679301692,FALSE,0.590243453910114
"CAN","cpi",0.2,1968,3,1967,NA,1.5,0.574135002980603,1.0956280351095,3.95128347779386,0.834881519045053,FALSE,7.66063163883979
"CAN","cpi",0.2,1969,3,1969,NA,0,4.48757486663439,4.56307793353067,4.42679496126681,4.52532640008253,FALSE,0.227452830315221
"CAN","cpi",0.2,1969,3,1969,NA,0.5,2.5946543215277,2.78715809416592,4.42679496126681,2.69090620784681,FALSE,4.29159594039045
"CAN","cpi",0.2,1969,3,1968,NA,1,3.8523123404202,4.3035663148476,4.42679496126681,4.0779393276339,FALSE,0.759325590475437
"CAN","cpi",0.2,1969,3,1968,NA,1.5,1.38659172614088,1.83784570056829,4.42679496126681,1.61221871335458,FALSE,6.92362712617373
"CAN","cpi",0.2,1970,3,1970,NA,0,3.52289326639452,3.59467884232506,3.28128405769805,3.55878605435979,FALSE,0.675808597671723
"CAN","cpi",0.2,1970,3,1970,NA,0.5,3.62752316236995,3.87186238570013,3.28128405769805,3.74969277403504,FALSE,1.10993698500994
"CAN","cpi",0.2,1970,3,1969,NA,1,2.88413946316795,3.33959270248421,3.28128405769805,3.11186608282608,TRUE,0.455453239316257
"CAN","cpi",0.2,1970,3,1969,NA,1.5,0.537215357601509,0.992668596917766,3.28128405769805,0.764941977259638,FALSE,6.17699189126696
"CAN","cpi",0.2,1971,3,1971,NA,0,2.77526089912271,2.85503016665471,2.64123406634756,2.81514553288871,FALSE,0.414836349469873
"CAN","cpi",0.2,1971,3,1971,NA,0.5,0.961497215141789,1.27197740018864,2.64123406634756,1.11673730766521,FALSE,3.73362185044416
"CAN","cpi",0.2,1971,3,1970,NA,1,1.70967315980792,2.13119584939998,2.64123406634756,1.92043450460395,FALSE,1.69661823196102
"CAN","cpi",0.2,1971,3,1970,NA,1.5,1.49117940720998,1.91270209680205,2.64123406634756,1.70194075200601,FALSE,2.24285261345585
"CAN","cpi",0.2,1972,3,1972,NA,0,5.02427624699028,5.07229899612919,4.83230569625923,5.04828762155974,FALSE,0.527949125966539
"CAN","cpi",0.2,1972,3,1972,NA,0.5,3.92785094726485,4.2641967599295,4.83230569625923,4.09602385359717,FALSE,1.75661815348898
"CAN","cpi",0.2,1972,3,1971,NA,1,3.9641027303742,4.37213950230012,4.83230569625923,4.16812111633716,FALSE,1.55845225682369
"CAN","cpi",0.2,1972,3,1971,NA,1.5,0.488011619388126,0.896048391314053,4.83230569625923,0.692030005351089,FALSE,10.2486800342889
"CAN","cpi",0.2,1973,3,1973,NA,0,7.22767584211914,7.27424680242051,7.12388603531779,7.25096132226983,FALSE,0.306045477304746
"CAN","cpi",0.2,1973,3,1973,NA,0.5,5.14853581314606,5.46038453265557,7.12388603531779,5.30446017290082,FALSE,4.47060247616506
"CAN","cpi",0.2,1973,3,1972,NA,1,4.71594557126956,5.12957514457575,7.12388603531779,4.92276035792265,FALSE,5.39940680016129
"CAN","cpi",0.2,1973,3,1972,NA,1.5,1.54495509220504,2.03880248927903,7.12388603531779,1.79187879074203,FALSE,13.2065562621709
"CAN","cpi",0.2,1974,3,1974,NA,0,10.1276729484365,10.1701494718655,10.2717243737774,10.148911210151,FALSE,0.296413778208803
"CAN","cpi",0.2,1974,3,1974,NA,0.5,7.73119010080367,8.07773568409732,10.2717243737774,7.90446289245049,FALSE,5.8315173074939
"CAN","cpi",0.2,1974,3,1973,NA,1,7.06387564088926,7.54564629424292,10.2717243737774,7.30476096756609,FALSE,7.29696585218991
"CAN","cpi",0.2,1974,3,1973,NA,1.5,2.24891246430024,2.88374572737357,10.2717243737774,2.5663290958369,FALSE,19.104779879083
"CAN","cpi",0.2,1975,3,1975,NA,0,10.1467096845902,10.2026045361684,10.0232981493341,10.1746571103793,FALSE,0.364423689718331
"CAN","cpi",0.2,1975,3,1975,NA,0.5,7.86557050610848,8.27747563218081,10.0232981493341,8.07152306914465,FALSE,4.7764614189556
"CAN","cpi",0.2,1975,3,1974,NA,1,7.52763809963271,8.10991757175009,10.0232981493341,7.8187778356914,FALSE,5.36573091607745
"CAN","cpi",0.2,1975,3,1974,NA,1.5,3.16418918882364,4.13409630518508,10.0232981493341,3.64914274700436,FALSE,15.692911726734
"CAN","cpi",0.2,1976,3,1976,NA,0,7.16210323283968,7.21779962803642,7.22784311401172,7.18995143043805,FALSE,0.0808051101349818
"CAN","cpi",0.2,1976,3,1976,NA,0.5,6.39978725146091,6.82688003424525,7.22784311401172,6.61333364285308,FALSE,1.42950048220051
"CAN","cpi",0.2,1976,3,1975,NA,1,8.3477291301049,8.82221302170109,7.22784311401172,8.584971075903,FALSE,3.27419893182915
"CAN","cpi",0.2,1976,3,1975,NA,1.5,2.6219194348146,3.67285196509721,7.22784311401172,3.14738569995591,FALSE,9.93841040256887
"CAN","cpi",0.2,1977,3,1977,NA,0,7.47271011153583,7.53082877854309,7.58101410153764,7.50176944503946,FALSE,0.183581974493649
"CAN","cpi",0.2,1977,3,1977,NA,0.5,6.18885844715738,6.6225743293801,7.58101410153764,6.40571638826874,FALSE,2.82981531261658
"CAN","cpi",0.2,1977,3,1976,NA,1,3.73999361783764,4.35819210370264,7.58101410153764,4.04909286077014,FALSE,8.67525348045251
"CAN","cpi",0.2,1977,3,1976,NA,1.5,2.08634509996526,3.10230985458458,7.58101410153764,2.59432747727492,FALSE,12.212725372002
"CAN","cpi",0.2,1978,3,1978,NA,0,8.55869575057443,8.62340119710855,8.50208927062595,8.59104847384149,FALSE,0.206221646405337
"CAN","cpi",0.2,1978,3,1978,NA,0.5,7.1345356551871,7.54774251948279,8.50208927062595,7.34113908733495,FALSE,2.79907374215358
"CAN","cpi",0.2,1978,3,1977,NA,1,5.51789013177127,6.24016723859175,8.50208927062595,5.87902868518151,FALSE,6.37708218690597
"CAN","cpi",0.2,1978,3,1977,NA,1.5,3.38101945634789,4.4048502604964,8.50208927062595,3.89293485842214,FALSE,11.2669283294724
"CAN","cpi",0.2,1979,3,1979,NA,0,8.45503383325354,8.51799436962199,8.65147652410481,8.48651410143776,FALSE,0.396665922575506
"CAN","cpi",0.2,1979,3,1979,NA,0.5,7.25577876233433,7.66795617896313,8.65147652410481,7.46186747064873,FALSE,2.870978279483
"CAN","cpi",0.2,1979,3,1978,NA,1,6.55983137223203,7.31388979536134,8.65147652410481,6.93686058379669,FALSE,4.09802524498799
"CAN","cpi",0.2,1979,3,1978,NA,1.5,3.43965338787244,4.39628865307316,8.65147652410481,3.9179710204728,FALSE,11.5946049427799
"CAN","cpi",0.2,1980,3,1980,NA,0,9.40019231149047,9.4740302516139,9.5171912664748,9.43711128155219,FALSE,0.181740477275671
"CAN","cpi",0.2,1980,3,1980,NA,0.5,7.69497032623823,8.08791120347879,9.5171912664748,7.89144076485851,FALSE,3.96614103473058
"CAN","cpi",0.2,1980,3,1979,NA,1,5.32591888450756,6.0618370097285,9.5171912664748,5.69387794711803,FALSE,9.37430376708667
"CAN","cpi",0.2,1980,3,1979,NA,1.5,3.8021292141946,4.74185175094015,9.5171912664748,4.27199048256738,FALSE,12.8780713255822
"CAN","cpi",0.2,1981,3,1981,NA,0,11.5791321046683,11.6559454136398,11.5813425032741,11.617538759154,TRUE,0.0768133089714809
"CAN","cpi",0.2,1981,3,1981,NA,0.5,11.1089111006547,11.4987407195268,11.5813425032741,11.3038259100907,FALSE,0.596334078240554
"CAN","cpi",0.2,1981,3,1980,NA,1,7.83251860372043,8.62593084808846,11.5813425032741,8.22922472590444,FALSE,8.18194138233223
"CAN","cpi",0.2,1981,3,1980,NA,1.5,4.09403484387563,5.00233250705679,11.5813425032741,4.54818367546621,FALSE,17.3558226537245
"CAN","cpi",0.2,1982,3,1982,NA,0,10.1530796690237,10.219714755646,10.1124203763629,10.1863972123348,FALSE,0.168283318274177
"CAN","cpi",0.2,1982,3,1982,NA,0.5,9.22254017619834,9.53769162716094,10.1124203763629,9.38011590167964,FALSE,1.75197332396762
"CAN","cpi",0.2,1982,3,1981,NA,1,8.53806052221104,9.31743866784305,10.1124203763629,8.92774959502704,FALSE,2.76683241693175
"CAN","cpi",0.2,1982,3,1981,NA,1.5,7.20505104442948,8.10871017439965,10.1124203763629,7.65688060941457,FALSE,5.91293463487841
"CAN","cpi",0.2,1983,3,1983,NA,0,5.7609902898941,5.82363870884822,5.67091787896303,5.79231449937116,FALSE,0.287829446281787
"CAN","cpi",0.2,1983,3,1983,NA,0.5,4.32705557274958,4.65165416226119,5.67091787896303,4.48935486750539,FALSE,2.87275788126622
"CAN","cpi",0.2,1983,3,1982,NA,1,6.30716404338943,7.06005282986239,5.67091787896303,6.68360843662591,FALSE,2.34350419753895
"CAN","cpi",0.2,1983,3,1982,NA,1.5,5.4284849702078,6.18137375668076,5.67091787896303,5.80492936344428,TRUE,0.752888786472964
"CAN","cpi",0.2,1984,3,1984,NA,0,4.15816292834505,4.21452554724376,4.19799576814029,4.1863442377944,TRUE,0.0563626188987119
"CAN","cpi",0.2,1984,3,1984,NA,0.5,4.21680336319272,4.53057501751157,4.19799576814029,4.37368919035215,FALSE,0.360790641949935
"CAN","cpi",0.2,1984,3,1983,NA,1,4.38683775129992,5.26364196596687,4.19799576814029,4.8252398586334,FALSE,1.34890917256603
"CAN","cpi",0.2,1984,3,1983,NA,1.5,1.0883929254734,2.18464407642868,4.19799576814029,1.63651850095104,FALSE,6.12963038023431
"CAN","cpi",0.2,1985,3,1985,NA,0,3.84845796905121,3.90132129921836,3.86444262005169,3.87488963413478,TRUE,0.0528633301671499
"CAN","cpi",0.2,1985,3,1985,NA,0.5,3.48498812002592,3.85410108333956,3.86444262005169,3.66954460168274,FALSE,0.39496680509397
"CAN","cpi",0.2,1985,3,1984,NA,1,2.03902934537136,2.99618893915925,3.86444262005169,2.51760914226531,FALSE,3.12779379601899
"CAN","cpi",0.2,1985,3,1984,NA,1.5,2.17452742379432,3.31485103626139,3.86444262005169,2.74468923002786,FALSE,2.51430257194283
"CAN","cpi",0.2,1986,3,1986,NA,0,4.06568047325725,4.1145071471583,4.08685396749431,4.09009381020777,TRUE,0.0488266739010506
"CAN","cpi",0.2,1986,3,1986,NA,0.5,4.02662827977925,4.35072659326133,4.08685396749431,4.18867743652029,TRUE,0.324098313482082
"CAN","cpi",0.2,1986,3,1985,NA,1,2.49715509233455,3.42977564155817,4.08685396749431,2.96346536694636,FALSE,2.57531636406398
"CAN","cpi",0.2,1986,3,1985,NA,1.5,2.10118308341187,3.21172720663261,4.08685396749431,2.65645514502224,FALSE,3.298361025375
"CAN","cpi",0.2,1987,3,1987,NA,0,4.28249703956155,4.32515793882635,4.23980729277887,4.30382748919395,FALSE,0.149385266221492
"CAN","cpi",0.2,1987,3,1987,NA,0.5,3.45510541537818,3.75979547181295,4.23980729277887,3.60745044359556,FALSE,1.50471960884958
"CAN","cpi",0.2,1987,3,1986,NA,1,3.02602897380714,3.95305891171414,4.23980729277887,3.48954394276064,FALSE,1.64390089056883
"CAN","cpi",0.2,1987,3,1986,NA,1.5,2.50759328450888,3.59363901194517,4.23980729277887,3.05061614822702,FALSE,2.70146642952055
"CAN","cpi",0.2,1988,3,1988,NA,0,3.94481568669234,3.98820833080703,3.92899537638065,3.96651200874969,FALSE,0.0829434198939105
"CAN","cpi",0.2,1988,3,1988,NA,0.5,3.1236094710342,3.42815922023011,3.92899537638065,3.27588434563216,FALSE,1.55664013957227
"CAN","cpi",0.2,1988,3,1987,NA,1,2.95885029045458,3.77230677431085,3.92899537638065,3.36557853238272,FALSE,1.20517798903078
"CAN","cpi",0.2,1988,3,1987,NA,1.5,1.66248856011332,2.79532475965655,3.92899537638065,2.22890665988493,FALSE,3.96701274135349
"CAN","cpi",0.2,1989,3,1989,NA,0,4.94167390359978,4.98280854130257,4.82821664544208,4.96224122245117,FALSE,0.324777783097046
"CAN","cpi",0.2,1989,3,1989,NA,0.5,4.00511832671659,4.29980530853696,4.82821664544208,4.15246181762677,FALSE,1.61571532408316
"CAN","cpi",0.2,1989,3,1988,NA,1,2.97120334364654,3.73003219183316,4.82821664544208,3.35061776773985,FALSE,3.50428998220891
"CAN","cpi",0.2,1989,3,1988,NA,1.5,1.47742113036791,2.58844308234867,4.82821664544208,2.03293210635829,FALSE,6.71045585971428
"CAN","cpi",0.2,1990,3,1990,NA,0,4.46932903306649,4.51300561610159,4.64347549432717,4.49116732458404,FALSE,0.369851278599046
"CAN","cpi",0.2,1990,3,1990,NA,0.5,4.66483737546204,4.94786530254079,4.64347549432717,4.80635133900141,FALSE,0.336432629915921
"CAN","cpi",0.2,1990,3,1989,NA,1,4.08880103334111,4.81785757718292,4.64347549432717,4.45332930526201,TRUE,0.729056543841812
"CAN","cpi",0.2,1990,3,1989,NA,1.5,2.40320562527439,3.47667724066424,4.64347549432717,2.93994143296931,FALSE,3.99046724954718
"CAN","cpi",0.2,1991,3,1991,NA,0,5.57548169674352,5.61780137350269,5.4258100696218,5.5966415351231,FALSE,0.416498744563482
"CAN","cpi",0.2,1991,3,1991,NA,0.5,7.89784596873514,8.18707491157646,5.4258100696218,8.0424604401558,FALSE,6.46931869062467
"CAN","cpi",0.2,1991,3,1990,NA,1,2.63718644385306,3.3781412639444,5.4258100696218,3.00766385389873,FALSE,5.86012683428484
"CAN","cpi",0.2,1991,3,1990,NA,1.5,2.91072679741739,3.93849965760135,5.4258100696218,3.42461322750937,FALSE,4.74604889023508
"CAN","cpi",0.2,1992,3,1992,NA,0,1.4390962591206,1.48326975987171,1.47496888572843,1.46118300949616,TRUE,0.0441735007511093
"CAN","cpi",0.2,1992,3,1992,NA,0.5,0.983437296363775,1.49249905480562,1.47496888572843,1.2379681755847,TRUE,0.509061758441847
"CAN","cpi",0.2,1992,3,1991,NA,1,1.55647403650045,2.18819902179175,1.47496888572843,1.8723365291461,FALSE,0.835487862221345
"CAN","cpi",0.2,1992,3,1991,NA,1.5,6.44146194568823,7.35721199109052,1.47496888572843,6.89933696838937,FALSE,13.3319826953018
"CAN","cpi",0.2,1993,3,1993,NA,0,1.77967516724145,1.82473618387661,1.84351085411351,1.80220567555903,FALSE,0.0919976922274121
"CAN","cpi",0.2,1993,3,1993,NA,0.5,1.9637990044207,2.47257096016621,1.84351085411351,2.21818498229346,FALSE,0.809492331513482
"CAN","cpi",0.2,1993,3,1992,NA,1,1.09210479569552,1.61198118806688,1.84351085411351,1.3520429918812,FALSE,1.09870055748794
"CAN","cpi",0.2,1993,3,1992,NA,1.5,0.352735720400893,1.51423525427283,1.84351085411351,0.933485487336859,FALSE,1.98468853347365
"CAN","cpi",0.2,1994,3,1994,NA,0,0.178988657592017,0.225230657382366,0.161630694655448,0.202109657487191,FALSE,0.0896369071317722
"CAN","cpi",0.2,1994,3,1994,NA,0.5,-0.823778973107121,-0.321500441818433,0.161630694655448,-0.572639707462777,FALSE,1.71010637247339
"CAN","cpi",0.2,1994,3,1993,NA,1,0.885163031861742,1.39704762967497,0.161630694655448,1.14110533076836,FALSE,2.32071544082897
"CAN","cpi",0.2,1994,3,1993,NA,1.5,1.08186121256048,2.21860803335798,0.161630694655448,1.65023462295923,FALSE,3.43732311556008
"CAN","cpi",0.2,1995,3,1995,NA,0,2.1266690999282,2.17035589031808,2.11688403676572,2.14851249512314,FALSE,0.068149448296084
"CAN","cpi",0.2,1995,3,1995,NA,0.5,2.36087326913902,2.84057559704583,2.11688403676572,2.60072443309243,FALSE,1.08967540884008
"CAN","cpi",0.2,1995,3,1994,NA,1,1.17911066048102,1.6883687923628,2.11688403676572,1.43373972642191,FALSE,1.58054624288906
"CAN","cpi",0.2,1995,3,1994,NA,1.5,-1.85912289171487,-0.673103776776679,2.11688403676572,-1.26611333424577,FALSE,8.16098864879417
"CAN","cpi",0.2,1996,3,1996,NA,0,1.41498723917089,1.45831816932988,1.55309584667184,1.43665270425039,FALSE,0.280275123513899
"CAN","cpi",0.2,1996,3,1996,NA,0.5,0.994841034912655,1.47068557238808,1.55309584667184,1.23276330365037,FALSE,0.681870223184832
"CAN","cpi",0.2,1996,3,1995,NA,1,0.491830990656201,0.967675528131627,1.55309584667184,0.729753259393914,FALSE,1.93939533382597
"CAN","cpi",0.2,1996,3,1995,NA,1.5,1.70711367642773,2.93098310730314,1.55309584667184,2.31904839186543,FALSE,1.60891400526513
"CAN","cpi",0.2,1997,3,1997,NA,0,1.65523584020691,1.703753734265,1.60528783555959,1.67949478723595,FALSE,0.173387905676383
"CAN","cpi",0.2,1997,3,1997,NA,0.5,1.69748748832327,2.16835235364487,1.60528783555959,1.93291992098407,FALSE,0.701363997230796
"CAN","cpi",0.2,1997,3,1996,NA,1,0.379198018960155,0.850062884281754,1.60528783555959,0.614630451620954,FALSE,2.35892724351619
"CAN","cpi",0.2,1997,3,1996,NA,1.5,0.338771116115339,1.58555201228241,1.60528783555959,0.962161564198873,FALSE,1.29612045436003
"CAN","cpi",0.2,1998,3,1998,NA,0,0.942410930771349,0.991716430004235,0.988908029337191,0.967063680387792,TRUE,0.0493054992328863
"CAN","cpi",0.2,1998,3,1998,NA,0.5,1.11384246607424,1.5841067312525,0.988908029337191,1.34897459866337,FALSE,0.782600357020876
"CAN","cpi",0.2,1998,3,1997,NA,1,0.557557826656998,1.02782209183526,0.988908029337191,0.792689959246129,TRUE,0.470264265178261
"CAN","cpi",0.2,1998,3,1997,NA,1.5,0.663673864132597,1.90400614340633,0.988908029337191,1.28384000376946,TRUE,1.24033227927373
"CAN","cpi",0.2,1999,3,1999,NA,0,1.744087323533,1.79320535435908,1.7107350135213,1.76864633894604,FALSE,0.132498805855338
"CAN","cpi",0.2,1999,3,1999,NA,0.5,0.499132486579511,0.96506693462155,1.7107350135213,0.732099710600531,FALSE,2.3301046452914
"CAN","cpi",0.2,1999,3,1998,NA,1,0.13608534793861,0.602019795980649,1.7107350135213,0.369052571959629,FALSE,3.23772249189366
"CAN","cpi",0.2,1999,3,1998,NA,1.5,0.646928587269206,1.89001155319338,1.7107350135213,1.26847007023129,TRUE,1.24308296592418
"CAN","cpi",0.2,2000,3,2000,NA,0,2.67783965802793,2.72731655545276,2.6718361971244,2.70257810674034,FALSE,0.0644855496836536
"CAN","cpi",0.2,2000,3,2000,NA,0.5,1.71882808541938,2.20013803219814,2.6718361971244,1.95948305880876,FALSE,1.66055535909441
"CAN","cpi",0.2,2000,3,1999,NA,1,1.9208916464706,2.40220159324937,2.6718361971244,2.16154661985999,FALSE,1.15539645646634
"CAN","cpi",0.2,2000,3,1999,NA,1.5,-0.110137418130525,1.11570517425805,2.6718361971244,0.50278387806376,FALSE,5.11617014955446
"CAN","cpi",0.2,2001,3,2001,NA,0,2.70882471011157,2.75426627761017,2.47906219852806,2.73154549386087,FALSE,0.619847846457367
"CAN","cpi",0.2,2001,3,2001,NA,0.5,1.42269870540575,1.89453785987276,2.47906219852806,1.65861828263926,FALSE,1.93315000110526
"CAN","cpi",0.2,2001,3,2000,NA,1,2.60541938065636,3.07725853512337,2.47906219852806,2.84133895788986,FALSE,0.787732109787751
"CAN","cpi",0.2,2001,3,2000,NA,1.5,0.543295757978923,1.74053133098046,2.47906219852806,1.14191354447969,FALSE,3.04356274187055
"CAN","cpi",0.2,2002,3,2002,NA,0,2.28728124851369,2.33836930079038,2.20880570551249,2.31282527465204,FALSE,0.247276909779702
"CAN","cpi",0.2,2002,3,2002,NA,0.5,1.00144686915938,1.49319210352248,2.20880570551249,1.24731948634093,FALSE,2.28077923933812
"CAN","cpi",0.2,2002,3,2001,NA,1,0.449618923705328,0.941364158068422,2.20880570551249,0.695491540886875,FALSE,3.66034910297325
"CAN","cpi",0.2,2002,3,2001,NA,1.5,-0.117669017889201,1.06979225553188,2.20880570551249,0.47606161882134,FALSE,4.0349948983726
"CAN","cpi",0.2,2003,3,2003,NA,0,2.73076542631467,2.77844251924182,2.71189071546809,2.75460397277825,FALSE,0.0948638700436095
"CAN","cpi",0.2,2003,3,2003,NA,0.5,4.01258151402774,4.30935790182079,2.71189071546809,4.16096970792426,FALSE,3.54850338419217
"CAN","cpi",0.2,2003,3,2002,NA,1,3.08330278572354,3.47253537804587,2.71189071546809,3.27791908188471,FALSE,1.31776276796096
"CAN","cpi",0.2,2003,3,2002,NA,1.5,0.929273396405331,2.10732685873268,2.71189071546809,1.51830012756901,FALSE,2.68946310416587
"CAN","cpi",0.2,2004,3,2004,NA,0,1.73806497899858,1.78499709904019,1.83151661303942,1.76153103901938,FALSE,0.163230905039697
"CAN","cpi",0.2,2004,3,2004,NA,0.5,1.18993177577589,1.58898031383554,1.83151661303942,1.38945604480572,FALSE,1.00538928606935
"CAN","cpi",0.2,2004,3,2003,NA,1,0.819124663652403,1.21836771953954,1.83151661303942,1.01874619159597,FALSE,1.93211528963684
"CAN","cpi",0.2,2004,3,2003,NA,1.5,2.6428164519421,3.33929073014611,1.83151661303942,2.99105359104411,FALSE,2.72472387546071
"CAN","cpi",0.2,2005,3,2005,NA,0,2.32641989424824,2.3748297285981,2.18071628336509,2.35062481142317,FALSE,0.412668861557727
"CAN","cpi",0.2,2005,3,2005,NA,0.5,1.25954523782913,1.65102220463148,2.18071628336509,1.4552837212303,FALSE,1.71571216363639
"CAN","cpi",0.2,2005,3,2004,NA,1,0.594651315213206,0.998322108834335,2.18071628336509,0.79648671202377,FALSE,3.35965622994802
"CAN","cpi",0.2,2005,3,2004,NA,1.5,0.756740694417095,1.51687833259885,2.18071628336509,1.13680951350797,FALSE,2.41973251509736
"CAN","cpi",0.2,2006,3,2006,NA,0,2.03827833311123,2.0906825133758,1.97519342012289,2.06448042324351,FALSE,0.210116462735426
"CAN","cpi",0.2,2006,3,2006,NA,0.5,1.58644270804431,1.95502357435979,1.97519342012289,1.77073314120205,FALSE,0.419005480723212
"CAN","cpi",0.2,2006,3,2005,NA,1,2.40379161403167,2.77237248034715,1.97519342012289,2.58808204718941,FALSE,1.44007635108744
"CAN","cpi",0.2,2006,3,2005,NA,1.5,0.427073258873155,1.0970772789603,1.97519342012289,0.762075268916728,FALSE,2.86529437299361
"CAN","cpi",0.2,2007,3,2007,NA,0,2.08176768805801,2.13437912210154,2.10062087284572,2.10807340507977,TRUE,0.0526114340435289
"CAN","cpi",0.2,2007,3,2007,NA,0.5,1.91088220902759,2.28432321946591,2.10062087284572,2.09760271424675,TRUE,0.373441010438317
"CAN","cpi",0.2,2007,3,2006,NA,1,0.240257030883396,0.637467886364348,2.10062087284572,0.438862458623872,FALSE,4.05509332168439
"CAN","cpi",0.2,2007,3,2006,NA,1.5,0.816143046082403,1.34564090942209,2.10062087284572,1.08089197775225,FALSE,2.41694777189876
"CAN","cpi",0.2,2008,3,2008,NA,0,2.89213463652861,2.93720043109479,2.31447335265955,2.9146675338117,FALSE,1.48921900423882
"CAN","cpi",0.2,2008,3,2008,NA,0.5,0.857827890294937,1.23342701414037,2.31447335265955,1.04562745221765,FALSE,3.07821497014339
"CAN","cpi",0.2,2008,3,2007,NA,1,0.149377791212387,0.580682569559959,2.31447335265955,0.365030180386173,FALSE,4.76578173609655
"CAN","cpi",0.2,2008,3,2007,NA,1.5,1.80570760485366,2.27644018418903,2.31447335265955,2.04107389452134,FALSE,0.565815500511679
"CAN","cpi",0.2,2009,3,2009,NA,0,0.226027227444017,0.319210444988841,0.284533874408197,0.272618836216429,TRUE,0.0931832175448246
"CAN","cpi",0.2,2009,3,2009,NA,0.5,-1.00332181793603,-0.611530859100044,0.284533874408197,-0.807426338518035,FALSE,2.63195279260659
"CAN","cpi",0.2,2009,3,2008,NA,1,3.04612012618642,3.52099376911328,0.284533874408197,3.28355694764985,FALSE,7.37883927237243
"CAN","cpi",0.2,2009,3,2008,NA,1.5,0.464269127877661,0.942484782600164,0.284533874408197,0.703376955238912,FALSE,0.927553788396162
"CAN","cpi",0.2,2010,3,2010,NA,0,1.68066985477848,1.77349087323499,1.75525687020327,1.72708036400674,TRUE,0.0928210184565095
"CAN","cpi",0.2,2010,3,2010,NA,0.5,1.23094727343455,1.61391805052876,1.75525687020327,1.42243266198166,FALSE,0.736317826280482
"CAN","cpi",0.2,2010,3,2009,NA,1,0.209221086677834,0.822437787481082,1.75525687020327,0.515829437079458,FALSE,2.94526440760872
"CAN","cpi",0.2,2010,3,2009,NA,1.5,-0.973007982408417,-0.359791281605169,1.75525687020327,-0.666399632006793,FALSE,5.90083708032435
"CAN","cpi",0.2,2011,3,2011,NA,0,2.78116065862818,2.87626171593878,2.85717434028225,2.82871118728348,TRUE,0.0951010573105986
"CAN","cpi",0.2,2011,3,2011,NA,0.5,2.40509923456941,2.78101368433144,2.85717434028225,2.59305645945043,FALSE,0.566316089639039
"CAN","cpi",0.2,2011,3,2010,NA,1,1.26278756976634,1.90110941647655,2.85717434028225,1.58194849312145,FALSE,3.02848415622444
"CAN","cpi",0.2,2011,3,2010,NA,1.5,0.689501394222134,1.32782324093235,2.85717434028225,1.00866231757724,FALSE,4.46169959508496
"CAN","cpi",0.2,2012,3,2012,NA,0,1.41844257607799,1.51519245282956,1.50118536134935,1.46681751445377,TRUE,0.0967498767515673
"CAN","cpi",0.2,2012,3,2012,NA,0.5,1.45137912103267,1.82595282018244,1.50118536134935,1.63866597060755,TRUE,0.374573699149767
"CAN","cpi",0.2,2012,3,2011,NA,1,0.53015811899403,1.16632297898083,1.50118536134935,0.848240548987433,FALSE,1.47332081590808
"CAN","cpi",0.2,2012,3,2011,NA,1.5,1.36576056189174,2.00192542187855,1.50118536134935,1.68384299188515,TRUE,0.636164859986804
"CAN","cpi",0.2,2013,3,2013,NA,0,0.98320783036717,1.07845447791538,0.931270594714462,1.03083115414128,FALSE,0.225089736679986
"CAN","cpi",0.2,2013,3,2013,NA,0.5,0.813273918683494,1.19040734524702,0.931270594714462,1.00184063196526,TRUE,0.377133426563529
"CAN","cpi",0.2,2013,3,2012,NA,1,-0.592908780447189,0.0478167987024166,0.931270594714462,-0.272545990872386,FALSE,2.84936006917972
"CAN","cpi",0.2,2013,3,2012,NA,1.5,0.638246014561268,1.27897159371087,0.931270594714462,0.958608804136071,TRUE,0.640725579149605
"CAN","cpi",0.2,2014,3,2014,NA,0,1.93852482962336,2.03374074059067,1.87639912240215,1.98613278510701,FALSE,0.250530179020336
"CAN","cpi",0.2,2014,3,2014,NA,0.5,1.76920941427803,2.135268288198,1.87639912240215,1.95223885123801,TRUE,0.366058873919969
"CAN","cpi",0.2,2014,3,2013,NA,1,0.372885119936289,1.0044322546314,1.87639912240215,0.688658687283847,FALSE,2.81146430412198
"CAN","cpi",0.2,2014,3,2013,NA,1.5,0.575820632536944,1.20736776723206,1.87639912240215,0.891594199884501,FALSE,2.30412552262034
"CAN","cpi",0.2,2015,3,2015,NA,0,1.19883639296245,1.29400093458263,1.11090953952792,1.24641866377254,FALSE,0.31498167520651
"CAN","cpi",0.2,2015,3,2015,NA,0.5,0.0769939677893494,0.319240356390047,1.11090953952792,0.198117162089698,FALSE,2.22141934644537
"CAN","cpi",0.2,2015,3,2014,NA,1,0.222377125432743,0.84183501976079,1.11090953952792,0.532106072596766,FALSE,1.29214419374586
"CAN","cpi",0.2,2015,3,2014,NA,1.5,1.50063025518866,2.1200881495167,1.11090953952792,1.81035920235268,FALSE,1.59375968347989
"CAN","cpi",0.2,2016,3,2016,NA,0,1.39592298931132,1.48777615858046,1.41168586698797,1.44184957394589,TRUE,0.0918531692691422
"CAN","cpi",0.2,2016,3,2016,NA,0.5,0.71499514319565,0.971204951616594,1.41168586698797,0.843100047406122,FALSE,1.35741209684937
"CAN","cpi",0.2,2016,3,2015,NA,1,0.934260455029495,1.53543662037596,1.41168586698797,1.23484853770273,TRUE,0.601176165346468
"CAN","cpi",0.2,2016,3,2015,NA,1.5,-0.193125330495951,0.408050834850517,1.41168586698797,0.107462752177283,FALSE,3.11026374569009
"CAN","cpi",0.2,2017,3,2017,NA,0,1.47158207566683,1.56321643712664,1.57888581671161,1.51739925639673,FALSE,0.130807810422242
"CAN","cpi",0.2,2017,3,2017,NA,0.5,1.75552401137385,2.00788137418389,1.57888581671161,1.88170269277887,FALSE,0.693952849465642
"CAN","cpi",0.2,2017,3,2016,NA,1,0.117801424610228,0.71887526890026,1.57888581671161,0.418338346755244,FALSE,2.75110021381841
"CAN","cpi",0.2,2017,3,2016,NA,1.5,0.225039165192275,0.826113009482306,1.57888581671161,0.52557608733729,FALSE,2.48300586236329
"CAN","cpi",0.2,2018,3,2018,NA,0,2.35889578273061,2.45333178897249,2.23316270166586,2.40611378585155,FALSE,0.408768708903754
"CAN","cpi",0.2,2018,3,2018,NA,0.5,2.4854179635915,2.75872245289258,2.23316270166586,2.62207020824204,FALSE,0.903942644115182
"CAN","cpi",0.2,2018,3,2017,NA,1,0.110772824349347,0.697453376862993,2.23316270166586,0.40411310060617,FALSE,4.42595386452081
"CAN","cpi",0.2,2018,3,2017,NA,1.5,1.24453497089244,1.83121552340609,2.23316270166586,1.53787524714926,FALSE,1.59154849816307
"CAN","cpi",0.2,2019,3,2019,NA,0,1.96402411047184,2.05883268743063,1.91921619871868,2.01142839895124,FALSE,0.206828356341695
"CAN","cpi",0.2,2019,3,2019,NA,0.5,1.37282913614592,1.6648450246658,1.91921619871868,1.51883708040586,FALSE,0.927943823652079
"CAN","cpi",0.2,2019,3,2018,NA,1,1.12527276988213,1.71358691215484,1.91921619871868,1.41942984101848,FALSE,1.10238735868232
"CAN","cpi",0.2,2019,3,2018,NA,1.5,1.76689463976377,2.35520878203647,1.91921619871868,2.06105171090012,TRUE,0.588314142272704
"CAN","cpi",0.2,2020,3,2020,NA,0,0.705632855654346,0.746726849927803,0.71139989671781,0.726179852791075,TRUE,0.0410939942734572
"CAN","cpi",0.2,2020,3,2020,NA,0.5,0.949443185095022,1.19507571586603,0.71139989671781,1.07225945048052,FALSE,0.840740751714032
"CAN","cpi",0.2,2020,3,2019,NA,1,0.729461709457263,1.30881757709887,0.71139989671781,1.01913964327806,FALSE,0.624510399490235
"CAN","cpi",0.2,2020,3,2019,NA,1.5,0.93793851968438,1.51729438732598,0.71139989671781,1.22761645350518,FALSE,1.14570242505803
"CAN","cpi",0.2,2021,3,2021,NA,0,3.28970253646003,3.33007252735781,3.31148121717802,3.30988753190892,TRUE,0.0403699908977746
"CAN","cpi",0.2,2021,3,2021,NA,0.5,2.3829716192311,2.59683653809031,3.31148121717802,2.4899040786607,FALSE,2.0004766165785
"CAN","cpi",0.2,2021,3,2020,NA,1,1.04477748085921,1.351035928207,3.31148121717802,1.1979067045331,FALSE,5.20737166977535
"CAN","cpi",0.2,2021,3,2020,NA,1.5,0.414446225205375,0.92680739677593,3.31148121717802,0.670626810990653,FALSE,6.47404572257579
"CAN","cpi",0.2,2022,3,2022,NA,0,6.52590194316313,6.565213840414,6.50977236228281,6.54555789178856,FALSE,0.0796358494516607
"CAN","cpi",0.2,2022,3,2022,NA,0.5,5.84525345591963,6.08412651620443,6.50977236228281,5.96468998606203,FALSE,1.30298767548075
"CAN","cpi",0.2,2022,3,2021,NA,1,3.24181039182181,3.6002949046378,6.50977236228281,3.42105264822981,FALSE,7.63217815692851
"CAN","cpi",0.2,2022,3,2021,NA,1.5,1.66630666164902,2.19921865603022,6.50977236228281,1.93276265883962,FALSE,11.3092962600127
"CAN","cpi",0.2,2023,3,2023,NA,0,3.9532507573651,3.99052294752125,3.78831288758619,3.97188685244318,FALSE,0.44961686460342
"CAN","cpi",0.2,2023,3,2023,NA,0.5,2.71614104014497,2.96225916694762,3.78831288758619,2.8392001035463,FALSE,2.31125242839907
"CAN","cpi",0.2,2023,3,2022,NA,1,2.62583373477597,3.1118660950192,3.78831288758619,2.86884991489758,FALSE,2.17714934166071
"CAN","cpi",0.2,2023,3,2022,NA,1.5,3.63691038427558,4.42943456604261,3.78831288758619,4.03317247515909,TRUE,0.792524181767039
"CAN","cpi",0.2,2024,3,2023,NA,1,2.65881077143738,3.14012431214986,NA,2.89946754179362,NA,NA
"CAN","cpi",0.2,2024,3,2023,NA,1.5,0.782556082754236,1.57727695288878,NA,1.17991651782151,NA,NA
"CAN","cpi",0.3,1959,3,1959,NA,0,1.12942979647228,1.24966218655125,1.19382698397654,1.18954599151176,TRUE,0.120232390078968
"CAN","cpi",0.3,1959,3,1959,NA,0.5,0.143018566737328,0.947598087584521,1.19382698397654,0.545308327160925,FALSE,1.50809065339582
"CAN","cpi",0.3,1959,3,1958,NA,1,-0.132426058888766,2.39832834386969,1.19382698397654,1.13295114249046,TRUE,2.53075440275845
"CAN","cpi",0.3,1959,3,1958,NA,1.5,-1.20051944519328,2.63536362135186,1.19382698397654,0.717422088079289,TRUE,3.83588306654513
"CAN","cpi",0.3,1960,3,1960,NA,0,0.967709062424166,1.07951702276538,1.34209404870695,1.02361304259477,FALSE,0.862028034459993
"CAN","cpi",0.3,1960,3,1960,NA,0.5,0.263656023403217,1.0335659920241,1.34209404870695,0.648611007713657,FALSE,1.65141870200046
"CAN","cpi",0.3,1960,3,1959,NA,1,1.41834081369602,3.3349966500167,1.34209404870695,2.37666873185636,FALSE,2.13450373628945
"CAN","cpi",0.3,1960,3,1959,NA,1.5,-1.76560901347458,1.06742465434003,1.34209404870695,-0.349092179567277,FALSE,3.61780336600582
"CAN","cpi",0.3,1961,3,1961,NA,0,0.943887518600234,1.07453944327991,1.00921348094007,1.00921348094007,TRUE,0.130651924679674
"CAN","cpi",0.3,1961,3,1961,NA,0.5,0.626780223563329,1.39164673831681,1.00921348094007,1.00921348094007,TRUE,0.764866514753485
"CAN","cpi",0.3,1961,3,1960,NA,1,-0.832259001403588,0.939799926610654,1.00921348094007,0.0537704626035329,FALSE,1.97038336895544
"CAN","cpi",0.3,1961,3,1960,NA,1.5,-1.6382574965642,0.973624724251404,1.00921348094007,-0.332316386156399,FALSE,2.71356438278323
"CAN","cpi",0.3,1962,3,1962,NA,0,1.01222028256501,1.11853994253158,1.04957947883042,1.0653801125483,TRUE,0.106319659966574
"CAN","cpi",0.3,1962,3,1962,NA,0.5,-0.305470252972746,0.305470252972746,1.04957947883042,0,FALSE,2.73696686553883
"CAN","cpi",0.3,1962,3,1961,NA,1,-0.87809659257931,0.87809659257931,1.04957947883042,0,FALSE,2.24614428873321
"CAN","cpi",0.3,1962,3,1961,NA,1.5,-1.30675177196656,1.30675177196656,1.04957947883042,0,TRUE,2.61350354393313
"CAN","cpi",0.3,1963,3,1963,NA,0,1.77699973685303,1.88349934869392,1.60677118395228,1.83024954277348,FALSE,0.592866905843033
"CAN","cpi",0.3,1963,3,1963,NA,0.5,0.539581504010974,1.13407592522403,1.60677118395228,0.836828714617504,FALSE,1.94505230329377
"CAN","cpi",0.3,1963,3,1962,NA,1,1.0475305401787,2.17117147372782,1.60677118395228,1.60935100695326,TRUE,1.12364093354912
"CAN","cpi",0.3,1963,3,1962,NA,1.5,-0.662950273784092,0.662950273784092,1.60677118395228,0,FALSE,4.0225317194773
"CAN","cpi",0.3,1964,3,1964,NA,0,1.89257411953201,2.01131884932847,1.88764670034376,1.95194648443024,FALSE,0.132823070334327
"CAN","cpi",0.3,1964,3,1964,NA,0.5,1.09614860102286,1.4500077358451,1.88764670034376,1.27307816843398,FALSE,1.60425617624698
"CAN","cpi",0.3,1964,3,1963,NA,1,2.80728137629495,3.59616527645522,1.88764670034376,3.20172332637508,FALSE,3.41641154573509
"CAN","cpi",0.3,1964,3,1963,NA,1.5,-0.50857303689361,0.50857303689361,1.88764670034376,0,FALSE,4.95735654078765
"CAN","cpi",0.3,1965,3,1965,NA,0,2.23835030454201,2.35765348485445,2.29538304394236,2.29800189469823,TRUE,0.119303180312446
"CAN","cpi",0.3,1965,3,1965,NA,0.5,1.21654648715811,1.57231787797841,2.29538304394236,1.39443218256826,FALSE,2.42167186500301
"CAN","cpi",0.3,1965,3,1964,NA,1,1.10013078411474,1.86143657667423,2.29538304394236,1.48078368039448,FALSE,2.001152841897
"CAN","cpi",0.3,1965,3,1964,NA,1.5,-0.0873954967462857,0.673910295813208,2.29538304394236,0.293257399533461,FALSE,5.39408507292849
"CAN","cpi",0.3,1966,3,1966,NA,0,3.71946934190244,3.8307560229945,3.72486065470629,3.77511268244847,TRUE,0.111286681092063
"CAN","cpi",0.3,1966,3,1966,NA,0.5,3.19895539333842,3.55591900123001,3.72486065470629,3.37743719728421,FALSE,0.839654046395251
"CAN","cpi",0.3,1966,3,1965,NA,1,1.60424732460318,2.3654921382877,3.72486065470629,1.98486973144544,FALSE,4.64515486059477
"CAN","cpi",0.3,1966,3,1965,NA,1.5,0.198018427158776,0.9592632408433,3.72486065470629,0.578640834001038,FALSE,8.66295171043592
"CAN","cpi",0.3,1967,3,1967,NA,0,3.62870158371698,3.73881383057519,3.49360316391996,3.68375770714608,FALSE,0.496107731992548
"CAN","cpi",0.3,1967,3,1967,NA,0.5,1.92489446850639,2.29619969245879,3.49360316391996,2.11054708048259,FALSE,3.79245799955575
"CAN","cpi",0.3,1967,3,1966,NA,1,1.63563338931848,2.40443276135155,3.49360316391996,2.02003307533501,FALSE,3.88071480794282
"CAN","cpi",0.3,1967,3,1966,NA,1.5,1.3311856777802,2.09998504981326,3.49360316391996,1.71558536379673,FALSE,4.75056541233792
"CAN","cpi",0.3,1968,3,1968,NA,0,4.01371628441198,4.12799807197517,3.95128347779386,4.07085717819357,FALSE,0.292661235043535
"CAN","cpi",0.3,1968,3,1968,NA,0.5,3.35431226916503,3.660332396365,3.95128347779386,3.50732233276501,FALSE,1.13730893128242
"CAN","cpi",0.3,1968,3,1967,NA,1,3.26646241762236,4.05961116841149,3.95128347779386,3.66303679301692,TRUE,0.793148750789127
"CAN","cpi",0.3,1968,3,1967,NA,1.5,0.438307143650489,1.23145589443962,3.95128347779386,0.834881519045053,FALSE,8.56408470322982
"CAN","cpi",0.3,1969,3,1969,NA,0,4.46790936907728,4.58274343108778,4.42679496126681,4.52532640008253,FALSE,0.232303798611834
"CAN","cpi",0.3,1969,3,1969,NA,0.5,2.54451486857341,2.83729754712022,4.42679496126681,2.69090620784681,FALSE,4.8342038618228
"CAN","cpi",0.3,1969,3,1968,NA,1,3.73477891699081,4.42109973827699,4.42679496126681,4.0779393276339,FALSE,0.702592886971394
"CAN","cpi",0.3,1969,3,1968,NA,1.5,1.26905830271149,1.95537912399767,4.42679496126681,1.61221871335458,FALSE,7.74750892776944
"CAN","cpi",0.3,1970,3,1970,NA,0,3.50419602499588,3.6133760837237,3.28128405769805,3.55878605435979,FALSE,0.746071393864483
"CAN","cpi",0.3,1970,3,1970,NA,0.5,3.56388266938036,3.93550287868972,3.28128405769805,3.74969277403504,FALSE,1.17904481411597
"CAN","cpi",0.3,1970,3,1969,NA,1,2.76551230094347,3.4582198647087,3.28128405769805,3.11186608282608,TRUE,0.692707563765228
"CAN","cpi",0.3,1970,3,1969,NA,1.5,0.418588195377024,1.11129575914225,3.28128405769805,0.764941977259638,FALSE,6.8926741310675
"CAN","cpi",0.3,1971,3,1971,NA,0,2.75448422871358,2.87580683706385,2.64123406634756,2.81514553288871,FALSE,0.444894500824597
"CAN","cpi",0.3,1971,3,1971,NA,0.5,0.880629674635692,1.35284494069473,2.64123406634756,1.11673730766521,FALSE,4.15332705363855
"CAN","cpi",0.3,1971,3,1970,NA,1,1.59988353452255,2.24098547468535,2.64123406634756,1.92043450460395,FALSE,1.78466934491198
"CAN","cpi",0.3,1971,3,1970,NA,1.5,1.38138978192461,2.02249172208742,2.64123406634756,1.70194075200601,FALSE,2.40893720947751
"CAN","cpi",0.3,1972,3,1972,NA,0,5.01176826162362,5.08480698149585,4.83230569625923,5.04828762155974,FALSE,0.585788906627634
"CAN","cpi",0.3,1972,3,1972,NA,0.5,3.84024645609382,4.35180125110052,4.83230569625923,4.09602385359717,FALSE,1.88442463831729
"CAN","cpi",0.3,1972,3,1971,NA,1,3.85782564162305,4.47841659105127,4.83230569625923,4.16812111633716,FALSE,1.63170267859382
"CAN","cpi",0.3,1972,3,1971,NA,1.5,0.381734530636977,1.0023254800652,4.83230569625923,0.692030005351089,FALSE,11.5633915671254
"CAN","cpi",0.3,1973,3,1973,NA,0,7.21554598907228,7.28637665546737,7.12388603531779,7.25096132226983,FALSE,0.332716248550778
"CAN","cpi",0.3,1973,3,1973,NA,0.5,5.06731182472018,5.54160852108145,7.12388603531779,5.30446017290082,FALSE,4.99508959417938
"CAN","cpi",0.3,1973,3,1972,NA,1,4.60821178378547,5.23730893205984,7.12388603531779,4.92276035792265,FALSE,6.01931744329709
"CAN","cpi",0.3,1973,3,1972,NA,1.5,1.41632780354027,2.1674297779438,7.12388603531779,1.79187879074203,FALSE,14.9124055669007
"CAN","cpi",0.3,1974,3,1974,NA,0,10.116609530723,10.181212889579,10.2717243737774,10.148911210151,FALSE,0.323207599422896
"CAN","cpi",0.3,1974,3,1974,NA,0.5,7.64092898159575,8.16799680330523,10.2717243737774,7.90446289245049,FALSE,6.53771802305858
"CAN","cpi",0.3,1974,3,1973,NA,1,6.93839385589597,7.67112807923621,10.2717243737774,7.30476096756609,FALSE,8.16300935060084
"CAN","cpi",0.3,1974,3,1973,NA,1.5,2.08356405532382,3.04909413634999,10.2717243737774,2.5663290958369,FALSE,21.601616473676
"CAN","cpi",0.3,1975,3,1975,NA,0,10.13215133468,10.2171628860785,10.0232981493341,10.1746571103793,FALSE,0.396020652386798
"CAN","cpi",0.3,1975,3,1975,NA,0.5,7.75828586743727,8.38476027085202,10.0232981493341,8.07152306914465,FALSE,5.30801119907789
"CAN","cpi",0.3,1975,3,1974,NA,1,7.37597782929947,8.26157784208334,10.0232981493341,7.8187778356914,FALSE,5.91908660492897
"CAN","cpi",0.3,1975,3,1974,NA,1.5,2.91156758268901,4.38671791131971,10.0232981493341,3.64914274700436,FALSE,17.5796652943862
"CAN","cpi",0.3,1976,3,1976,NA,0,7.14759657279651,7.23230628807959,7.22784311401172,7.18995143043805,TRUE,0.0847097152830791
"CAN","cpi",0.3,1976,3,1976,NA,0.5,6.28854684200784,6.93812044369831,7.22784311401172,6.61333364285308,FALSE,1.47735265972876
"CAN","cpi",0.3,1976,3,1975,NA,1,8.22414525206336,8.94579689974263,7.22784311401172,8.584971075903,FALSE,3.56822918496968
"CAN","cpi",0.3,1976,3,1975,NA,1.5,2.34819398290217,3.94657741700965,7.22784311401172,3.14738569995591,FALSE,10.9734282826848
"CAN","cpi",0.3,1977,3,1977,NA,0,7.45757254757934,7.54596634249958,7.58101410153764,7.50176944503946,FALSE,0.188530249314712
"CAN","cpi",0.3,1977,3,1977,NA,0.5,6.07589298796554,6.73553978857193,7.58101410153764,6.40571638826874,FALSE,3.07528769479413
"CAN","cpi",0.3,1977,3,1976,NA,1,3.57897789604866,4.51920782549162,7.58101410153764,4.04909286077014,FALSE,9.68824786100302
"CAN","cpi",0.3,1977,3,1976,NA,1.5,1.8217273404308,3.36692761411905,7.58101410153764,2.59432747727492,FALSE,13.5854473805985
"CAN","cpi",0.3,1978,3,1978,NA,0,8.54184259674829,8.6402543509347,8.50208927062595,8.59104847384149,FALSE,0.211992685964531
"CAN","cpi",0.3,1978,3,1978,NA,0.5,7.02691196631694,7.65536620835295,8.50208927062595,7.34113908733495,FALSE,3.04766299138743
"CAN","cpi",0.3,1978,3,1977,NA,1,5.32976613544081,6.42829123492221,8.50208927062595,5.87902868518151,FALSE,7.02366234434922
"CAN","cpi",0.3,1978,3,1977,NA,1.5,3.11435290880838,4.6715168080359,8.50208927062595,3.89293485842214,FALSE,12.5016566494848
"CAN","cpi",0.3,1979,3,1979,NA,0,8.43863515800703,8.5343930448685,8.65147652410481,8.48651410143776,FALSE,0.430282113250932
"CAN","cpi",0.3,1979,3,1979,NA,0.5,7.14842320297746,7.77531173832,8.65147652410481,7.46186747064873,FALSE,3.13021649472771
"CAN","cpi",0.3,1979,3,1978,NA,1,6.36342962740838,7.51029154018499,8.65147652410481,6.93686058379669,FALSE,4.40739043826181
"CAN","cpi",0.3,1979,3,1978,NA,1.5,3.19048856259862,4.64545347834697,8.65147652410481,3.9179710204728,FALSE,12.900745046485
"CAN","cpi",0.3,1980,3,1980,NA,0,9.38096051216352,9.49326205094085,9.5171912664748,9.43711128155219,FALSE,0.180670726017171
"CAN","cpi",0.3,1980,3,1980,NA,0.5,7.59262510796944,8.19025642174758,9.5171912664748,7.89144076485851,FALSE,4.38887372728448
"CAN","cpi",0.3,1980,3,1979,NA,1,5.13424195416981,6.25351394006625,9.5171912664748,5.69387794711803,FALSE,10.4440643470637
"CAN","cpi",0.3,1980,3,1979,NA,1.5,3.55736947117494,4.98661149395981,9.5171912664748,4.27199048256738,FALSE,14.373755658542
"CAN","cpi",0.3,1981,3,1981,NA,0,11.5591253420025,11.6759521763055,11.5813425032741,11.617538759154,TRUE,0.11682683430303
"CAN","cpi",0.3,1981,3,1981,NA,0.5,11.0073762394529,11.6002755807285,11.5813425032741,11.3038259100907,TRUE,0.592899341275537
"CAN","cpi",0.3,1981,3,1980,NA,1,7.62586677890338,8.83258267290551,11.5813425032741,8.22922472590444,FALSE,9.06031540934107
"CAN","cpi",0.3,1981,3,1980,NA,1.5,3.85746001041947,5.23890734051295,11.5813425032741,4.54818367546621,FALSE,19.5026906522683
"CAN","cpi",0.3,1982,3,1982,NA,0,10.1357239219388,10.2370705027309,10.1124203763629,10.1863972123348,FALSE,0.167928139580237
"CAN","cpi",0.3,1982,3,1982,NA,0.5,9.14045595970501,9.61977584365427,10.1124203763629,9.38011590167964,FALSE,1.88687569168834
"CAN","cpi",0.3,1982,3,1981,NA,1,8.33506401294281,9.52043517711128,10.1124203763629,8.92774959502704,FALSE,2.87675744774466
"CAN","cpi",0.3,1982,3,1981,NA,1.5,6.96968436141382,8.34407685741532,10.1124203763629,7.65688060941457,FALSE,6.42680255013758
"CAN","cpi",0.3,1983,3,1983,NA,0,5.74467290862015,5.83995609012217,5.67091787896303,5.79231449937116,FALSE,0.306011837665213
"CAN","cpi",0.3,1983,3,1983,NA,0.5,4.24251075845945,4.73619897655133,5.67091787896303,4.48935486750539,FALSE,3.1643136535539
"CAN","cpi",0.3,1983,3,1982,NA,1,6.11106694164523,7.25614993160659,5.67091787896303,6.68360843662591,FALSE,2.40265174048192
"CAN","cpi",0.3,1983,3,1982,NA,1.5,5.2323878684636,6.37747085842496,5.67091787896303,5.80492936344428,TRUE,1.14508298996136
"CAN","cpi",0.3,1984,3,1984,NA,0,4.14348274395218,4.22920573163663,4.19799576814029,4.1863442377944,TRUE,0.0857229876844592
"CAN","cpi",0.3,1984,3,1984,NA,0.5,4.13507852796221,4.61229985274209,4.19799576814029,4.37368919035215,TRUE,0.477221324779878
"CAN","cpi",0.3,1984,3,1983,NA,1,4.15846568841032,5.49201402885648,4.19799576814029,4.8252398586334,TRUE,1.33354834044616
"CAN","cpi",0.3,1984,3,1983,NA,1.5,0.802863804375524,2.47017319752655,4.19799576814029,1.63651850095104,FALSE,6.60394530919028
"CAN","cpi",0.3,1985,3,1985,NA,0,3.83468920795319,3.91509006031638,3.86444262005169,3.87488963413478,TRUE,0.0804008523631907
"CAN","cpi",0.3,1985,3,1985,NA,0.5,3.38884911035744,3.95024009300805,3.86444262005169,3.66954460168274,TRUE,0.561390982650611
"CAN","cpi",0.3,1985,3,1984,NA,1,1.78972795369072,3.24549033083989,3.86444262005169,2.51760914226531,FALSE,3.22419748918288
"CAN","cpi",0.3,1985,3,1984,NA,1.5,1.87751920761033,3.61185925244538,3.86444262005169,2.74468923002786,FALSE,2.45600680942452
"CAN","cpi",0.3,1986,3,1986,NA,0,4.05296309797974,4.12722452243581,4.08685396749431,4.09009381020777,TRUE,0.0742614244560702
"CAN","cpi",0.3,1986,3,1986,NA,0.5,3.94221376717673,4.43514110586385,4.08685396749431,4.18867743652029,TRUE,0.492927338687123
"CAN","cpi",0.3,1986,3,1985,NA,1,2.25424513004572,3.672685603847,4.08685396749431,2.96346536694636,FALSE,2.60177865565074
"CAN","cpi",0.3,1986,3,1985,NA,1.5,1.81193122067284,3.50097906937164,4.08685396749431,2.65645514502224,FALSE,3.36297612904929
"CAN","cpi",0.3,1987,3,1987,NA,0,4.27138559939411,4.33626937899379,4.23980729277887,4.30382748919395,FALSE,0.15510751278607
"CAN","cpi",0.3,1987,3,1987,NA,0.5,3.37574596937416,3.83915491781697,4.23980729277887,3.60745044359556,FALSE,1.60813001976253
"CAN","cpi",0.3,1987,3,1986,NA,1,2.78457513982817,4.19451274569311,4.23980729277887,3.48954394276064,FALSE,1.53935059753855
"CAN","cpi",0.3,1987,3,1986,NA,1.5,2.22472226379728,3.87651003265677,4.23980729277887,3.05061614822702,FALSE,2.68977994063692
"CAN","cpi",0.3,1988,3,1988,NA,0,3.93351365656414,3.99951036093524,3.92899537638065,3.96651200874969,FALSE,0.0789060763239071
"CAN","cpi",0.3,1988,3,1988,NA,0.5,3.04428656939555,3.50748212186876,3.92899537638065,3.27588434563216,FALSE,1.66751913679291
"CAN","cpi",0.3,1988,3,1987,NA,1,2.74697775131568,3.98417931344976,3.92899537638065,3.36557853238272,TRUE,1.23720156213408
"CAN","cpi",0.3,1988,3,1987,NA,1.5,1.36743051240082,3.09038280736904,3.92899537638065,2.22890665988493,FALSE,4.11898820642996
"CAN","cpi",0.3,1989,3,1989,NA,0,4.93095999288714,4.99352245201521,4.82821664544208,4.96224122245117,FALSE,0.35611488039968
"CAN","cpi",0.3,1989,3,1989,NA,0.5,3.92836427738689,4.37655935786665,4.82821664544208,4.15246181762677,FALSE,1.7386444735524
"CAN","cpi",0.3,1989,3,1988,NA,1,2.77355909588668,3.92767643959302,4.82821664544208,3.35061776773985,FALSE,3.72708936041793
"CAN","cpi",0.3,1989,3,1988,NA,1.5,1.18804481254779,2.87781940016879,4.82821664544208,2.03293210635829,FALSE,7.26233814554468
"CAN","cpi",0.3,1990,3,1990,NA,0,4.45795304832458,4.5243816008435,4.64347549432717,4.49116732458404,FALSE,0.406696819615114
"CAN","cpi",0.3,1990,3,1990,NA,0.5,4.59112003870529,5.02158263929754,4.64347549432717,4.80635133900141,TRUE,0.430462600592254
"CAN","cpi",0.3,1990,3,1989,NA,1,3.89891126764973,5.0077473428743,4.64347549432717,4.45332930526201,TRUE,1.10883607522458
"CAN","cpi",0.3,1990,3,1989,NA,1.5,2.12360965258266,3.75627321335597,4.64347549432717,2.93994143296931,FALSE,4.16752722069102
"CAN","cpi",0.3,1991,3,1991,NA,0,5.56445913124869,5.62882393899752,5.4258100696218,5.5966415351231,FALSE,0.46050498382567
"CAN","cpi",0.3,1991,3,1991,NA,0.5,7.82251351797913,8.26240736233246,5.4258100696218,8.0424604401558,FALSE,7.28761798251715
"CAN","cpi",0.3,1991,3,1990,NA,1,2.44419765805378,3.57113004974367,5.4258100696218,3.00766385389873,FALSE,6.42601816277025
"CAN","cpi",0.3,1991,3,1990,NA,1.5,2.64303350359429,4.20619295142444,5.4258100696218,3.42461322750937,FALSE,5.04777978553687
"CAN","cpi",0.3,1992,3,1992,NA,0,1.42759084739603,1.49477517159629,1.47496888572843,1.46118300949616,TRUE,0.0671843242002605
"CAN","cpi",0.3,1992,3,1992,NA,0.5,0.850847281433548,1.62508906973585,1.47496888572843,1.2379681755847,TRUE,0.7742417883023
"CAN","cpi",0.3,1992,3,1991,NA,1,1.39193520826879,2.35273785002341,1.47496888572843,1.8723365291461,TRUE,0.96080264175461
"CAN","cpi",0.3,1992,3,1991,NA,1.5,6.20294606784289,7.59572786893586,1.47496888572843,6.89933696838937,FALSE,14.9012880357057
"CAN","cpi",0.3,1993,3,1993,NA,0,1.76793859349701,1.83647275762105,1.84351085411351,1.80220567555903,FALSE,0.0886430112453578
"CAN","cpi",0.3,1993,3,1993,NA,0.5,1.83128447138083,2.60508549320608,1.84351085411351,2.21818498229346,TRUE,0.773801021825251
"CAN","cpi",0.3,1993,3,1992,NA,1,0.95669800568761,1.74738797807479,1.84351085411351,1.3520429918812,FALSE,1.06532676106925
"CAN","cpi",0.3,1993,3,1992,NA,1.5,0.050212032491376,1.81675894218234,1.84351085411351,0.933485487336859,FALSE,1.84298094378002
"CAN","cpi",0.3,1994,3,1994,NA,0,0.166944485463723,0.23727482951066,0.161630694655448,0.202109657487191,FALSE,0.0855126034991517
"CAN","cpi",0.3,1994,3,1994,NA,0.5,-0.954602231500253,-0.190677183425302,0.161630694655448,-0.572639707462777,FALSE,1.77051898544852
"CAN","cpi",0.3,1994,3,1993,NA,1,0.751837781357067,1.53037288017965,0.161630694655448,1.14110533076836,FALSE,2.46484106082721
"CAN","cpi",0.3,1994,3,1993,NA,1.5,0.785784606054507,2.51468463986396,0.161630694655448,1.65023462295923,FALSE,3.51219692352105
"CAN","cpi",0.3,1995,3,1995,NA,0,2.11529045658289,2.18173453366339,2.11688403676572,2.14851249512314,TRUE,0.0664440770805026
"CAN","cpi",0.3,1995,3,1995,NA,0.5,2.23593019933565,2.96551866684921,2.11688403676572,2.60072443309243,FALSE,1.06972036057051
"CAN","cpi",0.3,1995,3,1994,NA,1,1.04646949820589,1.82100995463793,2.11688403676572,1.43373972642191,FALSE,1.61989497679714
"CAN","cpi",0.3,1995,3,1994,NA,1.5,-2.16803293956155,-0.364193728929993,2.11688403676572,-1.26611333424577,FALSE,8.89263282690501
"CAN","cpi",0.3,1996,3,1996,NA,0,1.40370128303405,1.46960412546672,1.55309584667184,1.43665270425039,FALSE,0.304450617304446
"CAN","cpi",0.3,1996,3,1996,NA,0.5,0.870902763608504,1.59462384369223,1.55309584667184,1.23276330365037,TRUE,0.723721080083727
"CAN","cpi",0.3,1996,3,1995,NA,1,0.367892719352051,1.09161379943578,1.55309584667184,0.729753259393914,FALSE,2.04224121504391
"CAN","cpi",0.3,1996,3,1995,NA,1.5,1.38834515095627,3.2497516327746,1.55309584667184,2.31904839186543,TRUE,1.86140648181833
"CAN","cpi",0.3,1997,3,1997,NA,0,1.64259888959951,1.7163906848724,1.60528783555959,1.67949478723595,FALSE,0.180394806815509
"CAN","cpi",0.3,1997,3,1997,NA,0.5,1.57484622036749,2.29099362160066,1.60528783555959,1.93291992098407,TRUE,0.716147401233171
"CAN","cpi",0.3,1997,3,1996,NA,1,0.256556751004369,0.97270415223754,1.60528783555959,0.614630451620954,FALSE,2.52352935358189
"CAN","cpi",0.3,1997,3,1996,NA,1.5,0.0140350798758431,1.9102880485219,1.60528783555959,0.962161564198873,TRUE,1.89625296864606
"CAN","cpi",0.3,1998,3,1998,NA,0,0.92956884084607,1.00455851992951,0.988908029337191,0.967063680387792,TRUE,0.0749896790834437
"CAN","cpi",0.3,1998,3,1998,NA,0.5,0.991357630183229,1.70659156714351,0.988908029337191,1.34897459866337,FALSE,0.722232796520385
"CAN","cpi",0.3,1998,3,1997,NA,1,0.43507299076599,1.15030692772627,0.988908029337191,0.792689959246129,TRUE,0.715233936960277
"CAN","cpi",0.3,1998,3,1997,NA,1.5,0.340617431980402,2.22706257555852,0.988908029337191,1.28384000376946,TRUE,1.88644514357812
"CAN","cpi",0.3,1999,3,1999,NA,0,1.73129406155137,1.8059986163407,1.7107350135213,1.76864633894604,FALSE,0.133444692018125
"CAN","cpi",0.3,1999,3,1999,NA,0.5,0.377775393067923,1.08642402813314,1.7107350135213,0.732099710600531,FALSE,2.49239430760281
"CAN","cpi",0.3,1999,3,1998,NA,1,0.014728254427022,0.723376889492237,1.7107350135213,0.369052571959629,FALSE,3.52967184657681
"CAN","cpi",0.3,1999,3,1998,NA,1.5,0.323155712410398,2.21378442805219,1.7107350135213,1.26847007023129,TRUE,1.89062871564179
"CAN","cpi",0.3,2000,3,2000,NA,0,2.66495292580051,2.74020328768018,2.6718361971244,2.70257810674034,TRUE,0.0752503618796734
"CAN","cpi",0.3,2000,3,2000,NA,0.5,1.59346629586992,2.3254998217476,2.6718361971244,1.95948305880876,FALSE,1.72156602695425
"CAN","cpi",0.3,2000,3,1999,NA,1,1.79552985692115,2.52756338279882,2.6718361971244,2.16154661985999,FALSE,1.14424156680789
"CAN","cpi",0.3,2000,3,1999,NA,1.5,-0.429419872433122,1.43498762856064,2.6718361971244,0.50278387806376,FALSE,5.39826055403307
"CAN","cpi",0.3,2001,3,2001,NA,0,2.69698901824673,2.76610196947501,2.47906219852806,2.73154549386087,FALSE,0.691761007567327
"CAN","cpi",0.3,2001,3,2001,NA,0.5,1.29980367450236,2.01743289077616,2.47906219852806,1.65861828263926,FALSE,2.03657009556496
"CAN","cpi",0.3,2001,3,2000,NA,1,2.48252434975297,3.20015356602676,2.47906219852806,2.84133895788986,FALSE,0.727521076916377
"CAN","cpi",0.3,2001,3,2000,NA,1.5,0.231464276106953,2.05236281285243,2.47906219852806,1.14191354447969,FALSE,3.04003963867586
"CAN","cpi",0.3,2002,3,2002,NA,0,2.27397487556033,2.35167567374374,2.20880570551249,2.31282527465204,FALSE,0.263898426891537
"CAN","cpi",0.3,2002,3,2002,NA,0.5,0.87336710892432,1.62127186375754,2.20880570551249,1.24731948634093,FALSE,2.42657287413307
"CAN","cpi",0.3,2002,3,2001,NA,1,0.321539163470266,1.06944391830348,2.20880570551249,0.695491540886875,FALSE,4.00322414685894
"CAN","cpi",0.3,2002,3,2001,NA,1.5,-0.426954689737508,1.37907792738019,2.20880570551249,0.47606161882134,FALSE,4.17668341178141
"CAN","cpi",0.3,2003,3,2003,NA,0,2.71834747042188,2.79086047513462,2.71189071546809,2.75460397277825,FALSE,0.0909608760092771
"CAN","cpi",0.3,2003,3,2003,NA,0.5,3.93528325888309,4.38665615696544,2.71189071546809,4.16096970792426,FALSE,3.94678016498235
"CAN","cpi",0.3,2003,3,2002,NA,1,2.9819234258099,3.57391473795952,2.71189071546809,3.27791908188471,FALSE,1.36351334169764
"CAN","cpi",0.3,2003,3,2002,NA,1.5,0.622438079141105,2.41416217599691,2.71189071546809,1.51830012756901,FALSE,2.64237706677346
"CAN","cpi",0.3,2004,3,2004,NA,0,1.72584105843525,1.79722101960352,1.83151661303942,1.76153103901938,FALSE,0.169367370985139
"CAN","cpi",0.3,2004,3,2004,NA,0.5,1.0859957586978,1.69291633091363,1.83151661303942,1.38945604480572,FALSE,1.00292137828952
"CAN","cpi",0.3,2004,3,2003,NA,1,0.715137982541467,1.32235440065048,1.83151661303942,1.01874619159597,FALSE,2.06196559636314
"CAN","cpi",0.3,2004,3,2003,NA,1.5,2.46141304967468,3.52069413241353,1.83151661303942,2.99105359104411,FALSE,2.85898518741102
"CAN","cpi",0.3,2005,3,2005,NA,0,2.31381108882773,2.38743853401861,2.18071628336509,2.35062481142317,FALSE,0.453898317941269
"CAN","cpi",0.3,2005,3,2005,NA,0.5,1.15758130906724,1.75298613339336,2.18071628336509,1.4552837212303,FALSE,1.81749096710249
"CAN","cpi",0.3,2005,3,2004,NA,1,0.489511387364478,1.10346203668306,2.18071628336509,0.79648671202377,FALSE,3.69181992555295
"CAN","cpi",0.3,2005,3,2004,NA,1.5,0.55875555975674,1.7148634672592,2.18071628336509,1.13680951350797,FALSE,2.48711595351929
"CAN","cpi",0.3,2006,3,2006,NA,0,2.02462916200681,2.10433168448021,1.97519342012289,2.06448042324351,FALSE,0.220947499284622
"CAN","cpi",0.3,2006,3,2006,NA,0.5,1.49044228813976,2.05102399426434,1.97519342012289,1.77073314120205,TRUE,0.560581706124581
"CAN","cpi",0.3,2006,3,2005,NA,1,2.30779119412712,2.8683729002517,1.97519342012289,2.58808204718941,FALSE,1.51086106042239
"CAN","cpi",0.3,2006,3,2005,NA,1.5,0.252564289080219,1.27158624875324,1.97519342012289,0.762075268916728,FALSE,3.0293281635863
"CAN","cpi",0.3,2007,3,2007,NA,0,2.0680645357201,2.14808227443944,2.10062087284572,2.10807340507977,TRUE,0.080017738719345
"CAN","cpi",0.3,2007,3,2007,NA,0.5,1.81361591799616,2.38158951049734,2.10062087284572,2.09760271424675,TRUE,0.567973592501176
"CAN","cpi",0.3,2007,3,2006,NA,1,0.136799655849235,0.740925261398509,2.10062087284572,0.438862458623872,FALSE,4.48897020968417
"CAN","cpi",0.3,2007,3,2006,NA,1.5,0.678230251727899,1.4835537037766,2.10062087284572,1.08089197775225,FALSE,2.56837250653191
"CAN","cpi",0.3,2008,3,2008,NA,0,2.88039681832623,2.94893824929716,2.31447335265955,2.9146675338117,FALSE,1.68546561859001
"CAN","cpi",0.3,2008,3,2008,NA,0.5,0.75999949793862,1.33125540649669,2.31447335265955,1.04562745221765,FALSE,3.38045004045197
"CAN","cpi",0.3,2008,3,2007,NA,1,0.0370403271380439,0.693020033634302,2.31447335265955,0.365030180386173,FALSE,5.28870347513983
"CAN","cpi",0.3,2008,3,2007,NA,1.5,1.6831007920511,2.39904699699159,2.31447335265955,2.04107389452134,TRUE,0.715946204940489
"CAN","cpi",0.3,2009,3,2009,NA,0,0.20175676516586,0.343480907266998,0.284533874408197,0.272618836216429,TRUE,0.141724142101138
"CAN","cpi",0.3,2009,3,2009,NA,0.5,-1.10536752893304,-0.509485148103026,0.284533874408197,-0.807426338518035,FALSE,2.86450815943351
"CAN","cpi",0.3,2009,3,2008,NA,1,2.92243473367459,3.64467916162512,0.284533874408197,3.28355694764985,FALSE,8.2591040258545
"CAN","cpi",0.3,2009,3,2008,NA,1.5,0.339713276356616,1.06704063412121,0.284533874408197,0.703376955238912,FALSE,0.884982791902932
"CAN","cpi",0.3,2010,3,2010,NA,0,1.65649373072497,1.7976669972885,1.75525687020327,1.72708036400674,TRUE,0.141173266563527
"CAN","cpi",0.3,2010,3,2010,NA,0.5,1.1311988633238,1.71366646063952,1.75525687020327,1.42243266198166,FALSE,0.701297338926442
"CAN","cpi",0.3,2010,3,2009,NA,1,0.0495029185643377,0.982155955594579,1.75525687020327,0.515829437079458,FALSE,3.14151279305508
"CAN","cpi",0.3,2010,3,2009,NA,1.5,-1.13272615052191,-0.200073113491672,1.75525687020327,-0.666399632006793,FALSE,6.51931013330151
"CAN","cpi",0.3,2011,3,2011,NA,0,2.75639067659832,2.90103169796864,2.85717434028225,2.82871118728348,TRUE,0.144641021370315
"CAN","cpi",0.3,2011,3,2011,NA,0.5,2.30718871255535,2.8789242063455,2.85717434028225,2.59305645945043,TRUE,0.57173549379015
"CAN","cpi",0.3,2011,3,2010,NA,1,1.0965305257396,2.0673664605033,2.85717434028225,1.58194849312145,FALSE,3.22742987698927
"CAN","cpi",0.3,2011,3,2010,NA,1.5,0.523244350195391,1.49408028495909,2.85717434028225,1.00866231757724,FALSE,4.86539037854415
"CAN","cpi",0.3,2012,3,2012,NA,0,1.39324314321889,1.54039188568865,1.50118536134935,1.46681751445377,TRUE,0.147148742469756
"CAN","cpi",0.3,2012,3,2012,NA,0.5,1.35381781036822,1.92351413084689,1.50118536134935,1.63866597060755,TRUE,0.569696320478673
"CAN","cpi",0.3,2012,3,2011,NA,1,0.364462882836605,1.33201821513826,1.50118536134935,0.848240548987433,FALSE,1.4508900357619
"CAN","cpi",0.3,2012,3,2011,NA,1.5,1.20006532573432,2.16762065803597,1.50118536134935,1.68384299188515,TRUE,0.967555332301655
"CAN","cpi",0.3,2013,3,2013,NA,0,0.958399927964275,1.10326238031828,0.931270594714462,1.03083115414128,FALSE,0.222374833067757
"CAN","cpi",0.3,2013,3,2013,NA,0.5,0.715045902476187,1.28863536145433,0.931270594714462,1.00184063196526,TRUE,0.573589458978143
"CAN","cpi",0.3,2013,3,2012,NA,1,-0.759791899630319,0.214699917885546,0.931270594714462,-0.272545990872386,FALSE,3.02183660845562
"CAN","cpi",0.3,2013,3,2012,NA,1.5,0.471362895378139,1.445854712894,0.931270594714462,0.958608804136071,TRUE,0.974491817515865
"CAN","cpi",0.3,2014,3,2014,NA,0,1.91372493285761,2.05854063735642,1.87639912240215,1.98613278510701,FALSE,0.251460877228697
"CAN","cpi",0.3,2014,3,2014,NA,0.5,1.6738658714691,2.23061183100693,1.87639912240215,1.95223885123801,TRUE,0.556745959537835
"CAN","cpi",0.3,2014,3,2013,NA,1,0.208392614597307,1.16892475997039,1.87639912240215,0.688658687283847,FALSE,2.98188746660669
"CAN","cpi",0.3,2014,3,2013,NA,1.5,0.411328127197961,1.37186027257104,1.87639912240215,0.891594199884501,FALSE,2.40207171631911
"CAN","cpi",0.3,2015,3,2015,NA,0,1.17404987583559,1.31878745170949,1.11090953952792,1.24641866377254,FALSE,0.325138536752961
"CAN","cpi",0.3,2015,3,2015,NA,0.5,0.013898573667284,0.382335750512112,1.11090953952792,0.198117162089698,FALSE,2.45007657403284
"CAN","cpi",0.3,2015,3,2014,NA,1,0.0610333786366751,1.00317876655686,1.11090953952792,0.532106072596766,FALSE,1.24994759640892
"CAN","cpi",0.3,2015,3,2014,NA,1.5,1.33928650839259,2.28143189631277,1.11090953952792,1.81035920235268,FALSE,1.59465101324781
"CAN","cpi",0.3,2016,3,2016,NA,0,1.37199895085661,1.51170019703517,1.41168586698797,1.44184957394589,TRUE,0.139701246178559
"CAN","cpi",0.3,2016,3,2016,NA,0.5,0.648262842525919,1.03793725228632,1.41168586698797,0.843100047406122,FALSE,1.45752759462224
"CAN","cpi",0.3,2016,3,2015,NA,1,0.777678359798136,1.69201871560732,1.41168586698797,1.23484853770273,TRUE,0.914340355809188
"CAN","cpi",0.3,2016,3,2015,NA,1.5,-0.349707425727311,0.564632930081877,1.41168586698797,0.107462752177283,FALSE,3.3344916041123
"CAN","cpi",0.3,2017,3,2017,NA,0,1.44771502780359,1.58708348498988,1.57888581671161,1.51739925639673,TRUE,0.139368457186297
"CAN","cpi",0.3,2017,3,2017,NA,0.5,1.68979511709362,2.07361026846413,1.57888581671161,1.88170269277887,FALSE,0.700698866747668
"CAN","cpi",0.3,2017,3,2016,NA,1,-0.0387540201211169,0.875430713631605,1.57888581671161,0.418338346755244,FALSE,2.92405645683845
"CAN","cpi",0.3,2017,3,2016,NA,1.5,0.0684837204609293,0.982668454213652,1.57888581671161,0.52557608733729,FALSE,2.61766291231832
"CAN","cpi",0.3,2018,3,2018,NA,0,2.33429901962688,2.47792855207622,2.23316270166586,2.40611378585155,FALSE,0.432590440909397
"CAN","cpi",0.3,2018,3,2018,NA,0.5,2.41423318941431,2.82990722706977,2.23316270166586,2.62207020824204,FALSE,0.933018288365316
"CAN","cpi",0.3,2018,3,2017,NA,1,-0.0420337495625375,0.850259950774878,2.23316270166586,0.40411310060617,FALSE,4.84344441716879
"CAN","cpi",0.3,2018,3,2017,NA,1.5,1.09172839698056,1.98402209731797,2.23316270166586,1.53787524714926,FALSE,1.60412399847423
"CAN","cpi",0.3,2019,3,2019,NA,0,1.93933030775338,2.0835264901491,1.91921619871868,2.01142839895124,FALSE,0.201665065351996
"CAN","cpi",0.3,2019,3,2019,NA,0.5,1.29677079867185,1.74090336213987,1.91921619871868,1.51883708040586,FALSE,0.953597810836046
"CAN","cpi",0.3,2019,3,2018,NA,1,0.972040711857659,1.86681897017931,1.91921619871868,1.41942984101848,FALSE,1.044484625577
"CAN","cpi",0.3,2019,3,2018,NA,1.5,1.61366258173929,2.50844084006094,1.91921619871868,2.06105171090012,TRUE,0.894778258321651
"CAN","cpi",0.3,2020,3,2020,NA,0,0.694929530912496,0.757430174669653,0.71139989671781,0.726179852791075,TRUE,0.0625006437571574
"CAN","cpi",0.3,2020,3,2020,NA,0.5,0.885465837784622,1.25905306317642,0.71139989671781,1.07225945048052,FALSE,0.870918485582693
"CAN","cpi",0.3,2020,3,2019,NA,1,0.578562919935853,1.45971636662028,0.71139989671781,1.01913964327806,TRUE,0.881153446684423
"CAN","cpi",0.3,2020,3,2019,NA,1.5,0.787039730162971,1.66819317684739,0.71139989671781,1.22761645350518,FALSE,1.09726725652774
"CAN","cpi",0.3,2021,3,2021,NA,0,3.27918778533778,3.34058727848005,3.31148121717802,3.30988753190892,TRUE,0.0613994931422672
"CAN","cpi",0.3,2021,3,2021,NA,0.5,2.32726845097232,2.65253970634908,3.31148121717802,2.4899040786607,FALSE,2.20796128631659
"CAN","cpi",0.3,2021,3,2020,NA,1,0.965009532407057,1.43080387665915,3.31148121717802,1.1979067045331,FALSE,5.83915817430602
"CAN","cpi",0.3,2021,3,2020,NA,1.5,0.280996846497096,1.06025677548421,3.31148121717802,0.670626810990653,FALSE,7.21132976239801
"CAN","cpi",0.3,2022,3,2022,NA,0,6.51566278267427,6.57545300090286,6.50977236228281,6.54555789178856,FALSE,0.0766199907756077
"CAN","cpi",0.3,2022,3,2022,NA,0.5,5.78303667749468,6.14634329462938,6.50977236228281,5.96468998606203,FALSE,1.40167538185879
"CAN","cpi",0.3,2022,3,2021,NA,1,3.1484396639714,3.69366563248822,6.50977236228281,3.42105264822981,FALSE,8.59124519650138
"CAN","cpi",0.3,2022,3,2021,NA,1.5,1.52750462413637,2.33802069354286,6.50977236228281,1.93276265883962,FALSE,12.7298065515206
"CAN","cpi",0.3,2023,3,2023,NA,0,3.943542858142,4.00023084674435,3.78831288758619,3.97188685244318,FALSE,0.500202190190372
"CAN","cpi",0.3,2023,3,2023,NA,0.5,2.65203721469313,3.02636299239946,3.78831288758619,2.8392001035463,FALSE,2.55132547823984
"CAN","cpi",0.3,2023,3,2022,NA,1,2.49924194736991,3.23845788242525,3.78831288758619,2.86884991489758,FALSE,2.31023023551516
"CAN","cpi",0.3,2023,3,2022,NA,1.5,3.43048986387606,4.63585508644213,3.78831288758619,4.03317247515909,TRUE,1.20536522256607
"CAN","cpi",0.3,2024,3,2023,NA,1,2.53344804581343,3.2654870377738,NA,2.89946754179362,NA,NA
"CAN","cpi",0.3,2024,3,2023,NA,1.5,0.575563413811615,1.7842696218314,NA,1.17991651782151,NA,NA
"CAN","cpi",0.4,1959,3,1959,NA,0,1.10773107055862,1.2713609124649,1.19382698397654,1.18954599151176,TRUE,0.163629841906279
"CAN","cpi",0.4,1959,3,1959,NA,0.5,-0.00218648563780088,1.09280313995965,1.19382698397654,0.545308327160925,FALSE,1.43173577232042
"CAN","cpi",0.4,1959,3,1958,NA,1,-0.589159440834889,2.85506172581581,1.19382698397654,1.13295114249046,TRUE,3.4442211666507
"CAN","cpi",0.4,1959,3,1958,NA,1.5,-1.8927935923106,3.32763776846918,1.19382698397654,0.717422088079289,TRUE,5.22043136077978
"CAN","cpi",0.4,1960,3,1960,NA,0,0.947530720424847,1.0996953647647,1.34209404870695,1.02361304259477,FALSE,0.960160257480699
"CAN","cpi",0.4,1960,3,1960,NA,0.5,0.1247078965605,1.17251411886681,1.34209404870695,0.648611007713657,FALSE,1.61307265510677
"CAN","cpi",0.4,1960,3,1959,NA,1,1.07243577399903,3.68090168971369,1.34209404870695,2.37666873185636,TRUE,2.60846591571467
"CAN","cpi",0.4,1960,3,1959,NA,1.5,-2.27689570603465,1.5787113469001,1.34209404870695,-0.349092179567277,TRUE,3.85560705293475
"CAN","cpi",0.4,1961,3,1961,NA,0,0.920308345784541,1.0981186160956,1.00921348094007,1.00921348094007,TRUE,0.177810270311061
"CAN","cpi",0.4,1961,3,1961,NA,0.5,0.488742305051785,1.52968465682836,1.00921348094007,1.00921348094007,TRUE,1.04094235177657
"CAN","cpi",0.4,1961,3,1960,NA,1,-1.15206817226489,1.25960909747195,1.00921348094007,0.0537704626035329,TRUE,2.41167726973684
