isdrw/probabilistic-benchmark-forecasts/results/EasyUQ_idr/archive/easyUQ_prediction_ar1_2026-02-19_12-04-31.csv
"country","target","tau","target_year","target_quarter","forecast_year","forecast_quarter","horizon","lower_bound","upper_bound","truth_value","prediction","covered","IS"
"CAN","cpi",0.1,1950,3,1950,NA,0,3.41276022321824,3.41276022321824,2.59031220731124,2.32166735935542,FALSE,1.82766225757111
"CAN","cpi",0.1,1950,3,1950,NA,0.5,3.41276022321824,3.41276022321824,2.59031220731124,1.23070468188811,FALSE,1.82766225757111
"CAN","cpi",0.1,1950,3,1949,NA,1,3.41345602004815,4.38980044651263,2.59031220731124,5.09987337388258,FALSE,2.80555289921317
"CAN","cpi",0.1,1950,3,1949,NA,1.5,3.41206442638833,4.3884088528528,2.59031220731124,7.87125428886177,FALSE,2.802460468858
"CAN","cpi",0.1,1951,3,1951,NA,0,5.37132824981288,5.84709543860834,9.87945438999359,9.91468181420993,FALSE,9.43656485854047
"CAN","cpi",0.1,1951,3,1951,NA,0.5,3.07731504126897,3.55308223006443,9.87945438999359,8.91293028153729,FALSE,14.534371988638
"CAN","cpi",0.1,1951,3,1950,NA,1,2.35242861291351,2.82819580170897,9.87945438999359,6.69633780377586,FALSE,16.1452307183168
"CAN","cpi",0.1,1951,3,1950,NA,1.5,2.47621271224355,2.95197990103901,9.87945438999359,4.62302705298717,FALSE,15.8701549420279
"CAN","cpi",0.1,1952,3,1952,NA,0,2.59031220731124,2.59031220731124,2.55562336095485,2.65771800091113,FALSE,0.077086325236427
"CAN","cpi",0.1,1952,3,1952,NA,0.5,2.94816764297845,3.03264090170762,2.55562336095485,5.20333179389047,FALSE,0.956793885448289
"CAN","cpi",0.1,1952,3,1951,NA,1,5.75131893018116,7.7547822330355,2.55562336095485,8.18998200969936,FALSE,9.10500901224615
"CAN","cpi",0.1,1952,3,1951,NA,1.5,3.16579860886821,5.352768530468,2.55562336095485,7.55460015368862,FALSE,3.54291491696282
"CAN","cpi",0.1,1953,3,1953,NA,0,2.55562336095485,2.55910359556005,-1.01492775838436,-0.921435878605124,FALSE,7.93803827758123
"CAN","cpi",0.1,1953,3,1953,NA,0.5,2.55562336095485,2.55910359556005,-1.01492775838436,-0.76897284692861,FALSE,7.93803827758123
"CAN","cpi",0.1,1953,3,1952,NA,1,2.70582128087051,2.83435570015922,-1.01492775838436,2.43113434957527,FALSE,8.39686561763288
"CAN","cpi",0.1,1953,3,1952,NA,1.5,2.5799073441556,3.00153621532229,-1.01492775838436,5.93557635631702,FALSE,8.41015132125549
"CAN","cpi",0.1,1954,3,1954,NA,0,-0.769977106071555,0.322540320481032,0.644425455961438,0.902670593188762,FALSE,1.80781772762016
"CAN","cpi",0.1,1954,3,1954,NA,0.5,1.01537775374503,2.10789518029762,0.644425455961438,0.795164313951574,FALSE,1.91685586607169
"CAN","cpi",0.1,1954,3,1953,NA,1,0.523354237316584,2.19374583643705,0.644425455961438,4.14534384936852,TRUE,1.67039159912047
"CAN","cpi",0.1,1954,3,1953,NA,1.5,-1.01492775838436,2.57296507239781,0.644425455961438,3.28639485866967,TRUE,3.58789283078218
"CAN","cpi",0.1,1955,3,1955,NA,0,-0.847692875903773,-0.612697304496571,0.173649026558865,0.179965740558204,FALSE,1.9824318626415
"CAN","cpi",0.1,1955,3,1955,NA,0.5,-0.720638395730438,-0.485642824323236,0.173649026558865,0.271639815719239,FALSE,1.70008857336743
"CAN","cpi",0.1,1955,3,1954,NA,1,-0.375780162168055,-0.140784590760853,0.173649026558865,4.00726070064464,FALSE,0.933736943228797
"CAN","cpi",0.1,1955,3,1954,NA,1.5,-0.389251372365775,0.146180671337253,0.173649026558865,3.09849569962328,FALSE,0.596472833084388
"CAN","cpi",0.1,1956,3,1956,NA,0,0.545932711976001,0.613925952566311,1.32752769429961,1.49944483483663,FALSE,1.65377488888653
"CAN","cpi",0.1,1956,3,1956,NA,0.5,-0.473713718989185,-0.405720478398874,1.32752769429961,0.239658941687119,FALSE,3.91965584658694
"CAN","cpi",0.1,1956,3,1955,NA,1,-1.04892437867952,-0.980931138089207,1.32752769429961,2.42699902405841,FALSE,5.1979017570099
"CAN","cpi",0.1,1956,3,1955,NA,1.5,-0.697973090824557,-0.539495805428924,1.32752769429961,2.6723883730094,FALSE,4.30741839590348
"CAN","cpi",0.1,1957,3,1957,NA,0,2.90831348457362,3.00039110736677,3.24684755852518,3.40805864327458,FALSE,0.639758625367388
"CAN","cpi",0.1,1957,3,1957,NA,0.5,2.66661646858175,3.26650122014948,3.24684755852518,2.77134230956367,TRUE,0.599884751567732
"CAN","cpi",0.1,1957,3,1956,NA,1,2.52545058964302,3.12533534121076,3.24684755852518,5.53767573267731,FALSE,0.869911901155331
"CAN","cpi",0.1,1957,3,1956,NA,1.5,-0.154746198236196,0.445138553331535,3.24684755852518,2.3159105314434,FALSE,6.82590476310916
"CAN","cpi",0.1,1958,3,1958,NA,0,2.39483849144414,2.52775811419247,2.33186388641149,2.2666416787086,FALSE,0.272863189487561
"CAN","cpi",0.1,1958,3,1958,NA,0.5,2.51535449234438,2.64827411509271,2.33186388641149,2.6047181946108,FALSE,0.540676524821429
"CAN","cpi",0.1,1958,3,1957,NA,1,0.109016697657061,0.358946461992293,2.33186388641149,4.25451187896576,FALSE,4.634190707489
"CAN","cpi",0.1,1958,3,1957,NA,1.5,0.503194716200019,1.03351400437733,2.33186388641149,3.21878619474396,FALSE,3.41554124825322
"CAN","cpi",0.1,1959,3,1959,NA,0,0.658987082828494,0.780729982084223,1.19382698397654,1.23804892137791,FALSE,1.03973623679421
"CAN","cpi",0.1,1959,3,1959,NA,0.5,2.21477632186775,2.62970846431309,1.19382698397654,1.22423653017582,FALSE,2.68370844887024
"CAN","cpi",0.1,1959,3,1958,NA,1,-0.770335001184292,-0.334689183311966,1.19382698397654,2.76661875727304,FALSE,3.83234841184678
"CAN","cpi",0.1,1959,3,1958,NA,1.5,0.849363521498785,1.51082421776604,1.19382698397654,3.40313655953963,TRUE,0.661460696267252
"CAN","cpi",0.1,1960,3,1960,NA,0,0.666809845593453,0.762782334061748,1.34209404870695,1.09496250556158,FALSE,1.38333185434653
"CAN","cpi",0.1,1960,3,1960,NA,0.5,2.17960686661049,2.57776344962422,1.34209404870695,1.31117730754252,FALSE,2.25929617835493
"CAN","cpi",0.1,1960,3,1959,NA,1,0.0325863036330512,0.430742886646773,1.34209404870695,3.67993081372331,FALSE,2.4233813875919
"CAN","cpi",0.1,1960,3,1959,NA,1.5,0.877441492476432,1.27559807549015,1.34209404870695,2.53752597259669,FALSE,0.545925412384383
"CAN","cpi",0.1,1961,3,1961,NA,0,1.08637914008899,1.20266481026783,1.00921348094007,1.07956241593662,FALSE,0.287764912731991
"CAN","cpi",0.1,1961,3,1961,NA,0.5,1.64636179440151,2.06602059040566,1.00921348094007,1.62810563897838,FALSE,1.83554393702958
"CAN","cpi",0.1,1961,3,1960,NA,1,-0.585202087805174,0.379519658654156,1.00921348094007,1.72683407115431,FALSE,2.36404135153914
"CAN","cpi",0.1,1961,3,1960,NA,1.5,0.769969440910568,1.7346911873699,1.00921348094007,2.46209267036318,TRUE,0.96472174645933
"CAN","cpi",0.1,1962,3,1962,NA,0,1.17539498232281,1.23402678318108,1.04957947883042,1.11859419449202,FALSE,0.338221808619145
"CAN","cpi",0.1,1962,3,1962,NA,0.5,0.419321071374669,0.519846277242728,1.04957947883042,0.567427238599509,FALSE,1.27771009828514
"CAN","cpi",0.1,1962,3,1961,NA,1,0.66283841965597,0.763363625524029,1.04957947883042,1.63689072516514,FALSE,0.736560435437806
"CAN","cpi",0.1,1962,3,1961,NA,1.5,1.10150171929161,1.24729519585046,1.04957947883042,2.63635903501327,FALSE,0.261176233139289
"CAN","cpi",0.1,1963,3,1963,NA,0,1.35789849402113,1.41088508927609,1.60677118395228,1.86240003699012,FALSE,0.488289027868719
"CAN","cpi",0.1,1963,3,1963,NA,0.5,1.30831753533644,1.3613041305914,1.60677118395228,1.39337130813056,FALSE,0.598468936056917
"CAN","cpi",0.1,1963,3,1962,NA,1,0.88755530964425,1.06460489886693,1.60677118395228,2.94326130570012,FALSE,1.38186355607903
"CAN","cpi",0.1,1963,3,1962,NA,1.5,0.928963548175808,1.17935699369054,1.60677118395228,2.44281938697022,FALSE,1.2002027572075
"CAN","cpi",0.1,1964,3,1964,NA,0,1.47974917278865,1.54330945790426,1.88764670034376,2.0039339947047,FALSE,0.828754157203387
"CAN","cpi",0.1,1964,3,1964,NA,0.5,1.42054006511461,1.4884735687751,1.88764670034376,1.7991677011144,FALSE,0.954984907146396
"CAN","cpi",0.1,1964,3,1963,NA,1,1.30200772125783,1.36994122491833,1.88764670034376,4.16988253093083,FALSE,1.21839011571702
"CAN","cpi",0.1,1964,3,1963,NA,1.5,1.06399761714434,1.26066269301555,1.88764670034376,2.39235828979053,FALSE,1.5899628699339
"CAN","cpi",0.1,1965,3,1965,NA,0,2.54488474296691,2.62982128622115,2.29538304394236,2.3444020011952,FALSE,0.639384763308805
"CAN","cpi",0.1,1965,3,1965,NA,0.5,1.6755937256219,1.76053026887615,2.29538304394236,1.87416183614195,FALSE,1.27349826562359
"CAN","cpi",0.1,1965,3,1964,NA,1,1.03812562310438,1.12306216635862,2.29538304394236,2.77513442256292,FALSE,2.69009404899588
"CAN","cpi",0.1,1965,3,1964,NA,1.5,1.16681473951676,1.32825565584203,2.29538304394236,2.58300862182973,FALSE,2.31061288988155
"CAN","cpi",0.1,1966,3,1966,NA,0,3.32561154291526,3.34311842987877,3.72486065470629,3.82226531435883,FALSE,0.865822942135767
"CAN","cpi",0.1,1966,3,1966,NA,0.5,2.88604618410642,3.29372793644341,3.72486065470629,3.71609253757358,FALSE,1.36575445958783
"CAN","cpi",0.1,1966,3,1965,NA,1,1.13096992866071,1.5386516809977,3.72486065470629,3.18026314560651,FALSE,5.26592391613385
"CAN","cpi",0.1,1966,3,1965,NA,1.5,1.08118121585572,1.48886296819271,3.72486065470629,2.72588429168219,FALSE,5.37656550014495
"CAN","cpi",0.1,1967,3,1967,NA,0,5.54741532799075,5.97575234374495,3.49360316391996,3.71060899730274,FALSE,4.99236404702261
"CAN","cpi",0.1,1967,3,1967,NA,0.5,2.22620626099014,2.65454327674434,3.49360316391996,2.56028521952089,FALSE,2.29291454281114
"CAN","cpi",0.1,1967,3,1966,NA,1,1.16544263625111,1.59377965200531,3.49360316391996,3.23068289349593,FALSE,4.65016704223119
"CAN","cpi",0.1,1967,3,1966,NA,1.5,1.13629181773776,1.56462883349196,3.49360316391996,3.48379255951164,FALSE,4.71494663892754
"CAN","cpi",0.1,1968,3,1968,NA,0,3.60258097893783,3.62680468402475,3.95128347779386,4.08812321751386,FALSE,0.745287691240496
"CAN","cpi",0.1,1968,3,1968,NA,0.5,3.05357182992328,3.28255610053379,3.95128347779386,3.86057245484849,FALSE,1.71504510896621
"CAN","cpi",0.1,1968,3,1967,NA,1,2.29586524724862,2.52484951785913,3.95128347779386,4.52914843962159,FALSE,3.3988375149099
"CAN","cpi",0.1,1968,3,1967,NA,1.5,1.29967614025568,1.52866041086619,3.95128347779386,2.90317969156253,FALSE,5.61259108600532
"CAN","cpi",0.1,1969,3,1969,NA,0,3.83595445288608,3.86064695448369,4.42679496126681,4.56202018095233,FALSE,1.28279918333788
"CAN","cpi",0.1,1969,3,1969,NA,0.5,3.08719916936951,3.27693972595323,4.42679496126681,3.1731721410374,FALSE,2.74497441283613
"CAN","cpi",0.1,1969,3,1968,NA,1,2.628038819549,2.81777937613271,4.42679496126681,4.79164269130369,FALSE,3.76533074577061
"CAN","cpi",0.1,1969,3,1968,NA,1.5,2.22623524607261,2.41597580265633,4.42679496126681,3.43166930802121,FALSE,4.65822757571813
"CAN","cpi",0.1,1970,3,1970,NA,0,3.40222216203983,3.45463106620808,3.28128405769805,3.60731179706845,FALSE,0.321160247149982
"CAN","cpi",0.1,1970,3,1970,NA,0.5,3.5678847746251,3.6505510347768,3.28128405769805,4.09876840974541,FALSE,0.719556742211816
"CAN","cpi",0.1,1970,3,1969,NA,1,1.78418975081127,1.86685601096298,3.28128405769805,4.16731408225431,FALSE,3.22583969734075
"CAN","cpi",0.1,1970,3,1969,NA,1.5,1.33189741453453,2.02087886996063,3.28128405769805,2.94225383025522,FALSE,3.48988187262036
"CAN","cpi",0.1,1971,3,1971,NA,0,2.48154513379512,2.55291516483645,2.64123406634756,2.83090781749212,FALSE,0.267634256621581
"CAN","cpi",0.1,1971,3,1971,NA,0.5,1.33142446321837,1.40279449425969,2.64123406634756,1.62320660035324,FALSE,2.82345796901437
"CAN","cpi",0.1,1971,3,1970,NA,1,1.38179624777742,1.56707104364476,2.64123406634756,3.17007770946556,FALSE,2.5723037352069
"CAN","cpi",0.1,1971,3,1970,NA,1.5,3.3207167199957,3.6281844915888,2.64123406634756,3.54353814347809,FALSE,1.81742922414452
"CAN","cpi",0.1,1972,3,1972,NA,0,4.18711506283734,4.23953482306954,4.83230569625923,5.0489634093373,FALSE,1.3696883673204
"CAN","cpi",0.1,1972,3,1972,NA,0.5,3.34702232694956,3.56296046374486,4.83230569625923,4.42305209693724,FALSE,3.03670532016057
"CAN","cpi",0.1,1972,3,1971,NA,1,3.16601973641008,3.79266459073304,4.83230569625923,4.88112932259212,FALSE,2.93695842215894
"CAN","cpi",0.1,1972,3,1971,NA,1.5,1.4905396578566,2.18342544209275,4.83230569625923,2.93340690449956,FALSE,6.57928634905056
"CAN","cpi",0.1,1973,3,1973,NA,0,4.75667826563603,4.82999616813485,7.12388603531779,7.21795256722813,FALSE,5.17085094068313
"CAN","cpi",0.1,1973,3,1973,NA,0.5,3.56735280753604,3.74405137066306,7.12388603531779,5.49391172870491,FALSE,7.68744226235975
"CAN","cpi",0.1,1973,3,1972,NA,1,3.74729775432052,4.09381614012873,7.12388603531779,5.39692894021178,FALSE,7.0800070417839
"CAN","cpi",0.1,1973,3,1972,NA,1.5,2.62092483958496,3.39961300241199,7.12388603531779,3.58263496028301,FALSE,9.05485045817326
"CAN","cpi",0.1,1974,3,1974,NA,0,8.44368431507258,8.73703528486474,10.2717243737774,10.1210179328964,FALSE,3.70377116737588
"CAN","cpi",0.1,1974,3,1974,NA,0.5,8.53161373051647,9.37638709591539,10.2717243737774,7.94351867110281,FALSE,2.83441176064787
"CAN","cpi",0.1,1974,3,1973,NA,1,4.87708900282735,6.89010426260156,10.2717243737774,7.1912022670208,FALSE,9.52772661794278
"CAN","cpi",0.1,1974,3,1973,NA,1.5,2.45632961000654,4.46934486978074,10.2717243737774,4.0254660999559,FALSE,14.9071919353224
"CAN","cpi",0.1,1975,3,1975,NA,0,10.0572397410926,10.0967565333806,10.0232981493341,10.1376483081154,FALSE,0.114942551751274
"CAN","cpi",0.1,1975,3,1975,NA,0.5,9.60348603486893,10.2083340374871,10.0232981493341,8.26308676293858,TRUE,0.604848002618141
"CAN","cpi",0.1,1975,3,1974,NA,1,8.50019292635982,10.2076914453086,10.0232981493341,7.73583614861028,TRUE,1.70749851894873
"CAN","cpi",0.1,1975,3,1974,NA,1.5,3.34848102581308,6.43510048338574,10.0232981493341,4.67814014273702,FALSE,11.0603920485691
"CAN","cpi",0.1,1976,3,1976,NA,0,5.86548770505825,6.09516467977853,7.22784311401172,7.2178166349125,FALSE,2.74674016190513
"CAN","cpi",0.1,1976,3,1976,NA,0.5,7.91800315258332,8.65761328006565,7.22784311401172,6.91786916440093,FALSE,2.2732991020859
"CAN","cpi",0.1,1976,3,1975,NA,1,9.56808513048804,10.3076952579704,7.22784311401172,8.273619332389,FALSE,5.94014794187418
"CAN","cpi",0.1,1976,3,1975,NA,1.5,5.05963047142943,8.22561028059055,7.22784311401172,4.5816570194731,TRUE,3.16597980916112
"CAN","cpi",0.1,1977,3,1977,NA,0,7.12692787800569,7.1458638927594,7.58101410153764,7.50701198703803,FALSE,0.985936478705356
"CAN","cpi",0.1,1977,3,1977,NA,0.5,7.1461006891885,7.16503670394221,7.58101410153764,6.51617593246189,FALSE,0.943330231632447
"CAN","cpi",0.1,1977,3,1976,NA,1,4.29232086060506,4.59304960796613,7.58101410153764,4.96992569410004,FALSE,6.94064984418665
"CAN","cpi",0.1,1977,3,1976,NA,1.5,7.02548740425724,7.32621615161831,7.58101410153764,4.37719420243736,FALSE,0.866946413848486
"CAN","cpi",0.1,1978,3,1978,NA,0,7.51540820846594,7.57931604629083,8.50208927062595,8.58158523467168,FALSE,2.11451500301404
"CAN","cpi",0.1,1978,3,1978,NA,0.5,7.86909815973624,8.43252055998316,8.50208927062595,7.4716201567401,FALSE,0.718019535008667
"CAN","cpi",0.1,1978,3,1977,NA,1,6.98621325564919,7.54963565589611,8.50208927062595,6.36749774462425,FALSE,2.67998598853544
"CAN","cpi",0.1,1978,3,1977,NA,1.5,7.04374792591888,7.6071703261658,8.50208927062595,5.06410799386515,FALSE,2.55213116571391
"CAN","cpi",0.1,1979,3,1979,NA,0,8.54545504815238,8.72703793279835,8.65147652410481,8.49829924825941,TRUE,0.18158288464597
"CAN","cpi",0.1,1979,3,1979,NA,0.5,8.05731582525239,8.23889870989836,8.65147652410481,7.55954787357905,FALSE,1.09842247177141
"CAN","cpi",0.1,1979,3,1978,NA,1,8.76202145934298,9.60117631846668,8.65147652410481,7.11843292779768,FALSE,1.08481027076408
"CAN","cpi",0.1,1979,3,1978,NA,1.5,7.16646319725545,8.00561805637916,8.65147652410481,5.13416174624329,FALSE,2.27439589851405
"CAN","cpi",0.1,1980,3,1980,NA,0,8.83840004520266,8.95847042616679,9.5171912664748,9.41458421512922,FALSE,1.36167224831525
"CAN","cpi",0.1,1980,3,1980,NA,0.5,9.89133066021555,10.0114010411797,9.5171912664748,7.9706129876785,FALSE,0.951491255943586
"CAN","cpi",0.1,1980,3,1979,NA,1,7.66377919115668,7.81663539299799,9.5171912664748,6.28953001008885,FALSE,3.93186925401199
"CAN","cpi",0.1,1980,3,1979,NA,1.5,7.62707597596852,8.45603777719778,9.5171912664748,5.364173973799,FALSE,3.18708066628929
"CAN","cpi",0.1,1981,3,1981,NA,0,10.1748337034143,10.2638949676477,11.5813425032741,11.5923033542996,FALSE,3.01672245451432
"CAN","cpi",0.1,1981,3,1981,NA,0.5,10.0849198872397,10.2653892838955,11.5813425032741,11.0172481296202,FALSE,3.10480988416387
"CAN","cpi",0.1,1981,3,1980,NA,1,8.78703749681321,9.7128929393336,11.5813425032741,8.10476531012298,FALSE,5.07796558461048
"CAN","cpi",0.1,1981,3,1980,NA,1.5,7.84624095878896,8.77209640130935,11.5813425032741,5.56064493450504,FALSE,7.1686245579977
"CAN","cpi",0.1,1982,3,1982,NA,0,9.50552599810193,9.86655442693615,10.1124203763629,10.1931679525338,FALSE,0.907397205338222
"CAN","cpi",0.1,1982,3,1982,NA,0.5,9.77877157556255,10.1398000043968,10.1124203763629,9.37004969245236,TRUE,0.361028428834221
"CAN","cpi",0.1,1982,3,1981,NA,1,9.92255075705252,10.2835791858867,10.1124203763629,8.69554175936175,TRUE,0.361028428834221
"CAN","cpi",0.1,1982,3,1981,NA,1.5,8.39502807981606,8.75605650865028,10.1124203763629,7.27062596384307,FALSE,3.37517035708458
"CAN","cpi",0.1,1983,3,1983,NA,0,4.50066263376395,4.66758906126395,5.67091787896303,5.81768735292628,FALSE,2.39654602238686
"CAN","cpi",0.1,1983,3,1983,NA,0.5,3.52574958065746,3.69267600815746,5.67091787896303,5.01354605702602,FALSE,4.56301947373462
"CAN","cpi",0.1,1983,3,1982,NA,1,8.62075947709852,9.56719211718729,5.67091787896303,7.12656393494862,FALSE,7.50163619150096
"CAN","cpi",0.1,1983,3,1982,NA,1.5,8.56191634562125,9.5112438076831,5.67091787896303,6.40641718255638,FALSE,7.37376849908012
"CAN","cpi",0.1,1984,3,1984,NA,0,3.87515677572638,3.90858543198697,4.19799576814029,4.24028901012313,FALSE,0.676562736601298
"CAN","cpi",0.1,1984,3,1984,NA,0.5,3.77950065581532,4.48074340609338,4.19799576814029,4.75786855948752,TRUE,0.701242750278059
"CAN","cpi",0.1,1984,3,1983,NA,1,5.52147577449053,6.22271852476858,4.19799576814029,5.66557758519989,FALSE,3.64230943105636
"CAN","cpi",0.1,1984,3,1983,NA,1.5,7.41770614906976,8.11894889934782,4.19799576814029,4.21132796972244,FALSE,7.85615470789912
"CAN","cpi",0.1,1985,3,1985,NA,0,3.66187208775934,3.69930037418878,3.86444262005169,3.92349089738505,FALSE,0.404411055013697
"CAN","cpi",0.1,1985,3,1985,NA,0.5,3.65548232138804,3.81948802636537,3.86444262005169,4.05923277954066,FALSE,0.263904802058052
"CAN","cpi",0.1,1985,3,1984,NA,1,1.58957036084867,2.23955802131004,3.86444262005169,3.95710775307987,FALSE,4.2608423243317
"CAN","cpi",0.1,1985,3,1984,NA,1.5,8.21714351703819,8.86713117749956,3.86444262005169,4.80620472271859,FALSE,10.3226563204314
"CAN","cpi",0.1,1986,3,1986,NA,0,3.86564849031626,3.89696437553724,4.08685396749431,4.13000198176505,FALSE,0.453292756236692
"CAN","cpi",0.1,1986,3,1986,NA,0.5,4.01296406474015,4.13632322951299,4.08685396749431,4.52376153022901,TRUE,0.12335916477284
"CAN","cpi",0.1,1986,3,1985,NA,1,2.56599525519639,3.25671928712564,4.08685396749431,4.28856700742326,FALSE,2.53546776608185
"CAN","cpi",0.1,1986,3,1985,NA,1.5,7.59670571462718,8.57632711162406,4.08685396749431,4.73207334351572,FALSE,8.77929194618103
"CAN","cpi",0.1,1987,3,1987,NA,0,4.11777549016522,4.15480721389747,4.23980729277887,4.34713339619661,FALSE,0.225920787913142
"CAN","cpi",0.1,1987,3,1987,NA,0.5,3.78799296026825,3.83620057227577,4.23980729277887,4.04554574241257,FALSE,0.945111435347746
"CAN","cpi",0.1,1987,3,1986,NA,1,3.95534946528573,4.00355707729324,4.23980729277887,4.62985152306341,FALSE,0.573208090864471
"CAN","cpi",0.1,1987,3,1986,NA,1.5,7.3802689822741,7.97217176243224,4.23980729277887,4.92117197950912,FALSE,7.57070653459199
"CAN","cpi",0.1,1988,3,1988,NA,0,3.85576088342022,3.87620387055004,3.92899537638065,4.00901931174773,FALSE,0.137757444531184
"CAN","cpi",0.1,1988,3,1988,NA,0.5,3.7544164648444,3.87908003514073,3.92899537638065,3.73662637763501,FALSE,0.235586550829497
"CAN","cpi",0.1,1988,3,1987,NA,1,3.93878020746037,4.0634437777567,3.92899537638065,4.57559871410537,FALSE,0.146407639362363
"CAN","cpi",0.1,1988,3,1987,NA,1.5,7.11287367442521,7.23753724472154,3.92899537638065,4.47333468954476,FALSE,7.19994867706201
"CAN","cpi",0.1,1989,3,1989,NA,0,4.57938998714204,4.6255664202877,4.82821664544208,4.99076681888079,FALSE,0.496510266822053
"CAN","cpi",0.1,1989,3,1989,NA,0.5,4.06614671671344,4.11276847262975,4.82821664544208,4.4916513034202,FALSE,1.63650658438815
"CAN","cpi",0.1,1989,3,1988,NA,1,3.91682704244803,3.96344879836434,4.82821664544208,4.54165447743213,FALSE,1.96832808275573
"CAN","cpi",0.1,1989,3,1988,NA,1.5,4.23633040580898,7.17583692046261,4.82821664544208,4.35655767104226,TRUE,2.93950651465363
"CAN","cpi",0.1,1990,3,1990,NA,0,4.31064940185129,4.33185327355986,4.64347549432717,4.53713653171057,FALSE,0.713697695635933
"CAN","cpi",0.1,1990,3,1990,NA,0.5,4.10352625317468,4.18132513916094,4.64347549432717,5.08101061108308,FALSE,1.10479967524455
"CAN","cpi",0.1,1990,3,1989,NA,1,4.29590436408538,5.24958898102902,4.64347549432717,5.34783125013627,TRUE,0.953684616943633
"CAN","cpi",0.1,1990,3,1989,NA,1.5,4.47508233344635,7.35247203621009,4.64347549432717,4.81353563225505,TRUE,2.87738970276374
"CAN","cpi",0.1,1991,3,1991,NA,0,5.09191994737593,5.197635177263,5.4258100696218,5.66037042635664,FALSE,0.612770546239953
"CAN","cpi",0.1,1991,3,1991,NA,0.5,9.11884941084395,9.34888045231141,5.4258100696218,7.84858621299389,FALSE,8.43678513307224
"CAN","cpi",0.1,1991,3,1990,NA,1,3.41335785884825,3.73417734150072,5.4258100696218,4.26930339967321,FALSE,4.08000332292153
"CAN","cpi",0.1,1991,3,1990,NA,1.5,5.60812909008656,7.67937320496029,5.4258100696218,5.0605414207232,FALSE,2.47639749368432
"CAN","cpi",0.1,1992,3,1992,NA,0,1.2315932732171,1.27207131886698,1.47496888572843,1.52994687025859,FALSE,0.491361527564222
"CAN","cpi",0.1,1992,3,1992,NA,0.5,2.24964023143613,2.36541938270328,1.47496888572843,1.85875773502133,FALSE,1.83727103061758
"CAN","cpi",0.1,1992,3,1991,NA,1,2.29903369712237,2.6326863391533,1.47496888572843,3.50386131646851,FALSE,2.1649077784619
"CAN","cpi",0.1,1992,3,1991,NA,1.5,7.13774688528649,8.63654758911789,1.47496888572843,6.78035435046663,FALSE,14.0827518139604
"CAN","cpi",0.1,1993,3,1993,NA,0,1.53821318992722,1.55228186985809,1.84351085411351,1.87124044779021,FALSE,0.661244200498472
"CAN","cpi",0.1,1993,3,1993,NA,0.5,3.00164713100484,3.12155086699322,1.84351085411351,2.72734178597627,FALSE,2.693539906858
"CAN","cpi",0.1,1993,3,1992,NA,1,1.6753282513297,1.79523198731808,1.84351085411351,3.08451104384819,FALSE,0.227190106644892
"CAN","cpi",0.1,1993,3,1992,NA,1.5,4.58042458784892,5.03759664656927,1.84351085411351,3.82501351795864,FALSE,6.53920257813237
"CAN","cpi",0.1,1994,3,1994,NA,0,-0.410951708253882,-0.276621925402716,0.161630694655448,0.262954827743209,FALSE,1.10822449409153
"CAN","cpi",0.1,1994,3,1994,NA,0.5,0.436931660370063,0.861119347987367,0.161630694655448,0.310066271274909,FALSE,1.03596761142756
"CAN","cpi",0.1,1994,3,1993,NA,1,1.41262992236686,1.83681760998416,0.161630694655448,2.87682482634461,FALSE,3.20418597142044
"CAN","cpi",0.1,1994,3,1993,NA,1.5,4.32200788168818,4.74619556930548,0.161630694655448,4.13541986765475,FALSE,9.66947032546781
"CAN","cpi",0.1,1995,3,1995,NA,0,2.29755279376586,2.35093071271125,2.11688403676572,2.22224044651209,FALSE,0.454864045612379
"CAN","cpi",0.1,1995,3,1995,NA,0.5,3.41761918852346,3.48940713702491,2.11688403676572,2.99405804315788,FALSE,2.96231050796311
"CAN","cpi",0.1,1995,3,1994,NA,1,1.51110620538244,1.58337750057982,2.11688403676572,2.99684369657241,FALSE,1.25784137561047
"CAN","cpi",0.1,1995,3,1994,NA,1.5,1.33626715567978,1.5277158946459,2.11688403676572,2.55761383507254,FALSE,1.50071127701015
"CAN","cpi",0.1,1996,3,1996,NA,0,1.3185979907648,1.33369800976663,1.55309584667184,1.51034526106652,FALSE,0.502650767680075
"CAN","cpi",0.1,1996,3,1996,NA,0.5,1.61674428067244,1.83142708881065,1.55309584667184,1.79601314583588,FALSE,0.356123772583985
"CAN","cpi",0.1,1996,3,1995,NA,1,0.981583002753313,1.19626581089153,1.55309584667184,2.55715877011559,FALSE,1.00763844320558
"CAN","cpi",0.1,1996,3,1995,NA,1.5,4.53521305257842,4.75627296344077,1.55309584667184,4.37195408299294,FALSE,6.84798703509919
"CAN","cpi",0.1,1997,3,1997,NA,0,1.61166540613887,1.65318184951161,1.60528783555959,1.74775979926451,FALSE,0.0556888224378037
"CAN","cpi",0.1,1997,3,1997,NA,0.5,2.27299837157243,2.31451481494517,1.60528783555959,2.44638235868142,FALSE,1.52531763451238
"CAN","cpi",0.1,1997,3,1996,NA,1,0.95577055154036,1.20809006617277,1.60528783555959,2.43903366578812,FALSE,1.1349812243809
"CAN","cpi",0.1,1997,3,1996,NA,1.5,3.48220595060535,3.95456008779875,1.60528783555959,3.62198739789796,FALSE,4.64328328173953
"CAN","cpi",0.1,1998,3,1998,NA,0,0.748697936656456,0.796065493409766,0.988908029337191,1.03895035119065,FALSE,0.47590652548092
"CAN","cpi",0.1,1998,3,1998,NA,0.5,1.58211131786362,1.69294180584465,0.988908029337191,1.85198354845497,FALSE,1.42906001803976
"CAN","cpi",0.1,1998,3,1997,NA,1,1.36580008377383,1.47663057175487,0.988908029337191,2.50242700061489,FALSE,0.948368386729134
"CAN","cpi",0.1,1998,3,1997,NA,1.5,2.3442879710687,3.35557386010602,0.988908029337191,3.75826952211307,FALSE,4.02324131510734
"CAN","cpi",0.1,1999,3,1999,NA,0,1.63289545055341,1.67127894402158,1.7107350135213,1.81904689636282,FALSE,0.126063647911985
"CAN","cpi",0.1,1999,3,1999,NA,0.5,1.37139882901675,1.49331444827322,1.7107350135213,1.31729339512256,FALSE,0.605072430918861
"CAN","cpi",0.1,1999,3,1998,NA,1,0.950352620654782,1.07226823991125,1.7107350135213,2.15211490322884,FALSE,1.54073067172324
"CAN","cpi",0.1,1999,3,1998,NA,1.5,2.56097006173204,3.26188482000707,1.7107350135213,3.69857126490312,FALSE,2.59032597652113
"CAN","cpi",0.1,2000,3,2000,NA,0,2.57834879667442,2.5946679679609,2.6718361971244,2.74274050503735,FALSE,0.187804124983144
"CAN","cpi",0.1,2000,3,2000,NA,0.5,1.70266571742609,2.15536065967105,2.6718361971244,2.46113990926174,FALSE,1.60041835880795
"CAN","cpi",0.1,2000,3,1999,NA,1,1.83101438859122,2.4568487434319,2.6718361971244,3.49419557264756,FALSE,1.10358425193513
"CAN","cpi",0.1,2000,3,1999,NA,1.5,2.05963679499153,2.68547114983221,2.6718361971244,3.22544865557399,TRUE,0.625834354840682
"CAN","cpi",0.1,2001,3,2001,NA,0,2.60659863848476,2.7019968154721,2.47906219852806,2.80396337772557,FALSE,0.378812488002223
"CAN","cpi",0.1,2001,3,2001,NA,0.5,1.54407201142638,1.71542139194449,2.47906219852806,2.23984277042869,FALSE,1.86832895070383
"CAN","cpi",0.1,2001,3,2000,NA,1,2.02118088699495,2.61534183303578,2.47906219852806,3.95792003209951,TRUE,0.594160946040833
"CAN","cpi",0.1,2001,3,2000,NA,1.5,2.08457328346508,2.67873422950591,2.47906219852806,3.55622040628749,TRUE,0.594160946040833
"CAN","cpi",0.1,2002,3,2002,NA,0,2.36089634226861,2.46448131556932,2.20880570551249,2.34939305392984,FALSE,0.441564166092097
"CAN","cpi",0.1,2002,3,2002,NA,0.5,1.51479502374515,1.61837999704586,2.20880570551249,1.70224895292675,FALSE,1.41564210322655
"CAN","cpi",0.1,2002,3,2001,NA,1,1.20719069297263,1.39131119788375,2.20880570551249,2.47791561910008,FALSE,2.00077496630831
"CAN","cpi",0.1,2002,3,2001,NA,1.5,2.3235203594238,2.63858016034454,2.20880570551249,3.17564245091106,FALSE,0.569981254056988
"CAN","cpi",0.1,2003,3,2003,NA,0,2.59611768962971,2.61693971167921,2.71189071546809,2.81714587005806,FALSE,0.231824252691453
"CAN","cpi",0.1,2003,3,2003,NA,0.5,4.21317741802123,4.43819025466753,2.71189071546809,4.41787786293317,FALSE,3.56120550898662
"CAN","cpi",0.1,2003,3,2002,NA,1,3.94696529561693,4.17197813226323,2.71189071546809,4.32236105253803,FALSE,2.96962301475483
"CAN","cpi",0.1,2003,3,2002,NA,1.5,2.32110867929468,2.54612151594098,2.71189071546809,3.7551535685832,FALSE,0.593388835595438
"CAN","cpi",0.1,2004,3,2004,NA,0,1.60662266994866,1.63050161272277,1.83151661303942,1.83115885083991,FALSE,0.470578943477778
"CAN","cpi",0.1,2004,3,2004,NA,0.5,1.78894986478185,1.92566492732426,1.83151661303942,1.89356075843229,TRUE,0.136715062542413
"CAN","cpi",0.1,2004,3,2003,NA,1,1.36164176535048,1.49835682789289,1.83151661303942,2.5903955121087,FALSE,0.877070140645812
"CAN","cpi",0.1,2004,3,2003,NA,1.5,4.1951119734279,4.7268350733179,1.83151661303942,4.52605057310407,FALSE,5.78415723408662
"CAN","cpi",0.1,2005,3,2005,NA,0,2.34481881901841,2.28270635525272,2.18071628336509,2.39375726304695,FALSE,0.302559837686128
"CAN","cpi",0.1,2005,3,2005,NA,0.5,2.04455974329765,1.98244727953196,2.18071628336509,2.00628617924563,FALSE,0.378485322530151
"CAN","cpi",0.1,2005,3,2004,NA,1,1.46867935596096,1.5687529224386,2.18071628336509,2.50853787240411,FALSE,1.45999214631428
"CAN","cpi",0.1,2005,3,2004,NA,1.5,2.39129748283494,2.63943919718214,2.18071628336509,3.53910826966273,FALSE,0.716099935391305
"CAN","cpi",0.1,2006,3,2006,NA,0,1.96302285764462,2.07753861561104,1.97519342012289,2.13830460574546,TRUE,0.114515757966419
"CAN","cpi",0.1,2006,3,2006,NA,0.5,2.16023420965966,2.36168309280768,1.97519342012289,2.27462572570213,FALSE,0.612650637674182
"CAN","cpi",0.1,2006,3,2005,NA,1,2.32252138163069,2.57759780930435,1.97519342012289,3.7624469653382,FALSE,1.02691634213545
"CAN","cpi",0.1,2006,3,2005,NA,1.5,2.23735701212866,2.5682452486069,1.97519342012289,3.32314929235963,FALSE,0.913473996491068
"CAN","cpi",0.1,2007,3,2007,NA,0,1.98094020696716,2.09217461435172,2.10062087284572,2.1848630325127,FALSE,0.13000387070457
"CAN","cpi",0.1,2007,3,2007,NA,0.5,2.45713639932315,2.61125357857885,2.10062087284572,2.4659174627357,FALSE,0.946373904761095
"CAN","cpi",0.1,2007,3,2006,NA,1,1.11874824892046,1.27286542817616,2.10062087284572,2.22963612092819,FALSE,1.99357372296583
"CAN","cpi",0.1,2007,3,2006,NA,1.5,2.20320737078226,2.59522972813796,2.10062087284572,3.47295078658589,FALSE,0.619992352770223
"CAN","cpi",0.1,2008,3,2008,NA,0,2.65099494258171,2.66893137192169,2.31447335265955,2.95153528130006,FALSE,0.765762184722546
"CAN","cpi",0.1,2008,3,2008,NA,0.5,1.60536842638257,1.62656706125465,2.31447335265955,1.59715335325429,FALSE,1.54987928243853
"CAN","cpi",0.1,2008,3,2007,NA,1,1.30355904198235,1.57919159963268,2.31447335265955,2.20911886965343,FALSE,1.90959200882115
"CAN","cpi",0.1,2008,3,2007,NA,1.5,2.18525872494756,2.67036819825851,2.31447335265955,3.9578182731907,TRUE,0.485109473310948
"CAN","cpi",0.1,2009,3,2009,NA,0,0.162050011275888,0.164816870546782,0.284533874408197,0.346622519867227,FALSE,0.268804645629594
"CAN","cpi",0.1,2009,3,2009,NA,0.5,-0.0866749049884953,0.154565937260594,0.284533874408197,-0.0457515238861102,FALSE,0.530058480354874
"CAN","cpi",0.1,2009,3,2008,NA,1,3.89651791423885,4.13775875648794,0.284533874408197,4.33236618581201,FALSE,8.26787204187277
"CAN","cpi",0.1,2009,3,2008,NA,1.5,2.16856829586823,2.40980913811732,0.284533874408197,3.24825712451693,FALSE,4.42798400104917
"CAN","cpi",0.1,2010,3,2010,NA,0,1.59261775097443,1.60574556081134,1.75525687020327,1.78349521203817,FALSE,0.345375164041199
"CAN","cpi",0.1,2010,3,2010,NA,0.5,1.9624308113541,2.09473136961382,1.75525687020327,1.93597561685668,FALSE,0.592687094150458
"CAN","cpi",0.1,2010,3,2009,NA,1,1.53500379254447,1.66730435080419,1.75525687020327,2.28870864882185,FALSE,0.327750601368789
"CAN","cpi",0.1,2010,3,2009,NA,1.5,1.41796347863491,2.01822558625406,1.75525687020327,2.56709646677203,TRUE,0.600262107619143
"CAN","cpi",0.1,2011,3,2011,NA,0,2.59307719956827,2.6251798036939,2.85717434028225,2.89893270710837,FALSE,0.547646018766403
"CAN","cpi",0.1,2011,3,2011,NA,0.5,2.42526194205203,2.68726422648488,2.85717434028225,3.00273872882262,FALSE,0.639580315093663
"CAN","cpi",0.1,2011,3,2010,NA,1,1.77769404105574,2.03969632548858,2.85717434028225,3.01142322899407,FALSE,2.07862009508544
"CAN","cpi",0.1,2011,3,2010,NA,1.5,2.11233678392993,2.37433906836278,2.85717434028225,3.40953331447502,FALSE,1.334969555365
"CAN","cpi",0.1,2012,3,2012,NA,0,1.48117754758081,1.48385320143969,1.50118536134935,1.54988369950135,FALSE,0.0411915647692245
"CAN","cpi",0.1,2012,3,2012,NA,0.5,2.04159587601207,2.04427152987095,1.50118536134935,2.15316548342416,FALSE,1.20358790866494
"CAN","cpi",0.1,2012,3,2011,NA,1,1.59224498247741,1.74415118653686,1.50118536134935,2.54342291649057,FALSE,0.354260917677365
"CAN","cpi",0.1,2012,3,2011,NA,1.5,2.18979945275644,2.42887153316851,1.50118536134935,3.73545377968611,FALSE,1.76932561687227
"CAN","cpi",0.1,2013,3,2013,NA,0,1.04553931250486,1.09285898405395,0.931270594714462,1.09800048224073,FALSE,0.301250155527761
"CAN","cpi",0.1,2013,3,2013,NA,0.5,1.60601699804468,1.65915298743691,0.931270594714462,1.51761743040875,FALSE,1.55257244123716
"CAN","cpi",0.1,2013,3,2012,NA,1,1.00602351513131,1.06882676604772,0.931270594714462,1.66882566360164,FALSE,0.228920851842734
"CAN","cpi",0.1,2013,3,2012,NA,1.5,2.15792802615937,2.32324146710278,0.931270594714462,3.3545832452448,FALSE,2.89121884415431
"CAN","cpi",0.1,2014,3,2014,NA,0,1.82063574269622,1.86823501526991,1.87639912240215,2.0588007866019,FALSE,0.0657417328675668
"CAN","cpi",0.1,2014,3,2014,NA,0.5,1.94924721099581,2.05016302277544,1.87639912240215,2.32770811661281,FALSE,0.262800453098883
"CAN","cpi",0.1,2014,3,2013,NA,1,1.56420808891579,1.67195608557549,1.87639912240215,2.31995786180362,FALSE,0.562065856274499
"CAN","cpi",0.1,2014,3,2013,NA,1.5,2.04886047354033,2.32292043286875,1.87639912240215,3.28547165350463,FALSE,0.65730740630215
"CAN","cpi",0.1,2015,3,2015,NA,0,1.14564870704314,1.19335524498242,1.11090953952792,1.30745939376918,FALSE,0.124904687973102
"CAN","cpi",0.1,2015,3,2015,NA,0.5,0.69409875807898,0.943359655011073,1.11090953952792,0.816310503641023,FALSE,0.621593973636191
"CAN","cpi",0.1,2015,3,2014,NA,1,1.5315688384831,1.78082973541519,1.11090953952792,2.265930123798,FALSE,1.18405933905472
"CAN","cpi",0.1,2015,3,2014,NA,1.5,2.11938455719599,2.36864545412809,1.11090953952792,3.7337371203939,FALSE,2.49031649175004
"CAN","cpi",0.1,2016,3,2016,NA,0,1.46020098446094,1.48283063704251,1.41168586698797,1.51468621085982,FALSE,0.130441024743732
"CAN","cpi",0.1,2016,3,2016,NA,0.5,1.55113323499018,1.60626122797622,1.41168586698797,1.39785588750173,FALSE,0.365011032990964
"CAN","cpi",0.1,2016,3,2015,NA,1,1.55546419319747,1.69384388778651,1.41168586698797,2.74144943136963,FALSE,0.457887086165712
"CAN","cpi",0.1,2016,3,2015,NA,1.5,1.91594672644242,2.25451343475573,1.41168586698797,2.82752633095574,FALSE,1.45914639598987
"CAN","cpi",0.1,2017,3,2017,NA,0,1.49439177977451,1.49871316898451,1.57888581671161,1.58758621872303,FALSE,0.182482828603549
"CAN","cpi",0.1,2017,3,2017,NA,0.5,1.87707160161074,1.95749815756997,1.57888581671161,2.28560926705846,FALSE,0.743061633512844
"CAN","cpi",0.1,2017,3,2016,NA,1,1.5269102462138,1.60733680217303,1.57888581671161,2.1477774879281,TRUE,0.0804265559592325
"CAN","cpi",0.1,2017,3,2016,NA,1.5,1.87183006011861,2.20508418368952,1.57888581671161,3.03010691132674,FALSE,0.984241331142013
"CAN","cpi",0.1,2018,3,2018,NA,0,2.29793721387623,2.32511958563677,2.23316270166586,2.46195010316238,FALSE,0.17112573222803
"CAN","cpi",0.1,2018,3,2018,NA,0.5,2.33011072076754,2.57218593526415,2.23316270166586,2.94436972801409,FALSE,0.457515256944789
"CAN","cpi",0.1,2018,3,2017,NA,1,1.35368054286946,1.59575575736607,2.23316270166586,2.08021290652945,FALSE,1.65853509071837
"CAN","cpi",0.1,2018,3,2017,NA,1.5,2.04936413466799,2.2914393491646,2.23316270166586,3.54405552837179,TRUE,0.242075214496614
"CAN","cpi",0.1,2019,3,2019,NA,0,1.87792137998389,1.88076744427951,1.91921619871868,2.07527494378271,FALSE,0.0882877408271094
"CAN","cpi",0.1,2019,3,2019,NA,0.5,1.79767849354394,1.85650424273322,1.91921619871868,1.96131710374494,FALSE,0.1981856513792
"CAN","cpi",0.1,2019,3,2018,NA,1,1.5563442249009,1.61516997409018,1.91921619871868,2.81909694573415,FALSE,0.734484026141501
"CAN","cpi",0.1,2019,3,2018,NA,1.5,2.12984655793132,2.22937414185386,1.91921619871868,3.79624170159109,FALSE,0.567595048839519
"CAN","cpi",0.1,2020,3,2020,NA,0,0.39030326676431,0.436508381325426,0.71139989671781,0.779891991607007,FALSE,0.657075148766414
"CAN","cpi",0.1,2020,3,2020,NA,0.5,1.57818782190088,1.77933536732234,0.71139989671781,1.59504539616918,FALSE,2.12734293471718
"CAN","cpi",0.1,2020,3,2019,NA,1,1.52160557890866,1.72275312433012,0.71139989671781,2.56912406193859,FALSE,2.00160461695669
"CAN","cpi",0.1,2020,3,2019,NA,1.5,1.85783985165036,2.11674772802611,0.71139989671781,3.3514298226716,FALSE,2.80655222067031
"CAN","cpi",0.1,2021,3,2021,NA,0,2.99363550721109,3.03988932306353,3.31148121717802,3.33723348286849,FALSE,0.649791358329096
"CAN","cpi",0.1,2021,3,2021,NA,0.5,2.24374924842358,2.35401284850674,3.31148121717802,2.81986273764272,FALSE,2.23797108601934
"CAN","cpi",0.1,2021,3,2020,NA,1,1.52164813119145,1.63191173127462,3.31148121717802,2.55173313104187,FALSE,3.84264023542407
"CAN","cpi",0.1,2021,3,2020,NA,1.5,1.58768952947832,1.9391072339732,3.31148121717802,3.05083641297579,FALSE,3.40113766717227
"CAN","cpi",0.1,2022,3,2022,NA,0,5.72993445192986,6.15496836232552,6.50977236228281,6.58834368873213,FALSE,1.21348724363408
"CAN","cpi",0.1,2022,3,2022,NA,0.5,6.53286368098441,6.95789759138007,6.50977236228281,5.98101887959915,FALSE,0.476347951954768
"CAN","cpi",0.1,2022,3,2021,NA,1,3.28409654509479,3.75988809393052,6.50977236228281,4.27132466765734,FALSE,6.58664547850748
"CAN","cpi",0.1,2022,3,2021,NA,1.5,1.88975668472593,2.36554823356166,6.50977236228281,3.68392050970238,FALSE,9.6851785015494
"CAN","cpi",0.1,2023,3,2023,NA,0,3.89321042886977,3.89974684090844,3.78831288758619,4.00821358342971,FALSE,0.239642059335513
"CAN","cpi",0.1,2023,3,2023,NA,0.5,3.63611686482566,3.88380262368013,3.78831288758619,3.29302587175885,TRUE,0.247685758854473
"CAN","cpi",0.1,2023,3,2022,NA,1,2.1183596455721,2.47466136410715,3.78831288758619,4.01905628942603,FALSE,3.27552732626624
"CAN","cpi",0.1,2023,3,2022,NA,1.5,4.45139960969925,4.8077013282343,3.78831288758619,4.75925635675837,FALSE,1.82982776767519
"CAN","cpi",0.1,2024,3,2023,NA,1,2.24573206555065,2.55047302669486,NA,3.92709419556525,NA,NA
"CAN","cpi",0.1,2024,3,2023,NA,1.5,1.85076285989816,2.15550382104237,NA,3.33916254361279,NA,NA
"CAN","cpi",0.2,1950,3,1950,NA,0,3.41276022321824,3.41276022321824,2.59031220731124,2.32166735935542,FALSE,2.0561200397675
"CAN","cpi",0.2,1950,3,1950,NA,0.5,3.41276022321824,3.41276022321824,2.59031220731124,1.23070468188811,FALSE,2.0561200397675
"CAN","cpi",0.2,1950,3,1949,NA,1,3.41328211841322,5.36353305242581,2.59031220731124,5.09987337388258,FALSE,4.00767571176754
"CAN","cpi",0.2,1950,3,1949,NA,1.5,3.41223832802326,5.36248926203585,2.59031220731124,7.87125428886177,FALSE,4.00506623579265
"CAN","cpi",0.2,1951,3,1951,NA,0,5.03585604589559,6.18256764252563,9.87945438999359,9.91468181420993,FALSE,10.3889284653
"CAN","cpi",0.2,1951,3,1951,NA,0.5,3.08657318032458,4.23328477695462,9.87945438999359,8.91293028153729,FALSE,15.2621356292275
"CAN","cpi",0.2,1951,3,1950,NA,1,2.06307944390384,3.20979104053388,9.87945438999359,6.69633780377586,FALSE,17.8208699702793
"CAN","cpi",0.2,1951,3,1950,NA,1.5,2.26402566785403,3.41073726448407,9.87945438999359,4.62302705298717,FALSE,17.3185044104038
"CAN","cpi",0.2,1952,3,1952,NA,0,2.59031220731124,2.59031220731124,2.55562336095485,2.65771800091113,FALSE,0.0867221158909803
"CAN","cpi",0.2,1952,3,1952,NA,0.5,2.90593101361386,3.07487753107221,2.55562336095485,5.20333179389047,FALSE,1.04471564910589
"CAN","cpi",0.2,1952,3,1951,NA,1,4.74958727875399,8.75651388446267,2.55562336095485,8.18998200969936,FALSE,9.49183640020654
"CAN","cpi",0.2,1952,3,1951,NA,1.5,2.91883697982368,7.29277672228499,2.55562336095485,7.55460015368862,FALSE,5.2819737896334
"CAN","cpi",0.2,1953,3,1953,NA,0,2.55562336095485,2.56256967141585,-1.01492775838436,-0.921435878605124,FALSE,8.93332410880903
"CAN","cpi",0.2,1953,3,1953,NA,0.5,2.55562336095485,2.56256967141585,-1.01492775838436,-0.76897284692861,FALSE,8.93332410880903
"CAN","cpi",0.2,1953,3,1952,NA,1,2.64155407122616,2.89862290980358,-1.01492775838436,2.43113434957527,FALSE,9.39827341260372
"CAN","cpi",0.2,1953,3,1952,NA,1.5,2.56950248099906,3.41276022355027,-1.01492775838436,5.93557635631702,FALSE,9.80433334100977
"CAN","cpi",0.2,1954,3,1954,NA,0,-0.956355369492673,0.988759183709049,0.644425455961438,0.902670593188762,TRUE,1.94511455320172
"CAN","cpi",0.2,1954,3,1954,NA,0.5,0.589079190420466,2.53419374362219,0.644425455961438,0.795164313951574,TRUE,1.94511455320172
"CAN","cpi",0.2,1954,3,1953,NA,1,-0.311841562243649,2.55791821445786,0.644425455961438,4.14534384936852,TRUE,2.86975977670151
"CAN","cpi",0.2,1954,3,1953,NA,1.5,-1.01492775838436,2.59031220708645,0.644425455961438,3.28639485866967,TRUE,3.60523996547081
"CAN","cpi",0.2,1955,3,1955,NA,0,-0.965190661607374,-0.49519951879297,0.173649026558865,0.179965740558204,FALSE,2.14211250619399
"CAN","cpi",0.2,1955,3,1955,NA,0.5,-0.838136181434039,-0.368145038619635,0.173649026558865,0.271639815719239,FALSE,1.82447630576065
"CAN","cpi",0.2,1955,3,1954,NA,1,-0.493277947871656,-0.0232868050572518,0.173649026558865,4.00726070064464,FALSE,0.962330721854696
"CAN","cpi",0.2,1955,3,1954,NA,1.5,-0.656967394217289,0.413896693188766,0.173649026558865,3.09849569962328,TRUE,1.07086408740606
"CAN","cpi",0.2,1956,3,1956,NA,0,0.568971128546262,0.761992646592298,1.32752769429961,1.49944483483663,FALSE,1.60685913731431
"CAN","cpi",0.2,1956,3,1956,NA,0.5,-0.536227857717048,-0.343206339671011,1.32752769429961,0.239658941687119,FALSE,4.36985660297258
"CAN","cpi",0.2,1956,3,1955,NA,1,-1.11143851740738,-0.918416999361344,1.32752769429961,2.42699902405841,FALSE,5.80788325219842
"CAN","cpi",0.2,1956,3,1955,NA,1.5,-0.77670168556619,-0.459917841095738,1.32752769429961,2.6723883730094,FALSE,4.78539768295882
"CAN","cpi",0.2,1957,3,1957,NA,0,6.51016397831335,8.00022235690547,3.24684755852518,3.40805864327458,FALSE,9.64834942806255
"CAN","cpi",0.2,1957,3,1957,NA,0.5,2.63246314040585,4.12252151899797,3.24684755852518,2.77134230956367,TRUE,1.49005837859212
"CAN","cpi",0.2,1957,3,1956,NA,1,2.08036377613083,3.57042215472295,3.24684755852518,5.53767573267731,TRUE,1.49005837859212
"CAN","cpi",0.2,1957,3,1956,NA,1.5,-0.628263840159678,0.861794538432445,3.24684755852518,2.3159105314434,FALSE,7.45269092882395
"CAN","cpi",0.2,1958,3,1958,NA,0,2.20449196107136,2.5605972734395,2.33186388641149,2.2666416787086,TRUE,0.356105312368147
"CAN","cpi",0.2,1958,3,1958,NA,0.5,2.71948166326635,3.52522754551411,2.33186388641149,2.6047181946108,FALSE,1.77479032438491
"CAN","cpi",0.2,1958,3,1957,NA,1,-0.171083809846568,0.634662072401196,2.33186388641149,4.25451187896576,FALSE,5.0487504172735
"CAN","cpi",0.2,1958,3,1957,NA,1.5,0.362015379653141,1.42274427103183,2.33186388641149,3.21878619474396,FALSE,3.33352792982783
"CAN","cpi",0.2,1959,3,1959,NA,0,0.603516141630019,0.841601431712087,1.19382698397654,1.23804892137791,FALSE,1.1186491707432
"CAN","cpi",0.2,1959,3,1959,NA,0.5,2.11282862231796,2.71671522504482,1.19382698397654,1.22423653017582,FALSE,2.9013906985804
"CAN","cpi",0.2,1959,3,1958,NA,1,-0.988157910120454,-0.116866274375803,1.19382698397654,2.76661875727304,FALSE,4.14802478162551
"CAN","cpi",0.2,1959,3,1958,NA,1.5,0.569155350625411,1.6942574317121,1.19382698397654,3.40313655953963,TRUE,1.12510208108669
"CAN","cpi",0.2,1960,3,1960,NA,0,0.614971858336307,0.810768578295895,1.34209404870695,1.09496250556158,FALSE,1.52411039598723
"CAN","cpi",0.2,1960,3,1960,NA,0.5,2.10418008945214,2.72706711681536,1.34209404870695,1.31117730754252,FALSE,2.52810212922619
"CAN","cpi",0.2,1960,3,1959,NA,1,-0.0446309389084562,0.624632668668344,1.34209404870695,3.67993081372331,FALSE,2.46291705767332
"CAN","cpi",0.2,1960,3,1959,NA,1.5,0.624566612942675,1.29383022051948,1.34209404870695,2.53752597259669,FALSE,0.78992317804549
"CAN","cpi",0.2,1961,3,1961,NA,0,1.0265918842497,1.2462373225726,1.00921348094007,1.07956241593662,FALSE,0.263091446596973
"CAN","cpi",0.2,1961,3,1961,NA,0.5,1.4365322699148,2.27585029651243,1.00921348094007,1.62810563897838,FALSE,1.90761499903444
"CAN","cpi",0.2,1961,3,1960,NA,1,-0.653696970044505,0.424520124484805,1.00921348094007,1.72683407115431,FALSE,2.53995048566748
"CAN","cpi",0.2,1961,3,1960,NA,1.5,0.612871690858729,1.69108878538804,1.00921348094007,2.46209267036318,TRUE,1.07821709452931
"CAN","cpi",0.2,1962,3,1962,NA,0,1.15691556126447,1.27408855188448,1.04957947883042,1.11859419449202,FALSE,0.385513196705138
"CAN","cpi",0.2,1962,3,1962,NA,0.5,0.537223599011163,0.860561837610204,1.04957947883042,0.567427238599509,FALSE,0.795882341649569
"CAN","cpi",0.2,1962,3,1961,NA,1,0.494550982032876,0.817889220631918,1.04957947883042,1.63689072516514,FALSE,0.902563884095285
"CAN","cpi",0.2,1962,3,1961,NA,1.5,0.993324354904677,1.31666259350372,1.04957947883042,2.63635903501327,TRUE,0.323338238599042
"CAN","cpi",0.2,1963,3,1963,NA,0,1.40300524901382,1.56163426152475,1.60677118395228,1.86240003699012,FALSE,0.271471318579774
"CAN","cpi",0.2,1963,3,1963,NA,0.5,1.25549632670846,1.41412533921939,1.60677118395228,1.39337130813056,FALSE,0.640243624343169
"CAN","cpi",0.2,1963,3,1962,NA,1,0.725463415763215,1.11998192403766,1.60677118395228,2.94326130570012,FALSE,1.61149165806101
"CAN","cpi",0.2,1963,3,1962,NA,1.5,0.848712614398914,1.24729288613499,1.60677118395228,2.44281938697022,FALSE,1.29727601627931
"CAN","cpi",0.2,1964,3,1964,NA,0,1.49941639666415,1.58536401280232,1.88764670034376,2.0039339947047,FALSE,0.841654334991773
"CAN","cpi",0.2,1964,3,1964,NA,0.5,1.39186944738577,1.53220523351908,1.88764670034376,1.7991677011144,FALSE,1.02893945319502
"CAN","cpi",0.2,1964,3,1963,NA,1,1.27780554710628,1.41814133323959,1.88764670034376,4.16988253093083,FALSE,1.31409920389373
"CAN","cpi",0.2,1964,3,1963,NA,1.5,1.03343164479022,1.32752723947805,1.88764670034376,2.39235828979053,FALSE,1.6943942468521
"CAN","cpi",0.2,1965,3,1965,NA,0,3.00537067994242,3.52832666705594,2.29538304394236,2.3444020011952,FALSE,2.29792507711368
"CAN","cpi",0.2,1965,3,1965,NA,0.5,1.45658400369227,1.97953999080578,2.29538304394236,1.87416183614195,FALSE,1.31256361995494
"CAN","cpi",0.2,1965,3,1964,NA,1,0.819116183176634,1.34207217029015,2.29538304394236,2.77513442256292,FALSE,2.90623317124404
"CAN","cpi",0.2,1965,3,1964,NA,1.5,0.931444973114365,1.45440096022788,2.29538304394236,2.58300862182973,FALSE,2.62541119639971
"CAN","cpi",0.2,1966,3,1966,NA,0,3.31685809943351,3.35187187336053,3.72486065470629,3.82226531435883,FALSE,0.967485727291422
"CAN","cpi",0.2,1966,3,1966,NA,0.5,3.17463010635749,4.04258986715713,3.72486065470629,3.71609253757358,TRUE,0.867959760799637
"CAN","cpi",0.2,1966,3,1965,NA,1,0.836361324102561,1.7043210849022,3.72486065470629,3.18026314560651,FALSE,5.91930868530987
"CAN","cpi",0.2,1966,3,1965,NA,1.5,0.828681869690837,1.69664163049047,3.72486065470629,2.72588429168219,FALSE,5.93850732133918
"CAN","cpi",0.2,1967,3,1967,NA,0,5.22852628600907,6.29535692226625,3.49360316391996,3.71060899730274,FALSE,5.40413844147996
"CAN","cpi",0.2,1967,3,1967,NA,0.5,1.90695945073865,2.97379008699583,3.49360316391996,2.56028521952089,FALSE,2.36636332856751
"CAN","cpi",0.2,1967,3,1966,NA,1,0.883713438532073,1.95054407478925,3.49360316391996,3.23068289349593,FALSE,4.92447835908395
"CAN","cpi",0.2,1967,3,1966,NA,1.5,1.19124805979867,2.29667451353325,3.49360316391996,3.48379255951164,FALSE,4.09774807970135
"CAN","cpi",0.2,1968,3,1968,NA,0,3.59046912639437,3.63891653656821,3.95128347779386,4.08812321751386,FALSE,0.829364763237964
"CAN","cpi",0.2,1968,3,1968,NA,0.5,2.88411759123562,3.29441876311204,3.95128347779386,3.86057245484849,FALSE,2.05246295858096
"CAN","cpi",0.2,1968,3,1967,NA,1,2.204106276837,2.61440744871343,3.95128347779386,4.52914843962159,FALSE,3.75249124457751
"CAN","cpi",0.2,1968,3,1967,NA,1.5,1.22055620771635,2.29537495172583,3.95128347779386,2.90317969156253,FALSE,5.21459005917954
"CAN","cpi",0.2,1969,3,1969,NA,0,3.82360820208728,3.8729932052825,4.42679496126681,4.56202018095233,FALSE,1.43388939315601
"CAN","cpi",0.2,1969,3,1969,NA,0.5,2.93280071127046,3.41454559954822,4.42679496126681,3.1731721410374,FALSE,3.01236829257425
"CAN","cpi",0.2,1969,3,1968,NA,1,2.57874909902991,3.13228477183501,4.42679496126681,4.79164269130369,FALSE,3.78981114638461
"CAN","cpi",0.2,1969,3,1968,NA,1.5,1.32914212656812,2.58276803293829,4.42679496126681,3.43166930802121,FALSE,5.86369322719149
"CAN","cpi",0.2,1970,3,1970,NA,0,3.38495648452013,3.48476150501857,3.28128405769805,3.60731179706845,FALSE,0.358986087553643
"CAN","cpi",0.2,1970,3,1970,NA,0.5,3.47170275061543,3.67360127364358,3.28128405769805,4.09876840974541,FALSE,0.67794525532161
"CAN","cpi",0.2,1970,3,1969,NA,1,1.72457473923561,1.92647326226375,3.28128405769805,4.16731408225431,FALSE,3.58892551161389
"CAN","cpi",0.2,1970,3,1969,NA,1.5,1.2736731100924,2.30924098224756,3.28128405769805,2.94225383025522,FALSE,3.46567556078137
"CAN","cpi",0.2,1971,3,1971,NA,0,2.42041479410499,2.55567827034499,2.64123406634756,2.83090781749212,FALSE,0.349152966246422
"CAN","cpi",0.2,1971,3,1971,NA,0.5,1.32448817431942,1.45975165055942,2.64123406634756,1.62320660035324,FALSE,3.08896951571036
"CAN","cpi",0.2,1971,3,1970,NA,1,1.33918138314001,2.1418512002591,2.64123406634756,3.17007770946556,FALSE,2.05112698234025
"CAN","cpi",0.2,1971,3,1970,NA,1.5,2.57992062058458,3.84358968092259,2.64123406634756,3.54353814347809,TRUE,1.26366906033801
"CAN","cpi",0.2,1972,3,1972,NA,0,4.16090892740839,4.26574484960767,4.83230569625923,5.0489634093373,FALSE,1.52123803882818
"CAN","cpi",0.2,1972,3,1972,NA,0.5,3.28128386921661,3.63234333164023,4.83230569625923,4.42305209693724,FALSE,3.35096537397113
"CAN","cpi",0.2,1972,3,1971,NA,1,2.91928526005842,3.86061280999046,4.83230569625923,4.88112932259212,FALSE,3.37055976560396
"CAN","cpi",0.2,1972,3,1971,NA,1.5,1.32745208269256,2.79552317675039,4.83230569625923,2.93340690449956,FALSE,6.56002739282993
"CAN","cpi",0.2,1973,3,1973,NA,0,4.85274118138806,5.57692057366687,7.12388603531779,7.21795256722813,FALSE,4.59159304640611
"CAN","cpi",0.2,1973,3,1973,NA,0.5,3.27786135447264,4.00204074675145,7.12388603531779,5.49391172870491,FALSE,8.52879261369465
"CAN","cpi",0.2,1973,3,1972,NA,1,3.1828685583195,4.16915004097944,7.12388603531779,5.39692894021178,FALSE,8.37312146850581
"CAN","cpi",0.2,1973,3,1972,NA,1.5,2.53319465941095,3.51947614207088,7.12388603531779,3.58263496028301,FALSE,9.9973062157772
"CAN","cpi",0.2,1974,3,1974,NA,0,8.29700883017651,8.88371076976082,10.2717243737774,10.1210179328964,FALSE,4.05673594962581
"CAN","cpi",0.2,1974,3,1974,NA,0.5,8.10922704781702,9.79877377861484,10.2717243737774,7.94351867110281,FALSE,2.87192321870427
"CAN","cpi",0.2,1974,3,1973,NA,1,4.03402566849567,7.71337544984666,10.2717243737774,7.1912022670208,FALSE,10.0752220911779
"CAN","cpi",0.2,1974,3,1973,NA,1.5,2.00109971340897,5.68044949475996,10.2717243737774,4.0254660999559,FALSE,15.1575369788946
"CAN","cpi",0.2,1975,3,1975,NA,0,10.0374813449485,10.1165149295246,10.0232981493341,10.1376483081154,FALSE,0.114491573612165
"CAN","cpi",0.2,1975,3,1975,NA,0.5,9.32782252733194,10.5375777852678,10.0232981493341,8.26308676293858,TRUE,1.20975525793581
"CAN","cpi",0.2,1975,3,1974,NA,1,4.34993851110527,10.1520424834336,10.0232981493341,7.73583614861028,TRUE,5.80210397232828
"CAN","cpi",0.2,1975,3,1974,NA,1.5,2.25680502406955,8.05890899639784,10.0232981493341,4.67814014273702,FALSE,10.713076854669
"CAN","cpi",0.2,1976,3,1976,NA,0,5.75064921769811,6.21000316713867,7.22784311401172,7.2178166349125,FALSE,3.00395381662317
"CAN","cpi",0.2,1976,3,1976,NA,0.5,7.66616451313046,9.0671938565115,7.22784311401172,6.91786916440093,FALSE,2.4968328411779
"CAN","cpi",0.2,1976,3,1975,NA,1,9.23669546562582,10.6377248090069,7.22784311401172,8.273619332389,FALSE,6.42316022241631
"CAN","cpi",0.2,1976,3,1975,NA,1.5,3.37143863351896,9.32806251440326,7.22784311401172,4.5816570194731,TRUE,5.9566238808843
"CAN","cpi",0.2,1977,3,1977,NA,0,6.86044518568862,7.06966033848952,7.58101410153764,7.50701198703803,FALSE,1.4875995604212
"CAN","cpi",0.2,1977,3,1977,NA,0.5,7.05096112016491,7.26017627296581,7.58101410153764,6.51617593246189,FALSE,1.01130972423049
"CAN","cpi",0.2,1977,3,1976,NA,1,3.95118185526209,4.96697040592715,7.58101410153764,4.96992569410004,FALSE,7.5508977896913
"CAN","cpi",0.2,1977,3,1976,NA,1.5,3.65803808934759,8.28824680828176,7.58101410153764,4.37719420243736,TRUE,4.63020871893417
"CAN","cpi",0.2,1978,3,1978,NA,0,7.4834542895535,7.82540503522123,8.50208927062595,8.58158523467168,FALSE,2.03366133417953
"CAN","cpi",0.2,1978,3,1978,NA,0.5,7.7467712854153,9.1161435100433,8.50208927062595,7.4716201567401,TRUE,1.369372224628
"CAN","cpi",0.2,1978,3,1977,NA,1,6.41242325825252,7.78179548288052,8.50208927062595,6.36749774462425,FALSE,3.17010669399157
"CAN","cpi",0.2,1978,3,1977,NA,1.5,7.01193362314014,8.38130584776814,8.50208927062595,5.06410799386515,FALSE,1.67133078177251
"CAN","cpi",0.2,1979,3,1979,NA,0,8.45466360582939,8.81782937512133,8.65147652410481,8.49829924825941,TRUE,0.363165769291939
"CAN","cpi",0.2,1979,3,1979,NA,0.5,7.96652438292941,8.32969015222135,8.65147652410481,7.55954787357905,FALSE,1.1676316990006
"CAN","cpi",0.2,1979,3,1978,NA,1,8.19422264868883,9.71382985799498,8.65147652410481,7.11843292779768,TRUE,1.51960720930615
"CAN","cpi",0.2,1979,3,1978,NA,1.5,6.98185414054984,8.50146134985599,8.65147652410481,5.13416174624329,FALSE,1.89464514492819
"CAN","cpi",0.2,1980,3,1980,NA,0,8.7783648547206,9.01850561664886,9.5171912664748,9.41458421512922,FALSE,1.4868548864931
"CAN","cpi",0.2,1980,3,1980,NA,0.5,9.83129546973349,10.0714362316617,9.5171912664748,7.9706129876785,FALSE,1.02540127007499
"CAN","cpi",0.2,1980,3,1979,NA,1,7.58735109023602,7.89306349391865,9.5171912664748,6.28953001008885,FALSE,4.36603183507299
"CAN","cpi",0.2,1980,3,1979,NA,1.5,7.20703493761219,8.56184239701298,9.5171912664748,5.364173973799,FALSE,3.74317963305533
"CAN","cpi",0.2,1981,3,1981,NA,0,10.1303030712976,10.5426351844391,11.5813425032741,11.5923033542996,FALSE,3.0091004102291
"CAN","cpi",0.2,1981,3,1981,NA,0.5,10.0068460865372,10.5738656477406,11.5813425032741,11.0172481296202,FALSE,3.08571170003734
"CAN","cpi",0.2,1981,3,1980,NA,1,8.61560709731475,9.85333794442856,11.5813425032741,8.10476531012298,FALSE,5.55774224422777
"CAN","cpi",0.2,1981,3,1980,NA,1.5,7.49738439975025,8.73511524686407,11.5813425032741,5.56064493450504,FALSE,8.353298988139
"CAN","cpi",0.2,1982,3,1982,NA,0,8.60689267981074,9.643633930429,10.1124203763629,10.1931679525338,FALSE,2.20870736545313
"CAN","cpi",0.2,1982,3,1982,NA,0.5,9.44442234434137,10.4811635949596,10.1124203763629,9.37004969245236,TRUE,1.03674125061826
"CAN","cpi",0.2,1982,3,1981,NA,1,9.34853292146231,10.8417604236826,10.1124203763629,8.69554175936175,TRUE,1.49322750222029
"CAN","cpi",0.2,1982,3,1981,NA,1.5,7.81363558422371,9.30686308644399,10.1124203763629,7.27062596384307,FALSE,3.50712072701766
"CAN","cpi",0.2,1983,3,1983,NA,0,4.41216508713218,4.75608660789572,5.67091787896303,5.81768735292628,FALSE,2.63099969843183
"CAN","cpi",0.2,1983,3,1983,NA,0.5,3.37331817773757,3.79277808553802,5.67091787896303,5.01354605702602,FALSE,5.11480939136298
"CAN","cpi",0.2,1983,3,1982,NA,1,8.58120158620519,9.60809335008328,5.67091787896303,7.12656393494862,FALSE,8.30260103198348
"CAN","cpi",0.2,1983,3,1982,NA,1.5,8.31823801947043,9.63622557028056,5.67091787896303,6.40641718255638,FALSE,7.93628790207862
"CAN","cpi",0.2,1984,3,1984,NA,0,3.85844244759608,3.92529976011727,4.19799576814029,4.24028901012313,FALSE,0.748597332578737
"CAN","cpi",0.2,1984,3,1984,NA,0.5,3.58509568044193,4.55734815801197,4.19799576814029,4.75786855948752,TRUE,0.972252477570043
"CAN","cpi",0.2,1984,3,1983,NA,1,4.92637347826331,6.39707295300643,4.19799576814029,5.66557758519989,FALSE,3.29164375005068
"CAN","cpi",0.2,1984,3,1983,NA,1.5,7.03297778683723,8.50367726158036,4.19799576814029,4.21132796972244,FALSE,8.55815452148548
"CAN","cpi",0.2,1985,3,1985,NA,0,3.64315794454462,3.71801451740349,3.86444262005169,3.92349089738505,FALSE,0.440926829479371
"CAN","cpi",0.2,1985,3,1985,NA,0.5,3.58610189665086,3.91411254564192,3.86444262005169,4.05923277954066,TRUE,0.328010648991061
"CAN","cpi",0.2,1985,3,1984,NA,1,1.39503320391268,2.9975390857257,3.86444262005169,3.95710775307987,FALSE,3.76976471762801
"CAN","cpi",0.2,1985,3,1984,NA,1.5,7.47813183093308,9.34170473674861,3.86444262005169,4.80620472271859,FALSE,10.897795933019
"CAN","cpi",0.2,1986,3,1986,NA,0,3.84999054770578,3.91262231814772,4.08685396749431,4.13000198176505,FALSE,0.498210893808414
"CAN","cpi",0.2,1986,3,1986,NA,0.5,3.95128448235373,4.23094771934844,4.08685396749431,4.52376153022901,TRUE,0.279663236994709
"CAN","cpi",0.2,1986,3,1985,NA,1,2.18500234394375,3.27440987239854,4.08685396749431,4.28856700742326,FALSE,3.12051776619422
"CAN","cpi",0.2,1986,3,1985,NA,1.5,7.33696495810316,8.65148077554765,4.08685396749431,4.73207334351572,FALSE,9.43979329396661
"CAN","cpi",0.2,1987,3,1987,NA,0,4.09925962829909,4.1733230757636,4.23980729277887,4.34713339619661,FALSE,0.240273990002688
"CAN","cpi",0.2,1987,3,1987,NA,0.5,3.7597552177932,3.86443831475082,4.23980729277887,4.04554574241257,FALSE,1.04310554202775
"CAN","cpi",0.2,1987,3,1986,NA,1,3.84682464316908,4.0235269468257,4.23980729277887,4.62985152306341,FALSE,0.71740316853955
"CAN","cpi",0.2,1987,3,1986,NA,1.5,5.79817057357738,8.50203768777709,4.23980729277887,4.92117197950912,FALSE,6.59977531619599
"CAN","cpi",0.2,1988,3,1988,NA,0,3.84120114068939,3.88458252237082,3.92899537638065,4.00901931174773,FALSE,0.154413516706013
"CAN","cpi",0.2,1988,3,1988,NA,0.5,3.71115370420973,3.93691463041999,3.92899537638065,3.73662637763501,TRUE,0.225760926210259
"CAN","cpi",0.2,1988,3,1987,NA,1,3.88674809823135,4.11250902444161,3.92899537638065,4.57559871410537,TRUE,0.225760926210259
"CAN","cpi",0.2,1988,3,1987,NA,1.5,4.41551707977857,7.5532131210002,3.92899537638065,4.47333468954476,FALSE,4.35400029971643
"CAN","cpi",0.2,1989,3,1989,NA,0,4.55630177056922,4.64865463686053,4.82821664544208,4.99076681888079,FALSE,0.541257887745189
"CAN","cpi",0.2,1989,3,1989,NA,0.5,4.04544434059718,4.13868815538226,4.82821664544208,4.4916513034202,FALSE,1.81706503993462
"CAN","cpi",0.2,1989,3,1988,NA,1,3.89351601301365,3.98675982779872,4.82821664544208,4.54165447743213,FALSE,2.19688585889346
"CAN","cpi",0.2,1989,3,1988,NA,1.5,4.19799388165607,7.22783440577985,4.82821664544208,4.35655767104226,TRUE,3.02984052412377
"CAN","cpi",0.2,1990,3,1990,NA,0,4.300047465997,4.34245520941414,4.64347549432717,4.53713653171057,FALSE,0.79495845569971
"CAN","cpi",0.2,1990,3,1990,NA,0.5,4.05974095951035,4.54702002540366,4.64347549432717,5.08101061108308,FALSE,0.728417738202081
"CAN","cpi",0.2,1990,3,1989,NA,1,4.21751007496335,5.32549642776375,4.64347549432717,5.34783125013627,TRUE,1.1079863528004
"CAN","cpi",0.2,1990,3,1989,NA,1.5,4.22716336225707,7.32951922760974,4.64347549432717,4.81353563225505,TRUE,3.10235586535267
"CAN","cpi",0.2,1991,3,1991,NA,0,5.03906233243239,5.25049279220653,5.4258100696218,5.66037042635664,FALSE,0.649723653312297
"CAN","cpi",0.2,1991,3,1991,NA,0.5,9.00383389011022,9.46389597304514,5.4258100696218,7.84858621299389,FALSE,9.40512163415598
"CAN","cpi",0.2,1991,3,1990,NA,1,3.25418545415271,3.80877804317515,5.4258100696218,4.26930339967321,FALSE,4.59717265513906
"CAN","cpi",0.2,1991,3,1990,NA,1.5,5.13506366763774,7.92977237196519,5.4258100696218,5.0605414207232,TRUE,2.79470870432744
"CAN","cpi",0.2,1992,3,1992,NA,0,1.21135425039217,1.29231034169191,1.47496888572843,1.52994687025859,FALSE,0.537602451391048
"CAN","cpi",0.2,1992,3,1992,NA,0.5,2.19175065580255,2.42330895833685,1.47496888572843,1.85875773502133,FALSE,2.0235127277196
"CAN","cpi",0.2,1992,3,1991,NA,1,1.52737147675943,3.31317532147591,1.47496888572843,3.50386131646851,FALSE,1.91681032229397
"CAN","cpi",0.2,1992,3,1991,NA,1.5,6.14670718144485,9.20557000489867,1.47496888572843,6.78035435046663,FALSE,14.7382085627449
"CAN","cpi",0.2,1993,3,1993,NA,0,1.53117884996178,1.55931620982353,1.84351085411351,1.87124044779021,FALSE,0.738623970586702
"CAN","cpi",0.2,1993,3,1993,NA,0.5,2.92976780349586,3.1934301945022,1.84351085411351,2.72734178597627,FALSE,2.97930476446221
"CAN","cpi",0.2,1993,3,1992,NA,1,1.4749877962343,1.97181566652093,1.84351085411351,3.08451104384819,TRUE,0.496827870286632
"CAN","cpi",0.2,1993,3,1992,NA,1.5,4.30733790257388,5.83958453584868,1.84351085411351,3.82501351795864,FALSE,7.69181425442572
"CAN","cpi",0.2,1994,3,1994,NA,0,-0.478116599679465,-0.209457033977133,0.161630694655448,0.262954827743209,FALSE,1.19637888728378
"CAN","cpi",0.2,1994,3,1994,NA,0.5,0.247993829873325,0.854622662402304,0.161630694655448,0.310066271274909,FALSE,0.822536670573672
"CAN","cpi",0.2,1994,3,1993,NA,1,1.33939170931806,1.94602054184704,0.161630694655448,2.87682482634461,FALSE,3.55103136918551
"CAN","cpi",0.2,1994,3,1993,NA,1.5,4.23793396879139,4.9489966868756,0.161630694655448,4.13541986765475,FALSE,10.9018209034241
"CAN","cpi",0.2,1995,3,1995,NA,0,2.22768391039676,2.37761967218395,2.11688403676572,2.22224044651209,FALSE,0.426935445864798
"CAN","cpi",0.2,1995,3,1995,NA,0.5,3.30040396893036,3.52448569127602,2.11688403676572,2.99405804315788,FALSE,3.18288155275727
"CAN","cpi",0.2,1995,3,1994,NA,1,1.4436008071853,1.66768252953097,2.11688403676572,2.99684369657241,FALSE,1.34708549043253
"CAN","cpi",0.2,1995,3,1994,NA,1.5,1.33044022951419,1.58046292815922,2.11688403676572,2.55761383507254,FALSE,1.59107547016127
"CAN","cpi",0.2,1996,3,1996,NA,0,1.30471889962158,1.33824635230024,1.55309584667184,1.51034526106652,FALSE,0.570651188607672
"CAN","cpi",0.2,1996,3,1996,NA,0.5,1.54085327123793,1.9052042924234,1.55309584667184,1.79601314583588,TRUE,0.364351021185468
"CAN","cpi",0.2,1996,3,1995,NA,1,0.853402090756562,1.21775311194203,1.55309584667184,2.55715877011559,FALSE,1.20270785801
"CAN","cpi",0.2,1996,3,1995,NA,1.5,4.38086097567722,5.11934055209985,1.55309584667184,4.37195408299294,FALSE,7.80789239893608
"CAN","cpi",0.2,1997,3,1997,NA,0,1.58127519474065,1.68357206090983,1.60528783555959,1.74775979926451,TRUE,0.102296866169183
"CAN","cpi",0.2,1997,3,1997,NA,0.5,2.20884769352288,2.31790148840446,1.60528783555959,2.44638235868142,FALSE,1.6179534397898
"CAN","cpi",0.2,1997,3,1996,NA,1,0.877931707965858,1.22235778798221,1.60528783555959,2.43903366578812,FALSE,1.3017511989598
"CAN","cpi",0.2,1997,3,1996,NA,1.5,2.56440405197853,4.22984522280997,1.60528783555959,3.62198739789796,FALSE,4.06323171187877
"CAN","cpi",0.2,1998,3,1998,NA,0,0.725014158279802,0.819749271786421,0.988908029337191,1.03895035119065,FALSE,0.517632007383544
"CAN","cpi",0.2,1998,3,1998,NA,0.5,1.52713699575611,1.81081564019866,0.988908029337191,1.85198354845497,FALSE,1.62925106048985
"CAN","cpi",0.2,1998,3,1997,NA,1,1.19382539334743,1.50034286980897,0.988908029337191,2.50242700061489,FALSE,0.818810886487136
"CAN","cpi",0.2,1998,3,1997,NA,1.5,2.00966558236906,3.42988685464224,0.988908029337191,3.75826952211307,FALSE,3.97211515485286
"CAN","cpi",0.2,1999,3,1999,NA,0,1.61370370381933,1.69047069075566,1.7107350135213,1.81904689636282,FALSE,0.127427793850422
"CAN","cpi",0.2,1999,3,1999,NA,0.5,1.3825069785605,1.60541955989034,1.7107350135213,1.31729339512256,FALSE,0.486201215407237
"CAN","cpi",0.2,1999,3,1998,NA,1,0.90195128297398,1.12486386430382,1.7107350135213,2.15211490322884,FALSE,1.68759045437353
"CAN","cpi",0.2,1999,3,1998,NA,1.5,2.04054804238651,3.43699560998641,1.7107350135213,3.69857126490312,FALSE,2.22098013976294
"CAN","cpi",0.2,2000,3,2000,NA,0,2.56805269287707,2.59986537427192,2.6718361971244,2.74274050503735,FALSE,0.211739738526054
"CAN","cpi",0.2,2000,3,2000,NA,0.5,1.55579111865215,2.18591837295771,2.6718361971244,2.46113990926174,FALSE,1.84492181472228
"CAN","cpi",0.2,2000,3,1999,NA,1,1.64908627742084,2.73318190583745,2.6718361971244,3.49419557264756,TRUE,1.08409562841661
"CAN","cpi",0.2,2000,3,1999,NA,1.5,1.71609432677863,3.34651058066812,2.6718361971244,3.22544865557399,TRUE,1.63041625388949
"CAN","cpi",0.2,2001,3,2001,NA,0,2.57197676030497,2.7627788948121,2.47906219852806,2.80396337772557,FALSE,0.423088538949392
"CAN","cpi",0.2,2001,3,2001,NA,0.5,1.48227901193059,1.82421471239728,2.47906219852806,2.23984277042869,FALSE,1.97905441579365
"CAN","cpi",0.2,2001,3,2000,NA,1,1.71328363426545,2.659591842983,2.47906219852806,3.95792003209951,TRUE,0.946308208717551
"CAN","cpi",0.2,2001,3,2000,NA,1.5,1.80000339723214,3.25788676881654,2.47906219852806,3.55622040628749,TRUE,1.4578833715844
"CAN","cpi",0.2,2002,3,2002,NA,0,2.33828422977219,2.49858086096496,2.20880570551249,2.34939305392984,FALSE,0.483992941842029
"CAN","cpi",0.2,2002,3,2002,NA,0.5,1.47414923063672,1.63444586182948,2.20880570551249,1.70224895292675,FALSE,1.59619624040028
"CAN","cpi",0.2,2002,3,2001,NA,1,1.00921327518097,1.44054979983415,2.20880570551249,2.47791561910008,FALSE,2.35197628884902
"CAN","cpi",0.2,2002,3,2001,NA,1.5,1.8891816051373,3.1307574430325,2.20880570551249,3.17564245091106,TRUE,1.2415758378952
"CAN","cpi",0.2,2003,3,2003,NA,0,2.58570771701137,2.62735115342792,2.71189071546809,2.81714587005806,FALSE,0.25299234151697
"CAN","cpi",0.2,2003,3,2003,NA,0.5,4.17207631397126,4.52221454448642,2.71189071546809,4.41787786293317,FALSE,4.00060222677309
"CAN","cpi",0.2,2003,3,2002,NA,1,3.88440759176441,4.23454582227958,2.71189071546809,4.32236105253803,FALSE,3.28143042125597
"CAN","cpi",0.2,2003,3,2002,NA,1.5,1.9850601790093,2.65222651058369,2.71189071546809,3.7551535685832,FALSE,0.816326843785393
"CAN","cpi",0.2,2004,3,2004,NA,0,1.6064741881707,1.65423719293071,1.83151661303942,1.83115885083991,FALSE,0.490961555031786
"CAN","cpi",0.2,2004,3,2004,NA,0.5,1.70687013193706,2.00756264130039,1.83151661303942,1.89356075843229,TRUE,0.300692509363337
"CAN","cpi",0.2,2004,3,2003,NA,1,1.19382995378387,1.55309203355225,1.83151661303942,2.5903955121087,FALSE,1.05532352848631
"CAN","cpi",0.2,2004,3,2003,NA,1.5,4.08696722729844,7.10532213417112,1.83151661303942,4.52605057310407,FALSE,8.65698144252022
"CAN","cpi",0.2,2005,3,2005,NA,0,2.29896627996931,2.40663733651838,2.18071628336509,2.39375726304695,FALSE,0.403296048059625
"CAN","cpi",0.2,2005,3,2005,NA,0.5,1.95298735957952,2.06065841612859,2.18071628336509,2.00628617924563,FALSE,0.407815724640324
"CAN","cpi",0.2,2005,3,2004,NA,1,1.3842680176575,1.58441095396035,2.18071628336509,2.50853787240411,FALSE,1.6909062598147
"CAN","cpi",0.2,2005,3,2004,NA,1.5,2.13761270343885,2.68949322093827,2.18071628336509,3.53910826966273,TRUE,0.551880517499422
"CAN","cpi",0.2,2006,3,2006,NA,0,1.90576497866141,2.13479649459425,1.97519342012289,2.13830460574546,TRUE,0.229031515932839
"CAN","cpi",0.2,2006,3,2006,NA,0.5,2.02449538251638,2.39150880077815,1.97519342012289,2.27462572570213,FALSE,0.490268324245515
"CAN","cpi",0.2,2006,3,2005,NA,1,1.95937702619156,2.64653652193139,1.97519342012289,3.7624469653382,TRUE,0.687159495739837
"CAN","cpi",0.2,2006,3,2005,NA,1.5,2.0882723082318,2.77543180397164,1.97519342012289,3.32314929235963,FALSE,0.969856716012127
"CAN","cpi",0.2,2007,3,2007,NA,0,1.93801551237163,2.147791818044,2.10062087284572,2.1848630325127,TRUE,0.209776305672368
"CAN","cpi",0.2,2007,3,2007,NA,0.5,2.39466137463167,2.62181673275925,2.10062087284572,2.4659174627357,FALSE,0.962256612592449
"CAN","cpi",0.2,2007,3,2006,NA,1,1.08222915948452,1.30938451761211,2.10062087284572,2.22963612092819,FALSE,2.20524624621162
"CAN","cpi",0.2,2007,3,2006,NA,1.5,2.09723410735975,2.64658683336632,2.10062087284572,3.47295078658589,TRUE,0.549352726006569
"CAN","cpi",0.2,2008,3,2008,NA,0,2.64202672791172,2.67789958659168,2.31447335265955,2.95153528130006,FALSE,0.854756296810371
"CAN","cpi",0.2,2008,3,2008,NA,0.5,1.52198584682113,1.8492115752385,2.31447335265955,1.59715335325429,FALSE,1.49038017197
"CAN","cpi",0.2,2008,3,2007,NA,1,1.26502170567656,1.60611149627592,2.31447335265955,2.20911886965343,FALSE,2.11199443155844
"CAN","cpi",0.2,2008,3,2007,NA,1.5,2.11087746403275,3.57807869496136,2.31447335265955,3.9578182731907,TRUE,1.46720123092861
"CAN","cpi",0.2,2009,3,2009,NA,0,0.0673023821198264,0.166200300182229,0.284533874408197,0.346622519867227,FALSE,0.394731853627323
"CAN","cpi",0.2,2009,3,2009,NA,0.5,-0.277888868941011,0.276670071965569,0.284533874408197,-0.0457515238861102,FALSE,0.574218447013151
"CAN","cpi",0.2,2009,3,2008,NA,1,3.80573956400544,4.36029850491202,0.284533874408197,4.33236618581201,FALSE,9.35757316489969
"CAN","cpi",0.2,2009,3,2008,NA,1.5,2.08637400627312,2.6409329471797,0.284533874408197,3.24825712451693,FALSE,5.05915927056889
"CAN","cpi",0.2,2010,3,2010,NA,0,1.55041152289629,1.60618963656518,1.75525687020327,1.78349521203817,FALSE,0.428446197764122
"CAN","cpi",0.2,2010,3,2010,NA,0.5,1.84324454946085,2.1391204177782,1.75525687020327,1.93597561685668,FALSE,0.515845066461298
"CAN","cpi",0.2,2010,3,2009,NA,1,1.43205616242566,1.72793203074301,1.75525687020327,2.28870864882185,FALSE,0.364187966967994
"CAN","cpi",0.2,2010,3,2009,NA,1.5,1.49414011763051,2.06133107252213,1.75525687020327,2.56709646677203,TRUE,0.567190954891619
"CAN","cpi",0.2,2011,3,2011,NA,0,2.57702528442094,2.64123021826211,2.85717434028225,2.89893270710837,FALSE,0.604065238891518
"CAN","cpi",0.2,2011,3,2011,NA,0.5,2.30238077480161,2.79086231461492,2.85717434028225,3.00273872882262,FALSE,0.65426160398162
"CAN","cpi",0.2,2011,3,2010,NA,1,1.64174303257634,2.13022457238966,2.85717434028225,3.01142322899407,FALSE,2.30585595954478
"CAN","cpi",0.2,2011,3,2010,NA,1.5,1.9789671954503,2.59032269509091,2.85717434028225,3.40953331447502,FALSE,1.27848461261895
"CAN","cpi",0.2,2012,3,2012,NA,0,1.45732723471906,1.50006918365146,1.50118536134935,1.54988369950135,FALSE,0.0455323931771185
"CAN","cpi",0.2,2012,3,2012,NA,0.5,1.99777662894288,2.09814891211057,1.50118536134935,2.15316548342416,FALSE,1.34185045215152
"CAN","cpi",0.2,2012,3,2011,NA,1,1.55254784785752,1.78577175135789,1.50118536134935,2.54342291649057,FALSE,0.361630119770803
"CAN","cpi",0.2,2012,3,2011,NA,1.5,2.13296817634266,2.62005147581321,1.50118536134935,3.73545377968611,FALSE,2.06654033695384
"CAN","cpi",0.2,2013,3,2013,NA,0,1.04149863553497,1.13613302048047,0.931270594714462,1.09800048224073,FALSE,0.370204486996768
"CAN","cpi",0.2,2013,3,2013,NA,0.5,1.61029560498688,1.75334889895208,0.931270594714462,1.51761743040875,FALSE,1.84061581964624
"CAN","cpi",0.2,2013,3,2012,NA,1,0.994111332594597,1.13716462655979,0.931270594714462,1.66882566360164,FALSE,0.300155138665533
"CAN","cpi",0.2,2013,3,2012,NA,1.5,1.95285624719719,2.60108925039677,0.931270594714462,3.3545832452448,FALSE,3.20219713440641
"CAN","cpi",0.2,2014,3,2014,NA,0,1.79683610640937,1.88962826912644,1.87639912240215,2.0588007866019,TRUE,0.0927921627170698
"CAN","cpi",0.2,2014,3,2014,NA,0.5,1.90092793783814,2.10921862622345,1.87639912240215,2.32770811661281,FALSE,0.26961272697529
"CAN","cpi",0.2,2014,3,2013,NA,1,1.52042681824694,1.72871750663225,1.87639912240215,2.31995786180362,FALSE,0.577494727810072
"CAN","cpi",0.2,2014,3,2013,NA,1.5,1.82396126574181,2.44241969895985,1.87639912240215,3.28547165350463,TRUE,0.618458433218032
"CAN","cpi",0.2,2015,3,2015,NA,0,1.1217954380735,1.22014263679721,1.11090953952792,1.30745939376918,FALSE,0.125561945087664
"CAN","cpi",0.2,2015,3,2015,NA,0.5,0.627891361362141,0.967107698326907,1.11090953952792,0.816310503641023,FALSE,0.698720939967291
"CAN","cpi",0.2,2015,3,2014,NA,1,1.48639410656161,1.82561044352637,1.11090953952792,2.265930123798,FALSE,1.27792775454899
"CAN","cpi",0.2,2015,3,2014,NA,1.5,1.99818419427102,2.59031228623071,1.11090953952792,3.7337371203939,FALSE,2.81031472881745
"CAN","cpi",0.2,2016,3,2016,NA,0,1.44544164663561,1.49069695243242,1.41168586698797,1.51468621085982,FALSE,0.129644754915919
"CAN","cpi",0.2,2016,3,2016,NA,0.5,1.5221876116636,1.60677115397419,1.41168586698797,1.39785588750173,FALSE,0.360837903999675
"CAN","cpi",0.2,2016,3,2015,NA,1,1.51078613924068,1.75526622420359,1.41168586698797,2.74144943136963,FALSE,0.492230765594693
"CAN","cpi",0.2,2016,3,2015,NA,1.5,1.86093752153827,2.3467175526315,1.41168586698797,2.82752633095574,FALSE,1.608909167469
"CAN","cpi",0.2,2017,3,2017,NA,0,1.49223108516952,1.50087386358951,1.57888581671161,1.58758621872303,FALSE,0.203672661225243
"CAN","cpi",0.2,2017,3,2017,NA,0.5,1.86576191190994,2.03933241243501,1.57888581671161,2.28560926705846,FALSE,0.890760738520889
"CAN","cpi",0.2,2017,3,2016,NA,1,1.45004571853334,1.62361621905842,1.57888581671161,2.1477774879281,TRUE,0.173570500525075
"CAN","cpi",0.2,2017,3,2016,NA,1.5,1.84893122755741,2.29963794882753,1.57888581671161,3.03010691132674,FALSE,1.12582024838462
"CAN","cpi",0.2,2018,3,2018,NA,0,2.26906352269837,2.35234518849583,2.23316270166586,2.46195010316238,FALSE,0.173033718378747
"CAN","cpi",0.2,2018,3,2018,NA,0.5,2.34322669403719,2.70559488529423,2.23316270166586,2.94436972801409,FALSE,0.637528172185361
"CAN","cpi",0.2,2018,3,2017,NA,1,1.22534542545511,1.58771361671216,2.23316270166586,2.08021290652945,FALSE,1.9759909036413
"CAN","cpi",0.2,2018,3,2017,NA,1.5,1.96211915454846,2.48737864397475,2.23316270166586,3.54405552837179,TRUE,0.525259489426292
"CAN","cpi",0.2,2019,3,2019,NA,0,1.87649834783608,1.88219047642732,1.91921619871868,2.07527494378271,FALSE,0.0982564343196409
"CAN","cpi",0.2,2019,3,2019,NA,0.5,1.75507019648372,1.8850690486365,1.91921619871868,1.96131710374494,FALSE,0.215366727358229
"CAN","cpi",0.2,2019,3,2018,NA,1,1.51518421311121,1.73289294458921,1.91921619871868,2.81909694573415,FALSE,0.683516866801674
"CAN","cpi",0.2,2019,3,2018,NA,1.5,1.94619715576272,2.33434245572545,1.91921619871868,3.79624170159109,FALSE,0.455597692572836
"CAN","cpi",0.2,2020,3,2020,NA,0,0.367200709483752,0.459610938605984,0.71139989671781,0.779891991607007,FALSE,0.721882624401798
"CAN","cpi",0.2,2020,3,2020,NA,0.5,1.550703424654,1.84208658255904,0.71139989671781,1.59504539616918,FALSE,2.38964197774552
"CAN","cpi",0.2,2020,3,2019,NA,1,1.48743769788068,1.77882085578572,0.71139989671781,2.56912406193859,FALSE,2.23147766081222
"CAN","cpi",0.2,2020,3,2019,NA,1.5,1.53466195784736,2.11656606505208,0.71139989671781,3.3514298226716,FALSE,2.64005926002859
"CAN","cpi",0.2,2021,3,2021,NA,0,2.97050859928488,3.06301623098974,3.31148121717802,3.33723348286849,FALSE,0.713670097175571
"CAN","cpi",0.2,2021,3,2021,NA,0.5,2.20598920435936,2.44189797840253,3.31148121717802,2.81986273764272,FALSE,2.40986687098191
"CAN","cpi",0.2,2021,3,2020,NA,1,1.48947527087591,1.72538404491909,3.31148121717802,2.55173313104187,FALSE,4.20115170469052
"CAN","cpi",0.2,2021,3,2020,NA,1.5,1.47178782568716,2.20371657203854,3.31148121717802,3.05083641297579,FALSE,3.50134035920009
"CAN","cpi",0.2,2022,3,2022,NA,0,5.66750979636852,6.38274813242599,6.50977236228281,6.58834368873213,FALSE,1.03279891069952
"CAN","cpi",0.2,2022,3,2022,NA,0.5,6.3877614681535,7.10299980421098,6.50977236228281,5.98101887959915,TRUE,0.715238336057475
"CAN","cpi",0.2,2022,3,2021,NA,1,3.11351655547733,3.8287548915348,6.50977236228281,4.27132466765734,FALSE,7.4177820129275
"CAN","cpi",0.2,2022,3,2021,NA,1.5,1.77352368080687,2.48876201686435,6.50977236228281,3.68392050970238,FALSE,10.7677641996036
"CAN","cpi",0.2,2023,3,2023,NA,0,3.88994222285043,3.90301504692778,3.78831288758619,4.00821358342971,FALSE,0.267146162237949
"CAN","cpi",0.2,2023,3,2023,NA,0.5,3.54739839818692,3.90317020324556,3.78831288758619,3.29302587175885,TRUE,0.355771805058643
"CAN","cpi",0.2,2023,3,2022,NA,1,1.9728026739238,2.59400904410776,3.78831288758619,4.01905628942603,FALSE,3.60696597888004
"CAN","cpi",0.2,2023,3,2022,NA,1.5,4.19800464222454,5.06092922322657,3.78831288758619,4.75925635675837,FALSE,1.8871539675979
"CAN","cpi",0.2,2024,3,2023,NA,1,2.05959239154648,2.6607519763404,NA,3.92709419556525,NA,NA
"CAN","cpi",0.2,2024,3,2023,NA,1.5,1.56566330911288,2.1668228939068,NA,3.33916254361279,NA,NA
"CAN","cpi",0.3,1950,3,1950,NA,0,3.41276022321824,3.41276022321824,2.59031220731124,2.32166735935542,FALSE,2.34985147402
"CAN","cpi",0.3,1950,3,1950,NA,0.5,3.41276022321824,3.41276022321824,2.59031220731124,1.23070468188811,FALSE,2.34985147402
"CAN","cpi",0.3,1950,3,1949,NA,1,3.41310821677828,6.337265658339,2.59031220731124,5.09987337388258,FALSE,5.27500318289513
"CAN","cpi",0.3,1950,3,1949,NA,1.5,3.41241222965819,6.33656967121891,2.59031220731124,7.87125428886177,FALSE,5.2730146482663
"CAN","cpi",0.3,1951,3,1951,NA,0,4.67875153203336,6.59835865904108,9.87945438999359,9.91468181420993,FALSE,11.2941663583006
"CAN","cpi",0.3,1951,3,1951,NA,0.5,3.22714240082743,5.14674952783515,9.87945438999359,8.91293028153729,FALSE,15.441621018889
"CAN","cpi",0.3,1951,3,1950,NA,1,1.77371356731664,3.69332069432437,9.87945438999359,6.69633780377586,FALSE,19.5942748289198
"CAN","cpi",0.3,1951,3,1950,NA,1.5,2.00086306219296,3.92047018920068,9.87945438999359,4.62302705298717,FALSE,18.9452762721303
"CAN","cpi",0.3,1952,3,1952,NA,0,2.59031220731124,2.59031220731124,2.55562336095485,2.65771800091113,FALSE,0.0991109895896918
"CAN","cpi",0.3,1952,3,1952,NA,0.5,2.86369438424928,3.11711416043679,2.55562336095485,5.20333179389047,FALSE,1.13362269988589
"CAN","cpi",0.3,1952,3,1951,NA,1,3.74785562732681,9.75824553588985,2.55562336095485,8.18998200969936,FALSE,9.41676781248294
"CAN","cpi",0.3,1952,3,1951,NA,1.5,2.67187535028788,9.23278498096685,2.55562336095485,7.55460015368862,FALSE,6.89305817163048
"CAN","cpi",0.3,1953,3,1953,NA,0,2.55562336095485,2.56603574727165,-1.01492775838436,-0.921435878605124,FALSE,10.2119870130003
"CAN","cpi",0.3,1953,3,1953,NA,0.5,2.55562336095485,2.56603574727165,-1.01492775838436,-0.76897284692861,FALSE,10.2119870130003
"CAN","cpi",0.3,1953,3,1952,NA,1,2.5772868615818,2.96289011944794,-1.01492775838436,2.43113434957527,FALSE,10.6490736006266
"CAN","cpi",0.3,1953,3,1952,NA,1.5,2.55909761784253,5.12082857358684,-1.01492775838436,5.93557635631702,FALSE,12.7732320306783
"CAN","cpi",0.3,1954,3,1954,NA,0,-0.932636948911678,1.60056574582606,0.644425455961438,0.902670593188762,TRUE,2.53320269473773
"CAN","cpi",0.3,1954,3,1954,NA,0.5,0.108368325984884,2.64157102072262,0.644425455961438,0.795164313951574,TRUE,2.53320269473773
"CAN","cpi",0.3,1954,3,1953,NA,1,-1.01492775838436,2.5619676080845,0.644425455961438,4.14534384936852,TRUE,3.57689536646886
"CAN","cpi",0.3,1954,3,1953,NA,1.5,-1.01492775838436,3.20714828697912,0.644425455961438,3.28639485866967,TRUE,4.22207604536349
"CAN","cpi",0.3,1955,3,1955,NA,0,-0.997584582885254,-0.335149800876508,0.173649026558865,0.179965740558204,FALSE,2.11614571753838
"CAN","cpi",0.3,1955,3,1955,NA,0.5,-0.93435800103121,-0.271923219022464,0.173649026558865,0.271639815719239,FALSE,1.93549834081254
"CAN","cpi",0.3,1955,3,1954,NA,1,-0.589499767468827,0.0729350145399191,0.173649026558865,4.00726070064464,FALSE,0.950189102062877
"CAN","cpi",0.3,1955,3,1954,NA,1.5,-0.924683416068803,0.68161271504028,0.173649026558865,3.09849569962328,TRUE,1.60629613110908
"CAN","cpi",0.3,1956,3,1956,NA,0,0.672924893054256,1.07189003649375,1.32752769429961,1.49944483483663,FALSE,1.12935845145623
"CAN","cpi",0.3,1956,3,1956,NA,0.5,-0.639199670413778,-0.240234526974282,1.32752769429961,0.239658941687119,FALSE,4.87828577565061
"CAN","cpi",0.3,1956,3,1955,NA,1,-1.21441033010411,-0.815445186664614,1.32752769429961,2.42699902405841,FALSE,6.52174480333727
"CAN","cpi",0.3,1956,3,1955,NA,1.5,-0.85645037622019,-0.38101852003329,1.32752769429961,2.6723883730094,FALSE,5.35699246856661
"CAN","cpi",0.3,1957,3,1957,NA,0,6.13764925565068,8.37273707956814,3.24684755852518,3.40805864327458,FALSE,10.494521244276
"CAN","cpi",0.3,1957,3,1957,NA,0.5,2.67088207439658,4.90596989831404,3.24684755852518,2.77134230956367,TRUE,2.23508782391746
"CAN","cpi",0.3,1957,3,1956,NA,1,1.7078484842749,3.94293630819236,3.24684755852518,5.53767573267731,TRUE,2.23508782391746
"CAN","cpi",0.3,1957,3,1956,NA,1.5,-1.02919729928626,1.2058905246312,3.24684755852518,2.3159105314434,FALSE,8.0663936350431
"CAN","cpi",0.3,1958,3,1958,NA,0,2.0727479597236,2.7700067692963,2.33186388641149,2.2666416787086,TRUE,0.697258809572697
"CAN","cpi",0.3,1958,3,1958,NA,0.5,3.06301615033522,4.35874217391785,2.33186388641149,2.6047181946108,FALSE,3.38473249193614
"CAN","cpi",0.3,1958,3,1957,NA,1,-0.416073880514003,0.879652143068632,2.33186388641149,4.25451187896576,FALSE,5.44490243313366
"CAN","cpi",0.3,1958,3,1957,NA,1.5,-0.0103111612835168,1.28541486229912,2.33186388641149,3.21878619474396,FALSE,4.28558037818941
"CAN","cpi",0.3,1959,3,1959,NA,0,0.549743332360213,0.902472881339951,1.19382698397654,1.23804892137791,FALSE,1.18516984222714
"CAN","cpi",0.3,1959,3,1959,NA,0.5,2.01088100716016,2.80372204873143,1.19382698397654,1.22423653017582,FALSE,3.12728110781018
"CAN","cpi",0.3,1959,3,1958,NA,1,-1.01492775838436,0.10095663456036,1.19382698397654,2.76661875727304,FALSE,4.23837110556238
"CAN","cpi",0.3,1959,3,1958,NA,1.5,0.437353905551563,1.87769064565817,1.19382698397654,3.40313655953963,TRUE,1.44033674010661
"CAN","cpi",0.3,1960,3,1960,NA,0,0.559766188622985,0.858754822530043,1.34209404870695,1.09496250556158,FALSE,1.67995785155537
"CAN","cpi",0.3,1960,3,1960,NA,0.5,1.99033797142505,2.8127894623479,1.34209404870695,1.31117730754252,FALSE,2.67457698440314
"CAN","cpi",0.3,1960,3,1959,NA,1,-0.183352524225736,0.779973335129049,1.34209404870695,3.67993081372331,FALSE,2.56938504100594
"CAN","cpi",0.3,1960,3,1959,NA,1.5,0.29130435919584,1.31415183874015,1.34209404870695,2.53752597259669,FALSE,1.10268236516375
"CAN","cpi",0.3,1961,3,1961,NA,0,0.966804628410413,1.28980983487737,1.00921348094007,1.07956241593662,TRUE,0.323005206466955
"CAN","cpi",0.3,1961,3,1961,NA,0.5,1.33129405175737,2.48567980316184,1.00921348094007,1.62810563897838,FALSE,2.07461595373961
"CAN","cpi",0.3,1961,3,1960,NA,1,-0.628256420639657,0.752214948731103,1.00921348094007,1.72683407115431,FALSE,2.11475288996781
"CAN","cpi",0.3,1961,3,1960,NA,1.5,0.34013656931484,1.7206079386856,1.00921348094007,2.46209267036318,TRUE,1.38047136937076
"CAN","cpi",0.3,1962,3,1962,NA,0,1.13843614020612,1.31422059900706,1.04957947883042,1.11859419449202,FALSE,0.429660634160102
"CAN","cpi",0.3,1962,3,1962,NA,0.5,0.421788318698919,0.975997246111757,1.04957947883042,0.567427238599509,FALSE,0.764443878037576
"CAN","cpi",0.3,1962,3,1961,NA,1,0.279572597296565,0.833781524709403,1.04957947883042,1.63689072516514,FALSE,1.17077451061573
"CAN","cpi",0.3,1962,3,1961,NA,1.5,0.801121056816475,1.35532998422931,1.04957947883042,2.63635903501327,TRUE,0.554208927412838
"CAN","cpi",0.3,1963,3,1963,NA,0,1.42802674592276,1.7057259106623,1.60677118395228,1.86240003699012,TRUE,0.277699164739531
"CAN","cpi",0.3,1963,3,1963,NA,0.5,1.19596125109432,1.47366041583385,1.60677118395228,1.39337130813056,FALSE,0.658015645077917
"CAN","cpi",0.3,1963,3,1962,NA,1,0.543544271649738,1.14442494202688,1.60677118395228,2.94326130570012,FALSE,1.92186993302115
"CAN","cpi",0.3,1963,3,1962,NA,1.5,0.737524428198201,1.33840509857534,1.60677118395228,2.44281938697022,FALSE,1.36764091431126
"CAN","cpi",0.3,1964,3,1964,NA,0,1.47788432025486,1.60744400742716,1.88764670034376,2.0039339947047,FALSE,0.930138809791149
"CAN","cpi",0.3,1964,3,1964,NA,0.5,1.36081222763629,1.7090525417762,1.88764670034376,1.7991677011144,FALSE,0.858509338618651
"CAN","cpi",0.3,1964,3,1963,NA,1,1.09592958287528,1.44416989701519,1.88764670034376,4.16988253093083,FALSE,1.61531689507868
"CAN","cpi",0.3,1964,3,1963,NA,1.5,1.00046281536023,1.34870312950014,1.88764670034376,2.39235828979053,FALSE,1.88807908797882
"CAN","cpi",0.3,1965,3,1965,NA,0,2.51326953542758,2.7884384332378,2.29538304394236,2.3444020011952,FALSE,0.897701730625142
"CAN","cpi",0.3,1965,3,1965,NA,0.5,1.58047754834392,1.85564644615414,2.29538304394236,1.87416183614195,FALSE,1.53155917720513
"CAN","cpi",0.3,1965,3,1964,NA,1,0.769675259310697,1.16371824766295,2.29538304394236,2.77513442256292,FALSE,3.62737097772198
"CAN","cpi",0.3,1965,3,1964,NA,1.5,1.0037550172323,1.39779800558456,2.29538304394236,2.58300862182973,FALSE,2.95857166937453
"CAN","cpi",0.3,1966,3,1966,NA,0,3.30810465595175,3.36062531684229,3.72486065470629,3.82226531435883,FALSE,1.09319305478769
"CAN","cpi",0.3,1966,3,1966,NA,0.5,3.43701887505982,4.8176469514196,3.72486065470629,3.71609253757358,TRUE,1.38062807635978
"CAN","cpi",0.3,1966,3,1965,NA,1,0.541502026590588,1.92213010295037,3.72486065470629,3.18026314560651,FALSE,6.53128679566241
"CAN","cpi",0.3,1966,3,1965,NA,1.5,0.607863661801186,1.98849173816097,3.72486065470629,2.72588429168219,FALSE,6.34168212363213
"CAN","cpi",0.3,1967,3,1967,NA,0,5.04477232610295,6.47911088217237,3.49360316391996,3.71060899730274,FALSE,5.86625044802083
"CAN","cpi",0.3,1967,3,1967,NA,0.5,1.72320519936093,3.15754375543035,3.49360316391996,2.56028521952089,FALSE,2.39450829461116
"CAN","cpi",0.3,1967,3,1966,NA,1,0.737476021664595,2.17181457773401,3.49360316391996,3.23068289349593,FALSE,5.21087737374355
"CAN","cpi",0.3,1967,3,1966,NA,1.5,0.836803755701772,2.27114231177119,3.49360316391996,3.48379255951164,FALSE,4.92708384792305
"CAN","cpi",0.3,1968,3,1968,NA,0,3.57834800486196,3.65102007403265,3.95128347779386,4.08812321751386,FALSE,0.930567508488419
"CAN","cpi",0.3,1968,3,1968,NA,0.5,2.72718953982836,3.29375523840989,3.95128347779386,3.86057245484849,FALSE,2.44521781110715
"CAN","cpi",0.3,1968,3,1967,NA,1,2.10757955642192,2.67414525500345,3.95128347779386,4.52914843962159,FALSE,4.21553204941127
"CAN","cpi",0.3,1968,3,1967,NA,1.5,1.09645230061394,2.06328593027136,3.95128347779386,2.90317969156253,FALSE,6.36111233686456
"CAN","cpi",0.3,1969,3,1969,NA,0,3.81126195128848,3.8853394560813,4.42679496126681,4.56202018095233,FALSE,1.62109323389429
"CAN","cpi",0.3,1969,3,1969,NA,0.5,2.80707535139643,3.43568353290881,4.42679496126681,3.1731721410374,FALSE,3.46035511967812
"CAN","cpi",0.3,1969,3,1968,NA,1,2.57296770341099,3.40327848455123,4.42679496126681,4.79164269130369,FALSE,3.75464357175619
"CAN","cpi",0.3,1969,3,1968,NA,1.5,1.19658112415557,3.42968707330372,4.42679496126681,3.43166930802121,FALSE,5.0819856290427
"CAN","cpi",0.3,1970,3,1970,NA,0,3.36769080700043,3.51489194382906,3.28128405769805,3.60731179706845,FALSE,0.394077563406868
"CAN","cpi",0.3,1970,3,1970,NA,0.5,3.36814815050808,3.77076889131455,3.28128405769805,4.09876840974541,FALSE,0.650803863120844
"CAN","cpi",0.3,1970,3,1969,NA,1,1.74028796443822,2.1429087052447,3.28128405769805,4.16731408225431,FALSE,3.65512174781605
"CAN","cpi",0.3,1970,3,1969,NA,1.5,1.17208117536353,2.5200495097341,3.28128405769805,2.94225383025522,FALSE,3.52292418569614
"CAN","cpi",0.3,1971,3,1971,NA,0,2.35928449731744,2.55844133295097,2.64123406634756,2.83090781749212,FALSE,0.435707502480947
"CAN","cpi",0.3,1971,3,1971,NA,0.5,1.31755184198513,1.51670867761866,2.64123406634756,1.62320660035324,FALSE,3.4120865177161
"CAN","cpi",0.3,1971,3,1970,NA,1,1.33408257444383,2.64163066921641,2.64123406634756,3.17007770946556,TRUE,1.30754809477258
"CAN","cpi",0.3,1971,3,1970,NA,1.5,2.56170179514034,3.98456469821344,2.64123406634756,3.54353814347809,TRUE,1.4228629030731
"CAN","cpi",0.3,1972,3,1972,NA,0,4.13469994685858,4.29195383015748,4.83230569625923,5.0489634093373,FALSE,1.70111635787532
"CAN","cpi",0.3,1972,3,1972,NA,0.5,3.27267472259207,3.70172487112522,4.83230569625923,4.42305209693724,FALSE,3.65928107748747
"CAN","cpi",0.3,1972,3,1971,NA,1,2.67254684832826,3.9285723443233,4.83230569625923,4.88112932259212,FALSE,3.83812078724055
"CAN","cpi",0.3,1972,3,1971,NA,1.5,1.22619964901225,3.06556420885984,4.83230569625923,2.93340690449956,FALSE,6.88719738098871
"CAN","cpi",0.3,1973,3,1973,NA,0,4.97795812538589,6.35129360353282,7.12388603531779,7.21795256722813,FALSE,3.58074242610399
"CAN","cpi",0.3,1973,3,1973,NA,0.5,3.23502524933918,4.60836072748611,7.12388603531779,5.49391172870491,FALSE,8.56055064338031
"CAN","cpi",0.3,1973,3,1972,NA,1,2.94577641207585,4.31911189022278,7.12388603531779,5.39692894021178,FALSE,9.38697589270411
"CAN","cpi",0.3,1973,3,1972,NA,1.5,2.38539314057187,3.7587286187188,7.12388603531779,3.58263496028301,FALSE,10.988070954144
"CAN","cpi",0.3,1974,3,1974,NA,0,8.15033334528043,9.0303862546569,10.2717243737774,10.1210179328964,FALSE,4.42673324972082
"CAN","cpi",0.3,1974,3,1974,NA,0.5,7.68684036511756,10.2211604613143,10.2717243737774,7.94351867110281,FALSE,2.67878841751994
"CAN","cpi",0.3,1974,3,1973,NA,1,3.88376278280355,8.20795829133187,10.2717243737774,7.1912022670208,FALSE,10.2206700298013
"CAN","cpi",0.3,1974,3,1973,NA,1.5,1.86746857361412,6.19166408214245,10.2717243737774,4.0254660999559,FALSE,15.9815106274854
"CAN","cpi",0.3,1975,3,1975,NA,0,10.0177229488045,10.1362733256687,10.0232981493341,10.1376483081154,TRUE,0.118550376864157
"CAN","cpi",0.3,1975,3,1975,NA,0.5,9.05215901979496,10.8668215330484,10.0232981493341,8.26308676293858,TRUE,1.81466251325349
"CAN","cpi",0.3,1975,3,1974,NA,1,3.83472132687146,10.4285644781522,10.0232981493341,7.73583614861028,TRUE,6.59384315128074
"CAN","cpi",0.3,1975,3,1974,NA,1.5,2.48189707082234,9.07574022210309,10.0232981493341,4.67814014273702,FALSE,9.30115151479798
"CAN","cpi",0.3,1976,3,1976,NA,0,5.63581073033797,6.32484165449882,7.22784311401172,7.2178166349125,FALSE,3.2690350941977
"CAN","cpi",0.3,1976,3,1976,NA,0.5,6.98620341518067,9.67211475382195,7.22784311401172,6.91786916440093,TRUE,2.68591133864128
"CAN","cpi",0.3,1976,3,1975,NA,1,7.5762213615915,10.2621327002328,7.22784311401172,8.273619332389,FALSE,3.68127776029781
"CAN","cpi",0.3,1976,3,1975,NA,1.5,2.63359710964416,9.90820882500848,7.22784311401172,4.5816570194731,TRUE,7.27461171536432
"CAN","cpi",0.3,1977,3,1977,NA,0,6.57421411485559,6.98687399138099,7.58101410153764,7.50701198703803,FALSE,2.11020304840156
"CAN","cpi",0.3,1977,3,1977,NA,0.5,6.94923875830266,7.36189863482806,7.58101410153764,6.51617593246189,FALSE,1.03870406712422
"CAN","cpi",0.3,1977,3,1976,NA,1,3.78123222540098,5.23731380938915,7.58101410153764,4.96992569410004,FALSE,8.15236813298386
"CAN","cpi",0.3,1977,3,1976,NA,1.5,2.8924289876013,9.48136746389805,7.58101410153764,4.37719420243736,TRUE,6.58893847629675
"CAN","cpi",0.3,1978,3,1978,NA,0,7.45150037064105,8.08351196497758,8.50208927062595,8.58158523467168,FALSE,1.82794675333187
"CAN","cpi",0.3,1978,3,1978,NA,0.5,7.41238574960747,9.88774018977698,8.50208927062595,7.4716201567401,TRUE,2.47535444016951
"CAN","cpi",0.3,1978,3,1977,NA,1,4.94465969034044,7.91655278341111,8.50208927062595,6.36749774462425,FALSE,4.64485448511306
"CAN","cpi",0.3,1978,3,1977,NA,1.5,3.31439536512276,9.47733830074095,8.50208927062595,5.06410799386515,TRUE,6.16294293561819
"CAN","cpi",0.3,1979,3,1979,NA,0,8.36387216350641,8.90862081744432,8.65147652410481,8.49829924825941,TRUE,0.544748653937912
"CAN","cpi",0.3,1979,3,1979,NA,0.5,7.87573294060642,8.42048159454433,8.65147652410481,7.55954787357905,FALSE,1.20473416696785
"CAN","cpi",0.3,1979,3,1978,NA,1,6.71261853953747,9.79103622067805,8.65147652410481,7.11843292779768,TRUE,3.07841768114058
"CAN","cpi",0.3,1979,3,1978,NA,1.5,5.94941470398631,9.02783238512689,8.65147652410481,5.13416174624329,TRUE,3.07841768114058
"CAN","cpi",0.3,1980,3,1980,NA,0,8.73996686650344,9.08575320788589,9.5171912664748,9.41458421512922,FALSE,1.57846650877931
"CAN","cpi",0.3,1980,3,1980,NA,0.5,9.77847268000639,10.1242590213888,9.5171912664748,7.9706129876785,FALSE,1.09230466575844
"CAN","cpi",0.3,1980,3,1979,NA,1,7.20462631731143,7.96949159483931,9.5171912664748,6.28953001008885,FALSE,5.18686433934356
"CAN","cpi",0.3,1980,3,1979,NA,1.5,7.14463110542093,8.629064310238,9.5171912664748,5.364173973799,FALSE,4.02193879406505
"CAN","cpi",0.3,1981,3,1981,NA,0,10.0857724391809,10.8713389081315,11.5813425032741,11.5923033542996,FALSE,2.8141481693582
"CAN","cpi",0.3,1981,3,1981,NA,0.5,9.95496236316704,10.8988209987064,11.5813425032741,11.0172481296202,FALSE,2.89392007716153
"CAN","cpi",0.3,1981,3,1980,NA,1,8.1949893422945,9.96574732413787,11.5813425032741,8.10476531012298,FALSE,6.386744207947
"CAN","cpi",0.3,1981,3,1980,NA,1.5,7.18105608139724,9.12039834978926,11.5813425032741,5.56064493450504,FALSE,8.97061127834882
"CAN","cpi",0.3,1982,3,1982,NA,0,7.44714714823071,9.68173462537862,10.1124203763629,10.1931679525338,FALSE,3.46511819424598
"CAN","cpi",0.3,1982,3,1982,NA,0.5,8.29830864857297,10.5328961257209,10.1124203763629,9.37004969245236,TRUE,2.23458747714791
"CAN","cpi",0.3,1982,3,1981,NA,1,8.77978804211692,11.5067327440968,10.1124203763629,8.69554175936175,TRUE,2.72694470197986
"CAN","cpi",0.3,1982,3,1981,NA,1.5,7.11811157273065,9.84505627471051,10.1124203763629,7.27062596384307,FALSE,3.49084213527254
"CAN","cpi",0.3,1983,3,1983,NA,0,4.32618470694129,4.90556039266174,5.67091787896303,5.81768735292628,FALSE,2.76611136086701
"CAN","cpi",0.3,1983,3,1983,NA,0.5,3.30429314677872,3.91166096142799,5.67091787896303,5.01354605702602,FALSE,5.63381615046369
"CAN","cpi",0.3,1983,3,1982,NA,1,8.54164369531187,9.64899458297926,5.67091787896303,7.12656393494862,FALSE,9.30942464866407
"CAN","cpi",0.3,1983,3,1982,NA,1.5,7.76523467698582,9.84456260060138,5.67091787896303,6.40641718255638,FALSE,8.06309020368066
"CAN","cpi",0.3,1984,3,1984,NA,0,3.84172811946578,3.94201408824757,4.19799576814029,4.24028901012313,FALSE,0.831662197046703
"CAN","cpi",0.3,1984,3,1984,NA,0.5,3.37594999410372,4.62263183764658,4.19799576814029,4.75786855948752,TRUE,1.24668184354285
"CAN","cpi",0.3,1984,3,1983,NA,1,4.71716305268832,6.6815672596439,4.19799576814029,5.66557758519989,FALSE,3.44773930566424
"CAN","cpi",0.3,1984,3,1983,NA,1.5,6.82533888061003,8.7897430875656,4.19799576814029,4.21132796972244,FALSE,9.47109881401198
"CAN","cpi",0.3,1985,3,1985,NA,0,3.62443590224289,3.76437181622626,3.86444262005169,3.92349089738505,FALSE,0.42585249634174
"CAN","cpi",0.3,1985,3,1985,NA,0.5,3.5167257908662,4.0087376406282,3.86444262005169,4.05923277954066,TRUE,0.492011849761999
"CAN","cpi",0.3,1985,3,1984,NA,1,1.33918077670891,2.7955407903714,3.86444262005169,3.95710775307987,FALSE,4.51036524132047
"CAN","cpi",0.3,1985,3,1984,NA,1.5,7.27264934861527,9.60995928143537,3.86444262005169,4.80620472271859,FALSE,12.0750434430017
"CAN","cpi",0.3,1986,3,1986,NA,0,3.83433260509529,3.92828026075821,4.08685396749431,4.13000198176505,FALSE,0.547015389194636
"CAN","cpi",0.3,1986,3,1986,NA,0.5,3.64775895880303,4.76513160082867,4.08685396749431,4.52376153022901,TRUE,1.11737264202564
"CAN","cpi",0.3,1986,3,1985,NA,1,1.9921348023439,3.4381442194524,4.08685396749431,4.28856700742326,FALSE,3.29946584008539
"CAN","cpi",0.3,1986,3,1985,NA,1.5,5.19699791842066,9.30069093039602,4.08685396749431,4.73207334351572,FALSE,7.27553287176493
"CAN","cpi",0.3,1987,3,1987,NA,0,4.08074376643296,4.19183893762973,4.23980729277887,4.34713339619661,FALSE,0.248147614480034
"CAN","cpi",0.3,1987,3,1987,NA,0.5,3.73358444355379,3.920038281044,4.23980729277887,4.04554574241257,FALSE,1.10007958530413
"CAN","cpi",0.3,1987,3,1986,NA,1,3.70208373109509,4.0455637845938,4.23980729277887,4.62985152306341,FALSE,0.898461505456045
"CAN","cpi",0.3,1987,3,1986,NA,1.5,4.83199809981666,8.61412846706973,4.23980729277887,4.92117197950912,FALSE,5.47410410164676
"CAN","cpi",0.3,1988,3,1988,NA,0,3.82664139795856,3.89296117419161,3.92899537638065,4.00901931174773,FALSE,0.169274639630329
"CAN","cpi",0.3,1988,3,1988,NA,0.5,3.64479074027339,4.01784942900093,3.92899537638065,3.73662637763501,TRUE,0.37305868872754
"CAN","cpi",0.3,1988,3,1987,NA,1,3.75045268092977,4.12351136965731,3.92899537638065,4.57559871410537,TRUE,0.37305868872754
"CAN","cpi",0.3,1988,3,1987,NA,1.5,4.2080253419562,7.91930076876748,3.92899537638065,4.47333468954476,FALSE,4.50850389988428
"CAN","cpi",0.3,1989,3,1989,NA,0,4.53321355399639,4.67174285343335,4.82821664544208,4.99076681888079,FALSE,0.585597276604747
"CAN","cpi",0.3,1989,3,1989,NA,0.5,4.02474196448093,4.16460783813476,4.82821664544208,4.4916513034202,FALSE,2.03589103738902
"CAN","cpi",0.3,1989,3,1988,NA,1,3.87020498357927,4.0100708572331,4.82821664544208,4.54165447743213,FALSE,2.47742526853662
"CAN","cpi",0.3,1989,3,1988,NA,1.5,4.12672019801595,7.58370784175568,4.82821664544208,4.35655767104226,TRUE,3.45698764373973
"CAN","cpi",0.3,1990,3,1990,NA,0,4.28944553014271,4.35305714526843,4.64347549432717,4.53713653171057,FALSE,0.893378326722116
"CAN","cpi",0.3,1990,3,1990,NA,0.5,4.01229085630534,4.75792354054253,4.64347549432717,5.08101061108308,TRUE,0.745632684237194
"CAN","cpi",0.3,1990,3,1989,NA,1,4.16687969497456,5.40494483846512,4.64347549432717,5.34783125013627,TRUE,1.23806514349056
"CAN","cpi",0.3,1990,3,1989,NA,1.5,4.17499892302821,8.18351541075795,4.64347549432717,4.81353563225505,TRUE,4.00851648772974
"CAN","cpi",0.3,1991,3,1991,NA,0,4.98620471748886,5.30335040715007,5.4258100696218,5.66037042635664,FALSE,0.667030439580433
"CAN","cpi",0.3,1991,3,1991,NA,0.5,8.88881836937649,9.89978668961564,5.4258100696218,7.84858621299389,FALSE,10.9052777481097
"CAN","cpi",0.3,1991,3,1990,NA,1,2.62094948563208,3.88694211794202,5.4258100696218,4.26930339967321,FALSE,5.66275820853788
"CAN","cpi",0.3,1991,3,1990,NA,1.5,4.36937900080583,8.18017153897009,5.4258100696218,5.0605414207232,TRUE,3.81079253816426
"CAN","cpi",0.3,1992,3,1992,NA,0,1.19111522756723,1.31254936451685,1.47496888572843,1.52994687025859,FALSE,0.58548991183986
"CAN","cpi",0.3,1992,3,1992,NA,0.5,2.13386108016898,2.48119853397043,1.47496888572843,1.85875773502133,FALSE,2.22988658077444
"CAN","cpi",0.3,1992,3,1991,NA,1,1.38841228231875,3.38786718744003,1.47496888572843,3.50386131646851,TRUE,1.99945490512128
"CAN","cpi",0.3,1992,3,1991,NA,1.5,5.15690762734098,9.92602443302173,1.47496888572843,6.78035435046663,FALSE,15.2889417817166
"CAN","cpi",0.3,1993,3,1993,NA,0,1.52414450999634,1.56635054978897,1.84351085411351,1.87124044779021,FALSE,0.834092623577033
"CAN","cpi",0.3,1993,3,1993,NA,0.5,2.86385220574427,3.25934579225379,1.84351085411351,2.72734178597627,FALSE,3.31075459116883
"CAN","cpi",0.3,1993,3,1992,NA,1,1.408539413425,2.15436307548118,1.84351085411351,3.08451104384819,TRUE,0.74582366205618
"CAN","cpi",0.3,1993,3,1992,NA,1.5,4.1690698896336,6.13476334293181,1.84351085411351,3.82501351795864,FALSE,8.61014784049846
"CAN","cpi",0.3,1994,3,1994,NA,0,-0.545281491105048,-0.14229214255155,0.161630694655448,0.262954827743209,FALSE,1.27134031200206
"CAN","cpi",0.3,1994,3,1994,NA,0.5,0.112731815014377,0.86135878329996,0.161630694655448,0.310066271274909,TRUE,0.748626968285583
"CAN","cpi",0.3,1994,3,1993,NA,1,1.28300567413746,2.03163264242305,0.161630694655448,2.87682482634461,FALSE,3.95255548109134
"CAN","cpi",0.3,1994,3,1993,NA,1.5,4.14350203109046,6.75982173877407,0.161630694655448,4.13541986765475,FALSE,13.9930949546408
"CAN","cpi",0.3,1995,3,1995,NA,0,2.15399395638168,2.40430863165665,2.11688403676572,2.22224044651209,FALSE,0.356343017034872
"CAN","cpi",0.3,1995,3,1995,NA,0.5,3.22786868862757,3.59644948438414,2.11688403676572,2.99405804315788,FALSE,3.54282265821902
"CAN","cpi",0.3,1995,3,1994,NA,1,1.38002319236936,1.74860398812593,2.11688403676572,2.99684369657241,FALSE,1.42080950615596
"CAN","cpi",0.3,1995,3,1994,NA,1.5,1.2740018817533,1.85301367187444,2.11688403676572,2.55761383507254,FALSE,1.33292711838193
"CAN","cpi",0.3,1996,3,1996,NA,0,1.29083980847835,1.35290972562491,1.55309584667184,1.51034526106652,FALSE,0.634030262994937
"CAN","cpi",0.3,1996,3,1996,NA,0.5,1.50621261569745,1.98675563627524,1.55309584667184,1.79601314583588,TRUE,0.480543020577796
"CAN","cpi",0.3,1996,3,1995,NA,1,0.750911556843999,1.23145457742179,1.55309584667184,2.55715877011559,FALSE,1.39951807557793
"CAN","cpi",0.3,1996,3,1995,NA,1.5,4.13122212301657,7.14049905206144,1.55309584667184,4.37195408299294,FALSE,10.3753520043155
"CAN","cpi",0.3,1997,3,1997,NA,0,1.55570097819835,1.70914627745213,1.60528783555959,1.74775979926451,TRUE,0.153445299253774
"CAN","cpi",0.3,1997,3,1997,NA,0.5,2.1398810206174,2.32610415671967,1.60528783555959,2.44638235868142,FALSE,1.71363223626745
"CAN","cpi",0.3,1997,3,1996,NA,1,0.800092864391356,1.23662550979166,1.60528783555959,2.43903366578812,FALSE,1.48985357616583
"CAN","cpi",0.3,1997,3,1996,NA,1.5,2.42979072940583,4.72423410576438,1.60528783555959,3.62198739789796,FALSE,4.65016593020494
"CAN","cpi",0.3,1998,3,1998,NA,0,0.701330379903147,0.843433050163076,0.988908029337191,1.03895035119065,FALSE,0.557745467900258
"CAN","cpi",0.3,1998,3,1998,NA,0.5,1.48801414661681,1.91283800158446,0.988908029337191,1.85198354845497,FALSE,1.85084133290942
"CAN","cpi",0.3,1998,3,1997,NA,1,1.05646854849462,1.53990664083129,0.988908029337191,2.50242700061489,FALSE,0.676468147072175
"CAN","cpi",0.3,1998,3,1997,NA,1.5,2.15390925427418,3.62476865769982,0.988908029337191,3.75826952211307,FALSE,4.79943433181703
"CAN","cpi",0.3,1999,3,1999,NA,0,1.58463597265807,1.70966243748974,1.7107350135213,1.81904689636282,FALSE,0.128090967778974
"CAN","cpi",0.3,1999,3,1999,NA,0.5,1.3818241747834,1.68215181154494,1.7107350135213,1.31729339512256,FALSE,0.381993928122546
"CAN","cpi",0.3,1999,3,1998,NA,1,0.865340898614016,1.16566853537556,1.7107350135213,2.15211490322884,FALSE,1.85766043146365
"CAN","cpi",0.3,1999,3,1998,NA,1.5,1.71485144141314,3.47940975743881,1.7107350135213,3.69857126490312,FALSE,1.77631953857381
"CAN","cpi",0.3,2000,3,2000,NA,0,2.55775658907971,2.60506278058294,2.6718361971244,2.74274050503735,FALSE,0.238087381621691
"CAN","cpi",0.3,2000,3,2000,NA,0.5,1.48479840845913,2.21647608624437,2.6718361971244,2.46113990926174,FALSE,2.0327065660139
