isdrw/probabilistic-benchmark-forecasts/results/EasyUQ_idr/archive/easyUQ_prediction_rw_2026-01-31_17-50-43.csv
"country","target","tau","target_year","target_quarter","forecast_year","forecast_quarter","horizon","lower_bound","upper_bound","truth_value","prediction","covered","IS"
"CAN","cpi",0.1,1950,3,1950,NA,0,3.41276022321824,3.41276022321824,2.59031220731124,1.68831415137957,FALSE,1.82766225757111
"CAN","cpi",0.1,1950,3,1950,NA,0.5,3.41276022321824,4.39091540507318,2.59031220731124,1.999247189508,FALSE,2.80581743942606
"CAN","cpi",0.1,1951,3,1951,NA,0,3.23381041093869,3.27818978695435,9.87945438999359,8.63763655575849,FALSE,14.7138562716584
"CAN","cpi",0.1,1951,3,1951,NA,0.5,2.56812251930341,2.61250189531907,9.87945438999359,4.395311027755,FALSE,16.1931626975146
"CAN","cpi",0.1,1951,3,1950,NA,1,2.56812251930341,2.61250189531907,9.87945438999359,1.68831415137957,FALSE,16.1931626975146
"CAN","cpi",0.1,1951,3,1950,NA,1.5,2.59031220731124,2.67287400759153,9.87945438999359,1.999247189508,FALSE,16.0971848722849
"CAN","cpi",0.1,1952,3,1952,NA,0,2.9310547021677,3.0186379411899,2.55562336095485,5.33589356249898,FALSE,0.921875108384104
"CAN","cpi",0.1,1952,3,1952,NA,0.5,7.31406303492421,8.35756817911639,2.55562336095485,9.78336808811006,FALSE,11.6178155307908
"CAN","cpi",0.1,1952,3,1951,NA,1,2.50776132984816,3.55126647404035,2.55562336095485,8.63763655575849,TRUE,1.04350514419219
"CAN","cpi",0.1,1952,3,1951,NA,1.5,2.4797836270053,3.52328877119749,2.55562336095485,4.395311027755,TRUE,1.04350514419219
"CAN","cpi",0.1,1953,3,1953,NA,0,2.73343671037294,3.44181304205444,-1.01492775838436,-1.36658675161344,FALSE,9.03807515114217
"CAN","cpi",0.1,1953,3,1953,NA,0.5,4.85170705365038,5.56008338533188,-1.01492775838436,0.110034650547486,FALSE,13.7453425806476
"CAN","cpi",0.1,1953,3,1952,NA,1,2.21877961829244,2.92715594997394,-1.01492775838436,5.33589356249898,FALSE,7.89439272429662
"CAN","cpi",0.1,1953,3,1952,NA,1.5,2.31649742160718,3.02487375328867,-1.01492775838436,9.78336808811006,FALSE,8.11154339832936
"CAN","cpi",0.1,1954,3,1954,NA,0,0.425892616486155,0.969290960007679,0.644425455961438,0.642985131580263,TRUE,0.543398343521524
"CAN","cpi",0.1,1954,3,1954,NA,0.5,-1.28662693014512,-0.7432285866236,0.644425455961438,-0.366337731528715,FALSE,3.6270739937105
"CAN","cpi",0.1,1954,3,1953,NA,1,-0.388341681512578,1.93599577580412,0.644425455961438,-1.36658675161344,TRUE,2.32433745731669
"CAN","cpi",0.1,1954,3,1953,NA,1.5,-0.391820859351747,1.93251659796495,0.644425455961438,0.110034650547486,TRUE,2.32433745731669
"CAN","cpi",0.1,1955,3,1955,NA,0,-0.0031139507866583,0.451950835980808,0.173649026558865,0.17297271419658,TRUE,0.455064786767467
"CAN","cpi",0.1,1955,3,1955,NA,0.5,-0.684554126048994,-0.229489339281527,0.173649026558865,0.586026480650511,FALSE,1.35092782196834
"CAN","cpi",0.1,1955,3,1954,NA,1,-0.441546196134985,0.0499236509526897,0.173649026558865,0.642985131580263,FALSE,0.766415126212509
"CAN","cpi",0.1,1955,3,1954,NA,1.5,0.165789781769698,0.756148047779058,0.173649026558865,-0.366337731528715,TRUE,0.59035826600936
"CAN","cpi",0.1,1956,3,1956,NA,0,0.410579999752533,0.463275775009527,1.32752769429961,0.753971131965347,FALSE,1.97325559590162
"CAN","cpi",0.1,1956,3,1956,NA,0.5,-0.818604028073829,-0.527287465159676,1.32752769429961,0.174369006303267,FALSE,4.41312802837923
"CAN","cpi",0.1,1956,3,1955,NA,1,-0.0675751824611336,0.223741380453019,1.32752769429961,0.17297271419658,FALSE,2.74417503812879
"CAN","cpi",0.1,1956,3,1955,NA,1.5,0.230203310906989,0.521519873821142,1.32752769429961,0.586026480650511,FALSE,2.0824450528663
"CAN","cpi",0.1,1957,3,1957,NA,0,2.46304583125091,2.52885791732046,3.24684755852518,3.20420645854679,FALSE,1.66134462208003
"CAN","cpi",0.1,1957,3,1957,NA,0.5,2.53160945043291,2.59742153650246,3.24684755852518,2.07576432581215,FALSE,1.50898102389781
"CAN","cpi",0.1,1957,3,1956,NA,1,0.469846902177082,0.659534497390526,3.24684755852518,0.753971131965347,FALSE,5.93927217551267
"CAN","cpi",0.1,1957,3,1956,NA,1.5,0.280961934722936,0.470649529936381,3.24684755852518,0.174369006303267,FALSE,6.35901654763299
"CAN","cpi",0.1,1958,3,1958,NA,0,2.56542940442751,2.57383458459293,2.33186388641149,2.45716899110006,FALSE,0.527439664645464
"CAN","cpi",0.1,1958,3,1958,NA,0.5,2.80188968660236,2.88676669140311,2.33186388641149,3.16832340224646,FALSE,1.12937878300268
"CAN","cpi",0.1,1958,3,1957,NA,1,2.53052927412005,2.6154062789208,2.33186388641149,3.20420645854679,FALSE,0.526355644153105
"CAN","cpi",0.1,1958,3,1957,NA,1.5,1.86481958192881,2.32535543017818,2.33186388641149,2.07576432581215,FALSE,0.474999084323383
"CAN","cpi",0.1,1959,3,1959,NA,0,1.85737679908611,2.0011909321079,1.19382698397654,1.42085685959275,FALSE,1.61836927770972
"CAN","cpi",0.1,1959,3,1959,NA,0.5,2.48925562539212,2.63306975841391,1.19382698397654,1.98727093968503,FALSE,3.02254444727863
"CAN","cpi",0.1,1959,3,1958,NA,1,2.17275429007161,2.52427234760732,1.19382698397654,2.45716899110006,FALSE,2.52691207108031
"CAN","cpi",0.1,1959,3,1958,NA,1.5,2.08922800796434,2.44074606550005,1.19382698397654,3.16832340224646,FALSE,2.34129811084192
"CAN","cpi",0.1,1960,3,1960,NA,0,1.14289171956091,1.30324513284759,1.34209404870695,1.34570677924433,FALSE,0.246684337418599
"CAN","cpi",0.1,1960,3,1960,NA,0.5,0.860347992624836,1.02070140591151,1.34209404870695,1.13297483079829,FALSE,0.874559286165428
"CAN","cpi",0.1,1960,3,1959,NA,1,1.57861195523821,2.08078010499756,1.34209404870695,1.42085685959275,FALSE,1.02776349760659
"CAN","cpi",0.1,1960,3,1959,NA,1.5,1.57540706323706,2.07971074961775,1.34209404870695,1.98727093968503,FALSE,1.02277705200316
"CAN","cpi",0.1,1961,3,1961,NA,0,1.32232375033498,1.35713994704016,1.00921348094007,1.32757858722203,FALSE,0.730616795360531
"CAN","cpi",0.1,1961,3,1961,NA,0.5,1.21655443537704,1.25137063208223,1.00921348094007,1.39166174207428,FALSE,0.49557387323179
"CAN","cpi",0.1,1961,3,1960,NA,1,1.33771525408217,1.63841999290983,1.00921348094007,1.34570677924433,FALSE,1.03070867914344
"CAN","cpi",0.1,1961,3,1960,NA,1.5,1.39277260149787,1.82619935301593,1.00921348094007,1.13297483079829,FALSE,1.28578035275761
"CAN","cpi",0.1,1962,3,1962,NA,0,0.475733931581855,0.572759449464245,1.04957947883042,0.577977430468435,FALSE,1.15662558314055
"CAN","cpi",0.1,1962,3,1962,NA,0.5,0.404628644731643,0.860826099460773,1.04957947883042,0.636962012224359,FALSE,0.87564940888389
"CAN","cpi",0.1,1962,3,1961,NA,1,0.916921679855813,1.37311913458494,1.04957947883042,1.32757858722203,TRUE,0.45619745472913
"CAN","cpi",0.1,1962,3,1961,NA,1.5,1.06161287330838,1.51781032803751,1.04957947883042,1.39166174207428,FALSE,0.482938331346835
"CAN","cpi",0.1,1963,3,1963,NA,0,2.27539375201776,2.42377894690956,1.60677118395228,1.66779362321099,FALSE,1.63421312392619
"CAN","cpi",0.1,1963,3,1963,NA,0.5,1.03233721407657,1.18072240896836,1.60677118395228,1.52118152719239,FALSE,1.09516025041162
"CAN","cpi",0.1,1963,3,1962,NA,1,0.764642079550408,0.913027274442201,1.60677118395228,0.577977430468435,FALSE,1.69003832713642
"CAN","cpi",0.1,1963,3,1962,NA,1.5,1.04761333486816,1.19599852975995,1.60677118395228,0.636962012224359,FALSE,1.0612133153192
"CAN","cpi",0.1,1964,3,1964,NA,0,2.352775447675,2.46574502736627,1.88764670034376,1.89274723222648,FALSE,1.14658901820514
"CAN","cpi",0.1,1964,3,1964,NA,0.5,1.21552940881576,1.32849898850703,1.88764670034376,1.59688015421336,FALSE,1.35552005043956
"CAN","cpi",0.1,1964,3,1963,NA,1,1.40650137415115,1.63107003289002,1.88764670034376,1.66779362321099,FALSE,0.794739030858297
"CAN","cpi",0.1,1964,3,1963,NA,1.5,1.1764088496673,1.40097750840616,1.88764670034376,1.52118152719239,FALSE,1.30605575193353
"CAN","cpi",0.1,1965,3,1965,NA,0,2.0647352804189,2.21621466535452,2.29538304394236,2.00763200760394,FALSE,0.327409115130808
"CAN","cpi",0.1,1965,3,1965,NA,0.5,1.50531063564096,1.65679002057659,2.29538304394236,1.88069823981647,FALSE,1.57057499241511
"CAN","cpi",0.1,1965,3,1964,NA,1,1.80848536685784,1.95996475179347,2.29538304394236,1.89274723222648,FALSE,0.896853367488714
"CAN","cpi",0.1,1965,3,1964,NA,1.5,1.45348973238826,1.60496911732389,2.29538304394236,1.59688015421336,FALSE,1.68573255519889
"CAN","cpi",0.1,1966,3,1966,NA,0,2.52560596474166,2.61939795386168,3.72486065470629,3.50850431851723,FALSE,2.5503757687747
"CAN","cpi",0.1,1966,3,1966,NA,0.5,2.56757524076404,2.66136722988406,3.72486065470629,2.72414080931513,FALSE,2.4571107109472
"CAN","cpi",0.1,1966,3,1965,NA,1,1.96409711583497,2.11699834224773,3.72486065470629,2.00763200760394,FALSE,3.72592858743177
"CAN","cpi",0.1,1966,3,1965,NA,1.5,1.77529685519304,1.98133569503958,3.72486065470629,1.88069823981647,FALSE,4.08053875021701
"CAN","cpi",0.1,1967,3,1967,NA,0,2.85848557446906,3.08834934175021,3.49360316391996,3.43593854851327,FALSE,1.13042781654726
"CAN","cpi",0.1,1967,3,1967,NA,0.5,3.06282058930965,3.31656643256203,3.49360316391996,3.60120034208141,FALSE,0.64716080182556
"CAN","cpi",0.1,1967,3,1966,NA,1,2.14638669354841,2.40013253680079,3.49360316391996,3.50850431851723,FALSE,2.68368057018387
"CAN","cpi",0.1,1967,3,1966,NA,1.5,2.18675064373169,2.44049648698407,3.49360316391996,2.72414080931513,FALSE,2.59398290310992
"CAN","cpi",0.1,1968,3,1968,NA,0,3.37224997435501,3.42774734642041,3.95128347779386,3.85741006811451,FALSE,1.21891099733973
"CAN","cpi",0.1,1968,3,1968,NA,0.5,3.42197884355907,3.47747621562447,3.95128347779386,3.82980583992124,FALSE,1.10840239910849
"CAN","cpi",0.1,1968,3,1967,NA,1,2.38025529032924,2.61964379022096,3.95128347779386,3.43593854851327,FALSE,3.19858780560927
"CAN","cpi",0.1,1968,3,1967,NA,1.5,2.25838763968485,2.49777613957656,3.95128347779386,3.60120034208141,FALSE,3.46940480704125
"CAN","cpi",0.1,1969,3,1969,NA,0,3.4531795460267,3.56297822582073,4.42679496126681,4.42973002734916,FALSE,2.02939142522978
"CAN","cpi",0.1,1969,3,1969,NA,0.5,3.54501208268158,3.67086397424284,4.42679496126681,3.77653863724463,FALSE,1.80569852939231
"CAN","cpi",0.1,1969,3,1968,NA,1,2.51004702101556,2.63589891257682,4.42679496126681,3.85741006811451,FALSE,4.10562088865014
"CAN","cpi",0.1,1969,3,1968,NA,1.5,2.46277420949359,2.58862610105484,4.42679496126681,3.82980583992124,FALSE,4.21067158092119
"CAN","cpi",0.1,1970,3,1970,NA,0,3.5938417992744,3.74104954328843,3.28128405769805,3.84669808502433,FALSE,0.841780503072601
"CAN","cpi",0.1,1970,3,1970,NA,0.5,4.26738102333173,4.49534807465215,3.28128405769805,4.72247431437482,FALSE,2.41929364161749
"CAN","cpi",0.1,1970,3,1969,NA,1,2.98876858409963,3.21673563542006,3.28128405769805,4.42973002734916,FALSE,0.371407989715962
"CAN","cpi",0.1,1970,3,1969,NA,1.5,2.53864542520944,3.06849470135909,3.28128405769805,3.77653863724463,FALSE,1.00271451245844
"CAN","cpi",0.1,1971,3,1971,NA,0,2.23288099088594,2.29849079747945,2.64123406634756,2.09886045002039,FALSE,0.827261515189319
"CAN","cpi",0.1,1971,3,1971,NA,0.5,2.78043376579592,2.94339618379332,2.64123406634756,2.39042152113403,FALSE,0.472295083438198
"CAN","cpi",0.1,1971,3,1970,NA,1,2.69395588794391,3.17763787228503,2.64123406634756,3.84669808502433,FALSE,0.600841587888559
"CAN","cpi",0.1,1971,3,1970,NA,1.5,2.71683801528412,3.28957881561931,2.64123406634756,4.72247431437482,FALSE,0.740749575749764
"CAN","cpi",0.1,1972,3,1972,NA,0,3.51856416608667,3.71123246423256,4.83230569625923,4.61402341086119,FALSE,2.68394214709405
"CAN","cpi",0.1,1972,3,1972,NA,0.5,3.3479982873409,3.54066658548679,4.83230569625923,3.53817935863684,FALSE,3.06297743319575
"CAN","cpi",0.1,1972,3,1971,NA,1,2.21383500792687,2.44284720261642,4.83230569625923,2.09886045002039,FALSE,5.53891995834024
"CAN","cpi",0.1,1972,3,1971,NA,1.5,2.53132667061656,3.02560582580111,4.83230569625923,2.39042152113403,FALSE,4.50916775620259
"CAN","cpi",0.1,1973,3,1973,NA,0,4.19294119403268,4.42741117192475,7.12388603531779,6.22342912205835,FALSE,6.22663634098772
"CAN","cpi",0.1,1973,3,1973,NA,0.5,3.7208353028318,3.95530528072387,7.12388603531779,4.99248222648134,FALSE,7.27576054365634
"CAN","cpi",0.1,1973,3,1972,NA,1,2.76065318347998,3.13091930943561,7.12388603531779,4.61402341086119,FALSE,9.24352551680493
"CAN","cpi",0.1,1973,3,1972,NA,1.5,3.07526683550636,3.44553296146199,7.12388603531779,3.53817935863684,FALSE,8.54438406785741
"CAN","cpi",0.1,1974,3,1974,NA,0,8.66135705664827,9.00302082282739,10.2717243737774,9.59455553431256,FALSE,3.16100499051252
"CAN","cpi",0.1,1974,3,1974,NA,0.5,4.09793777294819,4.54090837447078,10.2717243737774,8.02283957227414,FALSE,13.1781172666485
"CAN","cpi",0.1,1974,3,1973,NA,1,2.79474959988176,3.23772020140435,10.2717243737774,6.22342912205835,FALSE,16.0740909845738
"CAN","cpi",0.1,1974,3,1973,NA,1.5,3.10192567941571,3.54489628093831,10.2717243737774,4.99248222648134,FALSE,15.3914774744984
"CAN","cpi",0.1,1975,3,1975,NA,0,10.1098518444393,10.1610517628097,10.0232981493341,10.5280192696423,FALSE,0.243541463048564
"CAN","cpi",0.1,1975,3,1975,NA,0.5,8.18560695037688,9.34851919092844,10.0232981493341,10.7014589339012,FALSE,2.66242103700863
"CAN","cpi",0.1,1975,3,1974,NA,1,2.80151248474269,3.96442472529425,10.0232981493341,9.59455553431256,FALSE,14.6270754050846
"CAN","cpi",0.1,1975,3,1974,NA,1.5,2.77562518660956,3.93853742716112,10.0232981493341,8.02283957227414,FALSE,14.6846027342693
"CAN","cpi",0.1,1976,3,1976,NA,0,8.00986340542889,8.37628343428878,7.22784311401172,8.13534117389669,FALSE,2.10424289867584
"CAN","cpi",0.1,1976,3,1976,NA,0.5,7.7750670248483,8.46229817328304,7.22784311401172,9.54416967067372,FALSE,1.90328428362715
"CAN","cpi",0.1,1976,3,1975,NA,1,5.51890751628044,6.20613866471518,7.22784311401172,10.5280192696423,FALSE,2.95768548020482
"CAN","cpi",0.1,1976,3,1975,NA,1.5,3.10792954534036,3.7951606937751,7.22784311401172,10.7014589339012,FALSE,8.31541430451611
"CAN","cpi",0.1,1977,3,1977,NA,0,6.35627852225129,6.69520074910755,7.58101410153764,6.84168016809657,FALSE,2.30739634336757
"CAN","cpi",0.1,1977,3,1977,NA,0.5,6.56478822674939,7.1580217364358,7.58101410153764,6.57165012633641,FALSE,1.53321654324607
"CAN","cpi",0.1,1977,3,1976,NA,1,4.8870290085202,5.82816636537029,7.58101410153764,8.13534117389669,FALSE,4.83635454833309
"CAN","cpi",0.1,1977,3,1976,NA,1.5,3.39275124785774,4.93433485856087,7.58101410153764,9.54416967067372,FALSE,7.42309303954041
"CAN","cpi",0.1,1978,3,1978,NA,0,8.49412216583993,8.70190484204424,8.50208927062595,8.56560161197079,TRUE,0.207782676204307
"CAN","cpi",0.1,1978,3,1978,NA,0.5,7.16479908732038,7.37258176352468,8.50208927062595,8.14356532128036,FALSE,2.71779935865155
"CAN","cpi",0.1,1978,3,1977,NA,1,6.50960175808729,7.3338722447217,8.50208927062595,6.84168016809657,FALSE,3.42030832197718
"CAN","cpi",0.1,1978,3,1977,NA,1.5,4.84668029781289,6.80755584894479,8.50208927062595,6.57165012633641,FALSE,5.72650537709003
"CAN","cpi",0.1,1979,3,1979,NA,0,7.92883030065775,8.03313125939521,8.65147652410481,8.51558792202395,FALSE,1.47840154698102
"CAN","cpi",0.1,1979,3,1979,NA,0.5,7.4530191773573,7.71664360090672,8.65147652410481,8.48180361143764,FALSE,2.34103091954517
"CAN","cpi",0.1,1979,3,1978,NA,1,7.27281449826813,7.53643892181755,8.65147652410481,8.56560161197079,FALSE,2.74148576196555
"CAN","cpi",0.1,1979,3,1978,NA,1.5,7.14587440057978,7.40949882412921,8.65147652410481,8.14356532128036,FALSE,3.02357486793965
"CAN","cpi",0.1,1980,3,1980,NA,0,9.88782400353294,9.93866431033068,9.5171912664748,9.17959378630866,FALSE,0.874468611371394
"CAN","cpi",0.1,1980,3,1980,NA,0.5,7.8170062192716,8.26609528159744,9.5171912664748,8.77731920113821,FALSE,3.2293023620533
"CAN","cpi",0.1,1980,3,1979,NA,1,7.49979704364704,7.94888610597287,9.5171912664748,8.51558792202395,FALSE,3.93421164121899
"CAN","cpi",0.1,1980,3,1979,NA,1.5,7.17990687814993,7.62899594047576,9.5171912664748,8.48180361143764,FALSE,4.64507867565703
"CAN","cpi",0.1,1981,3,1981,NA,0,10.0710673087482,10.1369753053568,11.5813425032741,11.279360028481,FALSE,3.27561288086939
"CAN","cpi",0.1,1981,3,1981,NA,0.5,8.52179254059136,8.761559683062,11.5813425032741,10.1336807488653,FALSE,6.50595118738651
"CAN","cpi",0.1,1981,3,1980,NA,1,7.73323235442567,8.48807599596748,11.5813425032741,9.17959378630866,FALSE,7.62876921333438
"CAN","cpi",0.1,1981,3,1980,NA,1.5,7.3456220474428,8.10046568898462,11.5813425032741,8.77731920113821,FALSE,8.49012545107408
"CAN","cpi",0.1,1982,3,1982,NA,0,10.0697328273241,10.1353461415035,10.1124203763629,10.7097306947659,TRUE,0.0656133141794051
"CAN","cpi",0.1,1982,3,1982,NA,0.5,10.2325240889358,11.2248291966422,10.1124203763629,11.3795840186269,FALSE,1.25920224675712
"CAN","cpi",0.1,1982,3,1981,NA,1,8.42435372842488,9.41665883613126,10.1124203763629,11.279360028481,FALSE,2.5384418637768
"CAN","cpi",0.1,1982,3,1981,NA,1.5,7.53981831447957,8.53212342218595,10.1124203763629,10.1336807488653,FALSE,4.50407611698859
"CAN","cpi",0.1,1983,3,1983,NA,0,7.21169318709668,7.2978735215242,5.67091787896303,6.81192865303165,FALSE,3.51012546361339
"CAN","cpi",0.1,1983,3,1983,NA,0.5,8.22576834445586,8.54690571100988,5.67091787896303,9.28631267190301,FALSE,5.99858284542697
"CAN","cpi",0.1,1983,3,1982,NA,1,8.95447282587801,9.56052287581968,5.67091787896303,10.7097306947659,FALSE,7.90283882086384
"CAN","cpi",0.1,1983,3,1982,NA,1.5,7.93350641760301,8.59077963974389,5.67091787896303,11.3795840186269,FALSE,5.68524775245194
"CAN","cpi",0.1,1984,3,1984,NA,0,3.83807340737176,3.9996425528518,4.19799576814029,4.43433180473976,FALSE,0.602354068343345
"CAN","cpi",0.1,1984,3,1984,NA,0.5,6.44730999181511,6.79975876793626,4.19799576814029,5.08610822560979,FALSE,5.35092482873186
"CAN","cpi",0.1,1984,3,1983,NA,1,7.70840049692568,8.07493918450665,4.19799576814029,6.81192865303165,FALSE,8.16743808488184
"CAN","cpi",0.1,1984,3,1983,NA,1.5,7.53078162536298,8.52480409502604,4.19799576814029,9.28631267190301,FALSE,8.40021326349126
"CAN","cpi",0.1,1985,3,1985,NA,0,3.46934881311034,3.51673959539992,3.86444262005169,3.75272544104399,FALSE,0.820064170404633
"CAN","cpi",0.1,1985,3,1985,NA,0.5,3.85973135848807,4.24410730211057,3.86444262005169,3.83470516948927,TRUE,0.384375943622501
"CAN","cpi",0.1,1985,3,1984,NA,1,3.02524367771205,3.46709078567394,3.86444262005169,4.43433180473976,FALSE,1.3248511843569
"CAN","cpi",0.1,1985,3,1984,NA,1.5,7.33620251259381,8.24786516915177,3.86444262005169,5.08610822560979,FALSE,8.62668463998489
"CAN","cpi",0.1,1986,3,1986,NA,0,3.88515891412031,3.9029152383154,4.08685396749431,4.02668174324255,FALSE,0.426509055703775
"CAN","cpi",0.1,1986,3,1986,NA,0.5,3.89062201845707,3.9429906982224,4.08685396749431,4.02628294162027,FALSE,0.372064833702904
"CAN","cpi",0.1,1986,3,1985,NA,1,3.41680644344438,3.48951140274666,4.08685396749431,3.75272544104399,FALSE,1.40013288096373
"CAN","cpi",0.1,1986,3,1985,NA,1.5,3.32561814453666,3.89620874976853,4.08685396749431,3.83470516948927,FALSE,0.994246644622499
"CAN","cpi",0.1,1987,3,1987,NA,0,4.00849914565621,4.05322746813208,4.23980729277887,4.2837330645361,FALSE,0.459350155024296
"CAN","cpi",0.1,1987,3,1987,NA,0.5,3.99497374325681,4.03970206573268,4.23980729277887,4.02033055131438,FALSE,0.489406604800738
"CAN","cpi",0.1,1987,3,1986,NA,1,3.50898300236184,3.73899467663855,4.23980729277887,4.02668174324255,FALSE,1.34292859903298
"CAN","cpi",0.1,1987,3,1986,NA,1.5,3.81739280919112,4.04740448346784,4.23980729277887,4.02628294162027,FALSE,0.657573472745677
"CAN","cpi",0.1,1988,3,1988,NA,0,3.86345108446002,3.93274385041341,3.92899537638065,3.95767765957829,TRUE,0.0692927659533868
"CAN","cpi",0.1,1988,3,1988,NA,0.5,4.04236092126489,4.22486219275855,3.92899537638065,4.26147484794381,FALSE,0.434424704569741
"CAN","cpi",0.1,1988,3,1987,NA,1,3.62686010676839,3.83693062384991,3.92899537638065,4.2837330645361,FALSE,0.414658856038725
"CAN","cpi",0.1,1988,3,1987,NA,1.5,3.90268223489482,4.11275275197635,3.92899537638065,4.02033055131438,TRUE,0.210070517081525
"CAN","cpi",0.1,1989,3,1989,NA,0,4.16465307051093,4.21890147318282,4.82821664544208,4.56141251415513,FALSE,1.40828211880357
"CAN","cpi",0.1,1989,3,1989,NA,0.5,3.97856251908994,4.04044335985081,4.82821664544208,4.0148475519947,FALSE,1.8124881420748
"CAN","cpi",0.1,1989,3,1988,NA,1,3.81413426677773,3.89782626129796,4.82821664544208,3.95767765957829,FALSE,2.15122618150717
"CAN","cpi",0.1,1989,3,1988,NA,1.5,3.92019539778063,4.00388739230086,4.82821664544208,4.26147484794381,FALSE,1.91553477927848
"CAN","cpi",0.1,1990,3,1990,NA,0,4.2105393260771,4.54722207752439,4.64347549432717,4.70378167021394,FALSE,0.550579233231249
"CAN","cpi",0.1,1990,3,1990,NA,0.5,4.49557483361122,4.95798491120984,4.64347549432717,5.05069490734707,TRUE,0.462410077598614
"CAN","cpi",0.1,1990,3,1989,NA,1,3.73201836660768,4.19442844420629,4.64347549432717,4.56141251415513,FALSE,1.46029241120057
"CAN","cpi",0.1,1990,3,1989,NA,1.5,3.7592285568696,4.22163863446822,4.64347549432717,4.0148475519947,FALSE,1.39982532172962
"CAN","cpi",0.1,1991,3,1991,NA,0,4.53308955169332,4.65432148868469,5.4258100696218,5.63511155207928,FALSE,1.8356510057405
"CAN","cpi",0.1,1991,3,1991,NA,0.5,4.58268398356815,5.25599963037417,5.4258100696218,4.87807370573786,FALSE,1.05067217846741
"CAN","cpi",0.1,1991,3,1990,NA,1,3.8576522193703,4.53096786617631,5.4258100696218,4.70378167021394,FALSE,2.66185387668487
"CAN","cpi",0.1,1991,3,1990,NA,1.5,4.0749697911448,7.70603028102752,5.4258100696218,5.05069490734707,TRUE,3.63106048988272
"CAN","cpi",0.1,1992,3,1992,NA,0,2.222656797548,2.264634279677,1.47496888572843,2.02050638420239,FALSE,1.70350617506138
"CAN","cpi",0.1,1992,3,1992,NA,0.5,4.1093233053545,4.1513007874835,1.47496888572843,4.27205707399704,FALSE,5.89609841463137
"CAN","cpi",0.1,1992,3,1991,NA,1,4.49185019558907,5.01807273037743,1.47496888572843,5.63511155207928,FALSE,7.23040322336756
"CAN","cpi",0.1,1992,3,1991,NA,1.5,4.23424060868313,4.83014611934404,1.47496888572843,4.87807370573786,FALSE,6.72762045056023
"CAN","cpi",0.1,1993,3,1993,NA,0,1.86799712272382,1.98443520101683,1.84351085411351,1.84186847486189,FALSE,0.17085200853814
"CAN","cpi",0.1,1993,3,1993,NA,0.5,1.62045352243718,1.73689160073018,1.84351085411351,1.60616723541631,FALSE,0.353369752478179
"CAN","cpi",0.1,1993,3,1992,NA,1,2.76331050803099,3.3369711104655,1.84351085411351,2.02050638420239,FALSE,2.61765983336224
"CAN","cpi",0.1,1993,3,1992,NA,1.5,3.73223126549665,4.30589186793116,1.84351085411351,4.27205707399704,FALSE,4.77081707217482
"CAN","cpi",0.1,1994,3,1994,NA,0,0.925517768588121,0.68492426444224,0.161630694655448,0.62038151471279,FALSE,1.45693332681562
"CAN","cpi",0.1,1994,3,1994,NA,0.5,1.33339187745045,1.33923346506506,0.161630694655448,1.4565883399875,FALSE,2.60975532715906
"CAN","cpi",0.1,1994,3,1993,NA,1,2.33332200240424,2.80112498375474,0.161630694655448,1.84186847486189,FALSE,5.29378366523671
"CAN","cpi",0.1,1994,3,1993,NA,1.5,1.89900576161389,2.36680874296439,0.161630694655448,1.60616723541631,FALSE,4.32863646348038
"CAN","cpi",0.1,1995,3,1995,NA,0,1.55028572563057,1.68576323856221,2.11688403676572,1.60030724029718,FALSE,1.09352373116165
"CAN","cpi",0.1,1995,3,1995,NA,0.5,0.365682780282227,0.827486664338852,2.11688403676572,0.400723248632204,FALSE,3.32713137833854
"CAN","cpi",0.1,1995,3,1994,NA,1,0.918171614985748,1.37997549904237,2.11688403676572,0.62038151471279,FALSE,2.09937841233072
"CAN","cpi",0.1,1995,3,1994,NA,1.5,1.20748647892738,1.66929036298401,2.11688403676572,1.4565883399875,FALSE,1.45645649246042
"CAN","cpi",0.1,1996,3,1996,NA,0,1.68655484243106,1.80626912124447,1.55309584667184,1.57188450223428,FALSE,0.416289824945006
"CAN","cpi",0.1,1996,3,1996,NA,0.5,2.6856850356054,2.8053993144188,1.55309584667184,2.10267011992876,FALSE,2.63657914311019
"CAN","cpi",0.1,1996,3,1995,NA,1,1.77329052172774,1.89300480054115,1.55309584667184,1.60030724029718,FALSE,0.609035778937627
"CAN","cpi",0.1,1996,3,1995,NA,1.5,1.20810337502284,1.32781765383624,1.55309584667184,0.400723248632204,FALSE,0.620332485114739
"CAN","cpi",0.1,1997,3,1997,NA,0,1.80405454042447,1.86557866758414,1.60528783555959,1.83379947449567,FALSE,0.503227915748292
"CAN","cpi",0.1,1997,3,1997,NA,0.5,1.78824635778632,1.85288403843628,1.60528783555959,1.71447508965446,FALSE,0.47121217448714
"CAN","cpi",0.1,1997,3,1996,NA,1,1.43916047524542,1.5042663990059,1.60528783555959,1.57188450223428,FALSE,0.289598004990915
"CAN","cpi",0.1,1997,3,1996,NA,1.5,2.43018625827215,3.4725120051027,1.60528783555959,2.10267011992876,FALSE,2.87543335285846
"CAN","cpi",0.1,1998,3,1998,NA,0,0.974717504473996,1.02837230088595,0.988908029337191,0.973278201206617,TRUE,0.0536547964119549
"CAN","cpi",0.1,1998,3,1998,NA,0.5,1.0025693608805,1.05622415729245,0.988908029337191,1.34049194776323,FALSE,0.084013310952641
"CAN","cpi",0.1,1998,3,1997,NA,1,1.87951113494473,2.24940495386287,0.988908029337191,1.83379947449567,FALSE,2.34901183137933
"CAN","cpi",0.1,1998,3,1997,NA,1.5,1.79335585479186,2.16324967371,0.988908029337191,1.71447508965446,FALSE,2.15755565326185
"CAN","cpi",0.1,1999,3,1999,NA,0,1.20770194860778,1.29664556233096,1.7107350135213,1.40211292309609,FALSE,1.00914239414616
"CAN","cpi",0.1,1999,3,1999,NA,0.5,0.968754559289704,1.05769817301288,1.7107350135213,0.923130320518117,FALSE,1.54013659263076
"CAN","cpi",0.1,1999,3,1998,NA,1,1.27384017129472,1.445522417967,1.7107350135213,0.973278201206617,FALSE,0.761043570126271
"CAN","cpi",0.1,1999,3,1998,NA,1.5,1.27907621592224,1.45075846259451,1.7107350135213,1.34049194776323,FALSE,0.749407915398464
"CAN","cpi",0.1,2000,3,2000,NA,0,2.39296059350243,2.50344950435181,2.6718361971244,2.50399207866046,FALSE,0.484681561455145
"CAN","cpi",0.1,2000,3,2000,NA,0.5,2.53587955902606,2.64636846987544,2.6718361971244,2.17160318889212,FALSE,0.167083860291512
"CAN","cpi",0.1,2000,3,1999,NA,1,1.45980263526772,1.5702915461171,2.6718361971244,1.40211292309609,FALSE,2.55836591308783
"CAN","cpi",0.1,2000,3,1999,NA,1.5,1.48273757445299,1.59322648530238,2.6718361971244,0.923130320518117,FALSE,2.50739938156499
"CAN","cpi",0.1,2001,3,2001,NA,0,2.80547947493368,2.99807872904651,2.47906219852806,2.96814309391761,FALSE,0.917970979458645
"CAN","cpi",0.1,2001,3,2001,NA,0.5,2.60952538627455,3.28727387044933,2.47906219852806,2.69801990899347,FALSE,0.967666679166974
"CAN","cpi",0.1,2001,3,2000,NA,1,2.21579197638718,2.89354046056195,2.47906219852806,2.50399207866046,TRUE,0.677748484174772
"CAN","cpi",0.1,2001,3,2000,NA,1.5,2.24054663300369,3.41683397801216,2.47906219852806,2.17160318889212,TRUE,1.17628734500847
"CAN","cpi",0.1,2002,3,2002,NA,0,1.54752753526493,1.57366531358796,2.20880570551249,1.54486874462913,FALSE,1.43756087148864
"CAN","cpi",0.1,2002,3,2002,NA,0.5,2.60270414758585,2.62884192590888,2.20880570551249,2.180209446776,FALSE,0.901467649597174
"CAN","cpi",0.1,2002,3,2001,NA,1,2.32753986436486,2.40151400045019,2.20880570551249,2.96814309391761,FALSE,0.337827822423935
"CAN","cpi",0.1,2002,3,2001,NA,1.5,3.4104743414383,3.48444847752364,2.20880570551249,2.69801990899347,FALSE,2.74434888258716
"CAN","cpi",0.1,2003,3,2003,NA,0,2.91186043020603,2.97430566752317,2.71189071546809,3.2075247865732,FALSE,0.506822381179232
"CAN","cpi",0.1,2003,3,2003,NA,0.5,2.77817653565999,3.14777779893081,2.71189071546809,2.91800239560335,FALSE,0.516903085919492
"CAN","cpi",0.1,2003,3,2002,NA,1,1.38870935186386,1.75831061513468,2.71189071546809,1.54486874462913,FALSE,2.48866815290061
"CAN","cpi",0.1,2003,3,2002,NA,1.5,2.24633446181018,2.615935725081,2.71189071546809,2.180209446776,FALSE,0.582834575242139
"CAN","cpi",0.1,2004,3,2004,NA,0,1.7125857677082,1.74954534336245,1.83151661303942,1.69584100230101,FALSE,0.219117952714189
"CAN","cpi",0.1,2004,3,2004,NA,0.5,1.79214395460582,1.82910353026008,1.83151661303942,1.84885395921698,FALSE,0.0423219818305775
"CAN","cpi",0.1,2004,3,2003,NA,1,2.29556211283846,2.33252168849272,1.83151661303942,3.2075247865732,FALSE,1.0681717974299
"CAN","cpi",0.1,2004,3,2003,NA,1.5,2.89614070346946,2.93310027912372,1.83151661303942,2.91800239560335,FALSE,2.40279088772102
"CAN","cpi",0.1,2005,3,2005,NA,0,2.34274806283228,2.57558260611873,2.18071628336509,2.20100508158421,FALSE,0.592905164324646
"CAN","cpi",0.1,2005,3,2005,NA,0.5,2.46939192116795,2.70222646445441,2.18071628336509,2.12928049157936,FALSE,0.874335960626152
"CAN","cpi",0.1,2005,3,2004,NA,1,1.60038911798658,1.85675351188281,2.18071628336509,1.69584100230101,FALSE,0.976281663856851
"CAN","cpi",0.1,2005,3,2004,NA,1.5,1.75258235293361,2.2537077961743,2.18071628336509,1.84885395921698,TRUE,0.501125443240699
"CAN","cpi",0.1,2006,3,2006,NA,0,2.13385894380982,2.2891018886109,1.97519342012289,2.18435928951757,FALSE,0.507832997438714
"CAN","cpi",0.1,2006,3,2006,NA,0.5,2.41913580379212,2.5743787485932,1.97519342012289,2.23898625105085,FALSE,1.14178157517716
"CAN","cpi",0.1,2006,3,2005,NA,1,2.1860776506049,2.34132059540598,1.97519342012289,2.20100508158421,FALSE,0.62387456809445
"CAN","cpi",0.1,2006,3,2005,NA,1.5,2.23453070929983,2.38977365410091,1.97519342012289,2.12928049157936,FALSE,0.731548031860957
"CAN","cpi",0.1,2007,3,2007,NA,0,1.7458299511919,1.79819804685593,2.10062087284572,1.84480494136243,FALSE,0.724418820085789
"CAN","cpi",0.1,2007,3,2007,NA,0.5,1.78841172941451,1.84077982507854,2.10062087284572,1.84074896087257,FALSE,0.629792646257769
"CAN","cpi",0.1,2007,3,2006,NA,1,1.98692599443954,2.21409025272142,2.10062087284572,2.18435928951757,TRUE,0.227164258281877
"CAN","cpi",0.1,2007,3,2006,NA,1.5,2.34583846725768,2.57300272553956,2.10062087284572,2.23898625105085,FALSE,0.772092245864008
"CAN","cpi",0.1,2008,3,2008,NA,0,2.4463178149889,2.48275490846108,2.31447335265955,2.44343788755996,FALSE,0.329424787537398
"CAN","cpi",0.1,2008,3,2008,NA,0.5,2.07932624366359,2.20599392338724,2.31447335265955,2.09257425597425,FALSE,0.36773307810657
"CAN","cpi",0.1,2008,3,2007,NA,1,1.9262840520508,2.06217455530644,2.31447335265955,1.84480494136243,FALSE,0.696554497373668
"CAN","cpi",0.1,2008,3,2007,NA,1.5,2.06080340867712,2.19669391193276,2.31447335265955,1.84074896087257,FALSE,0.397622593759617
"CAN","cpi",0.1,2009,3,2009,NA,0,0.168688872706976,0.227961411928978,0.284533874408197,0.55191793044214,FALSE,0.184989122509156
"CAN","cpi",0.1,2009,3,2009,NA,0.5,2.20603820528607,2.3937297001382,0.284533874408197,2.17577573644726,FALSE,4.45770111902517
"CAN","cpi",0.1,2009,3,2008,NA,1,2.05309669324967,2.2407881881018,0.284533874408197,2.44343788755996,FALSE,4.11783109227762
"CAN","cpi",0.1,2009,3,2008,NA,1.5,2.14031817689817,2.3280096717503,0.284533874408197,2.09257425597425,FALSE,4.31165661149651
"CAN","cpi",0.1,2010,3,2010,NA,0,1.33436617185074,1.34022771088921,1.75525687020327,1.39285160668897,FALSE,0.928148559736386
"CAN","cpi",0.1,2010,3,2010,NA,0.5,1.01828078804361,1.18489364810958,1.75525687020327,0.382958497759795,FALSE,1.43408668694085
"CAN","cpi",0.1,2010,3,2009,NA,1,1.36127724316531,1.56772285077345,1.75525687020327,0.55191793044214,FALSE,0.623187873007742
"CAN","cpi",0.1,2010,3,2009,NA,1.5,2.214851340362,2.42129694797013,1.75525687020327,2.17577573644726,FALSE,1.22776665240531
"CAN","cpi",0.1,2011,3,2011,NA,0,2.48695753341599,2.61722280266441,2.85717434028225,2.75343947842877,FALSE,0.66349090839917
"CAN","cpi",0.1,2011,3,2011,NA,0.5,2.1263270564866,2.25659232573503,2.85717434028225,1.99557590637446,FALSE,1.46489196824224
"CAN","cpi",0.1,2011,3,2010,NA,1,1.52534555244989,1.65561082169832,2.85717434028225,1.39285160668897,FALSE,2.80040642165715
"CAN","cpi",0.1,2011,3,2010,NA,1.5,1.35467506143375,1.48494033068218,2.85717434028225,0.382958497759795,FALSE,3.1796741794708
"CAN","cpi",0.1,2012,3,2012,NA,0,1.91195136825091,1.98842684332352,1.50118536134935,1.92993928708068,FALSE,0.989288823742752
"CAN","cpi",0.1,2012,3,2012,NA,0.5,2.55726011659581,2.63373559166841,1.50118536134935,2.7924065414457,FALSE,2.42330826450919
"CAN","cpi",0.1,2012,3,2011,NA,1,2.19042059482859,2.2668960699012,1.50118536134935,2.75343947842877,FALSE,1.6081093272487
"CAN","cpi",0.1,2012,3,2011,NA,1.5,1.95492176125116,2.17694654225083,1.50118536134935,1.99557590637446,FALSE,1.23032789189259
"CAN","cpi",0.1,2013,3,2013,NA,0,0.918457932772397,1.00710957712765,0.931270594714462,0.933287972916032,TRUE,0.0886516443552581
"CAN","cpi",0.1,2013,3,2013,NA,0.5,1.06969316551072,1.27331912800095,0.931270594714462,1.15173631466769,FALSE,0.511231675370807
"CAN","cpi",0.1,2013,3,2012,NA,1,1.96358328303065,2.16720924552088,0.931270594714462,1.92993928708068,FALSE,2.49765415874842
"CAN","cpi",0.1,2013,3,2012,NA,1.5,2.13628044588289,2.33990640837312,0.931270594714462,2.7924065414457,FALSE,2.88142563175341
"CAN","cpi",0.1,2014,3,2014,NA,0,1.67703610691544,1.76955942366592,1.87639912240215,1.63379811457679,FALSE,0.329944869497668
"CAN","cpi",0.1,2014,3,2014,NA,0.5,0.994067777943116,1.0865910946936,1.87639912240215,1.04987664511533,FALSE,1.84765226721393
"CAN","cpi",0.1,2014,3,2013,NA,1,1.58078133483615,1.67330465158663,1.87639912240215,0.933287972916032,FALSE,0.543844363007191
"CAN","cpi",0.1,2014,3,2013,NA,1.5,1.60585961836556,1.71728627745036,1.87639912240215,1.15173631466769,FALSE,0.465010758977664
"CAN","cpi",0.1,2015,3,2015,NA,0,0.999950663343406,1.00345551296297,1.11090953952792,1.25588008397684,FALSE,0.24229157531945
"CAN","cpi",0.1,2015,3,2015,NA,0.5,1.83352443848323,1.84288132450042,1.11090953952792,1.79776205300989,FALSE,1.61516777258456
"CAN","cpi",0.1,2015,3,2014,NA,1,1.75623800687363,1.87604919062039,1.11090953952792,1.63379811457679,FALSE,1.55387444451501
"CAN","cpi",0.1,2015,3,2014,NA,1.5,1.6026716721276,1.72248285587435,1.11090953952792,1.04987664511533,FALSE,1.21261592285715
"CAN","cpi",0.1,2016,3,2016,NA,0,1.6250097070745,1.66457492236997,1.41168586698797,1.39645323019091,FALSE,0.513618193265544
"CAN","cpi",0.1,2016,3,2016,NA,0.5,1.08161646260096,1.27759950362709,1.41168586698797,1.22661053967644,FALSE,0.493952737383625
"CAN","cpi",0.1,2016,3,2015,NA,1,1.54979035623306,1.74577339725919,1.41168586698797,1.25588008397684,FALSE,0.502881906015236
"CAN","cpi",0.1,2016,3,2015,NA,1.5,1.87939706943111,2.07538011045723,1.41168586698797,1.79776205300989,FALSE,1.23534126867755
"CAN","cpi",0.1,2017,3,2017,NA,0,1.59054566552656,1.6322466136894,1.57888581671161,1.4811454634985,FALSE,0.0676117233071709
"CAN","cpi",0.1,2017,3,2017,NA,0.5,1.57813221508804,1.61983316325088,1.57888581671161,1.50199497030019,TRUE,0.0417009481628381
"CAN","cpi",0.1,2017,3,2016,NA,1,1.58819798600674,1.7145016607401,1.57888581671161,1.39645323019091,FALSE,0.146997384278087
"CAN","cpi",0.1,2017,3,2016,NA,1.5,1.61222829855407,1.73853197328744,1.57888581671161,1.22661053967644,FALSE,0.20039807882773
"CAN","cpi",0.1,2018,3,2018,NA,0,2.05528524758463,2.07801648013533,2.23316270166586,2.17346080855069,FALSE,0.367500613729644
"CAN","cpi",0.1,2018,3,2018,NA,0.5,1.69564910955972,1.79629959061277,2.23316270166586,1.61472973146397,FALSE,1.07145739450435
"CAN","cpi",0.1,2018,3,2017,NA,1,1.54355557050091,1.64420605155396,2.23316270166586,1.4811454634985,FALSE,1.40944303685726
"CAN","cpi",0.1,2018,3,2017,NA,1.5,1.57941585527695,1.92064524233533,2.23316270166586,1.50199497030019,FALSE,1.03571263001511
"CAN","cpi",0.1,2019,3,2019,NA,0,1.85178682969889,1.86833804833509,1.91921619871868,1.90497611164807,FALSE,0.129613775044183
"CAN","cpi",0.1,2019,3,2019,NA,0.5,2.2236683825773,2.40869446029948,1.91921619871868,2.12426010345757,FALSE,0.861586486296893
"CAN","cpi",0.1,2019,3,2018,NA,1,1.90593604877882,2.09096212650101,1.91921619871868,2.17346080855069,TRUE,0.185026077722183
"CAN","cpi",0.1,2019,3,2018,NA,1.5,1.78792176163048,2.04544839193518,1.91921619871868,1.61472973146397,TRUE,0.257526630304693
"CAN","cpi",0.1,2020,3,2020,NA,0,0.870119276204974,0.993616442412574,0.71139989671781,1.03314712474633,FALSE,0.476206898401298
"CAN","cpi",0.1,2020,3,2020,NA,0.5,1.90988208229413,2.14220882532508,0.71139989671781,1.96699466082655,FALSE,2.89562048875611
"CAN","cpi",0.1,2020,3,2019,NA,1,1.84386541448599,2.07619215751694,0.71139989671781,1.90497611164807,FALSE,2.74891678251579
"CAN","cpi",0.1,2020,3,2019,NA,1.5,1.93905014563798,2.20613757852794,0.71139989671781,2.12426010345757,FALSE,2.995199097157
"CAN","cpi",0.1,2021,3,2021,NA,0,2.30196576788417,2.30553964108069,3.31148121717802,2.35752845828485,FALSE,2.23899959785726
"CAN","cpi",0.1,2021,3,2021,NA,0.5,1.10451594463508,1.27539243116462,3.31148121717802,0.620135433592656,FALSE,4.69551823322599
"CAN","cpi",0.1,2021,3,2020,NA,1,1.53090777232851,1.70178425885804,3.31148121717802,1.03314712474633,FALSE,3.74798083835172
"CAN","cpi",0.1,2021,3,2020,NA,1.5,1.61806274420496,1.99127319668685,3.31148121717802,1.96699466082655,FALSE,3.30700605357339
"CAN","cpi",0.1,2022,3,2022,NA,0,5.54452094145564,5.61216204666066,6.50977236228281,6.06204323255885,FALSE,2.06233069547647
"CAN","cpi",0.1,2022,3,2022,NA,0.5,4.05860085287877,4.17431088016199,6.50977236228281,4.36321977466389,FALSE,5.30562443199616
"CAN","cpi",0.1,2022,3,2021,NA,1,1.87727092875794,1.99298095604116,6.50977236228281,2.35752845828485,FALSE,10.1530242633758
"CAN","cpi",0.1,2022,3,2021,NA,1.5,1.49806245110202,1.61377247838524,6.50977236228281,0.620135433592656,FALSE,10.9957097692778
"CAN","cpi",0.1,2023,3,2023,NA,0,4.48663891042766,4.58363361354002,3.78831288758619,4.59798511919386,FALSE,1.64883030942673
"CAN","cpi",0.1,2023,3,2023,NA,0.5,7.22662481309643,7.32361951620879,3.78831288758619,6.34532620809577,FALSE,7.73768787091289
"CAN","cpi",0.1,2023,3,2022,NA,1,4.30618412298567,4.80816423026357,3.78831288758619,6.06204323255885,FALSE,1.6528050748323
"CAN","cpi",0.1,2023,3,2022,NA,1.5,3.67430269661693,4.17628280389482,3.78831288758619,4.36321977466389,TRUE,0.501980107277891
"CAN","cpi",0.1,2024,3,2023,NA,1,3.85287926395554,4.14028781153825,NA,4.59798511919386,NA,NA
"CAN","cpi",0.1,2024,3,2023,NA,1.5,6.20698868232487,7.53791721887251,NA,6.34532620809577,NA,NA
"CAN","cpi",0.2,1950,3,1950,NA,0,3.41276022321824,3.41276022321824,2.59031220731124,1.68831415137957,FALSE,2.0561200397675
"CAN","cpi",0.2,1950,3,1950,NA,0.5,3.41276022321824,5.36489148023986,2.59031220731124,1.999247189508,FALSE,4.00825129678913
"CAN","cpi",0.2,1951,3,1951,NA,0,3.21162072293086,3.30037947496219,9.87945438999359,8.63763655575849,FALSE,16.5364460396098
"CAN","cpi",0.2,1951,3,1951,NA,0.5,2.54593283129557,2.6346915833269,9.87945438999359,4.395311027755,FALSE,18.2006657686981
"CAN","cpi",0.2,1951,3,1950,NA,1,2.54593283129557,2.6346915833269,9.87945438999359,1.68831415137957,FALSE,18.2006657686981
"CAN","cpi",0.2,1951,3,1950,NA,1.5,2.59031220731124,2.75508306775639,9.87945438999359,1.999247189508,FALSE,17.9756991660382
"CAN","cpi",0.2,1952,3,1952,NA,0,2.88726308265661,3.062429560701,2.55562336095485,5.33589356249898,FALSE,1.00426578229879
"CAN","cpi",0.2,1952,3,1952,NA,0.5,6.64829415562668,8.59128813680961,2.55562336095485,9.78336808811006,FALSE,12.1746709678625
"CAN","cpi",0.2,1952,3,1951,NA,1,2.05801691135279,4.00101089253572,2.55562336095485,8.63763655575849,TRUE,1.94299398118294
"CAN","cpi",0.2,1952,3,1951,NA,1.5,2.03003920850993,3.97303318969286,2.55562336095485,4.395311027755,TRUE,1.94299398118294
"CAN","cpi",0.2,1953,3,1953,NA,0,2.9096801270432,4.32524393844801,-1.01492775838436,-1.36658675161344,FALSE,11.2270835249737
"CAN","cpi",0.2,1953,3,1953,NA,0.5,4.49811331378872,5.91367712519353,-1.01492775838436,0.110034650547486,FALSE,15.1981664918375
"CAN","cpi",0.2,1953,3,1952,NA,1,1.86518587843079,3.2807496898356,-1.01492775838436,5.33589356249898,FALSE,8.61584790344268
"CAN","cpi",0.2,1953,3,1952,NA,1.5,2.04305279281468,3.45861660421949,-1.01492775838436,9.78336808811006,FALSE,9.06051518940241
"CAN","cpi",0.2,1954,3,1954,NA,0,0.154193444725393,1.24099013176844,0.644425455961438,0.642985131580263,TRUE,1.08679668704305
"CAN","cpi",0.2,1954,3,1954,NA,0.5,-1.55832610190589,-0.471529414862839,0.644425455961438,-0.366337731528715,FALSE,3.87668386410374
"CAN","cpi",0.2,1954,3,1953,NA,1,-0.654399860239374,2.20898654319685,0.644425455961438,-1.36658675161344,TRUE,2.86338640343623
"CAN","cpi",0.2,1954,3,1953,NA,1.5,-0.661345332411513,2.20204107102471,0.644425455961438,0.110034650547486,TRUE,2.86338640343623
"CAN","cpi",0.2,1955,3,1955,NA,0,-0.230646344170391,0.679483229364541,0.173649026558865,0.17297271419658,TRUE,0.910129573534932
"CAN","cpi",0.2,1955,3,1955,NA,0.5,-0.912086519432727,-0.00195694589779472,0.173649026558865,0.586026480650511,FALSE,1.34914450467658
"CAN","cpi",0.2,1955,3,1954,NA,1,-0.687281119678823,0.295658574496527,0.173649026558865,0.642985131580263,TRUE,0.982939694175349
"CAN","cpi",0.2,1955,3,1954,NA,1.5,-0.129389351234981,1.05132718078374,0.173649026558865,-0.366337731528715,TRUE,1.18071653201872
"CAN","cpi",0.2,1956,3,1956,NA,0,0.384232112124037,0.489623662638024,1.32752769429961,0.753971131965347,FALSE,2.20015162966795
"CAN","cpi",0.2,1956,3,1956,NA,0.5,-0.853544792701446,-0.326371848918579,1.32752769429961,0.174369006303267,FALSE,4.66192180182833
"CAN","cpi",0.2,1956,3,1955,NA,1,-0.280766186146812,0.246406757636055,1.32752769429961,0.17297271419658,FALSE,3.22997528544175
"CAN","cpi",0.2,1956,3,1955,NA,1.5,0.112275120472632,0.639448064255499,1.32752769429961,0.586026480650511,FALSE,2.24737201889314
"CAN","cpi",0.2,1957,3,1957,NA,0,2.37040994413694,2.50207156985882,3.24684755852518,3.20420645854679,FALSE,1.99360159738777
"CAN","cpi",0.2,1957,3,1957,NA,0.5,2.49868468060674,2.63034630632863,3.24684755852518,2.07576432581215,FALSE,1.67291475621326
"CAN","cpi",0.2,1957,3,1956,NA,1,0.295836519632939,0.6749811856847,3.24684755852518,0.753971131965347,FALSE,6.80881059815295
"CAN","cpi",0.2,1957,3,1956,NA,1.5,0.186233399303778,0.565378065355539,3.24684755852518,0.174369006303267,FALSE,7.08281839897585
"CAN","cpi",0.2,1958,3,1958,NA,0,2.5612268143448,2.57803717467563,2.33186388641149,2.45716899110006,FALSE,0.590217680164116
"CAN","cpi",0.2,1958,3,1958,NA,0.5,2.75945102392616,2.92920535407931,2.33186388641149,3.16832340224646,FALSE,1.23872217393982
"CAN","cpi",0.2,1958,3,1957,NA,1,2.4880902908922,2.65784462104536,2.33186388641149,3.20420645854679,FALSE,0.560320341354941
"CAN","cpi",0.2,1958,3,1957,NA,1.5,1.63455165780413,2.55562335430287,2.33186388641149,2.07576432581215,TRUE,0.921071696498736
"CAN","cpi",0.2,1959,3,1959,NA,0,1.78124097104348,2.07732676015053,1.19382698397654,1.42085685959275,FALSE,1.7646207567744
"CAN","cpi",0.2,1959,3,1959,NA,0.5,2.40466227428601,2.70074806339307,1.19382698397654,1.98727093968503,FALSE,3.32317401488074
"CAN","cpi",0.2,1959,3,1958,NA,1,1.9577071516665,2.54885890620124,1.19382698397654,2.45716899110006,FALSE,2.50085217375965
"CAN","cpi",0.2,1959,3,1958,NA,1.5,1.90254360226739,2.49369535680213,1.19382698397654,3.16832340224646,FALSE,2.36294330026187
"CAN","cpi",0.2,1960,3,1960,NA,0,1.09217005844164,1.41296728786435,1.34209404870695,1.34570677924433,TRUE,0.320797229422714
"CAN","cpi",0.2,1960,3,1960,NA,0.5,0.780126084556818,1.10092331397953,1.34209404870695,1.13297483079829,FALSE,0.923724066241263
"CAN","cpi",0.2,1960,3,1959,NA,1,1.3452386657563,2.38597896627475,1.34209404870695,1.42085685959275,FALSE,1.04860184314182
"CAN","cpi",0.2,1960,3,1959,NA,1.5,1.30883307768741,2.34957337820587,1.34209404870695,1.98727093968503,TRUE,1.04074030051845
"CAN","cpi",0.2,1961,3,1961,NA,0,1.29984517440298,1.44647496155966,1.00921348094007,1.32757858722203,FALSE,0.873209020813954
"CAN","cpi",0.2,1961,3,1961,NA,0.5,1.13387017966557,1.28049996682224,1.00921348094007,1.39166174207428,FALSE,0.458271533970412
"CAN","cpi",0.2,1961,3,1960,NA,1,1.33334916037611,1.93561046092505,1.00921348094007,1.34570677924433,FALSE,1.41260049913903
"CAN","cpi",0.2,1961,3,1960,NA,1.5,1.3022641863025,2.04291272877495,1.00921348094007,1.13297483079829,FALSE,1.47327530587852
"CAN","cpi",0.2,1962,3,1962,NA,0,0.427221172640659,0.62127220840544,1.04957947883042,0.577977430468435,FALSE,1.26481921182722
"CAN","cpi",0.2,1962,3,1962,NA,0.5,0.332057704274478,0.894755028552472,1.04957947883042,0.636962012224359,FALSE,0.949758449972851
"CAN","cpi",0.2,1962,3,1961,NA,1,0.840321588113032,1.40301891239103,1.04957947883042,1.32757858722203,TRUE,0.562697324277995
"CAN","cpi",0.2,1962,3,1961,NA,1.5,0.999859815421067,1.56255713969906,1.04957947883042,1.39166174207428,TRUE,0.562697324277995
"CAN","cpi",0.2,1963,3,1963,NA,0,2.1403737383233,2.45522448705411,1.60677118395228,1.66779362321099,FALSE,1.64885713465836
"CAN","cpi",0.2,1963,3,1963,NA,0.5,0.949104437157058,1.26395518588787,1.60677118395228,1.52118152719239,FALSE,1.17189074389185
"CAN","cpi",0.2,1963,3,1962,NA,1,0.659937187559422,1.04176355850054,1.60677118395228,0.577977430468435,FALSE,1.79434543457048
"CAN","cpi",0.2,1963,3,1962,NA,1.5,0.930995471969677,1.31282184291079,1.60677118395228,0.636962012224359,FALSE,1.11669972354485
"CAN","cpi",0.2,1964,3,1964,NA,0,2.28055873270013,2.46885810841598,1.88764670034376,1.89274723222648,FALSE,1.17057945660677
"CAN","cpi",0.2,1964,3,1964,NA,0.5,1.18187460486688,1.37017398058274,1.88764670034376,1.59688015421336,FALSE,1.48198117511841
"CAN","cpi",0.2,1964,3,1963,NA,1,1.35960572991719,1.73633799340852,1.88764670034376,1.66779362321099,FALSE,0.755004030829428
"CAN","cpi",0.2,1964,3,1963,NA,1.5,1.08189154573453,1.45862380922586,1.88764670034376,1.52118152719239,FALSE,1.44928949128607
"CAN","cpi",0.2,1965,3,1965,NA,0,1.96217098264418,2.31877896312924,2.29538304394236,2.00763200760394,TRUE,0.356607980485057
"CAN","cpi",0.2,1965,3,1965,NA,0.5,1.37712264080802,1.73373062129307,2.29538304394236,1.88069823981647,FALSE,1.76073903710826
"CAN","cpi",0.2,1965,3,1964,NA,1,1.49419658722111,2.00633615822307,2.29538304394236,1.89274723222648,FALSE,1.23475678530018
"CAN","cpi",0.2,1965,3,1964,NA,1.5,1.32795653114009,1.84009610214205,2.29538304394236,1.59688015421336,FALSE,1.65035692550273
"CAN","cpi",0.2,1966,3,1966,NA,0,2.46941579968691,2.6744611101518,3.72486065470629,3.50850431851723,FALSE,2.83104417185112
"CAN","cpi",0.2,1966,3,1966,NA,0.5,2.5361384299743,2.7411837404392,3.72486065470629,2.72414080931513,FALSE,2.66423759613262
"CAN","cpi",0.2,1966,3,1965,NA,1,1.88764615554836,2.19344895545411,3.72486065470629,2.00763200760394,FALSE,4.13433204803619
"CAN","cpi",0.2,1966,3,1965,NA,1.5,1.66294679271282,2.07502450850413,3.72486065470629,1.88069823981647,FALSE,4.53666808129671
"CAN","cpi",0.2,1967,3,1967,NA,0,2.74642050879758,3.20041440742169,3.49360316391996,3.43593854851327,FALSE,1.18696578986978
"CAN","cpi",0.2,1967,3,1967,NA,0.5,2.82280443095835,3.27679832958246,3.49360316391996,3.60120034208141,FALSE,0.996005984467852
"CAN","cpi",0.2,1967,3,1966,NA,1,2.02413789384662,2.47813179247073,3.49360316391996,3.50850431851723,FALSE,2.99267232724718
"CAN","cpi",0.2,1967,3,1966,NA,1.5,2.08662739541176,2.54062129403587,3.49360316391996,2.72414080931513,FALSE,2.83644857333433
"CAN","cpi",0.2,1968,3,1968,NA,0,3.33174140352987,3.44273565422071,3.95128347779386,3.85741006811451,FALSE,1.3823638096237
"CAN","cpi",0.2,1968,3,1968,NA,0.5,3.39423040424635,3.50522465493719,3.95128347779386,3.82980583992124,FALSE,1.22614130783251
"CAN","cpi",0.2,1968,3,1967,NA,1,2.4049803038991,2.82729071004981,3.95128347779386,3.43593854851327,FALSE,3.23229232551082
"CAN","cpi",0.2,1968,3,1967,NA,1.5,2.21314401102094,2.63545441717165,3.95128347779386,3.60120034208141,FALSE,3.71188305770622
"CAN","cpi",0.2,1969,3,1969,NA,0,3.4127566307294,3.63235615280358,4.42679496126681,4.42973002734916,FALSE,2.20569654323227
"CAN","cpi",0.2,1969,3,1969,NA,0.5,3.45460347062935,3.75451698164532,4.42679496126681,3.77653863724463,FALSE,1.9806084600697
"CAN","cpi",0.2,1969,3,1968,NA,1,2.57419502007912,3.22850013717246,4.42679496126681,3.85741006811451,FALSE,3.65004217732923
"CAN","cpi",0.2,1969,3,1968,NA,1.5,2.39082171310584,3.04512683019918,4.42679496126681,3.82980583992124,FALSE,4.10847544476242
"CAN","cpi",0.2,1970,3,1970,NA,0,3.49359985308077,3.76441006721579,3.28128405769805,3.84669808502433,FALSE,0.801599702591834
"CAN","cpi",0.2,1970,3,1970,NA,0.5,4.13799615390351,5.00700143239392,3.28128405769805,4.72247431437482,FALSE,3.01078551900407
"CAN","cpi",0.2,1970,3,1969,NA,1,2.70000605938795,3.56901133787837,3.28128405769805,4.42973002734916,TRUE,0.869005278490415
"CAN","cpi",0.2,1970,3,1969,NA,1.5,2.48695016007953,3.42875487482429,3.28128405769805,3.77653863724463,TRUE,0.941804714744766
"CAN","cpi",0.2,1971,3,1971,NA,0,2.19447760090258,2.30683407252451,2.64123406634756,2.09886045002039,FALSE,0.948356456179567
"CAN","cpi",0.2,1971,3,1971,NA,0.5,2.7159575813341,3.00787236825515,2.64123406634756,2.39042152113403,FALSE,0.478723574387384
"CAN","cpi",0.2,1971,3,1970,NA,1,3.09159787656826,3.38351266348932,2.64123406634756,3.84669808502433,FALSE,1.41782431247281
"CAN","cpi",0.2,1971,3,1970,NA,1.5,2.55562314234815,3.38372561747804,2.64123406634756,4.72247431437482,TRUE,0.828102475129894
"CAN","cpi",0.2,1972,3,1972,NA,0,3.48038330107053,3.75364453687744,4.83230569625923,4.61402341086119,FALSE,2.96991413426139
"CAN","cpi",0.2,1972,3,1972,NA,0.5,3.30770181851039,3.5809630543173,4.83230569625923,3.53817935863684,FALSE,3.40161784066173
"CAN","cpi",0.2,1972,3,1971,NA,1,2.13228786853416,2.75306458935612,4.83230569625923,2.09886045002039,FALSE,5.81887948807972
"CAN","cpi",0.2,1972,3,1971,NA,1.5,2.47234077018144,3.31848132730518,4.83230569625923,2.39042152113403,FALSE,4.63070147950887
"CAN","cpi",0.2,1973,3,1973,NA,0,3.9738167669544,4.54272561328465,7.12388603531779,6.22342912205835,FALSE,7.0218099014131
"CAN","cpi",0.2,1973,3,1973,NA,0.5,3.46935023077779,4.09392999697104,7.12388603531779,4.99248222648134,FALSE,8.19946986206013
"CAN","cpi",0.2,1973,3,1972,NA,1,2.66337267365782,3.34811506920535,7.12388603531779,4.61402341086119,FALSE,10.1241698108286
"CAN","cpi",0.2,1973,3,1972,NA,1.5,2.79109015499123,3.47583255053876,7.12388603531779,3.53817935863684,FALSE,9.80487610749511
"CAN","cpi",0.2,1974,3,1974,NA,0,8.49052517355871,9.17385270591695,10.2717243737774,9.59455553431256,FALSE,3.42800670200941
"CAN","cpi",0.2,1974,3,1974,NA,0.5,3.97577014840015,4.92443035720352,10.2717243737774,8.02283957227414,FALSE,14.3168952502381
"CAN","cpi",0.2,1974,3,1973,NA,1,2.74792877088715,3.69658897969053,10.2717243737774,6.22342912205835,FALSE,17.3864986940206
"CAN","cpi",0.2,1974,3,1973,NA,1.5,2.57161307376634,3.52027328256971,10.2717243737774,4.99248222648134,FALSE,17.8272879368226
"CAN","cpi",0.2,1975,3,1975,NA,0,10.0842518852541,10.1866517219949,10.0232981493341,10.5280192696423,FALSE,0.25478417654072
"CAN","cpi",0.2,1975,3,1975,NA,0.5,6.11980214715624,8.59964750108552,10.0232981493341,10.7014589339012,FALSE,6.03897197455079
"CAN","cpi",0.2,1975,3,1974,NA,1,2.1753953947301,4.65524074865938,10.0232981493341,9.59455553431256,FALSE,15.8999888556161
"CAN","cpi",0.2,1975,3,1974,NA,1.5,2.24641891847503,4.72626427240431,10.0232981493341,8.02283957227414,FALSE,15.7224300462538
"CAN","cpi",0.2,1976,3,1976,NA,0,7.82665339099895,8.55949344871873,7.22784311401172,8.13534117389669,FALSE,2.22986575018786
"CAN","cpi",0.2,1976,3,1976,NA,0.5,6.64864718519369,8.82274263619755,7.22784311401172,9.54416967067372,TRUE,2.17409545100385
"CAN","cpi",0.2,1976,3,1975,NA,1,5.21313333978008,7.38722879078393,7.22784311401172,10.5280192696423,TRUE,2.17409545100385
"CAN","cpi",0.2,1976,3,1975,NA,1.5,3.28128896827775,7.94892749335025,7.22784311401172,10.7014589339012,TRUE,4.6676385250725
"CAN","cpi",0.2,1977,3,1977,NA,0,6.18681740882317,6.86466186253568,7.58101410153764,6.84168016809657,FALSE,2.46872505121742
"CAN","cpi",0.2,1977,3,1977,NA,0.5,5.91409222252873,7.18794513381996,7.58101410153764,6.57165012633641,FALSE,2.25652533058544
"CAN","cpi",0.2,1977,3,1976,NA,1,4.24633436122192,8.81874870642011,7.58101410153764,8.13534117389669,TRUE,4.57241434519819
"CAN","cpi",0.2,1977,3,1976,NA,1.5,2.3449491424915,6.9173634876897,7.58101410153764,9.54416967067372,FALSE,6.23154087981806
"CAN","cpi",0.2,1978,3,1978,NA,0,8.39023086745767,8.80579614042651,8.50208927062595,8.56560161197079,TRUE,0.415565272968834
"CAN","cpi",0.2,1978,3,1978,NA,0.5,7.10175497373471,7.51732024670355,8.50208927062595,8.14356532128036,FALSE,2.87748783277484
"CAN","cpi",0.2,1978,3,1977,NA,1,5.79074682034025,7.43981095097877,8.50208927062595,6.84168016809657,FALSE,4.30475992975646
"CAN","cpi",0.2,1978,3,1977,NA,1.5,3.45113929396756,7.75808007023729,8.50208927062595,6.57165012633641,FALSE,6.16696377724137
"CAN","cpi",0.2,1979,3,1979,NA,0,7.87667982128901,8.08528173876394,8.65147652410481,8.51558792202395,FALSE,1.6240888808271
"CAN","cpi",0.2,1979,3,1979,NA,0.5,7.23077918465315,7.94651366883061,8.65147652410481,8.48180361143764,FALSE,2.47814162236296
"CAN","cpi",0.2,1979,3,1978,NA,1,6.84097184511736,7.55670632929483,8.65147652410481,8.56560161197079,FALSE,3.45265997120242
"CAN","cpi",0.2,1979,3,1978,NA,1.5,6.96966244215277,7.68539692633024,8.65147652410481,8.14356532128036,FALSE,3.1309334786139
"CAN","cpi",0.2,1980,3,1980,NA,0,9.77283564579957,9.96408446372955,9.5171912664748,9.17959378630866,FALSE,0.83035976624191
"CAN","cpi",0.2,1980,3,1980,NA,0.5,7.58101298003846,8.50208837426416,9.5171912664748,8.77731920113821,FALSE,3.45883262475229
"CAN","cpi",0.2,1980,3,1979,NA,1,7.29863883512258,8.43596576060868,9.5171912664748,8.51558792202395,FALSE,3.8403906901514
"CAN","cpi",0.2,1980,3,1979,NA,1.5,5.91727536252252,7.94951458064156,9.5171912664748,8.48180361143764,FALSE,5.95143093270213
"CAN","cpi",0.2,1981,3,1981,NA,0,10.0381133104439,10.1699293036611,11.5813425032741,11.279360028481,FALSE,3.66034899224982
"CAN","cpi",0.2,1981,3,1981,NA,0.5,8.17677886992828,9.28466123004737,11.5813425032741,10.1336807488653,FALSE,6.84958554318602
"CAN","cpi",0.2,1981,3,1980,NA,1,7.44000163706648,8.59174899725672,11.5813425032741,9.17959378630866,FALSE,8.62573112523378
"CAN","cpi",0.2,1981,3,1980,NA,1.5,7.22787628219869,8.50209844013407,11.5813425032741,8.77731920113821,FALSE,8.97233231578556
"CAN","cpi",0.2,1982,3,1982,NA,0,10.0369261702344,10.1681527985932,10.1124203763629,10.7097306947659,TRUE,0.13122662835881
"CAN","cpi",0.2,1982,3,1982,NA,0.5,9.76808062393558,11.5426357533209,10.1124203763629,11.3795840186269,TRUE,1.77455512938535
"CAN","cpi",0.2,1982,3,1981,NA,1,7.50330136785091,9.27785649723626,10.1124203763629,11.279360028481,FALSE,3.86096482720206
"CAN","cpi",0.2,1982,3,1981,NA,1.5,7.09256953028018,8.86712465966553,10.1124203763629,10.1336807488653,FALSE,4.8877944211289
"CAN","cpi",0.2,1983,3,1983,NA,0,7.20075874566814,7.43176918306138,5.67091787896303,6.81192865303165,FALSE,4.055612604156
"CAN","cpi",0.2,1983,3,1983,NA,0.5,8.10879346930017,8.43237475203665,5.67091787896303,9.28631267190301,FALSE,6.41827025857932
"CAN","cpi",0.2,1983,3,1982,NA,1,9.69931382924409,10.0228951119806,5.67091787896303,10.7097306947659,FALSE,10.3945711584391
"CAN","cpi",0.2,1983,3,1982,NA,1.5,7.50042083458019,8.81671743994249,5.67091787896303,11.3795840186269,FALSE,5.89005399440518
"CAN","cpi",0.2,1984,3,1984,NA,0,3.72486172105388,4.04800093767969,4.19799576814029,4.43433180473976,FALSE,0.698126292777312
"CAN","cpi",0.2,1984,3,1984,NA,0.5,6.27108560375454,6.97598315599683,4.19799576814029,5.08610822560979,FALSE,5.88762214127792
"CAN","cpi",0.2,1984,3,1983,NA,1,7.51537941935858,8.25820852829713,4.19799576814029,6.81192865303165,FALSE,9.03628823698429
"CAN","cpi",0.2,1984,3,1983,NA,1.5,7.30122989367053,8.62207191507338,4.19799576814029,9.28631267190301,FALSE,9.07892733522847
"CAN","cpi",0.2,1985,3,1985,NA,0,3.44509623621813,3.53987771928233,3.86444262005169,3.75272544104399,FALSE,0.906193734987615
"CAN","cpi",0.2,1985,3,1985,NA,0.5,3.76819337047124,4.29027917668992,3.86444262005169,3.83470516948927,TRUE,0.522085806218678
"CAN","cpi",0.2,1985,3,1984,NA,1,2.77927566403731,4.17741148185165,3.86444262005169,4.43433180473976,TRUE,1.39813581781434
"CAN","cpi",0.2,1985,3,1984,NA,1.5,7.17712251526298,8.57525833307732,3.86444262005169,5.08610822560979,FALSE,9.67983555584257
"CAN","cpi",0.2,1986,3,1986,NA,0,3.87628043278202,3.91179323232783,4.08685396749431,4.02668174324255,FALSE,0.473164637462014
"CAN","cpi",0.2,1986,3,1986,NA,0.5,3.86906866250204,4.25267940557519,4.08685396749431,4.02628294162027,TRUE,0.383610743073155
"CAN","cpi",0.2,1986,3,1985,NA,1,3.26287167812224,3.64648242119539,4.08685396749431,3.75272544104399,FALSE,1.48453960882046
"CAN","cpi",0.2,1986,3,1985,NA,1.5,3.10409835321704,3.9280569747916,4.08685396749431,3.83470516948927,FALSE,1.22095110333133
"CAN","cpi",0.2,1987,3,1987,NA,0,3.98613498441828,4.07559162937001,4.23980729277887,4.2837330645361,FALSE,0.499995803473884
"CAN","cpi",0.2,1987,3,1987,NA,0.5,3.97260958201888,4.06206622697061,4.23980729277887,4.02033055131438,FALSE,0.533809309472381
"CAN","cpi",0.2,1987,3,1986,NA,1,3.41278491457803,3.86448992674736,4.23980729277887,4.02668174324255,FALSE,1.38999842724811
"CAN","cpi",0.2,1987,3,1986,NA,1.5,3.41276479584037,4.03231808297845,4.23980729277887,4.02628294162027,FALSE,1.13827631163913
"CAN","cpi",0.2,1988,3,1988,NA,0,3.82880470148333,3.9587338454606,3.92899537638065,3.95767765957829,TRUE,0.129929143977268
"CAN","cpi",0.2,1988,3,1988,NA,0.5,3.99787864413928,4.32001215509153,3.92899537638065,4.26147484794381,FALSE,0.494341680348812
"CAN","cpi",0.2,1988,3,1987,NA,1,3.6345061461277,4.06368976470934,3.92899537638065,4.2837330645361,TRUE,0.429183618581645
"CAN","cpi",0.2,1988,3,1987,NA,1.5,3.81643807220618,4.24562169078782,3.92899537638065,4.02033055131438,TRUE,0.429183618581645
"CAN","cpi",0.2,1989,3,1989,NA,0,4.1313106909606,4.2398075238918,4.82821664544208,4.56141251415513,FALSE,1.57951963680689
"CAN","cpi",0.2,1989,3,1989,NA,0.5,3.94701696232877,4.07138378023124,4.82821664544208,4.0148475519947,FALSE,2.01644898092956
"CAN","cpi",0.2,1989,3,1988,NA,1,3.76380309113835,3.94113196004947,4.82821664544208,3.95767765957829,FALSE,2.39504058239264
"CAN","cpi",0.2,1989,3,1988,NA,1.5,3.87919735994616,4.05652622885728,4.82821664544208,4.26147484794381,FALSE,2.10655491037311
"CAN","cpi",0.2,1990,3,1990,NA,0,4.17576680650284,4.66764843583964,4.64347549432717,4.70378167021394,TRUE,0.491881629336794
"CAN","cpi",0.2,1990,3,1990,NA,0.5,4.57266035792561,5.30483913944418,4.64347549432717,5.05069490734707,TRUE,0.73217878151857
"CAN","cpi",0.2,1990,3,1989,NA,1,3.56593380158542,4.29811258310399,4.64347549432717,4.56141251415513,FALSE,1.59558605957653
"CAN","cpi",0.2,1990,3,1989,NA,1.5,3.62247655358007,4.35465533509864,4.64347549432717,4.0148475519947,FALSE,1.45422917958991
"CAN","cpi",0.2,1991,3,1991,NA,0,4.47312637683341,4.72249051442224,5.4258100696218,5.63511155207928,FALSE,2.00766302558771
"CAN","cpi",0.2,1991,3,1991,NA,0.5,4.55565388074392,5.53032345078261,5.4258100696218,4.87807370573786,TRUE,0.97466957003869
"CAN","cpi",0.2,1991,3,1990,NA,1,3.72281033306875,4.69747990310744,5.4258100696218,4.70378167021394,FALSE,2.79549498632459
"CAN","cpi",0.2,1991,3,1990,NA,1.5,3.95143355043636,8.04756225993454,5.4258100696218,5.05069490734707,TRUE,4.09612870949817
"CAN","cpi",0.2,1992,3,1992,NA,0,2.17253553524389,2.30939049210732,1.47496888572843,2.02050638420239,FALSE,1.88077158065208
"CAN","cpi",0.2,1992,3,1992,NA,0.5,4.04978413892989,4.18663909579332,1.47496888572843,4.27205707399704,FALSE,6.57389308986706
"CAN","cpi",0.2,1992,3,1991,NA,1,4.12497394249412,5.14911496937329,1.47496888572843,5.63511155207928,FALSE,7.64915366879338
"CAN","cpi",0.2,1992,3,1991,NA,1.5,4.02181626880492,5.04595729568409,1.47496888572843,4.87807370573786,FALSE,7.39125948457039
"CAN","cpi",0.2,1993,3,1993,NA,0,1.84849230486588,2.08144273269543,1.84351085411351,1.84186847486189,FALSE,0.245404054710461
"CAN","cpi",0.2,1993,3,1993,NA,0.5,1.56219734766891,1.79514777549846,1.84351085411351,1.60616723541631,FALSE,0.353858124367188
"CAN","cpi",0.2,1993,3,1992,NA,1,2.65791435020086,3.40804747472378,1.84351085411351,2.02050638420239,FALSE,2.78614186474129
"CAN","cpi",0.2,1993,3,1992,NA,1.5,3.69130061958973,4.44143374411266,1.84351085411351,4.27205707399704,FALSE,5.36960753821347
"CAN","cpi",0.2,1994,3,1994,NA,0,0.841920476771911,0.725471806070381,0.161630694655448,0.62038151471279,FALSE,1.58427578458963
"CAN","cpi",0.2,1994,3,1994,NA,0.5,1.33047108364314,1.47590842495548,0.161630694655448,1.4565883399875,FALSE,3.06753831378157
"CAN","cpi",0.2,1994,3,1993,NA,1,2.15559942078535,2.65980980671001,0.161630694655448,1.84186847486189,FALSE,5.4891322012494
"CAN","cpi",0.2,1994,3,1993,NA,1.5,1.88080205932681,2.38501244525147,0.161630694655448,1.60616723541631,FALSE,4.80213879760307
"CAN","cpi",0.2,1995,3,1995,NA,0,1.48254696916474,1.75350199502803,2.11688403676572,1.60030724029718,FALSE,1.17941013020749
"CAN","cpi",0.2,1995,3,1995,NA,0.5,0.330020162456513,0.873456408853171,2.11688403676572,0.400723248632204,FALSE,3.65200531617802
"CAN","cpi",0.2,1995,3,1994,NA,1,0.904725686090925,1.44816193248758,2.11688403676572,0.62038151471279,FALSE,2.21524150709199
"CAN","cpi",0.2,1995,3,1994,NA,1.5,1.10329769862746,1.64673394502412,2.11688403676572,1.4565883399875,FALSE,1.71881147575064
"CAN","cpi",0.2,1996,3,1996,NA,0,1.62380287683799,1.67620754850212,1.55309584667184,1.57188450223428,FALSE,0.229172247079499
"CAN","cpi",0.2,1996,3,1996,NA,0.5,2.68446248889401,3.01524406102173,1.55309584667184,2.10267011992876,FALSE,3.15919817768314
"CAN","cpi",0.2,1996,3,1995,NA,1,1.5102458537012,1.84102742582891,1.55309584667184,1.60030724029718,TRUE,0.330781572127714
"CAN","cpi",0.2,1996,3,1995,NA,1.5,1.10209741383861,1.43287898596633,1.55309584667184,0.400723248632204,FALSE,0.631323723891504
"CAN","cpi",0.2,1997,3,1997,NA,0,1.76459823614031,1.8876464863149,1.60528783555959,1.83379947449567,FALSE,0.521324251626382
"CAN","cpi",0.2,1997,3,1997,NA,0.5,1.73297575599154,1.86225618746452,1.60528783555959,1.71447508965446,FALSE,0.448500232552847
"CAN","cpi",0.2,1997,3,1996,NA,1,1.40660751336518,1.53681936088614,1.60528783555959,1.57188450223428,FALSE,0.301383034204599
"CAN","cpi",0.2,1997,3,1996,NA,1.5,2.25468553276939,3.72485487737177,1.60528783555959,2.10267011992876,FALSE,3.09366358762687
"CAN","cpi",0.2,1998,3,1998,NA,0,0.874378699685914,1.07292958322498,0.988908029337191,0.973278201206617,TRUE,0.198550883539071
"CAN","cpi",0.2,1998,3,1998,NA,0.5,0.950849574609987,1.23393637981233,0.988908029337191,1.34049194776323,TRUE,0.283086805202346
"CAN","cpi",0.2,1998,3,1997,NA,1,1.87136135970788,2.38191977305303,0.988908029337191,1.83379947449567,FALSE,2.71669173927187
"CAN","cpi",0.2,1998,3,1997,NA,1.5,1.69905439352323,2.20961280686838,0.988908029337191,1.71447508965446,FALSE,2.28592432381025
"CAN","cpi",0.2,1999,3,1999,NA,0,1.18815253986765,1.29919060644818,1.7107350135213,1.40211292309609,FALSE,1.13989908426332
"CAN","cpi",0.2,1999,3,1999,NA,0.5,0.961719280535324,1.07275734711586,1.7107350135213,0.923130320518117,FALSE,1.70598223259413
"CAN","cpi",0.2,1999,3,1998,NA,1,1.07684591538548,1.47872293084901,1.7107350135213,0.973278201206617,FALSE,0.981907222144245
"CAN","cpi",0.2,1999,3,1998,NA,1.5,1.12764788165325,1.52952489711679,1.7107350135213,1.34049194776323,FALSE,0.854902306474803
"CAN","cpi",0.2,2000,3,2000,NA,0,2.28296064391188,2.52740507477797,2.6718361971244,2.50399207866046,FALSE,0.605522236732168
"CAN","cpi",0.2,2000,3,2000,NA,0.5,2.42407954444409,2.66852397531019,2.6718361971244,2.17160318889212,FALSE,0.252724985401624
"CAN","cpi",0.2,2000,3,1999,NA,1,1.39383960991244,1.63828404077853,2.6718361971244,1.40211292309609,FALSE,2.82832482173076
"CAN","cpi",0.2,2000,3,1999,NA,1.5,1.24413308775154,1.57098746535307,2.6718361971244,0.923130320518117,FALSE,3.07897620702986
"CAN","cpi",0.2,2001,3,2001,NA,0,2.70917984787727,3.09437835610292,2.47906219852806,2.96814309391761,FALSE,0.960492631598666
"CAN","cpi",0.2,2001,3,2001,NA,0.5,2.51748191800386,3.48542290271361,2.47906219852806,2.69801990899347,FALSE,1.06399028339924
"CAN","cpi",0.2,2001,3,2000,NA,1,2.16304662027388,3.46819325104977,2.47906219852806,2.50399207866046,TRUE,1.30514663077589
"CAN","cpi",0.2,2001,3,2000,NA,1.5,2.17518381347832,3.4803304442542,2.47906219852806,2.17160318889212,TRUE,1.30514663077589
"CAN","cpi",0.2,2002,3,2002,NA,0,1.53445864610341,1.58673420274948,2.20880570551249,1.54486874462913,FALSE,1.60745431355358
"CAN","cpi",0.2,2002,3,2002,NA,0.5,2.58963525842433,2.6419108150704,2.20880570551249,2.180209446776,FALSE,1.00434943892568
"CAN","cpi",0.2,2002,3,2001,NA,1,2.32322837978587,2.4711860062984,2.20880570551249,2.96814309391761,FALSE,0.434014312195994
"CAN","cpi",0.2,2002,3,2001,NA,1.5,3.37348259622471,3.52144022273724,2.20880570551249,2.69801990899347,FALSE,3.05964985329308
"CAN","cpi",0.2,2003,3,2003,NA,0,2.88063781154747,3.00552828618173,2.71189071546809,3.2075247865732,FALSE,0.54675821483271
"CAN","cpi",0.2,2003,3,2003,NA,0.5,2.81664003223174,3.2784237509823,2.71189071546809,2.91800239560335,FALSE,0.723657010659683
"CAN","cpi",0.2,2003,3,2002,NA,1,1.32608580515247,1.78786952390303,2.71189071546809,1.54486874462913,FALSE,2.7718366976632
"CAN","cpi",0.2,2003,3,2002,NA,1.5,2.1998698679876,2.66165358673816,2.71189071546809,2.180209446776,FALSE,0.587376540575383
"CAN","cpi",0.2,2004,3,2004,NA,0,1.66855572300939,1.86704880410249,1.83151661303942,1.69584100230101,TRUE,0.198493081093095
"CAN","cpi",0.2,2004,3,2004,NA,0.5,1.81548873908138,2.10889568454576,1.83151661303942,1.84885395921698,TRUE,0.293406945464383
"CAN","cpi",0.2,2004,3,2003,NA,1,2.18187599537578,2.47528294084017,1.83151661303942,3.2075247865732,FALSE,1.16930540130529
"CAN","cpi",0.2,2004,3,2003,NA,1.5,2.67182013225154,3.05583846354769,1.83151661303942,2.91800239560335,FALSE,2.48477712932645
"CAN","cpi",0.2,2005,3,2005,NA,0,2.25477901130942,2.66008747987632,2.18071628336509,2.20100508158421,FALSE,0.590465288427727
"CAN","cpi",0.2,2005,3,2005,NA,0.5,2.27359044750069,2.67889891606759,2.18071628336509,2.12928049157936,FALSE,0.637493878905897
"CAN","cpi",0.2,2005,3,2004,NA,1,1.50107913511501,1.90638760368191,2.18071628336509,1.69584100230101,FALSE,1.09113016777485
"CAN","cpi",0.2,2005,3,2004,NA,1.5,1.34209150670316,2.31033435567509,2.18071628336509,1.84885395921698,TRUE,0.968242848971927
"CAN","cpi",0.2,2006,3,2006,NA,0,2.10757898226263,2.34881315009434,1.97519342012289,2.18435928951757,FALSE,0.572198073181075
"CAN","cpi",0.2,2006,3,2006,NA,0.5,2.32656249486201,2.56779666269372,1.97519342012289,2.23898625105085,FALSE,1.11965685467952
"CAN","cpi",0.2,2006,3,2005,NA,1,2.13201928976801,2.37325345759971,1.97519342012289,2.20100508158421,FALSE,0.633298841944506
"CAN","cpi",0.2,2006,3,2005,NA,1.5,2.22966492181652,2.47089908964822,1.97519342012289,2.12928049157936,FALSE,0.877412922065783
"CAN","cpi",0.2,2007,3,2007,NA,0,1.71964591188331,1.82438208616452,2.10062087284572,1.84480494136243,FALSE,0.795333140984212
"CAN","cpi",0.2,2007,3,2007,NA,0.5,1.74530687377657,1.85004304805779,2.10062087284572,1.84074896087257,FALSE,0.731180736251055
"CAN","cpi",0.2,2007,3,2006,NA,1,1.94031095901366,2.27773859716013,2.10062087284572,2.18435928951757,TRUE,0.337427638146472
"CAN","cpi",0.2,2007,3,2006,NA,1.5,2.27117943169586,2.60860706984234,2.10062087284572,2.23898625105085,FALSE,0.763824035271827
"CAN","cpi",0.2,2008,3,2008,NA,0,2.42809926825282,2.50097345519716,2.31447335265955,2.44343788755996,FALSE,0.356938975927508
"CAN","cpi",0.2,2008,3,2008,NA,0.5,2.03859802420444,2.32285848937925,2.31447335265955,2.09257425597425,TRUE,0.284260465174802
"CAN","cpi",0.2,2008,3,2007,NA,1,1.85600860621397,2.14026907138878,2.31447335265955,1.84480494136243,FALSE,0.719771168351741
"CAN","cpi",0.2,2008,3,2007,NA,1.5,1.93665154121666,2.22091200639146,2.31447335265955,1.84074896087257,FALSE,0.518163830845035
"CAN","cpi",0.2,2009,3,2009,NA,0,0.165663949417827,0.378729417820539,0.284533874408197,0.55191793044214,TRUE,0.213065468402712
"CAN","cpi",0.2,2009,3,2009,NA,0.5,2.21477413488723,2.48069426517651,0.284533874408197,2.17577573644726,FALSE,5.09152078148686
"CAN","cpi",0.2,2009,3,2008,NA,1,2.0062129563932,2.27213308668248,0.284533874408197,2.44343788755996,FALSE,4.57011783525178
"CAN","cpi",0.2,2009,3,2008,NA,1.5,2.08777237290301,2.35369250319229,0.284533874408197,2.09257425597425,FALSE,4.77401637652631
"CAN","cpi",0.2,2010,3,2010,NA,0,1.34023073253719,1.49628268183543,1.75525687020327,1.39285160668897,FALSE,0.803487420217849
"CAN","cpi",0.2,2010,3,2010,NA,0.5,0.992282564290199,1.14833451358844,1.75525687020327,0.382958497759795,FALSE,1.67335784083532
"CAN","cpi",0.2,2010,3,2009,NA,1,1.29128779584104,1.61664809766032,1.75525687020327,0.55191793044214,FALSE,0.671882233176657
"CAN","cpi",0.2,2010,3,2009,NA,1.5,2.15030949491875,2.47566979673802,1.75525687020327,2.17577573644726,FALSE,1.31299186360796
"CAN","cpi",0.2,2011,3,2011,NA,0,2.41914676722651,2.66963823058268,2.85717434028225,2.75343947842877,FALSE,0.719331737605082
"CAN","cpi",0.2,2011,3,2011,NA,0.5,2.06025254194515,2.31074400530132,2.85717434028225,1.99557590637446,FALSE,1.61656730080849
"CAN","cpi",0.2,2011,3,2010,NA,1,1.4643553234624,1.71484678681857,2.85717434028225,1.39285160668897,FALSE,3.10631034701536
"CAN","cpi",0.2,2011,3,2010,NA,1.5,1.29456196437988,1.54505342773605,2.85717434028225,0.382958497759795,FALSE,3.53079374472165
"CAN","cpi",0.2,2012,3,2012,NA,0,1.90768536148667,2.03023068616784,1.50118536134935,1.92993928708068,FALSE,1.13879532502448
"CAN","cpi",0.2,2012,3,2012,NA,0.5,2.53422519179153,2.6567705164727,1.50118536134935,2.7924065414457,FALSE,2.70514490078662
"CAN","cpi",0.2,2012,3,2011,NA,1,2.18909156139081,2.31163688607198,1.50118536134935,2.75343947842877,FALSE,1.84231082478484
"CAN","cpi",0.2,2012,3,2011,NA,1.5,1.72149123275063,2.31795608351266,1.50118536134935,1.99557590637446,FALSE,1.14722952926524
"CAN","cpi",0.2,2013,3,2013,NA,0,0.848007445167535,1.02531102388979,0.931270594714462,0.933287972916032,TRUE,0.177303578722255
"CAN","cpi",0.2,2013,3,2013,NA,0.5,1.02678179347499,1.36885739677011,0.931270594714462,1.15173631466769,FALSE,0.580853600196441
"CAN","cpi",0.2,2013,3,2012,NA,1,1.90509795602798,2.24717355932309,0.931270594714462,1.92993928708068,FALSE,2.7766440065789
"CAN","cpi",0.2,2013,3,2012,NA,1.5,2.18069929689722,3.4127552222736,0.931270594714462,2.7924065414457,FALSE,4.35562768083327
"CAN","cpi",0.2,2014,3,2014,NA,0,1.6065032039575,1.83791336277612,1.87639912240215,1.63379811457679,FALSE,0.327624557883701
"CAN","cpi",0.2,2014,3,2014,NA,0.5,1.0224843609613,1.30180987134184,1.87639912240215,1.04987664511533,FALSE,1.71579863803131
"CAN","cpi",0.2,2014,3,2013,NA,1,1.43384689861434,1.71317240899488,1.87639912240215,0.933287972916032,FALSE,0.687392293898717
"CAN","cpi",0.2,2014,3,2013,NA,1.5,1.55071980764063,1.83004531802117,1.87639912240215,1.15173631466769,FALSE,0.395210021332984
"CAN","cpi",0.2,2015,3,2015,NA,0,0.998198238533625,1.00520793777275,1.11090953952792,1.25588008397684,FALSE,0.271263703627046
"CAN","cpi",0.2,2015,3,2015,NA,0.5,1.7888023157727,1.88180689194043,1.11090953952792,1.79776205300989,FALSE,1.78773651677969
"CAN","cpi",0.2,2015,3,2014,NA,1,1.68088391265271,2.06925483794455,1.11090953952792,1.63379811457679,FALSE,1.81330685810382
"CAN","cpi",0.2,2015,3,2014,NA,1.5,1.52966444080255,1.91803536609439,1.11090953952792,1.04987664511533,FALSE,1.43525817847843
"CAN","cpi",0.2,2016,3,2016,NA,0,1.60666924674123,1.6713162592806,1.41168586698797,1.39645323019091,FALSE,0.552105461922527
"CAN","cpi",0.2,2016,3,2016,NA,0.5,1.02692864211056,1.39415874213299,1.41168586698797,1.22661053967644,FALSE,0.411047912159866
"CAN","cpi",0.2,2016,3,2015,NA,1,1.54948051239942,1.91671061242186,1.41168586698797,1.25588008397684,FALSE,0.711716713551074
"CAN","cpi",0.2,2016,3,2015,NA,1.5,1.58281093428304,2.17718991017637,1.41168586698797,1.79776205300989,FALSE,1.02219164413102
"CAN","cpi",0.2,2017,3,2017,NA,0,1.57241578059446,1.6611580843971,1.57888581671161,1.4811454634985,TRUE,0.088742303802642
"CAN","cpi",0.2,2017,3,2017,NA,0.5,1.54359116449105,1.6323334682937,1.57888581671161,1.50199497030019,TRUE,0.088742303802642
"CAN","cpi",0.2,2017,3,2016,NA,1,1.5452472598595,1.88239730391642,1.57888581671161,1.39645323019091,TRUE,0.337150044056921
"CAN","cpi",0.2,2017,3,2016,NA,1.5,1.3847113076861,1.79867065863574,1.57888581671161,1.22661053967644,TRUE,0.413959350949636
"CAN","cpi",0.2,2018,3,2018,NA,0,2.00535569937836,2.19707012659511,2.23316270166586,2.17346080855069,FALSE,0.281945864893625
"CAN","cpi",0.2,2018,3,2018,NA,0.5,1.62495246138126,1.81666688859801,2.23316270166586,1.61472973146397,FALSE,1.23295395988637
"CAN","cpi",0.2,2018,3,2017,NA,1,1.52826486967219,1.71997929688894,2.23316270166586,1.4811454634985,FALSE,1.47467293915905
"CAN","cpi",0.2,2018,3,2017,NA,1.5,1.55237727503146,1.99777858825752,2.23316270166586,1.50199497030019,FALSE,1.0338615967469
"CAN","cpi",0.2,2019,3,2019,NA,0,1.84351122038079,1.87661365765319,1.91921619871868,1.90497611164807,FALSE,0.139608789936131
"CAN","cpi",0.2,2019,3,2019,NA,0.5,2.18510155290996,2.55123660661317,1.91921619871868,2.12426010345757,FALSE,1.03084843918141
"CAN","cpi",0.2,2019,3,2018,NA,1,1.81897115211055,2.18510620581376,1.91921619871868,2.17346080855069,TRUE,0.366135053703207
"CAN","cpi",0.2,2019,3,2018,NA,1.5,1.53727448625382,1.9840184634589,1.91921619871868,1.61472973146397,TRUE,0.44674397720508
"CAN","cpi",0.2,2020,3,2020,NA,0,0.791388266141315,1.00320182647823,0.71139989671781,1.03314712474633,FALSE,0.411784483895681
"CAN","cpi",0.2,2020,3,2020,NA,0.5,1.83521059269135,2.16600072119738,0.71139989671781,1.96699466082655,FALSE,3.14031686843988
"CAN","cpi",0.2,2020,3,2019,NA,1,1.83614807502333,2.16693820352936,0.71139989671781,1.90497611164807,FALSE,3.14266057426983
"CAN","cpi",0.2,2020,3,2019,NA,1.5,1.89769334885483,2.22848347736085,0.71139989671781,2.12426010345757,FALSE,3.29652375884857
"CAN","cpi",0.2,2021,3,2021,NA,0,2.30017883128591,2.30732657767896,3.31148121717802,2.35752845828485,FALSE,2.51753434514072
"CAN","cpi",0.2,2021,3,2021,NA,0.5,1.06717150744552,1.32445943059965,3.31148121717802,0.620135433592656,FALSE,5.22484238960007
"CAN","cpi",0.2,2021,3,2020,NA,1,1.50326629176822,1.76055421492236,3.31148121717802,1.03314712474633,FALSE,4.1346054287933
"CAN","cpi",0.2,2021,3,2020,NA,1.5,1.60173307600035,2.16736223466206,3.31148121717802,1.96699466082655,FALSE,3.42592661495163
"CAN","cpi",0.2,2022,3,2022,NA,0,5.51070038885313,5.64598259926317,6.50977236228281,6.06204323255885,FALSE,2.29475661795915
"CAN","cpi",0.2,2022,3,2022,NA,0.5,4.17184379857913,4.55464801553588,6.50977236228281,4.36321977466389,FALSE,5.27061508382407
"CAN","cpi",0.2,2022,3,2021,NA,1,1.78720799571033,2.17001221266708,6.50977236228281,2.35752845828485,FALSE,11.2322045909961
"CAN","cpi",0.2,2022,3,2021,NA,1.5,1.35446994552024,1.73727416247699,6.50977236228281,0.620135433592656,FALSE,12.3140497164713
"CAN","cpi",0.2,2023,3,2023,NA,0,4.43674536185548,4.63352691831244,3.78831288758619,4.59798511919386,FALSE,1.81786274213019
"CAN","cpi",0.2,2023,3,2023,NA,0.5,7.17393911429202,7.37072067074898,3.78831288758619,6.34532620809577,FALSE,8.66084712322153
"CAN","cpi",0.2,2023,3,2022,NA,1,4.59605585025836,6.26477296286406,3.78831288758619,6.06204323255885,FALSE,3.68807451928613
"CAN","cpi",0.2,2023,3,2022,NA,1.5,2.91432743751735,4.58304455012305,3.78831288758619,4.36321977466389,TRUE,1.6687171126057
"CAN","cpi",0.2,2024,3,2023,NA,1,3.80346342366661,4.46918716267225,NA,4.59798511919386,NA,NA
"CAN","cpi",0.2,2024,3,2023,NA,1.5,5.84851574266488,7.78271161789338,NA,6.34532620809577,NA,NA
"CAN","cpi",0.3,1950,3,1950,NA,0,3.41276022321824,3.41276022321824,2.59031220731124,1.68831415137957,FALSE,2.34985147402
"CAN","cpi",0.3,1950,3,1950,NA,0.5,3.41276022321824,6.33886755540655,2.59031220731124,1.999247189508,FALSE,5.27595880620831
"CAN","cpi",0.3,1951,3,1951,NA,0,3.46744294363673,3.82386960834721,9.87945438999359,8.63763655575849,FALSE,17.6580974694144
"CAN","cpi",0.3,1951,3,1951,NA,0.5,2.412098874956,2.76852553966648,9.87945438999359,4.395311027755,FALSE,20.6733662370737
"CAN","cpi",0.3,1951,3,1950,NA,1,2.412098874956,2.76852553966648,9.87945438999359,1.68831415137957,FALSE,20.6733662370737
"CAN","cpi",0.3,1951,3,1950,NA,1.5,2.53558883526101,2.89201549997149,9.87945438999359,1.999247189508,FALSE,20.3205377790593
"CAN","cpi",0.3,1952,3,1952,NA,0,2.84347146314551,3.1062211802121,2.55562336095485,5.33589356249898,FALSE,1.08517286618277
"CAN","cpi",0.3,1952,3,1952,NA,0.5,5.81336660836862,8.48669075858178,2.55562336095485,9.78336808811006,FALSE,11.9811619999668
"CAN","cpi",0.3,1952,3,1951,NA,1,1.69285182683768,4.36617597705084,2.55562336095485,8.63763655575849,TRUE,2.67332415021316
"CAN","cpi",0.3,1952,3,1951,NA,1.5,1.66487412399481,4.33819827420797,2.55562336095485,4.395311027755,TRUE,2.67332415021316
"CAN","cpi",0.3,1953,3,1953,NA,0,3.08592354371345,5.20867483484158,-1.01492775838436,-1.36658675161344,FALSE,13.8394692971219
"CAN","cpi",0.3,1953,3,1953,NA,0.5,4.14451957392706,6.26727086505519,-1.01492775838436,0.110034650547486,FALSE,16.8640293834465
"CAN","cpi",0.3,1953,3,1952,NA,1,1.51159213856913,3.63434342969726,-1.01492775838436,5.33589356249898,FALSE,9.3413795681381
"CAN","cpi",0.3,1953,3,1952,NA,1.5,1.76960816402218,3.89235945515031,-1.01492775838436,9.78336808811006,FALSE,10.0785682122897
"CAN","cpi",0.3,1954,3,1954,NA,0,-0.117505727035369,1.5126893035292,0.644425455961438,0.642985131580263,TRUE,1.63019503056457
"CAN","cpi",0.3,1954,3,1954,NA,0.5,-1.83002527366665,-0.199830243102077,0.644425455961438,-0.366337731528715,FALSE,4.04235417074604
"CAN","cpi",0.3,1954,3,1953,NA,1,-0.920458038966171,2.48197731058959,0.644425455961438,-1.36658675161344,TRUE,3.40243534955576
"CAN","cpi",0.3,1954,3,1953,NA,1.5,-0.93086980547128,2.47156554408448,0.644425455961438,0.110034650547486,TRUE,3.40243534955576
"CAN","cpi",0.3,1955,3,1955,NA,0,-0.431199154249926,0.880036039444075,0.173649026558865,0.17297271419658,TRUE,1.311235193694
"CAN","cpi",0.3,1955,3,1955,NA,0.5,-1.05868016290386,0.252555030790138,0.173649026558865,0.586026480650511,TRUE,1.311235193694
"CAN","cpi",0.3,1955,3,1954,NA,1,-0.93301604322266,0.541393498040365,0.173649026558865,0.642985131580263,TRUE,1.47440954126302
"CAN","cpi",0.3,1955,3,1954,NA,1.5,-0.424568484239662,1.34650631378842,0.173649026558865,-0.366337731528715,TRUE,1.77107479802808
"CAN","cpi",0.3,1956,3,1956,NA,0,0.35788422449554,0.515971550266521,1.32752769429961,0.753971131965347,FALSE,2.47681916586552
"CAN","cpi",0.3,1956,3,1956,NA,0.5,-0.829816503944354,-0.0961217059851264,1.32752769429961,0.174369006303267,FALSE,4.80126451305847
"CAN","cpi",0.3,1956,3,1955,NA,1,-0.479289926486313,0.254404871472914,1.32752769429961,0.17297271419658,FALSE,3.7997600060355
"CAN","cpi",0.3,1956,3,1955,NA,1.5,0.00901419338445164,0.742708991343679,1.32752769429961,0.586026480650511,FALSE,2.40460537783331
"CAN","cpi",0.3,1957,3,1957,NA,0,2.27777405702296,2.47528522239718,3.24684755852518,3.20420645854679,FALSE,2.40197498288277
"CAN","cpi",0.3,1957,3,1957,NA,0.5,2.46575991078057,2.66327107615479,3.24684755852518,2.07576432581215,FALSE,1.86487254357531
"CAN","cpi",0.3,1957,3,1956,NA,1,0.075253305009598,0.674903596619141,3.24684755852518,0.753971131965347,FALSE,7.94806161134107
"CAN","cpi",0.3,1957,3,1956,NA,1.5,0.0759805865248868,0.67563087813443,3.24684755852518,0.174369006303267,FALSE,7.94598366415453
"CAN","cpi",0.3,1958,3,1958,NA,0,2.5570242242621,2.58223976475834,2.33186388641149,2.45716899110006,FALSE,0.66853079149798
"CAN","cpi",0.3,1958,3,1958,NA,0.5,2.61571380708921,3.07294257091625,2.33186388641149,3.16832340224646,FALSE,1.26822853719196
"CAN","cpi",0.3,1958,3,1957,NA,1,1.63455147730108,2.80915718036255,2.33186388641149,3.20420645854679,TRUE,1.17460570306147
"CAN","cpi",0.3,1958,3,1957,NA,1.5,1.40428373367945,3.0827129399016,2.33186388641149,2.07576432581215,TRUE,1.67842920622215
"CAN","cpi",0.3,1959,3,1959,NA,0,1.71883577866328,2.34407551624848,1.19382698397654,1.42085685959275,FALSE,2.1252648652616
"CAN","cpi",0.3,1959,3,1959,NA,0.5,2.15691726644946,2.78215700403466,1.19382698397654,1.98727093968503,FALSE,3.37692625893639
"CAN","cpi",0.3,1959,3,1958,NA,1,1.7426600132614,2.57344546479516,1.19382698397654,2.45716899110006,FALSE,2.39887982091907
"CAN","cpi",0.3,1959,3,1958,NA,1.5,1.71585919657045,2.54664464810421,1.19382698397654,3.16832340224646,FALSE,2.32230605894492
"CAN","cpi",0.3,1960,3,1960,NA,0,1.04144839732237,1.52268944288112,1.34209404870695,1.34570677924433,TRUE,0.481241045558751
"CAN","cpi",0.3,1960,3,1960,NA,0.5,0.699904176488799,1.18114522204755,1.34209404870695,1.13297483079829,FALSE,0.941094836014183
"CAN","cpi",0.3,1960,3,1959,NA,1,1.14473827407589,2.48253866234751,1.34209404870695,1.42085685959275,TRUE,1.33780038827162
"CAN","cpi",0.3,1960,3,1959,NA,1.5,1.18021927332493,2.51801966159655,1.34209404870695,1.98727093968503,TRUE,1.33780038827162
"CAN","cpi",0.3,1961,3,1961,NA,0,1.27736659847099,1.53580997607915,1.00921348094007,1.32757858722203,FALSE,1.02459514198222
"CAN","cpi",0.3,1961,3,1961,NA,0.5,1.05118592395409,1.30962930156225,1.00921348094007,1.39166174207428,FALSE,0.378364643362501
"CAN","cpi",0.3,1961,3,1960,NA,1,1.32898306667004,2.23280092894027,1.00921348094007,1.34570677924433,FALSE,1.81744525007014
"CAN","cpi",0.3,1961,3,1960,NA,1.5,1.26611844485815,2.25962610453398,1.00921348094007,1.13297483079829,FALSE,1.72752184229891
"CAN","cpi",0.3,1962,3,1962,NA,0,0.378708413699464,0.669784967346635,1.04957947883042,0.577977430468435,FALSE,1.37620372931511
"CAN","cpi",0.3,1962,3,1962,NA,0.5,0.2360120783232,0.87783113424081,1.04957947883042,0.636962012224359,FALSE,1.13252861188791
"CAN","cpi",0.3,1962,3,1961,NA,1,0.777410565324876,1.41922962124249,1.04957947883042,1.32757858722203,TRUE,0.641819055917611
"CAN","cpi",0.3,1962,3,1961,NA,1.5,0.947892374073239,1.58971142999085,1.04957947883042,1.39166174207428,TRUE,0.641819055917611
"CAN","cpi",0.3,1963,3,1963,NA,0,2.04993025916146,2.44209349266605,1.60677118395228,1.66779362321099,FALSE,1.65833201981653
"CAN","cpi",0.3,1963,3,1963,NA,0.5,0.914870075470902,1.30703330897549,1.60677118395228,1.52118152719239,FALSE,1.24855716200972
"CAN","cpi",0.3,1963,3,1962,NA,1,0.448201216790171,1.0188689829531,1.60677118395228,0.577977430468435,FALSE,2.25038834044631
"CAN","cpi",0.3,1963,3,1962,NA,1.5,0.836677499484948,1.40734526564788,1.60677118395228,0.636962012224359,FALSE,1.14045610417552
"CAN","cpi",0.3,1964,3,1964,NA,0,2.20834201772525,2.4719711894657,1.88764670034376,1.89274723222648,FALSE,1.17990150711614
"CAN","cpi",0.3,1964,3,1964,NA,0.5,1.148219800918,1.41184897265845,1.88764670034376,1.59688015421336,FALSE,1.62305125084135
"CAN","cpi",0.3,1964,3,1963,NA,1,1.29328222457867,1.87212094754329,1.88764670034376,1.66779362321099,FALSE,0.62319801668024
"CAN","cpi",0.3,1964,3,1963,NA,1.5,0.906916393464677,1.4857551164293,1.88764670034376,1.52118152719239,FALSE,1.72710039129165
"CAN","cpi",0.3,1965,3,1965,NA,0,1.93798306508049,2.42957020768387,2.29538304394236,2.00763200760394,TRUE,0.491587142603374
"CAN","cpi",0.3,1965,3,1965,NA,0.5,1.28400936269063,1.775596505294,2.29538304394236,1.88069823981647,FALSE,1.97669153874152
"CAN","cpi",0.3,1965,3,1964,NA,1,1.38151722134365,2.13780921586286,2.29538304394236,1.89274723222648,FALSE,1.20650293188921
"CAN","cpi",0.3,1965,3,1964,NA,1.5,1.26067721116646,2.01696920568567,2.29538304394236,1.59688015421336,FALSE,1.55176010382404
"CAN","cpi",0.3,1966,3,1966,NA,0,2.37964661951364,2.76310328156043,3.72486065470629,3.50850431851723,FALSE,3.13133487103496
"CAN","cpi",0.3,1966,3,1966,NA,0.5,2.38780217994414,2.78742123587584,3.72486065470629,2.72414080931513,FALSE,3.07801739544728
"CAN","cpi",0.3,1966,3,1965,NA,1,1.67698987208576,2.26989956866049,3.72486065470629,2.00763200760394,FALSE,4.74994137099129
"CAN","cpi",0.3,1966,3,1965,NA,1.5,1.3391808048876,2.16871332196868,3.72486065470629,1.88069823981647,FALSE,5.27566775347426
"CAN","cpi",0.3,1967,3,1967,NA,0,2.6286218071879,3.28734361158695,3.49360316391996,3.43593854851327,FALSE,1.24803481106479
"CAN","cpi",0.3,1967,3,1967,NA,0.5,2.67665212208516,3.44522920518813,3.49360316391996,3.60120034208141,FALSE,0.906788393765342
"CAN","cpi",0.3,1967,3,1966,NA,1,1.84472152959128,2.61329861269424,3.49360316391996,3.50850431851723,FALSE,3.28373294374788
"CAN","cpi",0.3,1967,3,1966,NA,1.5,1.68984100738052,2.45841809048348,3.49360316391996,2.72414080931513,FALSE,3.7262487214929
"CAN","cpi",0.3,1968,3,1968,NA,0,3.2634382094993,3.48551858522644,3.95128347779386,3.85741006811451,FALSE,1.55283721163404
"CAN","cpi",0.3,1968,3,1968,NA,0.5,3.2883257958868,3.52416637987212,3.95128347779386,3.82980583992124,FALSE,1.45617514947599
"CAN","cpi",0.3,1968,3,1967,NA,1,2.37989103103833,3.08475191630929,3.95128347779386,3.43593854851327,FALSE,3.18066534665544
"CAN","cpi",0.3,1968,3,1967,NA,1.5,2.21771466878766,2.92257555405861,3.95128347779386,3.60120034208141,FALSE,3.64402638165737
"CAN","cpi",0.3,1969,3,1969,NA,0,3.35745312599302,3.70173407978644,4.42679496126681,4.42973002734916,FALSE,2.41588347230878
"CAN","cpi",0.3,1969,3,1969,NA,0.5,3.42322094449096,3.77914390313397,4.42679496126681,3.77653863724463,FALSE,2.20635455330828
"CAN","cpi",0.3,1969,3,1968,NA,1,2.38780006149815,3.42482599180453,4.42679496126681,3.85741006811451,FALSE,3.89979441448433
"CAN","cpi",0.3,1969,3,1968,NA,1.5,2.35124753773502,3.42477549599343,4.42679496126681,3.82980583992124,FALSE,3.93644071618236
"CAN","cpi",0.3,1970,3,1970,NA,0,3.43296714677398,3.78777059114315,3.28128405769805,3.84669808502433,FALSE,0.788183698871837
"CAN","cpi",0.3,1970,3,1970,NA,0.5,4.12469367134575,5.40257240326522,3.28128405769805,4.72247431437482,FALSE,3.68762048519863
"CAN","cpi",0.3,1970,3,1969,NA,1,2.41301230751403,3.69089103943351,3.28128405769805,4.42973002734916,TRUE,1.27787873191947
"CAN","cpi",0.3,1970,3,1969,NA,1.5,2.31740373524138,3.59528246716086,3.28128405769805,3.77653863724463,TRUE,1.27787873191947
"CAN","cpi",0.3,1971,3,1971,NA,0,2.15607421091922,2.31517734756957,2.64123406634756,2.09886045002039,FALSE,1.09069376173033
"CAN","cpi",0.3,1971,3,1971,NA,0.5,2.61747134779852,3.10635860179073,2.64123406634756,2.39042152113403,TRUE,0.48888725399221
"CAN","cpi",0.3,1971,3,1970,NA,1,2.86667314738409,3.44884097449497,2.64123406634756,3.84669808502433,FALSE,1.22627948721524
"CAN","cpi",0.3,1971,3,1970,NA,1.5,2.31840882928351,3.44877731127416,2.64123406634756,4.72247431437482,TRUE,1.13036848199065
"CAN","cpi",0.3,1972,3,1972,NA,0,3.40807174118498,3.82486048837693,4.83230569625923,4.61402341086119,FALSE,3.29520362685568
"CAN","cpi",0.3,1972,3,1972,NA,0.5,3.17566689710125,3.59245564429319,4.83230569625923,3.53817935863684,FALSE,3.95921746709491
"CAN","cpi",0.3,1972,3,1971,NA,1,2.14187522935535,3.33182845390451,4.83230569625923,2.09886045002039,FALSE,5.47703105984837
"CAN","cpi",0.3,1972,3,1971,NA,1.5,2.32222036953242,3.51217359408158,4.83230569625923,2.39042152113403,FALSE,4.96175923077102
"CAN","cpi",0.3,1973,3,1973,NA,0,3.82541441038959,4.62005187107052,7.12388603531779,6.22342912205835,FALSE,7.94844935853028
"CAN","cpi",0.3,1973,3,1973,NA,0.5,3.43441354017536,4.33607462551595,7.12388603531779,4.99248222648134,FALSE,8.86683654191728
"CAN","cpi",0.3,1973,3,1972,NA,1,2.57736748720947,3.47902857255007,7.12388603531779,4.61402341086119,FALSE,11.3155395503912
"CAN","cpi",0.3,1973,3,1972,NA,1.5,2.57329524275873,3.47495632809933,7.12388603531779,3.53817935863684,FALSE,11.3271745345362
"CAN","cpi",0.3,1974,3,1974,NA,0,8.31969329046915,9.34468458900651,10.2717243737774,9.59455553431256,FALSE,3.67367639788282
"CAN","cpi",0.3,1974,3,1974,NA,0.5,4.02596084103566,5.44946462369139,10.2717243737774,8.02283957227414,FALSE,15.2013887829015
"CAN","cpi",0.3,1974,3,1973,NA,1,2.4244404945955,3.84794427725123,10.2717243737774,6.22342912205835,FALSE,19.777161201302
"CAN","cpi",0.3,1974,3,1973,NA,1.5,2.45964313222504,3.88314691488077,10.2717243737774,4.99248222648134,FALSE,19.6765822366462
"CAN","cpi",0.3,1975,3,1975,NA,0,10.0586519260688,10.2122516811802,10.0232981493341,10.5280192696423,FALSE,0.254610545781937
"CAN","cpi",0.3,1975,3,1975,NA,0.5,5.51991636580218,9.30239379678652,10.0232981493341,10.7014589339012,FALSE,5.84220415254892
"CAN","cpi",0.3,1975,3,1974,NA,1,2.42200612809999,6.20448355908432,10.0232981493341,9.59455553431256,FALSE,14.6933762602695
"CAN","cpi",0.3,1975,3,1974,NA,1.5,1.36347127552009,5.14594870650443,10.0232981493341,8.02283957227414,FALSE,17.7177615533549
"CAN","cpi",0.3,1976,3,1976,NA,0,7.643443376569,8.74270346314868,7.22784311401172,8.13534117389669,FALSE,2.28668940817192
"CAN","cpi",0.3,1976,3,1976,NA,0.5,5.64157916930754,9.0638352753436,7.22784311401172,9.54416967067372,TRUE,3.42225610603606
"CAN","cpi",0.3,1976,3,1975,NA,1,5.02671098704817,8.44896709308423,7.22784311401172,10.5280192696423,TRUE,3.42225610603606
"CAN","cpi",0.3,1976,3,1975,NA,1.5,2.63602518277736,9.91541267211744,7.22784311401172,10.7014589339012,TRUE,7.27938748934008
"CAN","cpi",0.3,1977,3,1977,NA,0,6.01735629539503,7.03412297596381,7.58101410153764,6.84168016809657,FALSE,2.57931275363687
"CAN","cpi",0.3,1977,3,1977,NA,0.5,5.26339621830807,7.21786853120412,7.58101410153764,6.57165012633641,FALSE,2.99203108527754
"CAN","cpi",0.3,1977,3,1976,NA,1,3.7666714942285,9.06687401991148,7.58101410153764,8.13534117389669,TRUE,5.30020252568297
"CAN","cpi",0.3,1977,3,1976,NA,1.5,2.44866831413041,7.74887083981339,7.58101410153764,9.54416967067372,TRUE,5.30020252568298
"CAN","cpi",0.3,1978,3,1978,NA,0,8.28633956907541,8.90968743880877,8.50208927062595,8.56560161197079,TRUE,0.623347869733365
"CAN","cpi",0.3,1978,3,1978,NA,0.5,7.03871086014904,7.66205872988241,8.50208927062595,8.14356532128036,FALSE,3.02343512900062
"CAN","cpi",0.3,1978,3,1977,NA,1,5.0718918825932,7.54574965723584,8.50208927062595,6.84168016809657,FALSE,5.20625667004294
"CAN","cpi",0.3,1978,3,1977,NA,1.5,3.37682436661628,8.68615981334337,8.50208927062595,6.57165012633641,TRUE,5.30933544672709
"CAN","cpi",0.3,1979,3,1979,NA,0,7.82452934192028,8.13743221813267,8.65147652410481,8.51558792202395,FALSE,1.78160089327565
"CAN","cpi",0.3,1979,3,1979,NA,0.5,7.19319137304398,8.13366547791224,8.65147652410481,8.48180361143764,FALSE,2.41993423684703
"CAN","cpi",0.3,1979,3,1978,NA,1,5.68796233220956,7.98666751605836,8.65147652410481,8.56560161197079,FALSE,4.19815949255295
"CAN","cpi",0.3,1979,3,1978,NA,1.5,4.52229606034369,7.76523344196554,8.65147652410481,8.14356532128036,FALSE,5.77506047344833
"CAN","cpi",0.3,1980,3,1980,NA,0,9.6138808646057,9.98950461712841,9.5171912664748,9.17959378630866,FALSE,0.65187974718244
"CAN","cpi",0.3,1980,3,1980,NA,0.5,7.31612673005654,8.54409163789883,9.5171912664748,8.77731920113821,FALSE,4.00824956091648
"CAN","cpi",0.3,1980,3,1979,NA,1,6.66862314540362,8.534936395366,9.5171912664748,8.51558792202395,FALSE,4.67275573884466
"CAN","cpi",0.3,1980,3,1979,NA,1.5,4.44280957871822,8.36396550314575,9.5171912664748,8.48180361143764,FALSE,7.21608667679623
"CAN","cpi",0.3,1981,3,1981,NA,0,9.21860746012607,10.2028833019654,11.5813425032741,11.279360028481,FALSE,4.92273070272138
"CAN","cpi",0.3,1981,3,1981,NA,0.5,7.92972253889344,9.68471417817707,11.5813425032741,10.1336807488653,FALSE,7.17392971098954
"CAN","cpi",0.3,1981,3,1980,NA,1,7.08132259380816,8.83631423309179,11.5813425032741,9.17959378630866,FALSE,9.59792955409034
"CAN","cpi",0.3,1981,3,1980,NA,1.5,5.58973341071819,8.57679033247405,11.5813425032741,8.77731920113821,FALSE,11.5714916954704
"CAN","cpi",0.3,1982,3,1982,NA,0,9.9842808106525,10.2009594556829,10.1124203763629,10.7097306947659,TRUE,0.216678645030399
"CAN","cpi",0.3,1982,3,1982,NA,0.5,9.41615149313136,11.7479279758037,10.1124203763629,11.3795840186269,TRUE,2.33177648267236
"CAN","cpi",0.3,1982,3,1981,NA,1,7.2731083914079,9.60488487408026,10.1124203763629,11.279360028481,FALSE,3.78187791776574
"CAN","cpi",0.3,1982,3,1981,NA,1.5,6.67706091138633,9.00883739405869,10.1124203763629,10.1336807488653,FALSE,5.48487071782737
"CAN","cpi",0.3,1983,3,1983,NA,0,7.1898243042396,7.56566484459857,5.67091787896303,6.81192865303165,FALSE,4.71557318400629
"CAN","cpi",0.3,1983,3,1983,NA,0.5,7.67312417176437,8.63653821544354,5.67091787896303,9.28631267190301,FALSE,6.68400345168298
"CAN","cpi",0.3,1983,3,1982,NA,1,7.64121114284632,9.92113780689153,5.67091787896303,10.7097306947659,FALSE,7.90933598942603
"CAN","cpi",0.3,1983,3,1982,NA,1.5,7.17382923737749,9.4537559014227,5.67091787896303,11.3795840186269,FALSE,6.57395911665794
"CAN","cpi",0.3,1984,3,1984,NA,0,3.38646533885971,4.09635932250757,4.19799576814029,4.43433180473976,FALSE,1.00028382831277
"CAN","cpi",0.3,1984,3,1984,NA,0.5,6.09497713564838,7.23655779493166,4.19799576814029,5.08610822560979,FALSE,6.56152742359211
"CAN","cpi",0.3,1984,3,1983,NA,1,7.30001313275876,8.44159379204203,4.19799576814029,6.81192865303165,FALSE,10.004487415336
"CAN","cpi",0.3,1984,3,1983,NA,1.5,7.18152004468646,9.04341217749422,4.19799576814029,9.28631267190301,FALSE,10.386247208654
"CAN","cpi",0.3,1985,3,1985,NA,0,3.42084365932591,3.56301584316474,3.86444262005169,3.75272544104399,FALSE,1.00339154637299
"CAN","cpi",0.3,1985,3,1985,NA,0.5,3.67665538245441,4.33645105126927,3.86444262005169,3.83470516948927,TRUE,0.659795668814857
"CAN","cpi",0.3,1985,3,1984,NA,1,3.11553994619523,3.88807900524947,3.86444262005169,4.43433180473976,TRUE,0.772539059054236
"CAN","cpi",0.3,1985,3,1984,NA,1.5,5.52985906134785,8.78516834923467,3.86444262005169,5.08610822560979,FALSE,8.0136419773044
"CAN","cpi",0.3,1986,3,1986,NA,0,3.86740258992522,3.92067156251049,4.08685396749431,4.02668174324255,FALSE,0.528075843967608
"CAN","cpi",0.3,1986,3,1986,NA,0.5,3.77562518964683,4.34030735795101,4.08685396749431,4.02628294162027,TRUE,0.564682168304179
"CAN","cpi",0.3,1986,3,1985,NA,1,3.24810370395424,3.81278587225841,4.08685396749431,3.75272544104399,FALSE,1.34773386897817
"CAN","cpi",0.3,1986,3,1985,NA,1.5,2.75686213609014,4.23135886829241,4.08685396749431,3.83470516948927,TRUE,1.47449673220228
"CAN","cpi",0.3,1987,3,1987,NA,0,3.96699181833238,4.10761877606405,4.23980729277887,4.2837330645361,FALSE,0.51830843405973
"CAN","cpi",0.3,1987,3,1987,NA,0.5,3.94702442562891,4.08765138336058,4.23980729277887,4.02033055131438,FALSE,0.575358127498216
"CAN","cpi",0.3,1987,3,1986,NA,1,3.04420720251204,4.01645339366315,4.23980729277887,4.02668174324255,FALSE,1.61040018862459
"CAN","cpi",0.3,1987,3,1986,NA,1.5,3.18342423932582,4.15567043047693,4.23980729277887,4.02628294162027,FALSE,1.21263722629952
"CAN","cpi",0.3,1988,3,1988,NA,0,3.79415831850664,3.97475993401435,3.92899537638065,3.95767765957829,TRUE,0.180601615507713
"CAN","cpi",0.3,1988,3,1988,NA,0.5,3.99058340089358,4.88033294757302,3.92899537638065,4.26147484794381,FALSE,1.06571533100208
"CAN","cpi",0.3,1988,3,1987,NA,1,3.2702139237589,4.15996347043834,3.92899537638065,4.2837330645361,TRUE,0.88974954667944
"CAN","cpi",0.3,1988,3,1987,NA,1.5,3.3614804531293,4.25122999980874,3.92899537638065,4.02033055131438,TRUE,0.88974954667944
"CAN","cpi",0.3,1989,3,1989,NA,0,4.09796831141027,4.29672768078925,4.82821664544208,4.56141251415513,FALSE,1.71729926838706
"CAN","cpi",0.3,1989,3,1989,NA,0.5,3.91955817242892,4.20635705044937,4.82821664544208,4.0148475519947,FALSE,2.06354057799961
"CAN","cpi",0.3,1989,3,1988,NA,1,3.51159087191958,4.04282374607696,4.82821664544208,3.95767765957829,FALSE,2.77521258662915
"CAN","cpi",0.3,1989,3,1988,NA,1.5,3.73573693273152,4.26696980688891,4.82821664544208,4.26147484794381,FALSE,2.13479527002359
"CAN","cpi",0.3,1990,3,1990,NA,0,4.13686693538028,4.78807479415488,4.64347549432717,4.70378167021394,TRUE,0.651207858774601
"CAN","cpi",0.3,1990,3,1990,NA,0.5,4.63093354777916,5.67050570213935,4.64347549432717,5.05069490734707,TRUE,1.03957215436019
"CAN","cpi",0.3,1990,3,1989,NA,1,3.36318627324129,4.40275842760148,4.64347549432717,4.56141251415513,FALSE,1.72733520214787
"CAN","cpi",0.3,1990,3,1989,NA,1.5,3.5267273996839,4.56629955404409,4.64347549432717,4.0148475519947,FALSE,1.26007484088329
"CAN","cpi",0.3,1991,3,1991,NA,0,4.21875974899261,4.7906595401598,5.4258100696218,5.63511155207928,FALSE,2.38661558963003
"CAN","cpi",0.3,1991,3,1991,NA,0.5,4.31630228508755,5.35633968648553,5.4258100696218,4.87807370573786,FALSE,1.23852421035873
"CAN","cpi",0.3,1991,3,1990,NA,1,3.62986845596388,4.66990585736187,5.4258100696218,4.70378167021394,FALSE,3.19976372214064
"CAN","cpi",0.3,1991,3,1990,NA,1.5,3.90206642986477,8.38909423884156,5.4258100696218,5.05069490734707,TRUE,4.48702780897679
"CAN","cpi",0.3,1992,3,1992,NA,0,2.17656957044503,2.51661259705339,1.47496888572843,2.02050638420239,FALSE,2.34461641151292
"CAN","cpi",0.3,1992,3,1992,NA,0.5,3.93608967500002,4.27613270160838,1.47496888572843,4.27205707399704,FALSE,7.37181671024146
"CAN","cpi",0.3,1992,3,1991,NA,1,3.95133726025049,5.33135064465161,1.47496888572843,5.63511155207928,FALSE,8.45535159732129
"CAN","cpi",0.3,1992,3,1991,NA,1.5,3.88789522897154,5.26790861337266,1.47496888572843,4.87807370573786,FALSE,8.27408865081
"CAN","cpi",0.3,1993,3,1993,NA,0,1.82898748700793,2.17845026437403,1.84351085411351,1.84186847486189,TRUE,0.349462777366102
"CAN","cpi",0.3,1993,3,1993,NA,0.5,1.50394117290063,1.85340395026673,1.84351085411351,1.60616723541631,TRUE,0.349462777366102
"CAN","cpi",0.3,1993,3,1992,NA,1,2.58237816035214,3.44916217156658,1.84351085411351,2.02050638420239,FALSE,2.97783345761051
"CAN","cpi",0.3,1993,3,1992,NA,1.5,3.62463564968836,4.4914196609028,1.84351085411351,4.27205707399704,FALSE,5.95571199857115
"CAN","cpi",0.3,1994,3,1994,NA,0,0.758323184955702,0.766019347698523,0.161630694655448,0.62038151471279,FALSE,1.71253184931497
"CAN","cpi",0.3,1994,3,1994,NA,0.5,1.32755028983583,1.52186124500234,0.161630694655448,1.4565883399875,FALSE,3.52550979853904
"CAN","cpi",0.3,1994,3,1993,NA,1,2.11868750951857,2.94092664072165,0.161630694655448,1.84186847486189,FALSE,6.41383003081201
"CAN","cpi",0.3,1994,3,1993,NA,1.5,1.7217876866876,2.54402681789068,0.161630694655448,1.60616723541631,FALSE,5.27983053700924
"CAN","cpi",0.3,1995,3,1995,NA,0,1.42617630721539,1.82124075149386,2.11688403676572,1.60030724029718,FALSE,1.2397595450552
"CAN","cpi",0.3,1995,3,1995,NA,0.5,0.323160921351884,0.890622776646405,2.11688403676572,0.400723248632204,FALSE,4.07106545563541
"CAN","cpi",0.3,1995,3,1994,NA,1,0.892120377027988,1.45958223232251,2.11688403676572,0.62038151471279,FALSE,2.44546701084654
"CAN","cpi",0.3,1995,3,1994,NA,1.5,1.1337744976552,1.70123635294972,2.11688403676572,1.4565883399875,FALSE,1.75502666619735
"CAN","cpi",0.3,1996,3,1996,NA,0,1.56249832433811,1.84307628085749,1.55309584667184,1.57188450223428,FALSE,0.30744217842299
"CAN","cpi",0.3,1996,3,1996,NA,0.5,2.65602523185312,3.25230351795417,1.55309584667184,2.10267011992876,FALSE,3.74750510090469
"CAN","cpi",0.3,1996,3,1995,NA,1,1.2635420776801,1.85982036378115,1.55309584667184,1.60030724029718,TRUE,0.596278286101053
"CAN","cpi",0.3,1996,3,1995,NA,1.5,0.973882284589104,1.57016057069016,1.55309584667184,0.400723248632204,TRUE,0.596278286101053
"CAN","cpi",0.3,1997,3,1997,NA,0,1.76090551584332,2.02380954217385,1.60528783555959,1.83379947449567,FALSE,0.707525969998317
"CAN","cpi",0.3,1997,3,1997,NA,0.5,1.64321473217949,1.90611875851002,1.60528783555959,1.71447508965446,FALSE,0.371266588101665
"CAN","cpi",0.3,1997,3,1996,NA,1,1.37278138951502,1.63568541584555,1.60528783555959,1.57188450223428,TRUE,0.262904026330527
"CAN","cpi",0.3,1997,3,1996,NA,1.5,2.07918480726662,4.13390975122511,1.60528783555959,2.10267011992876,FALSE,3.40871629169285
"CAN","cpi",0.3,1998,3,1998,NA,0,0.78673921723259,1.10478754322926,0.988908029337191,0.973278201206617,TRUE,0.318048325996669
"CAN","cpi",0.3,1998,3,1998,NA,0.5,0.848708783358476,1.30412949463856,0.988908029337191,1.34049194776323,TRUE,0.455420711280084
"CAN","cpi",0.3,1998,3,1997,NA,1,1.76260694579579,2.48089971268478,0.988908029337191,1.83379947449567,FALSE,2.92886109962784
"CAN","cpi",0.3,1998,3,1997,NA,1.5,1.57121805269618,2.28951081958518,0.988908029337191,1.71447508965446,FALSE,2.38203569077183
"CAN","cpi",0.3,1999,3,1999,NA,0,1.13844006310301,1.33189871858992,1.7107350135213,1.40211292309609,FALSE,1.27584806957656
"CAN","cpi",0.3,1999,3,1999,NA,0.5,0.939698921798251,1.23126275753049,1.7107350135213,0.923130320518117,FALSE,1.66148456713454
"CAN","cpi",0.3,1999,3,1998,NA,1,1.06330453461156,1.54655003056393,1.7107350135213,0.973278201206617,FALSE,0.952345447259125
"CAN","cpi",0.3,1999,3,1998,NA,1.5,1.13019753527233,1.6134430312247,1.7107350135213,1.34049194776323,FALSE,0.761222588228349
"CAN","cpi",0.3,2000,3,2000,NA,0,2.19403001534294,2.53029132418253,2.6718361971244,2.50399207866046,FALSE,0.740675231530659
"CAN","cpi",0.3,2000,3,2000,NA,0.5,2.33334885088374,2.66961015972332,2.6718361971244,2.17160318889212,FALSE,0.342621415699806
"CAN","cpi",0.3,2000,3,1999,NA,1,1.31692288051719,1.65318418935678,2.6718361971244,1.40211292309609,FALSE,3.24669561674706
"CAN","cpi",0.3,2000,3,1999,NA,1.5,1.09819253348695,1.57993338340702,2.6718361971244,0.923130320518117,FALSE,3.60146317482686
"CAN","cpi",0.3,2001,3,2001,NA,0,2.66890736322865,3.19067798315933,2.47906219852806,2.96814309391761,FALSE,1.06418537621808
"CAN","cpi",0.3,2001,3,2001,NA,0.5,2.45560440547234,3.65340597923871,2.47906219852806,2.69801990899347,TRUE,1.19780157376637
"CAN","cpi",0.3,2001,3,2000,NA,1,1.87658696660535,3.41313486445547,2.47906219852806,2.50399207866046,TRUE,1.53654789785012
"CAN","cpi",0.3,2001,3,2000,NA,1.5,2.11513133171729,3.65167922956741,2.47906219852806,2.17160318889212,TRUE,1.53654789785012
