isdrw/probabilistic-benchmark-forecasts/results/EasyUQ_idr/easyUQ_prediction_ar1_2026-02-25_19-36-43.csv
"country","target","tau","target_year","target_quarter","forecast_year","forecast_quarter","horizon","lower_bound","upper_bound","truth_value","prediction","covered","IS"
"CAN","cpi",0.1,1950,3,1950,NA,0,3.41276022321824,3.41276022321824,2.59031220731124,2.24825037311262,FALSE,1.82766225757111
"CAN","cpi",0.1,1950,3,1950,NA,0.5,3.41276022321824,3.41276022321824,2.59031220731124,-0.218816875802678,FALSE,1.82766225757111
"CAN","cpi",0.1,1950,3,1949,NA,1,3.41276022321824,4.39049624334254,2.59031220731124,1.29650217702121,FALSE,2.80539827769541
"CAN","cpi",0.1,1950,3,1949,NA,1.5,3.41276022321824,4.39049624334254,2.59031220731124,0,FALSE,2.80539827769541
"CAN","cpi",0.1,1951,3,1951,NA,0,5.27876675147151,6.12999103918053,9.87945438999359,9.85678648981217,FALSE,9.18336506729361
"CAN","cpi",0.1,1951,3,1951,NA,0.5,3.79700681472784,4.64823110243685,9.87945438999359,8.53589570050804,FALSE,12.476164926724
"CAN","cpi",0.1,1951,3,1950,NA,1,2.50728901890094,3.35851330660996,9.87945438999359,4.61037950756317,FALSE,15.342204473006
"CAN","cpi",0.1,1951,3,1950,NA,1.5,2.16470006345673,3.01592435116575,9.87945438999359,-0.898542404092984,FALSE,16.103513262882
"CAN","cpi",0.1,1952,3,1952,NA,0,2.80613871796534,2.37448569665713,2.55562336095485,2.50792675283471,FALSE,0.527575914932258
"CAN","cpi",0.1,1952,3,1952,NA,0.5,3.29341090717255,2.86175788586434,2.55562336095485,3.80942800622696,FALSE,1.20787485917557
"CAN","cpi",0.1,1952,3,1951,NA,1,8.65840164004702,8.2267486187388,2.55562336095485,6.36946346746546,FALSE,13.1300764877855
"CAN","cpi",0.1,1952,3,1951,NA,1.5,6.98359094125304,6.55193791994483,2.55562336095485,4.80604275648344,FALSE,9.40827493491001
"CAN","cpi",0.1,1953,3,1953,NA,0,2.55562336095485,2.55910359556005,-1.01492775838436,-1.00118391953201,FALSE,7.93803827758123
"CAN","cpi",0.1,1953,3,1953,NA,0.5,2.56170194531983,2.56690379706244,-1.01492775838436,-1.88711612688489,FALSE,7.95326785997415
"CAN","cpi",0.1,1953,3,1952,NA,1,2.70582128087051,2.83435570015922,-1.01492775838436,-0.873617238258229,FALSE,8.39686561763288
"CAN","cpi",0.1,1953,3,1952,NA,1.5,2.58337559995376,3.0015789112421,-1.01492775838436,0.432272395627528,FALSE,8.41443299648417
"CAN","cpi",0.1,1954,3,1954,NA,0,-0.367258175873384,-0.0431604219335862,0.644425455961438,0.831821956393317,FALSE,1.8520663714843
"CAN","cpi",0.1,1954,3,1954,NA,0.5,2.40241628620839,2.72651404014819,0.644425455961438,-0.141712452464762,FALSE,4.23074404337747
"CAN","cpi",0.1,1954,3,1953,NA,1,2.40424813215021,2.72834588609001,0.644425455961438,2.12291681679911,FALSE,4.23481481213707
"CAN","cpi",0.1,1954,3,1953,NA,1.5,2.41091890652329,2.73501666046309,0.644425455961438,-1.28741438714058,FALSE,4.24963875518835
"CAN","cpi",0.1,1955,3,1955,NA,0,-0.871263816157005,-0.595682570006687,0.173649026558865,0.10295813188439,FALSE,1.98520701629599
"CAN","cpi",0.1,1955,3,1955,NA,0.5,0.0282714284258749,0.442467740214326,0.173649026558865,-0.548848324097393,TRUE,0.414196311788451
"CAN","cpi",0.1,1955,3,1954,NA,1,1.02534445350566,2.05369069435118,0.173649026558865,2.19101630104756,FALSE,2.92100274517173
"CAN","cpi",0.1,1955,3,1954,NA,1.5,2.05879498673525,3.08714122758077,0.173649026558865,-0.815294949881493,FALSE,5.21755948568193
"CAN","cpi",0.1,1956,3,1956,NA,0,0.556455011752418,0.641577484330265,1.32752769429961,1.46434436590257,FALSE,1.60945627250972
"CAN","cpi",0.1,1956,3,1956,NA,0.5,-0.353890966214661,-0.206874175730102,1.32752769429961,-0.485738076612692,FALSE,3.55679872388391
"CAN","cpi",0.1,1956,3,1955,NA,1,-0.422404288107636,0.119044114822812,1.32752769429961,0.557995939500226,FALSE,3.22696746843444
"CAN","cpi",0.1,1956,3,1955,NA,1.5,0.511909393632777,2.56602087564721,1.32752769429961,-0.793756041684752,TRUE,2.05411148201443
"CAN","cpi",0.1,1957,3,1957,NA,0,2.94349594894804,3.02972582943294,3.24684755852518,3.35523637829212,FALSE,0.568722611800987
"CAN","cpi",0.1,1957,3,1957,NA,0.5,2.38957005738676,2.5688712875808,3.24684755852518,2.12793087018929,FALSE,1.68591516562598
"CAN","cpi",0.1,1957,3,1956,NA,1,2.4698012930331,2.79548193388602,3.24684755852518,4.42886834530761,FALSE,1.32871536227327
"CAN","cpi",0.1,1957,3,1956,NA,1.5,0.895116154705193,1.22079679555811,3.24684755852518,-0.785064469253982,FALSE,4.82801566966862
"CAN","cpi",0.1,1958,3,1958,NA,0,2.34478594941602,2.85992589531056,2.33186388641149,2.20013349321115,FALSE,0.543855641460169
"CAN","cpi",0.1,1958,3,1958,NA,0.5,4.34193069277129,5.27360211228611,2.33186388641149,2.0126030377883,FALSE,5.39848654475882
"CAN","cpi",0.1,1958,3,1957,NA,1,1.27860647886981,2.21027789838464,2.33186388641149,2.83859761398538,FALSE,1.20186250401894
"CAN","cpi",0.1,1958,3,1957,NA,1.5,2.10714035547291,3.03881177498773,2.33186388641149,0.366312073207214,TRUE,0.931671419514824
"CAN","cpi",0.1,1959,3,1959,NA,0,0.663206197832645,0.784181325169024,1.19382698397654,1.18954599151176,FALSE,1.0312988135753
"CAN","cpi",0.1,1959,3,1959,NA,0.5,1.80936072387363,2.04681727951902,1.19382698397654,0.545308327160925,FALSE,1.60530931097225
"CAN","cpi",0.1,1959,3,1958,NA,1,0.551371215249557,0.788827770894949,1.19382698397654,1.13295114249046,FALSE,1.13745480693782
"CAN","cpi",0.1,1959,3,1958,NA,1.5,2.39772839214657,2.63518494779196,1.19382698397654,0.717422088079289,FALSE,2.91279301824546
"CAN","cpi",0.1,1960,3,1960,NA,0,0.633212544919122,0.729967308758884,1.34209404870695,1.02361304259477,FALSE,1.4570364081688
"CAN","cpi",0.1,1960,3,1960,NA,0.5,1.17346182834896,1.27021659218872,1.34209404870695,0.648611007713657,FALSE,0.25648244499139
"CAN","cpi",0.1,1960,3,1959,NA,1,1.2557127779263,1.59999247897682,1.34209404870695,2.37666873185636,TRUE,0.344279701050514
"CAN","cpi",0.1,1960,3,1959,NA,1.5,2.03062559946648,2.48850867953439,1.34209404870695,-0.349092179567277,FALSE,1.98795319286686
"CAN","cpi",0.1,1961,3,1961,NA,0,1.08993873621591,1.20478752321493,1.00921348094007,1.00921348094007,FALSE,0.294238243167549
"CAN","cpi",0.1,1961,3,1961,NA,0.5,1.21241698071238,1.33868124919679,1.00921348094007,1.00921348094007,FALSE,0.577827601311767
"CAN","cpi",0.1,1961,3,1960,NA,1,-0.118353599944182,0.421590001241977,1.00921348094007,0.0537704626035329,FALSE,1.84577355607081
"CAN","cpi",0.1,1961,3,1960,NA,1.5,1.33895223568022,2.05422715523379,1.00921348094007,-0.332316386156399,FALSE,1.44802770786501
"CAN","cpi",0.1,1962,3,1962,NA,0,1.17538427624312,1.23400628639632,1.04957947883042,1.0653801125483,FALSE,0.338188226625878
"CAN","cpi",0.1,1962,3,1962,NA,0.5,1.14780460061321,1.22458829957649,1.04957947883042,0,FALSE,0.295061747369493
"CAN","cpi",0.1,1962,3,1961,NA,1,0.680393857821921,0.757177556785205,1.04957947883042,0,FALSE,0.72656574795264
"CAN","cpi",0.1,1962,3,1961,NA,1.5,1.58964072356556,2.08478943977363,1.04957947883042,0,FALSE,1.69528481561951
"CAN","cpi",0.1,1963,3,1963,NA,0,1.6014373294528,1.88894861189908,1.60677118395228,1.83024954277348,TRUE,0.28751128244628
"CAN","cpi",0.1,1963,3,1963,NA,0.5,1.0863497992124,1.37386108165868,1.60677118395228,0.836828714617504,FALSE,0.805089287543172
"CAN","cpi",0.1,1963,3,1962,NA,1,0.977947622059609,1.26545890450589,1.60677118395228,1.60935100695326,FALSE,1.04598301454938
"CAN","cpi",0.1,1963,3,1962,NA,1.5,1.32898514611003,1.63903043473181,1.60677118395228,0,TRUE,0.310045288621779
"CAN","cpi",0.1,1964,3,1964,NA,0,1.51482011574213,1.55644206251607,1.88764670034376,1.95194648443024,FALSE,0.777632253057702
"CAN","cpi",0.1,1964,3,1964,NA,0.5,1.42403049149332,1.52458258396888,1.88764670034376,1.27307816843398,FALSE,0.907361239975283
"CAN","cpi",0.1,1964,3,1963,NA,1,1.86240392500465,2.05056698304936,1.88764670034376,3.20172332637508,TRUE,0.188163058044711
"CAN","cpi",0.1,1964,3,1963,NA,1.5,1.30132530141198,1.48948835945669,1.88764670034376,0,FALSE,1.07295937112709
"CAN","cpi",0.1,1965,3,1965,NA,0,2.87517967617918,3.27546702889273,2.29538304394236,2.29800189469823,FALSE,1.68872431323982
"CAN","cpi",0.1,1965,3,1965,NA,0.5,1.51028138457409,1.91056873728764,2.29538304394236,1.39443218256826,FALSE,1.25543025639071
"CAN","cpi",0.1,1965,3,1964,NA,1,1.03648347044813,1.43677082316168,2.29538304394236,1.48078368039448,FALSE,2.30831451000394
"CAN","cpi",0.1,1965,3,1964,NA,1.5,1.66910307145508,2.06939042416863,2.29538304394236,0.293257399533461,FALSE,0.902493174432934
"CAN","cpi",0.1,1966,3,1966,NA,0,3.22063551163501,3.2760775053806,3.72486065470629,3.77511268244847,FALSE,1.05273788113601
"CAN","cpi",0.1,1966,3,1966,NA,0.5,3.38385921302511,3.90565203360323,3.72486065470629,3.37743719728421,TRUE,0.521792820578125
"CAN","cpi",0.1,1966,3,1965,NA,1,1.15938903386073,1.68118185443885,3.72486065470629,1.98486973144544,FALSE,5.06330126561688
"CAN","cpi",0.1,1966,3,1965,NA,1.5,1.83063289508371,2.35242571566184,3.72486065470629,0.578640834001038,FALSE,3.57164824067691
"CAN","cpi",0.1,1967,3,1967,NA,0,6.51110089391703,7.36717734208046,3.49360316391996,3.68375770714608,FALSE,7.56162695926803
"CAN","cpi",0.1,1967,3,1967,NA,0.5,4.43890638771535,5.29498283587878,3.49360316391996,2.11054708048259,FALSE,2.95675027881985
"CAN","cpi",0.1,1967,3,1966,NA,1,1.04639430248968,1.90247075065311,3.49360316391996,2.02003307533501,FALSE,4.3919262554231
"CAN","cpi",0.1,1967,3,1966,NA,1.5,2.26957227835086,3.12564872651429,3.49360316391996,1.71558536379673,FALSE,1.67375297573159
"CAN","cpi",0.1,1968,3,1968,NA,0,3.60315666448036,3.6275067932635,3.95128347779386,4.07085717819357,FALSE,0.743853872183933
"CAN","cpi",0.1,1968,3,1968,NA,0.5,3.61409814201125,4.21148229604325,3.95128347779386,3.50732233276501,TRUE,0.597384154032005
"CAN","cpi",0.1,1968,3,1967,NA,1,2.14587385461604,2.74325800864804,3.95128347779386,3.66303679301692,FALSE,3.28188519657825
"CAN","cpi",0.1,1968,3,1967,NA,1.5,2.4276021528898,3.02498630692181,3.95128347779386,0.834881519045053,FALSE,2.65582231152545
"CAN","cpi",0.1,1969,3,1969,NA,0,3.83561428313789,3.86023235527185,4.42679496126681,4.52532640008253,FALSE,1.2836460854561
"CAN","cpi",0.1,1969,3,1969,NA,0.5,3.30735574727747,3.35600201863847,4.42679496126681,2.69090620784681,FALSE,2.42818614386843
"CAN","cpi",0.1,1969,3,1968,NA,1,3.3493551841627,3.63942733977333,4.42679496126681,4.0779393276339,FALSE,2.03977798115171
"CAN","cpi",0.1,1969,3,1968,NA,1.5,3.25496320897526,3.5450353645859,4.42679496126681,1.61221871335458,FALSE,2.24953792601267
"CAN","cpi",0.1,1970,3,1970,NA,0,3.44802244176844,3.49849929870273,3.28128405769805,3.55878605435979,FALSE,0.421006599312941
"CAN","cpi",0.1,1970,3,1970,NA,0.5,3.63123113777489,3.76259758361333,3.28128405769805,3.74969277403504,FALSE,0.909026623786984
"CAN","cpi",0.1,1970,3,1969,NA,1,1.8639330498367,2.25986201866385,3.28128405769805,3.11186608282608,FALSE,2.66575572223647
"CAN","cpi",0.1,1970,3,1969,NA,1.5,3.18277891723613,3.57870788606328,3.28128405769805,0.764941977259638,TRUE,0.39592896882715
"CAN","cpi",0.1,1971,3,1971,NA,0,2.56173681958465,2.57856111758326,2.64123406634756,2.81514553288871,FALSE,0.156097517474836
"CAN","cpi",0.1,1971,3,1971,NA,0.5,1.53432383647881,1.63895876420162,2.64123406634756,1.11673730766521,FALSE,2.33191337693601
"CAN","cpi",0.1,1971,3,1970,NA,1,1.60431548661827,1.96718003264866,2.64123406634756,1.92043450460395,FALSE,1.86076239869461
"CAN","cpi",0.1,1971,3,1970,NA,1.5,3.38738151383509,3.75024605986548,2.64123406634756,1.70194075200601,FALSE,2.02096998489157
"CAN","cpi",0.1,1972,3,1972,NA,0,4.18897972293203,4.24181144371119,4.83230569625923,5.04828762155974,FALSE,1.36504117088591
"CAN","cpi",0.1,1972,3,1972,NA,0.5,3.39870291546588,3.60979058654751,4.83230569625923,4.09602385359717,FALSE,2.92778791488545
"CAN","cpi",0.1,1972,3,1971,NA,1,3.790280236901,4.00136790798263,4.83230569625923,4.16812111633716,FALSE,2.05761608947408
"CAN","cpi",0.1,1972,3,1971,NA,1.5,2.17314757040787,3.29662158128967,4.83230569625923,0.692030005351089,FALSE,4.53610537748082
"CAN","cpi",0.1,1973,3,1973,NA,0,4.80882717309975,4.95408043731287,7.12388603531779,7.25096132226983,FALSE,4.96704348200184
"CAN","cpi",0.1,1973,3,1973,NA,0.5,4.63371903305043,4.77897229726355,7.12388603531779,5.30446017290082,FALSE,5.35617268211142
"CAN","cpi",0.1,1973,3,1972,NA,1,4.46056542115686,5.30008061729962,7.12388603531779,4.92276035792265,FALSE,4.89241612507203
"CAN","cpi",0.1,1973,3,1972,NA,1.5,2.98034498965921,3.81986018580196,7.12388603531779,1.79187879074203,FALSE,8.18179486173349
"CAN","cpi",0.1,1974,3,1974,NA,0,8.48086773197729,8.78250055344705,10.2717243737774,10.148911210151,FALSE,3.61101908887058
"CAN","cpi",0.1,1974,3,1974,NA,0.5,9.04109812048286,9.7928261118082,10.2717243737774,7.90446289245049,FALSE,1.81594635125693
"CAN","cpi",0.1,1974,3,1973,NA,1,7.00886522363113,9.17720594485777,10.2717243737774,7.30476096756609,FALSE,4.60060389660364
"CAN","cpi",0.1,1974,3,1973,NA,1.5,2.39663928085044,4.56498000207708,10.2717243737774,2.5663290958369,FALSE,14.8499948805607
"CAN","cpi",0.1,1975,3,1975,NA,0,10.0577964028882,10.0974368951351,10.0232981493341,10.1746571103793,FALSE,0.116303277922602
"CAN","cpi",0.1,1975,3,1975,NA,0.5,9.60369252632266,10.2084038389595,10.0232981493341,8.07152306914465,TRUE,0.604711312636816
"CAN","cpi",0.1,1975,3,1974,NA,1,7.89363391238598,8.7915877978886,10.0232981493341,7.8187778356914,FALSE,3.635087999826
"CAN","cpi",0.1,1975,3,1974,NA,1.5,4.13492226418048,5.03287614968311,10.0232981493341,3.64914274700436,FALSE,11.9877805513938
"CAN","cpi",0.1,1976,3,1976,NA,0,7.02910059388568,7.54936391059033,7.22784311401172,7.18995143043805,TRUE,0.520263316704648
"CAN","cpi",0.1,1976,3,1976,NA,0.5,6.99153037844909,7.94233500747337,7.22784311401172,6.61333364285308,TRUE,0.950804629024278
"CAN","cpi",0.1,1976,3,1975,NA,1,9.1993354557662,10.1501400847905,7.22784311401172,8.584971075903,FALSE,5.33189872181201
"CAN","cpi",0.1,1976,3,1975,NA,1.5,5.4246509063555,9.90822238075714,7.22784311401172,3.14738569995591,TRUE,4.48357147440164
"CAN","cpi",0.1,1977,3,1977,NA,0,7.11568726924521,7.14036800694799,7.58101410153764,7.50176944503946,FALSE,1.00389428123534
"CAN","cpi",0.1,1977,3,1977,NA,0.5,7.15387183108783,7.17855256879061,7.58101410153764,6.40571638826874,FALSE,0.919039699362858
"CAN","cpi",0.1,1977,3,1976,NA,1,3.99930482405904,4.15108502356685,7.58101410153764,4.04909286077014,FALSE,7.77384481722069
"CAN","cpi",0.1,1977,3,1976,NA,1.5,7.81295643837452,9.19062376047336,7.58101410153764,2.59432747727492,FALSE,1.8930947372919
"CAN","cpi",0.1,1978,3,1978,NA,0,7.52408972115346,7.6484544497219,8.50208927062595,8.59104847384149,FALSE,2.02133099724409
"CAN","cpi",0.1,1978,3,1978,NA,0.5,7.87613894790677,8.85850048222503,8.50208927062595,7.34113908733495,TRUE,0.982361534318258
"CAN","cpi",0.1,1978,3,1977,NA,1,5.23944606399728,6.22180759831554,8.50208927062595,5.87902868518151,FALSE,6.0496541394525
"CAN","cpi",0.1,1978,3,1977,NA,1.5,7.11879837941845,8.10115991373671,8.50208927062595,3.89293485842214,FALSE,1.87331566073878
"CAN","cpi",0.1,1979,3,1979,NA,0,8.51777711187762,8.70392576500429,8.65147652410481,8.48651410143776,TRUE,0.186148653126665
"CAN","cpi",0.1,1979,3,1979,NA,0.5,8.07525552057949,8.26140417370616,8.65147652410481,7.46186747064873,FALSE,1.052976098457
"CAN","cpi",0.1,1979,3,1978,NA,1,7.89385640805358,9.53858641991246,8.65147652410481,6.93686058379669,TRUE,1.64473001185888
"CAN","cpi",0.1,1979,3,1978,NA,1.5,6.90318439319913,8.54791440505801,8.65147652410481,3.9179710204728,FALSE,1.87486805418511
"CAN","cpi",0.1,1980,3,1980,NA,0,8.90528619825784,9.01959112995056,9.5171912664748,9.43711128155219,FALSE,1.22008301285769
"CAN","cpi",0.1,1980,3,1980,NA,0.5,9.88769370659012,10.0019986382828,9.5171912664748,7.89144076485851,FALSE,0.937643687504553
"CAN","cpi",0.1,1980,3,1979,NA,1,6.71551449956705,7.58872361886552,9.5171912664748,5.69387794711803,FALSE,5.15869278065242
"CAN","cpi",0.1,1980,3,1979,NA,1.5,7.60495307252216,8.47816219182063,9.5171912664748,4.27199048256738,FALSE,3.18216261852995
"CAN","cpi",0.1,1981,3,1981,NA,0,10.1882473852408,10.3304753544422,11.5813425032741,11.617538759154,FALSE,2.92193274438347
"CAN","cpi",0.1,1981,3,1981,NA,0.5,10.5197963427722,10.8443813407505,11.5813425032741,11.3038259100907,FALSE,1.96227647025303
"CAN","cpi",0.1,1981,3,1980,NA,1,9.60795124562929,9.93253624360758,11.5813425032741,8.22922472590444,FALSE,3.98859890834842
"CAN","cpi",0.1,1981,3,1980,NA,1.5,8.11981478315974,8.54690533261732,11.5813425032741,4.54818367546621,FALSE,7.17028426202829
"CAN","cpi",0.1,1982,3,1982,NA,0,9.31335128894568,9.73749295074487,10.1124203763629,10.1863972123348,FALSE,1.25731371872824
"CAN","cpi",0.1,1982,3,1982,NA,0.5,9.8538200434629,10.2779617052621,10.1124203763629,9.38011590167964,TRUE,0.42414166179919
"CAN","cpi",0.1,1982,3,1981,NA,1,9.9690495688258,10.393191230625,10.1124203763629,8.92774959502704,TRUE,0.42414166179919
"CAN","cpi",0.1,1982,3,1981,NA,1.5,8.57678198235416,9.13776842909342,10.1124203763629,7.65688060941457,FALSE,2.72687966289376
"CAN","cpi",0.1,1983,3,1983,NA,0,4.48983408054459,4.65994743429302,5.67091787896303,5.79231449937116,FALSE,2.41671434190402
"CAN","cpi",0.1,1983,3,1983,NA,0.5,4.07936360100717,4.41838980474188,5.67091787896303,4.48935486750539,FALSE,3.12242192422616
"CAN","cpi",0.1,1983,3,1982,NA,1,7.95558273799706,8.47122515668523,5.67091787896303,6.68360843662591,FALSE,5.59267543876378
"CAN","cpi",0.1,1983,3,1982,NA,1.5,8.4861680308067,9.00181044949487,5.67091787896303,5.80492936344428,FALSE,6.77175386722964
"CAN","cpi",0.1,1984,3,1984,NA,0,3.86166071939669,3.89208763053848,4.19799576814029,4.1863442377944,FALSE,0.710222772479137
"CAN","cpi",0.1,1984,3,1984,NA,0.5,5.01908720662128,5.13819476365529,4.19799576814029,4.37368919035215,FALSE,1.94375519810288
"CAN","cpi",0.1,1984,3,1983,NA,1,6.86030957707552,7.69398206069419,4.19799576814029,4.8252398586334,FALSE,6.74992539236362
"CAN","cpi",0.1,1984,3,1983,NA,1.5,3.21422519678471,4.04789768040338,4.19799576814029,1.63651850095104,FALSE,1.16722378970069
"CAN","cpi",0.1,1985,3,1985,NA,0,3.5829207589368,3.65001521135521,3.86444262005169,3.87488963413478,FALSE,0.54359980507727
"CAN","cpi",0.1,1985,3,1985,NA,0.5,3.37333087657982,3.56298188617754,3.86444262005169,3.66954460168274,FALSE,0.859563751540281
"CAN","cpi",0.1,1985,3,1984,NA,1,2.29719756057449,2.51001734900261,3.86444262005169,2.51760914226531,FALSE,3.22265372409276
"CAN","cpi",0.1,1985,3,1984,NA,1.5,7.63359588177599,8.10338196725407,3.86444262005169,2.74468923002786,FALSE,8.84568222264318
"CAN","cpi",0.1,1986,3,1986,NA,0,3.8472945676999,3.87452802875373,4.08685396749431,4.09009381020777,FALSE,0.499068880477343
"CAN","cpi",0.1,1986,3,1986,NA,0.5,4.06999184412268,4.43107440838935,4.08685396749431,4.18867743652029,TRUE,0.36108256426667
"CAN","cpi",0.1,1986,3,1985,NA,1,2.48979546918281,2.85087803344948,4.08685396749431,2.96346536694636,FALSE,3.10769575103295
"CAN","cpi",0.1,1986,3,1985,NA,1.5,7.17405898922738,7.53514155349406,4.08685396749431,2.65645514502224,FALSE,7.22153816811795
"CAN","cpi",0.1,1987,3,1987,NA,0,4.12146641510052,4.15931905113601,4.23980729277887,4.30382748919395,FALSE,0.216715395241844
"CAN","cpi",0.1,1987,3,1987,NA,0.5,3.64702807431519,3.71963458561452,4.23980729277887,3.60745044359556,FALSE,1.22854586055345
"CAN","cpi",0.1,1987,3,1986,NA,1,3.85559840650486,3.92820491780418,4.23980729277887,3.48954394276064,FALSE,0.765056233465294
"CAN","cpi",0.1,1987,3,1986,NA,1.5,7.14566856899865,7.21827508029797,4.23980729277887,3.05061614822702,FALSE,6.53007601400993
"CAN","cpi",0.1,1988,3,1988,NA,0,3.84298474792887,3.86785763908222,3.92899537638065,3.96651200874969,FALSE,0.16073452959432
"CAN","cpi",0.1,1988,3,1988,NA,0.5,3.61085184802364,3.6991087995162,3.92899537638065,3.27588434563216,FALSE,0.599116011191346
"CAN","cpi",0.1,1988,3,1987,NA,1,3.87066010875392,3.95891706024648,3.92899537638065,3.36557853238272,TRUE,0.0882569514925597
"CAN","cpi",0.1,1988,3,1987,NA,1.5,4.45968194185857,5.97565100701293,3.92899537638065,2.22890665988493,FALSE,2.69527254399417
"CAN","cpi",0.1,1989,3,1989,NA,0,4.56575952548192,4.6144243577298,4.82821664544208,4.96224122245117,FALSE,0.523758804941823
"CAN","cpi",0.1,1989,3,1989,NA,0.5,3.98021508791702,4.08605228379537,4.82821664544208,4.15246181762677,FALSE,1.75509133287103
"CAN","cpi",0.1,1989,3,1988,NA,1,3.84497274738168,3.95080994326003,4.82821664544208,3.35061776773985,FALSE,2.05562986739401
"CAN","cpi",0.1,1989,3,1988,NA,1.5,3.93568016057632,4.64209382541305,4.82821664544208,2.03293210635829,FALSE,1.1200199315679
"CAN","cpi",0.1,1990,3,1990,NA,0,4.30537320170022,4.32754023396184,4.64347549432717,4.49116732458404,FALSE,0.724245388629024
"CAN","cpi",0.1,1990,3,1990,NA,0.5,4.96506105069269,5.25849301748975,4.64347549432717,4.80635133900141,FALSE,1.00806653649821
"CAN","cpi",0.1,1990,3,1989,NA,1,4.53004662195696,4.82347858875402,4.64347549432717,4.45332930526201,TRUE,0.29343196679706
"CAN","cpi",0.1,1990,3,1989,NA,1.5,4.37416692244077,5.68301536550626,4.64347549432717,2.93994143296931,TRUE,1.30884844306549
"CAN","cpi",0.1,1991,3,1991,NA,0,5.06381040651186,5.14242933220989,5.4258100696218,5.5966415351231,FALSE,0.708353897724487
"CAN","cpi",0.1,1991,3,1991,NA,0.5,9.91206065765722,9.99067958335526,5.4258100696218,8.0424604401558,FALSE,10.0480646768879
"CAN","cpi",0.1,1991,3,1990,NA,1,2.87307370194064,3.14525955141808,5.4258100696218,3.00766385389873,FALSE,5.34007588993014
"CAN","cpi",0.1,1991,3,1990,NA,1.5,6.60967686023471,7.35587864864388,5.4258100696218,3.42461322750937,FALSE,3.37701687866009
"CAN","cpi",0.1,1992,3,1992,NA,0,1.27349359934387,1.2915051677476,1.47496888572843,1.46118300949616,FALSE,0.425708719472246
"CAN","cpi",0.1,1992,3,1992,NA,0.5,1.79971190839069,2.00998774176675,1.47496888572843,1.2379681755847,FALSE,0.93192699484774
"CAN","cpi",0.1,1992,3,1991,NA,1,1.82455332465939,2.29972583245891,1.47496888572843,1.8723365291461,FALSE,1.25202681653498
"CAN","cpi",0.1,1992,3,1991,NA,1.5,9.53051754615374,10.0056900539533,1.47496888572843,6.89933696838937,FALSE,18.3763917531891
"CAN","cpi",0.1,1993,3,1993,NA,0,1.93474550927639,2.03816363970296,1.84351085411351,1.80220567555903,FALSE,0.306161808566295
"CAN","cpi",0.1,1993,3,1993,NA,0.5,3.29485857560869,3.39827670603527,1.84351085411351,2.21818498229346,FALSE,3.32863528930476
"CAN","cpi",0.1,1993,3,1992,NA,1,1.6636069331348,1.76702506356138,1.84351085411351,1.3520429918812,FALSE,0.273386553875767
"CAN","cpi",0.1,1993,3,1992,NA,1.5,3.74428265265043,3.847700783077,1.84351085411351,0.933485487336859,FALSE,4.32735546050861
"CAN","cpi",0.1,1994,3,1994,NA,0,-0.376870335614805,-0.277754991138712,0.161630694655448,0.202109657487191,FALSE,1.07552797957422
"CAN","cpi",0.1,1994,3,1994,NA,0.5,-0.481184754758456,-0.382069410282363,0.161630694655448,-0.572639707462777,FALSE,1.30733779989345
"CAN","cpi",0.1,1994,3,1993,NA,1,1.14322294072146,1.24233828519755,0.161630694655448,1.14110533076836,FALSE,2.280431446845
"CAN","cpi",0.1,1994,3,1993,NA,1.5,3.72927677365627,3.99114693221525,0.161630694655448,1.65023462295923,FALSE,8.18997255633858
"CAN","cpi",0.1,1995,3,1995,NA,0,2.26317081703868,2.33747402524084,2.11688403676572,2.14851249512314,FALSE,0.399384942142089
"CAN","cpi",0.1,1995,3,1995,NA,0.5,3.36334522463224,3.4376484328344,2.11688403676572,2.60072443309243,FALSE,2.84421695901665
"CAN","cpi",0.1,1995,3,1994,NA,1,1.62826309629311,1.76091170049251,2.11688403676572,1.43373972642191,FALSE,0.923698240362082
"CAN","cpi",0.1,1995,3,1994,NA,1.5,0.230105533522579,0.36275413772198,2.11688403676572,-1.26611333424577,FALSE,4.03071504651881
"CAN","cpi",0.1,1996,3,1996,NA,0,1.30838847879067,1.34791893128268,1.55309584667184,1.43665270425039,FALSE,0.49547915335682
"CAN","cpi",0.1,1996,3,1996,NA,0.5,1.53879332600573,1.81507377064781,1.55309584667184,1.23276330365037,TRUE,0.276280444642078
"CAN","cpi",0.1,1996,3,1995,NA,1,0.963376168859044,1.23965661350112,1.55309584667184,0.729753259393914,FALSE,0.972812073910349
"CAN","cpi",0.1,1996,3,1995,NA,1.5,4.25999019555155,4.62327685754243,1.55309584667184,2.31904839186543,FALSE,6.37860743727912
"CAN","cpi",0.1,1997,3,1997,NA,0,1.56776082514242,1.58461420615249,1.60528783555959,1.67949478723595,FALSE,0.0627947796925116
"CAN","cpi",0.1,1997,3,1997,NA,0.5,2.29302981178711,2.36248631765973,1.60528783555959,1.93291992098407,FALSE,1.59777200860043
"CAN","cpi",0.1,1997,3,1996,NA,1,1.15690154979546,1.22986065009782,1.60528783555959,0.614630451620954,FALSE,0.907241734661858
"CAN","cpi",0.1,1997,3,1996,NA,1.5,2.96123766964092,3.53404150032011,1.60528783555959,0.962161564198873,FALSE,3.58602568419325
"CAN","cpi",0.1,1998,3,1998,NA,0,0.843322704903635,0.925439252457367,0.988908029337191,0.967063680387792,FALSE,0.223158273953341
"CAN","cpi",0.1,1998,3,1998,NA,0.5,1.97747993440734,2.05959648196107,0.988908029337191,1.34897459866337,FALSE,2.27894300326517
"CAN","cpi",0.1,1998,3,1997,NA,1,1.31825372606213,1.40037027361586,0.988908029337191,0.792689959246129,FALSE,0.813995873609154
"CAN","cpi",0.1,1998,3,1997,NA,1.5,3.20603122806556,3.34379265561842,0.988908029337191,1.28384000376946,FALSE,5.06470186917146
"CAN","cpi",0.1,1999,3,1999,NA,0,1.6060088877213,1.60641743932771,1.7107350135213,1.76864633894604,FALSE,0.232225383147712
"CAN","cpi",0.1,1999,3,1999,NA,0.5,1.38475491292843,1.41762628442613,1.7107350135213,0.732099710600531,FALSE,0.6842241028203
"CAN","cpi",0.1,1999,3,1998,NA,1,1.01522999256173,1.04810136405943,1.7107350135213,0.369052571959629,FALSE,1.50539059252407
"CAN","cpi",0.1,1999,3,1998,NA,1.5,2.18834595604007,2.95163714079948,1.7107350135213,1.26847007023129,FALSE,1.82464883480113
"CAN","cpi",0.1,2000,3,2000,NA,0,2.59709610545195,2.60515097817105,2.6718361971244,2.70257810674034,FALSE,0.156244248170991
"CAN","cpi",0.1,2000,3,2000,NA,0.5,2.04049638537678,2.17936367842894,2.6718361971244,1.95948305880876,FALSE,1.23325066793096
"CAN","cpi",0.1,2000,3,1999,NA,1,1.99902524893434,2.7682503127315,2.6718361971244,2.16154661985999,TRUE,0.769225063797154
"CAN","cpi",0.1,2000,3,1999,NA,1.5,1.78898692327616,2.55821198707332,2.6718361971244,0.50278387806376,FALSE,1.02172330835511
"CAN","cpi",0.1,2001,3,2001,NA,0,2.60659914287025,2.71862891207992,2.47906219852806,2.73154549386087,FALSE,0.395445201081188
"CAN","cpi",0.1,2001,3,2001,NA,0.5,1.54372315768525,2.14698094019378,2.47906219852806,1.65861828263926,FALSE,1.3412161343625
"CAN","cpi",0.1,2001,3,2000,NA,1,2.63179288709836,3.70682364296143,2.47906219852806,2.84133895788986,FALSE,1.41443228601929
"CAN","cpi",0.1,2001,3,2000,NA,1.5,2.13850950608485,3.21354026194791,2.47906219852806,1.14191354447969,TRUE,1.07503075586307
"CAN","cpi",0.1,2002,3,2002,NA,0,2.35658587124862,2.47737047174685,2.20880570551249,2.31282527465204,FALSE,0.449184968800749
"CAN","cpi",0.1,2002,3,2002,NA,0.5,1.52496569655512,1.64575029705335,2.20880570551249,1.24731948634093,FALSE,1.37201884151853
"CAN","cpi",0.1,2002,3,2001,NA,1,1.24538777142503,1.42346942878138,2.20880570551249,0.695491540886875,FALSE,1.92327338342547
"CAN","cpi",0.1,2002,3,2001,NA,1.5,2.16180975855075,2.3398914159071,2.20880570551249,0.47606161882134,TRUE,0.178081657356347
"CAN","cpi",0.1,2003,3,2003,NA,0,2.60499639727026,2.62172073094078,2.71189071546809,2.75460397277825,FALSE,0.217102077064542
"CAN","cpi",0.1,2003,3,2003,NA,0.5,4.22401396779946,4.47694608157574,2.71189071546809,4.16096970792426,FALSE,3.613206007846
"CAN","cpi",0.1,2003,3,2002,NA,1,3.88001212013323,4.13294423390951,2.71189071546809,3.27791908188471,FALSE,2.84875745747659
"CAN","cpi",0.1,2003,3,2002,NA,1.5,2.61427285978248,3.37103008305873,2.71189071546809,1.51830012756901,TRUE,0.756757223276249
"CAN","cpi",0.1,2004,3,2004,NA,0,1.64274831381676,1.67491176892835,1.83151661303942,1.76153103901938,FALSE,0.380174219802856
"CAN","cpi",0.1,2004,3,2004,NA,0.5,2.21338109965711,2.2455445547687,1.83151661303942,1.38945604480572,FALSE,0.880751203150898
"CAN","cpi",0.1,2004,3,2003,NA,1,1.36251794393668,1.42647391461722,1.83151661303942,1.01874619159597,FALSE,0.964050856063216
"CAN","cpi",0.1,2004,3,2003,NA,1.5,4.32214036325371,4.44166991539025,1.83151661303942,2.99105359104411,FALSE,5.65424899705717
"CAN","cpi",0.1,2005,3,2005,NA,0,2.31636943907609,2.35194980980448,2.18071628336509,2.35062481142317,FALSE,0.337031827863945
"CAN","cpi",0.1,2005,3,2005,NA,0.5,2.22270699034789,2.25828736107628,2.18071628336509,1.4552837212303,FALSE,0.128893052912379
"CAN","cpi",0.1,2005,3,2004,NA,1,1.37756130338067,1.54387372575098,2.18071628336509,0.79648671202377,FALSE,1.58151810595723
"CAN","cpi",0.1,2005,3,2004,NA,1.5,2.30177957543407,2.59707636559475,2.18071628336509,1.13680951350797,FALSE,0.564326328091741
"CAN","cpi",0.1,2006,3,2006,NA,0,1.9193354149873,2.03545479389887,1.97519342012289,2.06448042324351,TRUE,0.116119378911565
"CAN","cpi",0.1,2006,3,2006,NA,0.5,2.24745417341828,2.36357355232985,1.97519342012289,1.77073314120205,FALSE,0.721143275123562
"CAN","cpi",0.1,2006,3,2005,NA,1,2.3702256395081,2.60895469168845,1.97519342012289,2.58808204718941,FALSE,1.11657842859194
"CAN","cpi",0.1,2006,3,2005,NA,1.5,2.1829441111857,2.42167316336604,1.97519342012289,0.762075268916728,FALSE,0.700397254542144
"CAN","cpi",0.1,2007,3,2007,NA,0,1.95165075697715,2.05764707893477,2.10062087284572,2.10807340507977,FALSE,0.201493641759737
"CAN","cpi",0.1,2007,3,2007,NA,0.5,2.42751685550098,2.66100267626603,2.10062087284572,2.09760271424675,FALSE,0.959921337776724
"CAN","cpi",0.1,2007,3,2006,NA,1,1.32018508199983,1.55367090276488,2.10062087284572,0.438862458623872,FALSE,1.44893019872248
"CAN","cpi",0.1,2007,3,2006,NA,1.5,2.16343720082061,2.39692302158566,2.10062087284572,1.08089197775225,FALSE,0.373077660709241
"CAN","cpi",0.1,2008,3,2008,NA,0,2.65357335979557,2.66392733717014,2.31447335265955,2.9146675338117,FALSE,0.763909548787944
"CAN","cpi",0.1,2008,3,2008,NA,0.5,1.56251427793005,1.57286825530463,2.31447335265955,1.04562745221765,FALSE,1.65836530482997
"CAN","cpi",0.1,2008,3,2007,NA,1,1.52361508604115,1.59312291961493,2.31447335265955,0.365030180386173,FALSE,1.67250879589516
"CAN","cpi",0.1,2008,3,2007,NA,1.5,3.91285970912473,4.26003999898759,2.31447335265955,2.04107389452134,FALSE,3.89914997089659
"CAN","cpi",0.1,2009,3,2009,NA,0,0.1617864862346,0.164494640228203,0.284533874408197,0.272618836216429,FALSE,0.269462007726924
"CAN","cpi",0.1,2009,3,2009,NA,0.5,-0.595344002670712,-0.514360805576237,0.284533874408197,-0.807426338518035,FALSE,1.856304708171
"CAN","cpi",0.1,2009,3,2008,NA,1,3.22888324581851,3.30986644291299,0.284533874408197,3.28355694764985,FALSE,6.62398180022851
"CAN","cpi",0.1,2009,3,2008,NA,1.5,2.15306483212015,2.27179495144118,0.284533874408197,0.703376955238912,FALSE,4.2710211364587
"CAN","cpi",0.1,2010,3,2010,NA,0,1.60559792701419,1.60662026731627,1.75525687020327,1.72708036400674,FALSE,0.331325902273192
"CAN","cpi",0.1,2010,3,2010,NA,0.5,2.13742718908204,2.18086298821325,1.75525687020327,1.42243266198166,FALSE,0.892703174417356
"CAN","cpi",0.1,2010,3,2009,NA,1,1.5890737173649,1.63250951649611,1.75525687020327,0.515829437079458,FALSE,0.316207696258231
"CAN","cpi",0.1,2010,3,2009,NA,1.5,1.31430687178079,1.357742670912,1.75525687020327,-0.666399632006793,FALSE,0.92680068644515
"CAN","cpi",0.1,2011,3,2011,NA,0,2.59307639400425,2.62517876276414,2.85717434028225,2.82871118728348,FALSE,0.547648096577902
"CAN","cpi",0.1,2011,3,2011,NA,0.5,2.40462437384029,2.72137668507141,2.85717434028225,2.59305645945043,FALSE,0.618524878366309
"CAN","cpi",0.1,2011,3,2010,NA,1,1.74210605807748,2.0588583693086,2.85717434028225,1.58194849312145,FALSE,2.09078780228366
"CAN","cpi",0.1,2011,3,2010,NA,1.5,2.00719346779751,2.32394577902864,2.85717434028225,1.00866231757724,FALSE,1.50170466957248
"CAN","cpi",0.1,2012,3,2012,NA,0,1.3906779780914,1.43100642908365,1.50118536134935,1.46681751445377,FALSE,0.196281633804916
"CAN","cpi",0.1,2012,3,2012,NA,0.5,1.94923196138435,2.13623652900461,1.50118536134935,1.63866597060755,FALSE,1.18266367880916
"CAN","cpi",0.1,2012,3,2011,NA,1,1.59524860673892,1.78225317435917,1.50118536134935,0.848240548987433,FALSE,0.396034001819302
"CAN","cpi",0.1,2012,3,2011,NA,1.5,2.69186400707914,3.61603494057695,1.50118536134935,1.68384299188515,FALSE,3.57012347956402
"CAN","cpi",0.1,2013,3,2013,NA,0,1.05982805072126,1.07857017852116,0.931270594714462,1.03083115414128,FALSE,0.304425363370561
"CAN","cpi",0.1,2013,3,2013,NA,0.5,1.5963617818094,1.61510390960931,0.931270594714462,1.00184063196526,FALSE,1.49672254356644
"CAN","cpi",0.1,2013,3,2012,NA,1,0.986926079491857,1.00566820729176,0.931270594714462,-0.272545990872386,FALSE,0.142420982860784
"CAN","cpi",0.1,2013,3,2012,NA,1.5,2.13418207747719,2.27177318069419,0.931270594714462,0.958608804136071,FALSE,2.81072773157862
"CAN","cpi",0.1,2014,3,2014,NA,0,1.79866427542523,1.81876054390599,1.87639912240215,1.98613278510701,FALSE,0.148181998472232
"CAN","cpi",0.1,2014,3,2014,NA,0.5,2.25425468430594,2.2743509527867,1.87639912240215,1.95223885123801,FALSE,0.859775294933628
"CAN","cpi",0.1,2014,3,2013,NA,1,1.56930750858527,1.67881722517056,1.87639912240215,0.688658687283847,FALSE,0.548580599322167
"CAN","cpi",0.1,2014,3,2013,NA,1.5,2.0759502637505,2.2227782436458,1.87639912240215,0.891594199884501,FALSE,0.590274960669406
"CAN","cpi",0.1,2015,3,2015,NA,0,1.13579382965852,1.18130747907734,1.11090953952792,1.24641866377254,FALSE,0.100812071931269
"CAN","cpi",0.1,2015,3,2015,NA,0.5,1.05905856863692,1.14890337890543,1.11090953952792,0.198117162089698,TRUE,0.0898448102685112
"CAN","cpi",0.1,2015,3,2014,NA,1,1.59350943124143,1.71605155301892,1.11090953952792,0.532106072596766,FALSE,1.1949863255853
"CAN","cpi",0.1,2015,3,2014,NA,1.5,4.00510584160594,4.28647688618858,1.11090953952792,1.81035920235268,FALSE,6.7129183825338
"CAN","cpi",0.1,2016,3,2016,NA,0,1.38857593936584,1.42844777075951,1.41168586698797,1.44184957394589,TRUE,0.0398718313936692
"CAN","cpi",0.1,2016,3,2016,NA,0.5,1.3861845142622,1.52515160293911,1.41168586698797,0.843100047406122,TRUE,0.13896708867691
"CAN","cpi",0.1,2016,3,2015,NA,1,1.74099578637538,1.87996287505229,1.41168586698797,1.23484853770273,FALSE,0.870766909537827
"CAN","cpi",0.1,2016,3,2015,NA,1.5,1.88225659539464,2.14791378634378,1.41168586698797,0.107462752177283,FALSE,1.31136992074175
"CAN","cpi",0.1,2017,3,2017,NA,0,1.45561311204431,1.4841214029204,1.57888581671161,1.51739925639673,FALSE,0.239095877078781
"CAN","cpi",0.1,2017,3,2017,NA,0.5,1.86669350884013,1.96930957131302,1.57888581671161,1.88170269277887,FALSE,0.742188711647377
"CAN","cpi",0.1,2017,3,2016,NA,1,1.53409422010201,1.63671028257489,1.57888581671161,0.418338346755244,TRUE,0.102616062472884
"CAN","cpi",0.1,2017,3,2016,NA,1.5,1.94524042946645,2.19879145378773,1.57888581671161,0.52557608733729,FALSE,1.06767238599869
"CAN","cpi",0.1,2018,3,2018,NA,0,2.31649422846294,2.36290362439819,2.23316270166586,2.40611378585155,FALSE,0.231590566595431
"CAN","cpi",0.1,2018,3,2018,NA,0.5,2.84575513874379,2.95805338749956,2.23316270166586,2.62207020824204,FALSE,1.47361477559562
"CAN","cpi",0.1,2018,3,2017,NA,1,1.52429932148707,1.63659757024283,2.23316270166586,0.40411310060617,FALSE,1.43799854080694
"CAN","cpi",0.1,2018,3,2017,NA,1.5,2.46818918589511,2.68195176598273,2.23316270166586,1.53787524714926,FALSE,0.736043656152629
"CAN","cpi",0.1,2019,3,2019,NA,0,1.88010658226287,1.88343846815777,1.91921619871868,2.01142839895124,FALSE,0.0828379538080359
"CAN","cpi",0.1,2019,3,2019,NA,0.5,1.79887552663193,1.87237421502794,1.91921619871868,1.51883708040586,FALSE,0.177591985486549
"CAN","cpi",0.1,2019,3,2018,NA,1,2.09213557041484,2.16563425881085,1.91921619871868,1.41942984101848,FALSE,0.457763958831928
"CAN","cpi",0.1,2019,3,2018,NA,1.5,3.54766305319579,3.77368975577519,1.91921619871868,2.06105171090012,FALSE,3.84479749030631
"CAN","cpi",0.1,2020,3,2020,NA,0,0.400294907241625,0.444683362284836,0.71139989671781,0.726179852791075,FALSE,0.637091864894265
"CAN","cpi",0.1,2020,3,2020,NA,0.5,1.71222794933509,1.83771717898536,0.71139989671781,1.07225945048052,FALSE,2.34955156879978
"CAN","cpi",0.1,2020,3,2019,NA,1,1.55023197821871,1.67572120786898,0.71139989671781,1.01913964327806,FALSE,1.9895605218745
"CAN","cpi",0.1,2020,3,2019,NA,1.5,2.04701654472916,2.18524983781981,0.71139989671781,1.22761645350518,FALSE,3.10627028867143
"CAN","cpi",0.1,2021,3,2021,NA,0,3.19974032005116,3.25541791572288,3.31148121717802,3.30988753190892,FALSE,0.180262710016488
"CAN","cpi",0.1,2021,3,2021,NA,0.5,2.36226068966955,2.63584506969919,3.31148121717802,2.4899040786607,FALSE,1.77499804109372
"CAN","cpi",0.1,2021,3,2020,NA,1,1.44218501592128,1.71576939595092,3.31148121717802,1.1979067045331,FALSE,3.81961064942321
"CAN","cpi",0.1,2021,3,2020,NA,1.5,1.9090378282888,2.18262220831844,3.31148121717802,0.670626810990653,FALSE,2.78215995527317
"CAN","cpi",0.1,2022,3,2022,NA,0,5.79350730812404,6.01522892011849,6.50977236228281,6.54555789178856,FALSE,1.32070703902628
"CAN","cpi",0.1,2022,3,2022,NA,0.5,6.95836823227847,7.18008984427292,6.50977236228281,5.96468998606203,FALSE,1.21860132309591
"CAN","cpi",0.1,2022,3,2021,NA,1,3.98416263084779,4.20588424284224,6.50977236228281,3.42105264822981,FALSE,5.34147298852906
"CAN","cpi",0.1,2022,3,2021,NA,1.5,2.55928333308405,3.45311768225779,6.50977236228281,1.93276265883962,FALSE,7.6864003047849
"CAN","cpi",0.1,2023,3,2023,NA,0,3.89513038257014,3.90195730611868,3.78831288758619,3.97188685244318,FALSE,0.244199134623987
"CAN","cpi",0.1,2023,3,2023,NA,0.5,3.47315772366987,3.74758389708234,3.78831288758619,2.8392001035463,FALSE,0.364935041198801
"CAN","cpi",0.1,2023,3,2022,NA,1,2.45156772540044,2.72599389881291,3.78831288758619,2.86884991489758,FALSE,2.63513503735309
"CAN","cpi",0.1,2023,3,2022,NA,1.5,7.29152606443251,8.43839918598721,3.78831288758619,4.03317247515909,FALSE,8.9317912923243
"CAN","cpi",0.1,2024,3,2023,NA,1,3.25653149492367,3.30178420889913,NA,2.89946754179362,NA,NA
"CAN","cpi",0.1,2024,3,2023,NA,1.5,2.01658616654554,2.18786322360328,NA,1.17991651782151,NA,NA
"CAN","cpi",0.2,1950,3,1950,NA,0,3.41276022321824,3.41276022321824,2.59031220731124,2.24825037311262,FALSE,2.0561200397675
"CAN","cpi",0.2,1950,3,1950,NA,0.5,3.41276022321824,3.41276022321824,2.59031220731124,-0.218816875802678,FALSE,2.0561200397675
"CAN","cpi",0.2,1950,3,1949,NA,1,3.41276022321824,5.36405494762079,2.59031220731124,1.29650217702121,FALSE,4.00741476417005
"CAN","cpi",0.2,1950,3,1949,NA,1.5,3.41276022321824,5.36405494762079,2.59031220731124,0,FALSE,4.00741476417005
"CAN","cpi",0.2,1951,3,1951,NA,0,4.93588533307547,6.47287245757657,9.87945438999359,9.85678648981217,FALSE,10.0534419555437
"CAN","cpi",0.2,1951,3,1951,NA,0.5,3.86006412839898,5.39705125290009,9.87945438999359,8.53589570050804,FALSE,12.7429949672349
"CAN","cpi",0.2,1951,3,1950,NA,1,2.1644076005049,3.701394725006,9.87945438999359,4.61037950756317,FALSE,16.9821362869701
"CAN","cpi",0.2,1951,3,1950,NA,1.5,1.82181864506069,3.35880576956179,9.87945438999359,-0.898542404092984,FALSE,17.8386086755806
"CAN","cpi",0.2,1952,3,1952,NA,0,2.59031220731124,2.59031220731124,2.55562336095485,2.50792675283471,FALSE,0.0867221158909803
"CAN","cpi",0.2,1952,3,1952,NA,0.5,2.98011098004703,3.17505781298985,2.55562336095485,3.80942800622696,FALSE,1.25616588067329
"CAN","cpi",0.2,1952,3,1951,NA,1,7.41896518078477,8.30144382146968,2.55562336095485,6.36946346746546,FALSE,13.0408331902597
"CAN","cpi",0.2,1952,3,1951,NA,1.5,6.44939838226008,7.33187702294499,2.55562336095485,4.80604275648344,FALSE,10.616916193948
"CAN","cpi",0.2,1953,3,1953,NA,0,2.55562336095485,2.56256967141585,-1.01492775838436,-1.00118391953201,FALSE,8.93332410880903
"CAN","cpi",0.2,1953,3,1953,NA,0.5,2.6415540340478,2.89862276140309,-1.01492775838436,-1.88711612688489,FALSE,9.39827320843569
"CAN","cpi",0.2,1953,3,1952,NA,1,2.64155407122616,2.89862290980358,-1.01492775838436,-0.873617238258229,FALSE,9.39827341260372
"CAN","cpi",0.2,1953,3,1952,NA,1.5,2.57643754019503,3.41275953934146,-1.01492775838436,0.432272395627528,FALSE,9.81473524559491
"CAN","cpi",0.2,1954,3,1954,NA,0,-0.243288460355559,0.290499610792377,0.644425455961438,0.831821956393317,FALSE,1.41860268407059
"CAN","cpi",0.2,1954,3,1954,NA,0.5,2.29757112760432,2.83135919875226,0.644425455961438,-0.141712452464762,FALSE,4.66665225025514
"CAN","cpi",0.2,1954,3,1953,NA,1,2.29940297354614,2.83319104469408,0.644425455961438,2.12291681679911,FALSE,4.6712318651097
"CAN","cpi",0.2,1954,3,1953,NA,1.5,2.30607374726064,2.83986181840858,0.644425455961438,-1.28741438714058,FALSE,4.68790879939595
"CAN","cpi",0.2,1955,3,1955,NA,0,-1.00905443923216,-0.457891946931528,0.173649026558865,0.10295813188439,FALSE,2.13001492602662
"CAN","cpi",0.2,1955,3,1955,NA,0.5,0.357980675116505,2.01890893967814,0.173649026558865,-0.548848324097393,FALSE,2.12175738595573
"CAN","cpi",0.2,1955,3,1954,NA,1,0.625527256741527,2.28645552130316,0.173649026558865,2.19101630104756,FALSE,2.79062384001829
"CAN","cpi",0.2,1955,3,1954,NA,1.5,1.74251312711005,3.40344139167168,0.173649026558865,-0.815294949881493,FALSE,5.58308851593959
"CAN","cpi",0.2,1956,3,1956,NA,0,0.572876356823264,0.984875100511923,1.32752769429961,1.46434436590257,FALSE,1.26863022815787
"CAN","cpi",0.2,1956,3,1956,NA,0.5,-0.486381942816711,-0.0743831991280521,1.32752769429961,-0.485738076612692,FALSE,3.91677597725781
"CAN","cpi",0.2,1956,3,1955,NA,1,-0.69312848957286,0.25905784940264,1.32752769429961,0.557995939500226,FALSE,3.62336095121792
"CAN","cpi",0.2,1956,3,1955,NA,1.5,0.366926505003004,2.57643137118544,1.32752769429961,-0.793756041684752,TRUE,2.20950486618244
"CAN","cpi",0.2,1957,3,1957,NA,0,2.900397175243,3.07286502327685,3.24684755852518,3.35523637829212,FALSE,0.607424186154661
"CAN","cpi",0.2,1957,3,1957,NA,0.5,2.22303621648071,2.58208109563143,3.24684755852518,2.12793087018929,FALSE,2.02096103638508
"CAN","cpi",0.2,1957,3,1956,NA,1,2.61447764070976,3.66044097724819,3.24684755852518,4.42886834530761,TRUE,1.04596333653844
"CAN","cpi",0.2,1957,3,1956,NA,1.5,0.534974806862434,1.58093814340087,3.24684755852518,-0.785064469253982,FALSE,5.2107368743492
"CAN","cpi",0.2,1958,3,1958,NA,0,2.51836238297582,3.33533432032809,2.33186388641149,2.20013349321115,FALSE,1.28321817876309
"CAN","cpi",0.2,1958,3,1958,NA,0.5,2.31989363155196,3.13686556890422,2.33186388641149,2.0126030377883,TRUE,0.816971937352267
"CAN","cpi",0.2,1958,3,1957,NA,1,1.30793092910407,2.15422327190013,2.33186388641149,2.83859761398538,FALSE,1.29039387907447
"CAN","cpi",0.2,1958,3,1957,NA,1.5,2.14986199747755,2.99615434027361,2.33186388641149,0.366312073207214,TRUE,0.846292342796058
"CAN","cpi",0.2,1959,3,1959,NA,0,0.607044260505845,0.844668888837214,1.19382698397654,1.18954599151176,FALSE,1.11051986617969
"CAN","cpi",0.2,1959,3,1959,NA,0.5,1.69080639734377,2.16537160604887,1.19382698397654,0.545308327160925,FALSE,1.71701374212318
"CAN","cpi",0.2,1959,3,1958,NA,1,0.455012695755226,0.929577904460322,1.19382698397654,1.13295114249046,FALSE,1.13518790749564
"CAN","cpi",0.2,1959,3,1958,NA,1.5,2.2400074520846,2.7145726607897,1.19382698397654,0.717422088079289,FALSE,3.09001637897525
"CAN","cpi",0.2,1960,3,1960,NA,0,0.582390033564819,0.781329613937764,1.34209404870695,1.02361304259477,FALSE,1.60085066729591
"CAN","cpi",0.2,1960,3,1960,NA,0.5,1.11437877367005,1.313318354043,1.34209404870695,0.648611007713657,FALSE,0.270878817032836
"CAN","cpi",0.2,1960,3,1959,NA,1,1.08604214275305,1.78296058209977,1.34209404870695,2.37666873185636,TRUE,0.696918439346715
"CAN","cpi",0.2,1960,3,1959,NA,1.5,1.72930578109559,2.56333205926311,1.34209404870695,-0.349092179567277,FALSE,1.80205560913912
"CAN","cpi",0.2,1961,3,1961,NA,0,1.03047495562187,1.24812428214395,1.00921348094007,1.00921348094007,FALSE,0.270803013226574
"CAN","cpi",0.2,1961,3,1961,NA,0.5,1.15018303288224,1.57806731081547,1.00921348094007,1.00921348094007,FALSE,0.780308157788653
"CAN","cpi",0.2,1961,3,1960,NA,1,-0.561615966915382,0.58692701761989,1.00921348094007,0.0537704626035329,FALSE,2.20425914283573
"CAN","cpi",0.2,1961,3,1960,NA,1.5,1.31912713347461,2.46767011800988,1.00921348094007,-0.332316386156399,FALSE,1.92332711587162
"CAN","cpi",0.2,1962,3,1962,NA,0,1.15690645718465,1.27410938539944,1.04957947883042,1.0653801125483,FALSE,0.38552037410038
"CAN","cpi",0.2,1962,3,1962,NA,0.5,1.10176173638475,1.25534415222848,1.04957947883042,0,FALSE,0.284038059729571
"CAN","cpi",0.2,1962,3,1961,NA,1,0.641994499381699,0.795576915225428,1.04957947883042,0,FALSE,0.788588824856198
"CAN","cpi",0.2,1962,3,1961,NA,1.5,1.34209079260437,2.3322023169042,1.04957947883042,0,FALSE,1.72138980873472
"CAN","cpi",0.2,1963,3,1963,NA,0,1.85432108027685,2.48934972516925,1.60677118395228,1.83024954277348,FALSE,1.25390338570383
"CAN","cpi",0.2,1963,3,1963,NA,0.5,0.882018547107888,1.51704719200029,1.60677118395228,0.836828714617504,FALSE,0.859338624772392
"CAN","cpi",0.2,1963,3,1962,NA,1,0.804188980517219,1.43921762540962,1.60677118395228,1.60935100695326,FALSE,1.05391254124906
"CAN","cpi",0.2,1963,3,1962,NA,1.5,1.19385634843791,1.93599639805633,1.60677118395228,0,TRUE,0.742140049618418
"CAN","cpi",0.2,1964,3,1964,NA,0,1.49400914235515,1.57725303590304,1.88764670034376,1.95194648443024,FALSE,0.859228054649686
"CAN","cpi",0.2,1964,3,1964,NA,0.5,1.37375432110929,1.57485686008502,1.88764670034376,1.27307816843398,FALSE,0.983077139622577
"CAN","cpi",0.2,1964,3,1963,NA,1,1.77752287156246,2.13544246698459,1.88764670034376,3.20172332637508,TRUE,0.35791959542213
"CAN","cpi",0.2,1964,3,1963,NA,1.5,1.2440727856509,1.60199238107303,1.88764670034376,0,FALSE,1.07205539359894
"CAN","cpi",0.2,1965,3,1965,NA,0,3.20210090109155,3.98835003350385,2.29538304394236,2.29800189469823,FALSE,3.05304377528528
"CAN","cpi",0.2,1965,3,1965,NA,0.5,1.22935703976652,2.01560617217883,2.29538304394236,1.39443218256826,FALSE,1.48569131182112
"CAN","cpi",0.2,1965,3,1964,NA,1,0.81945209605757,1.60570122846988,2.29538304394236,1.48078368039448,FALSE,2.51045367109351
"CAN","cpi",0.2,1965,3,1964,NA,1.5,1.45769519951345,2.24394433192576,2.29538304394236,0.293257399533461,FALSE,0.914845912453795
"CAN","cpi",0.2,1966,3,1966,NA,0,3.14674519841541,3.29384369082549,3.72486065470629,3.77511268244847,FALSE,1.22464090211208
"CAN","cpi",0.2,1966,3,1966,NA,0.5,3.5213663564267,4.56522659367594,3.72486065470629,3.37743719728421,TRUE,1.04386023724924
"CAN","cpi",0.2,1966,3,1965,NA,1,0.976546556562277,2.02040679381152,3.72486065470629,1.98486973144544,FALSE,5.30499488948617
"CAN","cpi",0.2,1966,3,1965,NA,1.5,1.56958787682208,2.61344811407132,3.72486065470629,0.578640834001038,FALSE,3.82239158883666
"CAN","cpi",0.2,1967,3,1967,NA,0,6.10554085774776,7.77273737824973,3.49360316391996,3.68375770714608,FALSE,8.19704075507147
"CAN","cpi",0.2,1967,3,1967,NA,0.5,4.03940034460344,5.70659686510542,3.49360316391996,2.11054708048259,FALSE,3.03168947221068
"CAN","cpi",0.2,1967,3,1966,NA,1,0.799805350411542,2.46700187091352,3.49360316391996,2.02003307533501,FALSE,4.23369975301807
"CAN","cpi",0.2,1967,3,1966,NA,1.5,1.57181529751896,3.23901181802094,3.49360316391996,1.71558536379673,FALSE,2.30367488524952
"CAN","cpi",0.2,1968,3,1968,NA,0,3.59098160008879,3.63968185765507,3.95128347779386,4.07085717819357,FALSE,0.827704307913248
"CAN","cpi",0.2,1968,3,1968,NA,0.5,3.74738564985805,4.99827144045439,3.95128347779386,3.50732233276501,TRUE,1.25088579059633
"CAN","cpi",0.2,1968,3,1967,NA,1,1.89670147092823,3.14758726152457,3.95128347779386,3.66303679301692,FALSE,3.26012633126956
"CAN","cpi",0.2,1968,3,1967,NA,1.5,2.17171245519214,3.42259824578847,3.95128347779386,0.834881519045053,FALSE,2.5725988706098
"CAN","cpi",0.2,1969,3,1969,NA,0,3.82330924718032,3.87254468102108,4.42679496126681,4.52532640008253,FALSE,1.4348611344551
"CAN","cpi",0.2,1969,3,1969,NA,0.5,3.28303409530874,3.38032611885977,4.42679496126681,2.69090620784681,FALSE,2.71346412956864
"CAN","cpi",0.2,1969,3,1968,NA,1,3.20796239255303,3.63213569769065,4.42679496126681,4.0779393276339,FALSE,2.41082146407803
"CAN","cpi",0.2,1969,3,1968,NA,1.5,3.17515163405024,3.59932493918785,4.42679496126681,1.61221871335458,FALSE,2.49284836033502
"CAN","cpi",0.2,1970,3,1970,NA,0,3.42278401330129,3.52373772716988,3.28128405769805,3.55878605435979,FALSE,0.454703602876697
"CAN","cpi",0.2,1970,3,1970,NA,0.5,3.53760082829376,3.80033419309239,3.28128405769805,3.74969277403504,FALSE,0.903525291287917
"CAN","cpi",0.2,1970,3,1969,NA,1,1.63914472509518,2.42553833711508,3.28128405769805,3.11186608282608,FALSE,2.92575791347731
"CAN","cpi",0.2,1970,3,1969,NA,1.5,2.60577516480165,3.53304514098096,3.28128405769805,0.764941977259638,TRUE,0.927269976179314
"CAN","cpi",0.2,1971,3,1971,NA,0,2.53355892923458,2.58694983002241,2.64123406634756,2.81514553288871,FALSE,0.189101491600702
"CAN","cpi",0.2,1971,3,1971,NA,0.5,1.471796784153,1.67721610265866,2.64123406634756,1.11673730766521,FALSE,2.61546422772792
"CAN","cpi",0.2,1971,3,1970,NA,1,1.62440324701758,2.05154547288906,2.64123406634756,1.92043450460395,FALSE,1.90136370951773
"CAN","cpi",0.2,1971,3,1970,NA,1.5,3.23961409055548,3.66675631642696,2.64123406634756,1.70194075200601,FALSE,1.92309228639128
"CAN","cpi",0.2,1972,3,1972,NA,0,4.16256386254245,4.26822730410077,4.83230569625923,5.04828762155974,FALSE,1.51585942195447
"CAN","cpi",0.2,1972,3,1972,NA,0.5,3.35425499144048,3.68609808667967,4.83230569625923,4.09602385359717,FALSE,3.19736211918809
"CAN","cpi",0.2,1972,3,1971,NA,1,3.25623359371953,4.04658016582204,4.83230569625923,4.16812111633716,FALSE,2.75466039819548
"CAN","cpi",0.2,1972,3,1971,NA,1.5,2.0507824960828,3.34639560316148,4.83230569625923,0.692030005351089,FALSE,5.01038833982305
"CAN","cpi",0.2,1973,3,1973,NA,0,4.99451337790334,5.64205308008806,7.12388603531779,7.25096132226983,FALSE,4.35212209025904
"CAN","cpi",0.2,1973,3,1973,NA,0.5,4.38257581406463,5.03011551624936,7.12388603531779,5.30446017290082,FALSE,5.88196599985581
"CAN","cpi",0.2,1973,3,1972,NA,1,4.44520542189668,5.88699355961934,7.12388603531779,4.92276035792265,FALSE,4.53401932696878
"CAN","cpi",0.2,1973,3,1972,NA,1.5,2.66654768990864,4.1083358276313,7.12388603531779,1.79187879074203,FALSE,8.98066365693888
"CAN","cpi",0.2,1974,3,1974,NA,0,8.33005978556933,8.93328676942997,10.2717243737774,10.148911210151,FALSE,3.94932099472927
"CAN","cpi",0.2,1974,3,1974,NA,0.5,8.66523412482019,10.1686901074709,10.2717243737774,7.90446289245049,FALSE,1.76104164841705
"CAN","cpi",0.2,1974,3,1973,NA,1,5.79716577670609,9.18510031686943,10.2717243737774,7.30476096756609,FALSE,6.10449468243332
"CAN","cpi",0.2,1974,3,1973,NA,1.5,2.02132601132822,5.40926055149156,10.2717243737774,2.5663290958369,FALSE,15.544094095878
"CAN","cpi",0.2,1975,3,1975,NA,0,10.0379761567647,10.1172571412585,10.0232981493341,10.1746571103793,FALSE,0.115976003070339
"CAN","cpi",0.2,1975,3,1975,NA,0.5,9.32810864867822,10.5375658774419,10.0232981493341,8.07152306914465,TRUE,1.20945722876363
"CAN","cpi",0.2,1975,3,1974,NA,1,7.22425723212768,9.4609644781469,10.0232981493341,7.8187778356914,FALSE,3.64254142398728
"CAN","cpi",0.2,1975,3,1974,NA,1.5,3.65768476668409,5.8943920127033,10.0232981493341,3.64914274700436,FALSE,12.5589725875963
"CAN","cpi",0.2,1976,3,1976,NA,0,5.71161488963991,6.1840251576145,7.22784311401172,7.18995143043805,FALSE,3.08195515896763
"CAN","cpi",0.2,1976,3,1976,NA,0.5,6.82346011617336,8.69732523843643,7.22784311401172,6.61333364285308,TRUE,1.87386512226307
"CAN","cpi",0.2,1976,3,1975,NA,1,8.38926535029459,10.2631304725577,7.22784311401172,8.584971075903,FALSE,4.77742071297027
"CAN","cpi",0.2,1976,3,1975,NA,1.5,3.84461572785291,9.93699066057338,7.22784311401172,3.14738569995591,TRUE,6.09237493272046
"CAN","cpi",0.2,1977,3,1977,NA,0,6.83343764322681,7.05810541213919,7.58101410153764,7.50176944503946,FALSE,1.53193949240851
"CAN","cpi",0.2,1977,3,1977,NA,0.5,7.05387831548303,7.27854608439541,7.58101410153764,6.40571638826874,FALSE,0.980837811767969
"CAN","cpi",0.2,1977,3,1976,NA,1,3.90238705883371,4.22697512332075,7.58101410153764,4.04909286077014,FALSE,8.70968551002928
"CAN","cpi",0.2,1977,3,1976,NA,1.5,7.1241227773251,9.76502423502312,7.58101410153764,2.59432747727492,TRUE,2.64090145769802
"CAN","cpi",0.2,1978,3,1978,NA,0,7.4911690544114,7.89747438724183,8.50208927062595,8.59104847384149,FALSE,1.91784254129071
"CAN","cpi",0.2,1978,3,1978,NA,0.5,7.58518098406173,9.52736401543342,8.50208927062595,7.34113908733495,TRUE,1.94218303137169
"CAN","cpi",0.2,1978,3,1977,NA,1,4.60441894077118,6.54660197214287,8.50208927062595,5.87902868518151,FALSE,6.83090127757938
"CAN","cpi",0.2,1978,3,1977,NA,1.5,7.02104812484281,8.9632311562145,8.50208927062595,3.89293485842214,TRUE,1.94218303137169
"CAN","cpi",0.2,1979,3,1979,NA,0,8.42470278531429,8.79700009156762,8.65147652410481,8.48651410143776,TRUE,0.37229730625333
"CAN","cpi",0.2,1979,3,1979,NA,0.5,7.98218119401616,8.35447850026949,8.65147652410481,7.46186747064873,FALSE,1.11479236584163
"CAN","cpi",0.2,1979,3,1978,NA,1,7.47185074518741,9.65499407342798,8.65147652410481,6.93686058379669,TRUE,2.18314332824056
"CAN","cpi",0.2,1979,3,1978,NA,1.5,6.83875840816992,9.02190173641048,8.65147652410481,3.9179710204728,TRUE,2.18314332824056
"CAN","cpi",0.2,1980,3,1980,NA,0,8.84814089811053,9.07673719374421,9.5171912664748,9.43711128155219,FALSE,1.32973147746014
"CAN","cpi",0.2,1980,3,1980,NA,0.5,9.83054802461964,10.0591443202533,9.5171912664748,7.89144076485851,FALSE,1.01198819099579
"CAN","cpi",0.2,1980,3,1979,NA,1,6.11490670547823,7.68477044831796,9.5171912664748,5.69387794711803,FALSE,6.15091578823182
"CAN","cpi",0.2,1980,3,1979,NA,1.5,7.25662965711331,8.82649339995304,9.5171912664748,4.27199048256738,FALSE,3.29660840914413
"CAN","cpi",0.2,1981,3,1981,NA,0,10.1422265308725,10.646162295994,11.5813425032741,11.617538759154,FALSE,2.84188628332192
"CAN","cpi",0.2,1981,3,1981,NA,0.5,10.3996133401483,11.0211345493752,11.5813425032741,11.3038259100907,FALSE,2.02204109397435
"CAN","cpi",0.2,1981,3,1980,NA,1,9.45948281466021,10.0810040238871,11.5813425032741,8.22922472590444,FALSE,4.37236740769448
"CAN","cpi",0.2,1981,3,1980,NA,1.5,7.73754314605552,8.5917217287767,11.5813425032741,4.54818367546621,FALSE,8.32823051896478
"CAN","cpi",0.2,1982,3,1982,NA,0,8.50418425028809,9.45897486849282,10.1124203763629,10.1863972123348,FALSE,2.58840438788005
"CAN","cpi",0.2,1982,3,1982,NA,0.5,9.59993750759375,10.5547281257985,10.1124203763629,9.38011590167964,TRUE,0.954790618204733
"CAN","cpi",0.2,1982,3,1981,NA,1,9.73733351852923,10.692124136734,10.1124203763629,8.92774959502704,TRUE,0.954790618204733
"CAN","cpi",0.2,1982,3,1981,NA,1.5,8.502012181939,9.62397103799459,10.1124203763629,7.65688060941457,FALSE,2.34308220197649
"CAN","cpi",0.2,1983,3,1983,NA,0,4.40475863798131,4.74497424685617,5.67091787896303,5.79231449937116,FALSE,2.65507468914203
"CAN","cpi",0.2,1983,3,1983,NA,0.5,3.90985049913982,4.58790290660924,5.67091787896303,4.48935486750539,FALSE,3.38558983835391
"CAN","cpi",0.2,1983,3,1982,NA,1,7.33390713837548,8.41530809948957,5.67091787896303,6.68360843662591,FALSE,5.23887410964521
"CAN","cpi",0.2,1983,3,1982,NA,1.5,8.29579134703963,9.37719230815372,5.67091787896303,5.80492936344428,FALSE,7.64358463130558
"CAN","cpi",0.2,1984,3,1984,NA,0,3.8464472638258,3.90730108610937,4.19799576814029,4.1863442377944,FALSE,0.78759052736086
"CAN","cpi",0.2,1984,3,1984,NA,0.5,4.95953342810427,5.1977485421723,4.19799576814029,4.37368919035215,FALSE,2.14205926397798
"CAN","cpi",0.2,1984,3,1983,NA,1,6.46246760074631,7.83784046638447,4.19799576814029,4.8252398586334,FALSE,7.03655244715322
"CAN","cpi",0.2,1984,3,1983,NA,1.5,2.96520926969739,4.34058213533555,4.19799576814029,1.63651850095104,TRUE,1.37537286563816
"CAN","cpi",0.2,1985,3,1985,NA,0,3.54937353272759,3.68356243756441,3.86444262005169,3.87488963413478,FALSE,0.586389361055025
"CAN","cpi",0.2,1985,3,1985,NA,0.5,3.33388238694852,3.63235951668433,3.86444262005169,3.66954460168274,FALSE,0.878684888154227
"CAN","cpi",0.2,1985,3,1984,NA,1,1.85859530137841,2.78725591275402,3.86444262005169,2.51760914226531,FALSE,3.62162737961979
"CAN","cpi",0.2,1985,3,1984,NA,1.5,7.39870283903696,8.3382750099931,3.86444262005169,2.74468923002786,FALSE,9.7752227184193
"CAN","cpi",0.2,1986,3,1986,NA,0,3.83367783717299,3.88814475928064,4.08685396749431,4.09009381020777,FALSE,0.551239942641824
"CAN","cpi",0.2,1986,3,1986,NA,0.5,3.87152055623542,4.50596833909156,4.08685396749431,4.18867743652029,TRUE,0.634447782856142
"CAN","cpi",0.2,1986,3,1985,NA,1,2.45044066227433,3.08488844513047,4.08685396749431,2.96346536694636,FALSE,3.13936158876574
"CAN","cpi",0.2,1986,3,1985,NA,1.5,7.16414856468005,7.79859634753619,4.08685396749431,2.65645514502224,FALSE,8.32768427582048
"CAN","cpi",0.2,1987,3,1987,NA,0,4.10254009708278,4.17824536915376,4.23980729277887,4.30382748919395,FALSE,0.229610081133766
"CAN","cpi",0.2,1987,3,1987,NA,0.5,3.56919485287409,3.71440807729325,4.23980729277887,3.60745044359556,FALSE,1.45871126313321
"CAN","cpi",0.2,1987,3,1986,NA,1,3.81929504994494,3.96450827436411,4.23980729277887,3.48954394276064,FALSE,0.833460770456079
"CAN","cpi",0.2,1987,3,1986,NA,1.5,7.10936521243872,7.25457843685789,4.23980729277887,3.05061614822702,FALSE,7.31910802356879
"CAN","cpi",0.2,1988,3,1988,NA,0,3.82984612651422,3.87716770151537,3.92899537638065,3.96651200874969,FALSE,0.176890762164368
"CAN","cpi",0.2,1988,3,1988,NA,0.5,3.56256886574434,3.7473917817955,3.92899537638065,3.27588434563216,FALSE,0.638831902514043
"CAN","cpi",0.2,1988,3,1987,NA,1,3.82647204412205,4.01129496017322,3.92899537638065,3.36557853238272,TRUE,0.184822916051166
"CAN","cpi",0.2,1988,3,1987,NA,1.5,4.08688610747983,6.28033991100493,3.92899537638065,2.22890665988493,FALSE,2.58818063127304
"CAN","cpi",0.2,1989,3,1989,NA,0,4.54142710935799,4.63875677385374,4.82821664544208,4.96224122245117,FALSE,0.570979343466597
"CAN","cpi",0.2,1989,3,1989,NA,0.5,3.87354849705737,4.08523466178139,4.82821664544208,4.15246181762677,FALSE,2.06914112387574
"CAN","cpi",0.2,1989,3,1988,NA,1,3.79204826295885,4.00373442768286,4.82821664544208,3.35061776773985,FALSE,2.27289170912205
"CAN","cpi",0.2,1989,3,1988,NA,1.5,3.92130547053112,4.68552215818272,4.82821664544208,2.03293210635829,FALSE,1.1209529058
"CAN","cpi",0.2,1990,3,1990,NA,0,4.29428968556941,4.33862375009265,4.64347549432717,4.49116732458404,FALSE,0.806463425109544
"CAN","cpi",0.2,1990,3,1990,NA,0.5,4.7179881950176,5.50556587316484,4.64347549432717,4.80635133900141,FALSE,0.973859429873309
"CAN","cpi",0.2,1990,3,1989,NA,1,4.3322271759073,5.11980485405454,4.64347549432717,4.45332930526201,TRUE,0.787577678147246
"CAN","cpi",0.2,1990,3,1989,NA,1.5,4.3215175886827,5.24290029315632,4.64347549432717,2.93994143296931,TRUE,0.921382704473618
"CAN","cpi",0.2,1991,3,1991,NA,0,5.02450094366285,5.18173879505891,5.4258100696218,5.5966415351231,FALSE,0.767416037803284
"CAN","cpi",0.2,1991,3,1991,NA,0.5,9.87275119480821,10.0299890462043,5.4258100696218,8.0424604401558,FALSE,11.2745906643621
"CAN","cpi",0.2,1991,3,1990,NA,1,2.73698077720192,3.38890867371554,5.4258100696218,3.00766385389873,FALSE,5.74418138627926
"CAN","cpi",0.2,1991,3,1990,NA,1.5,6.20735181084128,7.70435165783775,5.4258100696218,3.42461322750937,FALSE,3.45085420004518
"CAN","cpi",0.2,1992,3,1992,NA,0,1.264487815142,1.30051095194947,1.47496888572843,1.46118300949616,FALSE,0.472167971254875
"CAN","cpi",0.2,1992,3,1992,NA,0.5,1.71176131843265,2.13230681179333,1.47496888572843,1.2379681755847,FALSE,1.01252657512122
"CAN","cpi",0.2,1992,3,1991,NA,1,1.83108764362036,2.48985019100045,1.47496888572843,1.8723365291461,FALSE,1.54905944210991
"CAN","cpi",0.2,1992,3,1991,NA,1.5,9.43872252636346,10.0974850737436,1.47496888572843,6.89933696838937,FALSE,20.5681466489677
"CAN","cpi",0.2,1993,3,1993,NA,0,1.87489313502109,2.09801601395825,1.84351085411351,1.80220567555903,FALSE,0.301578581206113
"CAN","cpi",0.2,1993,3,1993,NA,0.5,3.1922160851747,3.41533896411186,1.84351085411351,2.21818498229346,FALSE,3.59488595659013
"CAN","cpi",0.2,1993,3,1992,NA,1,1.57349903933766,1.79662191827483,1.84351085411351,1.3520429918812,FALSE,0.340345218533878
"CAN","cpi",0.2,1993,3,1992,NA,1.5,3.76912222228784,3.992245101225,1.84351085411351,0.933485487336859,FALSE,5.03715129937299
"CAN","cpi",0.2,1994,3,1994,NA,0,-0.42717717185625,-0.227448154897266,0.161630694655448,0.202109657487191,FALSE,1.17242614084077
"CAN","cpi",0.2,1994,3,1994,NA,0.5,-0.531491590999902,-0.331762574040918,0.161630694655448,-0.572639707462777,FALSE,1.4332121886999
"CAN","cpi",0.2,1994,3,1993,NA,1,1.08540932561365,1.28513834257264,0.161630694655448,1.14110533076836,FALSE,2.5091755943545
"CAN","cpi",0.2,1994,3,1993,NA,1.5,3.59356383236342,4.05331180702505,0.161630694655448,1.65023462295923,FALSE,9.03958081893156
"CAN","cpi",0.2,1995,3,1995,NA,0,2.18422382721803,2.36712865760116,2.11688403676572,2.14851249512314,FALSE,0.351254306513913
"CAN","cpi",0.2,1995,3,1995,NA,0.5,3.38584780235682,3.68939720087692,2.11688403676572,2.60072443309243,FALSE,3.47595881249786
"CAN","cpi",0.2,1995,3,1994,NA,1,1.55475677866154,1.85830617718164,2.11688403676572,1.43373972642191,FALSE,0.949994047480285
"CAN","cpi",0.2,1995,3,1994,NA,1.5,0.14465513636223,0.44820453488233,2.11688403676572,-1.26611333424577,FALSE,4.47524815322856
"CAN","cpi",0.2,1996,3,1996,NA,0,1.29370919529015,1.40794348253225,1.55309584667184,1.43665270425039,FALSE,0.477115197591088
"CAN","cpi",0.2,1996,3,1996,NA,0.5,1.51047649602502,1.87877063800817,1.55309584667184,1.23276330365037,TRUE,0.368294141983156
"CAN","cpi",0.2,1996,3,1995,NA,1,0.917369320188504,1.28566346217166,1.55309584667184,0.729753259393914,FALSE,1.03687510323361
"CAN","cpi",0.2,1996,3,1995,NA,1.5,4.05389394509741,4.71901520849374,1.55309584667184,2.31904839186543,FALSE,6.91711650946024
"CAN","cpi",0.2,1997,3,1997,NA,0,1.55933413463739,1.59304089665753,1.60528783555959,1.67949478723595,FALSE,0.0643241092753005
"CAN","cpi",0.2,1997,3,1997,NA,0.5,2.22582016735121,2.38829223535042,1.60528783555959,1.93291992098407,FALSE,1.71380289747825
"CAN","cpi",0.2,1997,3,1996,NA,1,1.11170233487287,1.27417440287208,1.60528783555959,0.614630451620954,FALSE,0.990255649717988
"CAN","cpi",0.2,1997,3,1996,NA,1.5,3.18759836668103,3.89329050848018,1.60528783555959,0.962161564198873,FALSE,4.66146846960274
"CAN","cpi",0.2,1998,3,1998,NA,0,0.842375042519019,0.926386914841983,0.988908029337191,0.967063680387792,FALSE,0.240314658560984
"CAN","cpi",0.2,1998,3,1998,NA,0.5,1.86398123667555,1.94799310899851,0.988908029337191,1.34897459866337,FALSE,2.27169489066885
"CAN","cpi",0.2,1998,3,1997,NA,1,1.19382520890876,1.42642625625981,0.988908029337191,0.792689959246129,FALSE,0.744893996279971
"CAN","cpi",0.2,1998,3,1997,NA,1.5,2.75696108167709,3.63772072012266,0.988908029337191,1.28384000376946,FALSE,5.30089226929532
"CAN","cpi",0.2,1999,3,1999,NA,0,1.6058046119181,1.60662171513092,1.7107350135213,1.76864633894604,FALSE,0.261100349188772
"CAN","cpi",0.2,1999,3,1999,NA,0.5,1.36339500414095,1.4389861932136,1.7107350135213,0.732099710600531,FALSE,0.754963239841886
"CAN","cpi",0.2,1999,3,1998,NA,1,1.0037185298515,1.07930971892416,1.7107350135213,0.369052571959629,FALSE,1.6541544255655
"CAN","cpi",0.2,1999,3,1998,NA,1.5,1.86456442330043,3.31298778856237,1.7107350135213,1.26847007023129,FALSE,1.83299688970978
"CAN","cpi",0.2,2000,3,2000,NA,0,2.5930686690924,2.6091784145306,2.6718361971244,2.70257810674034,FALSE,0.172754201922704
"CAN","cpi",0.2,2000,3,2000,NA,0.5,1.79616470640292,2.21684941293112,2.6718361971244,1.95948305880876,FALSE,1.55815166701139
"CAN","cpi",0.2,2000,3,1999,NA,1,1.87932170764093,3.09052295277639,2.6718361971244,2.16154661985999,TRUE,1.21120124513546
"CAN","cpi",0.2,2000,3,1999,NA,1.5,1.5180325327221,2.72923377785756,2.6718361971244,0.50278387806376,TRUE,1.21120124513546
"CAN","cpi",0.2,2001,3,2001,NA,0,2.57197381680969,2.79604521599382,2.47906219852806,2.73154549386087,FALSE,0.456350444888196
"CAN","cpi",0.2,2001,3,2001,NA,0.5,1.48196041370583,2.17707809578829,2.47906219852806,1.65861828263926,FALSE,1.45007793893189
"CAN","cpi",0.2,2001,3,2000,NA,1,2.55789817149366,3.71303833160649,2.47906219852806,2.84133895788986,FALSE,1.35223009252681
"CAN","cpi",0.2,2001,3,2000,NA,1.5,1.80096266342901,2.95610282354184,2.47906219852806,1.14191354447969,TRUE,1.15514016011283
"CAN","cpi",0.2,2002,3,2002,NA,0,2.32396741545402,2.51966606782495,2.20880570551249,2.31282527465204,FALSE,0.483602927224762
"CAN","cpi",0.2,2002,3,2002,NA,0.5,1.49367076810161,1.68936942047253,2.20880570551249,1.24731948634093,FALSE,1.4942893649708
"CAN","cpi",0.2,2002,3,2001,NA,1,1.15690374802138,1.38428787185948,2.20880570551249,0.695491540886875,FALSE,2.28867870797062
"CAN","cpi",0.2,2002,3,2001,NA,1.5,2.09272105532464,2.45452095303609,2.20880570551249,0.47606161882134,TRUE,0.361799897711453
"CAN","cpi",0.2,2003,3,2003,NA,0,2.59663423043499,2.63008289777604,2.71189071546809,2.75460397277825,FALSE,0.237968211571163
"CAN","cpi",0.2,2003,3,2003,NA,0.5,4.18944838996521,4.54591686967151,2.71189071546809,4.16096970792426,FALSE,4.0503626659491
"CAN","cpi",0.2,2003,3,2002,NA,1,3.84975914403596,4.20622762374226,2.71189071546809,3.27791908188471,FALSE,3.20113955112597
"CAN","cpi",0.2,2003,3,2002,NA,1.5,2.59287689517257,3.40851845151764,2.71189071546809,1.51830012756901,TRUE,0.815641556345071
"CAN","cpi",0.2,2004,3,2004,NA,0,1.62666658626097,1.69099349648415,1.83151661303942,1.76153103901938,FALSE,0.415634701611367
"CAN","cpi",0.2,2004,3,2004,NA,0.5,2.19729937210132,2.26162628232449,1.83151661303942,1.38945604480572,FALSE,0.978783807877913
"CAN","cpi",0.2,2004,3,2003,NA,1,1.25002135963482,1.5108825963994,1.83151661303942,1.01874619159597,FALSE,1.06244627836463
"CAN","cpi",0.2,2004,3,2003,NA,1.5,4.21727838230416,4.64391372992238,1.83151661303942,2.99105359104411,FALSE,6.39103977078006
"CAN","cpi",0.2,2005,3,2005,NA,0,2.32957047513007,2.43873524784025,2.18071628336509,2.35062481142317,FALSE,0.481300252122624
"CAN","cpi",0.2,2005,3,2005,NA,0.5,2.18591478935699,2.29507956206717,2.18071628336509,1.4552837212303,FALSE,0.122161037689929
"CAN","cpi",0.2,2005,3,2004,NA,1,1.3906044801876,1.57398583240393,2.18071628336509,0.79648671202377,FALSE,1.70020747961923
"CAN","cpi",0.2,2005,3,2004,NA,1.5,2.15444982906553,2.67233255821736,2.18071628336509,1.13680951350797,TRUE,0.517882729151825
"CAN","cpi",0.2,2006,3,2006,NA,0,1.88200864177977,2.08829945159278,1.97519342012289,2.06448042324351,TRUE,0.206290809813007
"CAN","cpi",0.2,2006,3,2006,NA,0.5,2.19422607571251,2.40051688552552,1.97519342012289,1.77073314120205,FALSE,0.753872448787078
"CAN","cpi",0.2,2006,3,2005,NA,1,2.32648517297986,2.65349024104514,1.97519342012289,2.58808204718941,FALSE,1.20523445020772
"CAN","cpi",0.2,2006,3,2005,NA,1.5,2.16748852688062,2.65084856986381,1.97519342012289,0.762075268916728,FALSE,0.964097809877519
"CAN","cpi",0.2,2007,3,2007,NA,0,1.91327420257342,2.11711448770818,2.10062087284572,2.10807340507977,TRUE,0.20384028513476
"CAN","cpi",0.2,2007,3,2007,NA,0.5,2.39662771836465,2.768214186254,2.10062087284572,2.09760271424675,FALSE,1.11160358168667
"CAN","cpi",0.2,2007,3,2006,NA,1,1.24052427022345,1.6121107381128,2.10062087284572,0.438862458623872,FALSE,1.59286180472165
"CAN","cpi",0.2,2007,3,2006,NA,1.5,2.01299513083136,2.57943051249507,2.10062087284572,1.08089197775225,TRUE,0.566435381663711
"CAN","cpi",0.2,2008,3,2008,NA,0,2.67061998472072,2.6764439328922,2.31447335265955,2.9146675338117,FALSE,0.896190528324411
"CAN","cpi",0.2,2008,3,2008,NA,0.5,1.52708028571414,1.58530105267157,2.31447335265955,1.04562745221765,FALSE,1.88115151692739
"CAN","cpi",0.2,2008,3,2007,NA,1,1.39550168211378,1.6381081710608,2.31447335265955,0.365030180386173,FALSE,1.93351944294389
"CAN","cpi",0.2,2008,3,2007,NA,1.5,3.89672159345989,4.48210994885112,2.31447335265955,2.04107389452134,FALSE,4.54100895739207
"CAN","cpi",0.2,2009,3,2009,NA,0,0.0443850250380731,0.165848717225004,0.284533874408197,0.272618836216429,FALSE,0.418176585144914
"CAN","cpi",0.2,2009,3,2009,NA,0.5,-0.698151480970419,-0.41155332727653,0.284533874408197,-0.807426338518035,FALSE,2.02681615790571
"CAN","cpi",0.2,2009,3,2008,NA,1,3.35060366043892,3.8652066862478,0.284533874408197,3.28355694764985,FALSE,8.17977749088569
"CAN","cpi",0.2,2009,3,2008,NA,1.5,1.9524116136955,2.46701463950438,0.284533874408197,0.703376955238912,FALSE,4.68429737402714
"CAN","cpi",0.2,2010,3,2010,NA,0,1.59225080599923,1.63202310273708,1.75525687020327,1.72708036400674,FALSE,0.347856715403329
"CAN","cpi",0.2,2010,3,2010,NA,0.5,2.0484770574246,2.20522369164457,1.75525687020327,1.42243266198166,FALSE,0.889797102273286
"CAN","cpi",0.2,2010,3,2009,NA,1,1.50786923721885,1.68944099287544,1.75525687020327,0.515829437079458,FALSE,0.346111448976172
"CAN","cpi",0.2,2010,3,2009,NA,1.5,1.32751989671706,1.8315051896035,1.75525687020327,-0.666399632006793,TRUE,0.503985292886434
"CAN","cpi",0.2,2011,3,2011,NA,0,2.57702520962431,2.64122994714408,2.85717434028225,2.82871118728348,FALSE,0.60406572036518
"CAN","cpi",0.2,2011,3,2011,NA,0.5,2.31173778467315,2.85562350268842,2.85717434028225,2.59305645945043,FALSE,0.547762811999831
"CAN","cpi",0.2,2011,3,2010,NA,1,1.59759866557158,2.14148438358685,2.85717434028225,1.58194849312145,FALSE,2.33311060975376
"CAN","cpi",0.2,2011,3,2010,NA,1.5,1.8814887635063,2.42537448152157,2.85717434028225,1.00866231757724,FALSE,1.62338536491696
"CAN","cpi",0.2,2012,3,2012,NA,0,1.37051375259527,1.45117065457977,1.50118536134935,1.46681751445377,FALSE,0.205693668908438
"CAN","cpi",0.2,2012,3,2012,NA,0.5,1.91772181944829,2.16113811280169,1.50118536134935,1.63866597060755,FALSE,1.28475743860075
"CAN","cpi",0.2,2012,3,2011,NA,1,1.56301839345285,1.84824379372841,1.50118536134935,0.848240548987433,FALSE,0.439807980534321
"CAN","cpi",0.2,2012,3,2011,NA,1.5,2.64123111490811,4.02445936776218,1.50118536134935,1.68384299188515,FALSE,4.23334263675098
"CAN","cpi",0.2,2013,3,2013,NA,0,1.04149864086005,1.13613294583129,0.931270594714462,1.03083115414128,FALSE,0.370204420335211
"CAN","cpi",0.2,2013,3,2013,NA,0.5,1.48979663985091,1.60635585415751,0.931270594714462,1.00184063196526,FALSE,1.51287432714772
"CAN","cpi",0.2,2013,3,2012,NA,1,0.883226386841267,1.00458091385787,0.931270594714462,-0.272545990872386,TRUE,0.121354527016601
"CAN","cpi",0.2,2013,3,2012,NA,1.5,1.9745780671771,2.51756491889613,0.931270594714462,0.958608804136071,FALSE,3.15125553287562
"CAN","cpi",0.2,2014,3,2014,NA,0,1.76826045566957,1.84916436366165,1.87639912240215,1.98613278510701,FALSE,0.148990804843336
"CAN","cpi",0.2,2014,3,2014,NA,0.5,2.10161331090006,2.29312109629089,1.87639912240215,1.95223885123801,FALSE,0.754543256635614
"CAN","cpi",0.2,2014,3,2013,NA,1,1.53263289219954,1.72414067759037,1.87639912240215,0.688658687283847,FALSE,0.572153897420283
"CAN","cpi",0.2,2014,3,2013,NA,1.5,1.92328283480478,2.33222156701645,1.87639912240215,0.891594199884501,FALSE,0.526148013218248
"CAN","cpi",0.2,2015,3,2015,NA,0,1.11303700494911,1.23309003742049,1.11090953952792,1.24641866377254,FALSE,0.125371696024372
"CAN","cpi",0.2,2015,3,2015,NA,0.5,1.03922167017782,1.19382578403969,1.11090953952792,0.198117162089698,TRUE,0.15460411386186
"CAN","cpi",0.2,2015,3,2014,NA,1,1.55463663999645,1.7328537693771,1.11090953952792,0.532106072596766,FALSE,1.28753488055198
"CAN","cpi",0.2,2015,3,2014,NA,1.5,3.73695833672762,3.96167835837004,1.11090953952792,1.81035920235268,FALSE,6.78984201464168
"CAN","cpi",0.2,2016,3,2016,NA,0,1.36864002366901,1.44838368645635,1.41168586698797,1.44184957394589,TRUE,0.0797436627873385
"CAN","cpi",0.2,2016,3,2016,NA,0.5,1.32752757129,1.57456497131191,1.41168586698797,0.843100047406122,TRUE,0.24703740002191
"CAN","cpi",0.2,2016,3,2015,NA,1,1.60993698856568,1.97266054762235,1.41168586698797,1.23484853770273,FALSE,0.858351363000958
"CAN","cpi",0.2,2016,3,2015,NA,1.5,1.84741402720805,2.21013758626471,1.41168586698797,0.107462752177283,FALSE,1.45204395960687
"CAN","cpi",0.2,2017,3,2017,NA,0,1.44135896660626,1.49837554835845,1.57888581671161,1.51739925639673,FALSE,0.258292252635092
"CAN","cpi",0.2,2017,3,2017,NA,0.5,1.84951757800571,2.05827391012973,1.57888581671161,1.88170269277887,FALSE,0.885335735359266
"CAN","cpi",0.2,2017,3,2016,NA,1,1.49678428706423,1.71395548250621,1.57888581671161,0.418338346755244,TRUE,0.217171195441971
"CAN","cpi",0.2,2017,3,2016,NA,1.5,1.8701233890729,2.29233806744799,1.57888581671161,0.52557608733729,FALSE,1.15030860927831
"CAN","cpi",0.2,2018,3,2018,NA,0,2.29976757490177,2.47244556317364,2.23316270166586,2.40611378585155,FALSE,0.339190171361642
"CAN","cpi",0.2,2018,3,2018,NA,0.5,2.82135838879076,3.06275187328321,2.23316270166586,2.62207020824204,FALSE,1.7118827023047
"CAN","cpi",0.2,2018,3,2017,NA,1,1.45879562758298,1.70018911207543,2.23316270166586,0.40411310060617,FALSE,1.57382745846853
"CAN","cpi",0.2,2018,3,2017,NA,1.5,2.3914987325989,2.69207484980465,2.23316270166586,1.53787524714926,FALSE,0.696416194538358
"CAN","cpi",0.2,2019,3,2019,NA,0,1.87844063931542,1.88510441110522,1.91921619871868,2.01142839895124,FALSE,0.0919432408234527
"CAN","cpi",0.2,2019,3,2019,NA,0.5,1.74642912405678,1.99889407241425,1.91921619871868,1.51883708040586,TRUE,0.252464948357473
"CAN","cpi",0.2,2019,3,2018,NA,1,1.75781401593152,2.17685358033847,1.91921619871868,1.41942984101848,TRUE,0.419039564406958
"CAN","cpi",0.2,2019,3,2018,NA,1.5,2.76558068264509,4.05382870740953,1.91921619871868,2.06105171090012,FALSE,3.40415923458046
"CAN","cpi",0.2,2020,3,2020,NA,0,0.37810067972002,0.466877589806441,0.71139989671781,0.726179852791075,FALSE,0.700082677364844
"CAN","cpi",0.2,2020,3,2020,NA,0.5,1.63948968596583,1.87366413943931,0.71139989671781,1.07225945048052,FALSE,2.55439892659352
"CAN","cpi",0.2,2020,3,2019,NA,1,1.52401977872592,1.7581942321994,0.71139989671781,1.01913964327806,FALSE,2.26572415849376
"CAN","cpi",0.2,2020,3,2019,NA,1.5,1.99215734991763,2.26028334210182,0.71139989671781,1.22761645350518,FALSE,3.47001962518373
"CAN","cpi",0.2,2021,3,2021,NA,0,3.16001702181892,3.26594511465558,3.31148121717802,3.30988753190892,FALSE,0.219768349142776
"CAN","cpi",0.2,2021,3,2021,NA,0.5,2.32871852594083,2.71712227291932,3.31148121717802,2.4899040786607,FALSE,1.87430110762525
"CAN","cpi",0.2,2021,3,2020,NA,1,1.41111617389538,1.79951992087387,3.31148121717802,1.1979067045331,FALSE,4.16830698773888
"CAN","cpi",0.2,2021,3,2020,NA,1.5,1.8448089424973,2.23321268947579,3.31148121717802,0.670626810990653,FALSE,3.08407506623407
"CAN","cpi",0.2,2022,3,2022,NA,0,5.74546307830515,6.24151849708091,6.50977236228281,6.54555789178856,FALSE,1.16669008178051
"CAN","cpi",0.2,2022,3,2022,NA,0.5,6.73239654599409,7.22845196476985,6.50977236228281,5.96468998606203,FALSE,1.05261587805396
"CAN","cpi",0.2,2022,3,2021,NA,1,3.86731957768113,4.36337499645689,6.50977236228281,3.42105264822981,FALSE,5.86204883334056
"CAN","cpi",0.2,2022,3,2021,NA,1.5,2.30683729802822,3.86444359544119,6.50977236228281,1.93276265883962,FALSE,8.17092821451703
"CAN","cpi",0.2,2023,3,2023,NA,0,3.89171692079587,3.90537076789295,3.78831288758619,3.97188685244318,FALSE,0.272163930121282
"CAN","cpi",0.2,2023,3,2023,NA,0.5,3.45055664498724,3.8009771573128,3.78831288758619,2.8392001035463,TRUE,0.350420512325566
"CAN","cpi",0.2,2023,3,2022,NA,1,2.39294949298199,2.74337000530756,3.78831288758619,2.86884991489758,FALSE,2.96277771802215
"CAN","cpi",0.2,2023,3,2022,NA,1.5,6.71895427679449,8.56184511491154,3.78831288758619,4.03317247515909,FALSE,9.16949431113779
"CAN","cpi",0.2,2024,3,2023,NA,1,2.77520339446381,3.37599899400431,NA,2.89946754179362,NA,NA
"CAN","cpi",0.2,2024,3,2023,NA,1.5,1.76904431576774,2.36983991530824,NA,1.17991651782151,NA,NA
"CAN","cpi",0.3,1950,3,1950,NA,0,3.41276022321824,3.41276022321824,2.59031220731124,2.24825037311262,FALSE,2.34985147402
"CAN","cpi",0.3,1950,3,1950,NA,0.5,3.41276022321824,3.41276022321824,2.59031220731124,-0.218816875802678,FALSE,2.34985147402
"CAN","cpi",0.3,1950,3,1949,NA,1,3.41276022321824,6.33761365189904,2.59031220731124,1.29650217702121,FALSE,5.2747049027008
"CAN","cpi",0.3,1950,3,1949,NA,1.5,3.41276022321824,6.33761365189904,2.59031220731124,0,FALSE,5.2747049027008
"CAN","cpi",0.3,1951,3,1951,NA,0,4.59904191025417,6.80971588039786,9.87945438999359,9.85678648981217,FALSE,10.9813554261315
"CAN","cpi",0.3,1951,3,1951,NA,0.5,3.92915943764488,6.13983340778857,9.87945438999359,8.53589570050804,FALSE,12.8953053478723
"CAN","cpi",0.3,1951,3,1950,NA,1,1.8517161599826,4.06239013012629,9.87945438999359,4.61037950756317,FALSE,18.8308575697645
"CAN","cpi",0.3,1951,3,1950,NA,1.5,1.48497522223939,3.69564919238308,9.87945438999359,-0.898542404092984,FALSE,19.8786888204594
"CAN","cpi",0.3,1952,3,1952,NA,0,2.59031220731124,2.59031220731124,2.55562336095485,2.50792675283471,FALSE,0.0991109895896918
"CAN","cpi",0.3,1952,3,1952,NA,0.5,2.93137427181133,3.22379452122556,2.55562336095485,3.80942800622696,FALSE,1.36599428043275
"CAN","cpi",0.3,1952,3,1951,NA,1,5.93933385675056,8.6163338889725,2.55562336095485,6.36946346746546,FALSE,12.344744305924
"CAN","cpi",0.3,1952,3,1951,NA,1.5,5.67501095849516,8.35201099071711,2.55562336095485,4.80604275648344,FALSE,11.5895360251943
"CAN","cpi",0.3,1953,3,1953,NA,0,2.55562336095485,2.56603574727165,-1.01492775838436,-1.00118391953201,FALSE,10.2119870130003
"CAN","cpi",0.3,1953,3,1953,NA,0.5,2.57728685220898,2.96288994324191,-1.01492775838436,-1.88711612688489,FALSE,10.6490734070139
"CAN","cpi",0.3,1953,3,1952,NA,1,2.5772868615818,2.96289011944794,-1.01492775838436,-0.873617238258229,FALSE,10.6490736006266
"CAN","cpi",0.3,1953,3,1952,NA,1.5,2.56949948043629,8.25999007475049,-1.01492775838436,0.432272395627528,FALSE,15.9317112766589
"CAN","cpi",0.3,1954,3,1954,NA,0,-0.117196694104994,0.798081948404146,0.644425455961438,0.831821956393317,TRUE,0.91527864250914
"CAN","cpi",0.3,1954,3,1954,NA,0.5,2.10682584192372,3.02210448443286,0.644425455961438,-0.141712452464762,FALSE,5.09356545954423
"CAN","cpi",0.3,1954,3,1953,NA,1,2.10865768786554,3.02393633037468,0.644425455961438,2.12291681679911,FALSE,5.09879930509229
"CAN","cpi",0.3,1954,3,1953,NA,1.5,1.36543979826186,3.20714819617569,0.644425455961438,-1.28741438714058,FALSE,3.90174937591503
"CAN","cpi",0.3,1955,3,1955,NA,0,-1.01492775838436,-0.320101323856369,0.173649026558865,0.10295813188439,FALSE,2.10554172142866
"CAN","cpi",0.3,1955,3,1955,NA,0.5,0.018256372570379,2.26059461240454,0.173649026558865,-0.548848324097393,TRUE,2.24233823983416
"CAN","cpi",0.3,1955,3,1954,NA,1,0.251296084199191,2.49363432403335,0.173649026558865,2.19101630104756,FALSE,2.46418697594937
"CAN","cpi",0.3,1955,3,1954,NA,1.5,1.44168744991613,3.68402568975029,0.173649026558865,-0.815294949881493,FALSE,5.86530516371207
"CAN","cpi",0.3,1956,3,1956,NA,0,0.611220445180859,1.33204662864711,1.32752769429961,1.46434436590257,TRUE,0.720826183466254
"CAN","cpi",0.3,1956,3,1956,NA,0.5,-0.640795662705508,0.0800305207607457,1.32752769429961,-0.485738076612692,FALSE,4.28510382214872
"CAN","cpi",0.3,1956,3,1955,NA,1,-0.963852691038084,0.366046149204297,1.32752769429961,0.557995939500226,FALSE,4.07698896908613
"CAN","cpi",0.3,1956,3,1955,NA,1.5,0.22194361637323,2.58684186672367,1.32752769429961,-0.793756041684752,TRUE,2.36489825035044
"CAN","cpi",0.3,1957,3,1957,NA,0,2.85728021323454,3.11598198528532,3.24684755852518,3.35523637829212,FALSE,0.632603409878951
"CAN","cpi",0.3,1957,3,1957,NA,0.5,2.05650237557467,2.96273130793429,3.24684755852518,2.12793087018929,FALSE,1.71798964833359
"CAN","cpi",0.3,1957,3,1956,NA,1,2.75915168172463,4.52540232727215,3.24684755852518,4.42886834530761,TRUE,1.76625064554752
"CAN","cpi",0.3,1957,3,1956,NA,1.5,0.174788936348508,1.94103958189603,3.24684755852518,-0.785064469253982,FALSE,5.49713057877366
"CAN","cpi",0.3,1958,3,1958,NA,0,2.08285086136164,4.41983070051959,2.33186388641149,2.20013349321115,TRUE,2.33697983915795
"CAN","cpi",0.3,1958,3,1958,NA,0.5,3.6698675306234,6.20961928850911,2.33186388641149,2.0126030377883,FALSE,6.36261931277688
"CAN","cpi",0.3,1958,3,1957,NA,1,0.328953095858179,2.86870485374389,2.33186388641149,2.83859761398538,TRUE,2.53975175788571
"CAN","cpi",0.3,1958,3,1957,NA,1.5,1.34462159738056,3.88437335526627,2.33186388641149,0.366312073207214,TRUE,2.53975175788571
"CAN","cpi",0.3,1959,3,1959,NA,0,0.552830169316648,0.905156452505404,1.19382698397654,1.18954599151176,FALSE,1.17709923024915
"CAN","cpi",0.3,1959,3,1959,NA,0.5,1.5576950096973,2.29828667703832,1.19382698397654,0.545308327160925,FALSE,1.78021459797176
"CAN","cpi",0.3,1959,3,1958,NA,1,0.345934376404987,1.08652604374601,1.19382698397654,1.13295114249046,FALSE,1.0471657822854
"CAN","cpi",0.3,1959,3,1958,NA,1.5,2.02480014045444,2.76539180779546,1.19382698397654,0.717422088079289,FALSE,3.1148006858493
"CAN","cpi",0.3,1960,3,1960,NA,0,0.528791862054414,0.835467579272746,1.34209404870695,1.02361304259477,FALSE,1.75417991560178
"CAN","cpi",0.3,1960,3,1960,NA,0.5,1.05807126256125,1.56087743079467,1.34209404870695,0.648611007713657,TRUE,0.502806168233422
"CAN","cpi",0.3,1960,3,1959,NA,1,0.893490080972105,1.96592868522272,1.34209404870695,2.37666873185636,TRUE,1.07243860425062
"CAN","cpi",0.3,1960,3,1959,NA,1.5,1.4279859627247,2.57682218464002,1.34209404870695,-0.349092179567277,FALSE,1.39424169053746
"CAN","cpi",0.3,1961,3,1961,NA,0,0.971011175027822,1.29146104107298,1.00921348094007,1.00921348094007,TRUE,0.320449866045155
"CAN","cpi",0.3,1961,3,1961,NA,0.5,1.08693832257372,1.82245419383828,1.00921348094007,1.00921348094007,FALSE,0.957586847360699
"CAN","cpi",0.3,1961,3,1960,NA,1,-0.867114504360759,0.660617765601743,1.00921348094007,0.0537704626035329,FALSE,2.52372002807201
"CAN","cpi",0.3,1961,3,1960,NA,1.5,1.18418507412558,2.71191734408808,1.00921348094007,-0.332316386156399,FALSE,2.02765110763539
"CAN","cpi",0.3,1962,3,1962,NA,0,1.13842863812618,1.31416524539983,1.04957947883042,1.0653801125483,FALSE,0.429591348118698
"CAN","cpi",0.3,1962,3,1962,NA,0.5,1.04244009589181,1.29939218461234,1.04957947883042,0,TRUE,0.256952088720525
"CAN","cpi",0.3,1962,3,1961,NA,1,0.563731163475845,0.82068325219637,1.04957947883042,0,FALSE,0.910941307674939
"CAN","cpi",0.3,1962,3,1961,NA,1.5,1.24744044795312,2.49980541798097,1.04957947883042,0,FALSE,1.81768202466415
"CAN","cpi",0.3,1963,3,1963,NA,0,2.05781660251141,3.12187177955651,1.60677118395228,1.83024954277348,FALSE,2.35275637292831
"CAN","cpi",0.3,1963,3,1963,NA,0.5,0.636933230489861,1.70098840753496,1.60677118395228,0.836828714617504,TRUE,1.0640551770451
"CAN","cpi",0.3,1963,3,1962,NA,1,0.539832283012103,1.60388746005721,1.60677118395228,1.60935100695326,FALSE,1.07229438817389
"CAN","cpi",0.3,1963,3,1962,NA,1.5,1.08564502685215,2.23296236138085,1.60677118395228,0,TRUE,1.14731733452869
"CAN","cpi",0.3,1964,3,1964,NA,0,1.47319816896818,1.59806400929001,1.88764670034376,1.95194648443024,FALSE,0.952244957618254
"CAN","cpi",0.3,1964,3,1964,NA,0.5,1.31974818012506,1.67800054454472,1.88764670034376,1.27307816843398,FALSE,0.957241380988356
"CAN","cpi",0.3,1964,3,1963,NA,1,1.65403580712277,2.26112379901834,1.88764670034376,3.20172332637508,TRUE,0.607087991895565
"CAN","cpi",0.3,1964,3,1963,NA,1.5,1.06880135302548,1.67588934492105,1.88764670034376,0,FALSE,1.21210900738902
"CAN","cpi",0.3,1965,3,1965,NA,0,3.54347691734902,4.68675924494157,2.29538304394236,2.29800189469823,FALSE,4.70926482304016
"CAN","cpi",0.3,1965,3,1965,NA,0.5,1.22713303157683,2.37041535916937,2.29538304394236,1.39443218256826,TRUE,1.14328232759255
"CAN","cpi",0.3,1965,3,1964,NA,1,0.699602356398446,1.84288468399099,2.29538304394236,1.48078368039448,FALSE,2.43613478459644
"CAN","cpi",0.3,1965,3,1964,NA,1.5,1.23171813618083,2.37500046377338,2.29538304394236,0.293257399533461,TRUE,1.14328232759255
"CAN","cpi",0.3,1966,3,1966,NA,0,3.00735194080192,3.31161977657792,3.72486065470629,3.77511268244847,FALSE,1.48495605899991
"CAN","cpi",0.3,1966,3,1966,NA,0.5,3.62454663905461,5.26040758609869,3.72486065470629,3.37743719728421,TRUE,1.63586094704408
"CAN","cpi",0.3,1966,3,1965,NA,1,0.663973835467213,2.29983478251129,3.72486065470629,1.98486973144544,FALSE,5.70736343902979
"CAN","cpi",0.3,1966,3,1965,NA,1.5,1.1751187984258,2.81097974546988,3.72486065470629,0.578640834001038,FALSE,4.2469492591481
"CAN","cpi",0.3,1967,3,1967,NA,0,5.63976889847532,8.23816717250894,3.49360316391996,3.68375770714608,FALSE,8.73030037276321
"CAN","cpi",0.3,1967,3,1967,NA,0.5,3.66056804379129,6.25896631782491,3.49360316391996,2.11054708048259,FALSE,3.07544078795172
"CAN","cpi",0.3,1967,3,1966,NA,1,0.366638119445357,2.96503639347898,3.49360316391996,2.02003307533501,FALSE,4.10858904672214
"CAN","cpi",0.3,1967,3,1966,NA,1.5,1.41346438570731,4.01186265974093,3.49360316391996,1.71558536379673,TRUE,2.59839827403362
"CAN","cpi",0.3,1968,3,1968,NA,0,3.57880653569722,3.65185692204664,3.95128347779386,4.07085717819357,FALSE,0.928554831341471
"CAN","cpi",0.3,1968,3,1968,NA,0.5,3.96980922183916,5.69592452073123,3.95128347779386,3.50732233276501,FALSE,1.77904599616436
"CAN","cpi",0.3,1968,3,1967,NA,1,1.76671228110682,3.49282757999888,3.95128347779386,3.66303679301692,FALSE,3.03598929259199
"CAN","cpi",0.3,1968,3,1967,NA,1.5,1.87600911485033,3.6021244137424,3.95128347779386,0.834881519045053,FALSE,2.72371262475337
"CAN","cpi",0.3,1969,3,1969,NA,0,3.81100038872013,3.88485353948127,4.42679496126681,4.52532640008253,FALSE,1.62225721300555
"CAN","cpi",0.3,1969,3,1969,NA,0.5,3.25871108942098,3.40464912474753,4.42679496126681,2.69090620784681,FALSE,3.06635471109593
"CAN","cpi",0.3,1969,3,1968,NA,1,3.06656657795989,3.62483233033993,4.42679496126681,4.0779393276339,FALSE,2.84958755502828
"CAN","cpi",0.3,1969,3,1968,NA,1.5,3.09534441026749,3.65361016264753,4.42679496126681,1.61221871335458,FALSE,2.76736517700657
"CAN","cpi",0.3,1970,3,1970,NA,0,3.38645292562062,3.54898669457196,3.28128405769805,3.55878605435979,FALSE,0.463016248730126
"CAN","cpi",0.3,1970,3,1970,NA,0.5,3.44397051881263,3.83807080257146,3.28128405769805,3.74969277403504,FALSE,0.858918744086203
"CAN","cpi",0.3,1970,3,1969,NA,1,1.5548361379338,2.45054867210681,3.28128405769805,3.11186608282608,FALSE,3.26924220729083
"CAN","cpi",0.3,1970,3,1969,NA,1.5,2.74642661074602,3.64213914491902,3.28128405769805,0.764941977259638,TRUE,0.895712534173005
"CAN","cpi",0.3,1971,3,1971,NA,0,2.45277810798665,2.69450004110183,2.64123406634756,2.81514553288871,TRUE,0.241721933115173
"CAN","cpi",0.3,1971,3,1971,NA,0.5,1.40928169311012,1.71548517832167,2.64123406634756,1.11673730766521,FALSE,2.95120030814266
"CAN","cpi",0.3,1971,3,1970,NA,1,1.52540390955154,2.25226900778282,2.64123406634756,1.92043450460395,FALSE,1.83819383698768
"CAN","cpi",0.3,1971,3,1970,NA,1.5,3.14411687738749,3.87098197561877,2.64123406634756,1.70194075200601,FALSE,2.16367312977392
"CAN","cpi",0.3,1972,3,1972,NA,0,4.13614800215287,4.29464316449035,4.83230569625923,5.04828762155974,FALSE,1.69467382453428
"CAN","cpi",0.3,1972,3,1972,NA,0.5,3.33129725499138,3.7592197687895,4.83230569625923,4.09602385359717,FALSE,3.49388230656877
"CAN","cpi",0.3,1972,3,1971,NA,1,3.10854482950721,4.09424448922611,4.83230569625923,4.16812111633716,FALSE,3.09444596552782
"CAN","cpi",0.3,1972,3,1971,NA,1.5,1.92841742175773,3.3961696250333,4.83230569625923,0.692030005351089,FALSE,5.57099812106394
"CAN","cpi",0.3,1973,3,1973,NA,0,5.18017939082524,6.32997375896172,7.12388603531779,7.25096132226983,FALSE,3.41811515772526
"CAN","cpi",0.3,1973,3,1973,NA,0.5,4.13144848108876,5.28124284922523,7.12388603531779,5.30446017290082,FALSE,6.41448918554379
"CAN","cpi",0.3,1973,3,1972,NA,1,4.21618355762671,6.43372185118347,7.12388603531779,4.92276035792265,FALSE,4.18943596251195
"CAN","cpi",0.3,1973,3,1972,NA,1.5,2.35247969279394,4.57001798635069,7.12388603531779,1.79187879074203,FALSE,9.51430414774846
"CAN","cpi",0.3,1974,3,1974,NA,0,8.17925303960417,9.08409351539513,10.2717243737774,10.148911210151,FALSE,4.29807149974036
"CAN","cpi",0.3,1974,3,1974,NA,0.5,8.28937012915753,10.5445541031335,10.2717243737774,7.90446289245049,TRUE,2.25518397397601
"CAN","cpi",0.3,1974,3,1973,NA,1,5.10312934136585,9.38994256151229,10.2717243737774,7.30476096756609,FALSE,6.80618982661824
"CAN","cpi",0.3,1974,3,1973,NA,1.5,1.82820413861232,6.11501735875876,10.2717243737774,2.5663290958369,FALSE,16.1631189773426
"CAN","cpi",0.3,1975,3,1975,NA,0,10.0181559106413,10.137077387382,10.0232981493341,10.1746571103793,TRUE,0.118921476740695
"CAN","cpi",0.3,1975,3,1975,NA,0.5,9.05252477103378,10.8667279159242,10.0232981493341,8.07152306914465,TRUE,1.81420314489045
"CAN","cpi",0.3,1975,3,1974,NA,1,6.61760179433089,10.0676199159437,10.0232981493341,7.8187778356914,TRUE,3.45001812161281
"CAN","cpi",0.3,1975,3,1974,NA,1.5,3.36848632624972,6.81850444786253,10.0232981493341,3.64914274700436,FALSE,12.6065715543888
"CAN","cpi",0.3,1976,3,1976,NA,0,5.59351232264626,6.30212772460814,7.22784311401172,7.18995143043805,FALSE,3.35351651454352
"CAN","cpi",0.3,1976,3,1976,NA,0.5,6.65538985389764,9.4523154693995,7.22784311401172,6.61333364285308,TRUE,2.79692561550187
"CAN","cpi",0.3,1976,3,1975,NA,1,7.57919524482299,10.3761208603249,7.22784311401172,8.584971075903,FALSE,3.80078884639123
"CAN","cpi",0.3,1976,3,1975,NA,1.5,3.76783596443874,9.9657622800186,7.22784311401172,3.14738569995591,TRUE,6.19792631557986
"CAN","cpi",0.3,1977,3,1977,NA,0,6.55116053457008,6.97583199141271,7.58101410153764,7.50176944503946,FALSE,2.15376320005672
"CAN","cpi",0.3,1977,3,1977,NA,0.5,6.9538764715179,7.37854792836054,7.58101410153764,6.40571638826874,FALSE,1.00314623734866
"CAN","cpi",0.3,1977,3,1976,NA,1,3.76923599723363,4.30286522307466,7.58101410153764,4.04909286077014,FALSE,9.89976887859242
"CAN","cpi",0.3,1977,3,1976,NA,1.5,4.57423729775264,7.92664838952693,7.58101410153764,2.59432747727492,TRUE,3.35241109177429
"CAN","cpi",0.3,1978,3,1978,NA,0,7.45825079141856,8.14652578116247,8.50208927062595,8.59104847384149,FALSE,1.70417067392527
"CAN","cpi",0.3,1978,3,1978,NA,0.5,7.44191715731587,9.89955526153551,8.50208927062595,7.34113908733495,TRUE,2.45763810421964
"CAN","cpi",0.3,1978,3,1977,NA,1,4.20210441157359,6.94611956716208,8.50208927062595,5.87902868518151,FALSE,7.18964287977096
"CAN","cpi",0.3,1978,3,1977,NA,1.5,7.00229255668548,9.74630771227398,8.50208927062595,3.89293485842214,TRUE,2.7440151555885
"CAN","cpi",0.3,1979,3,1979,NA,0,8.33162845875096,8.89007441813095,8.65147652410481,8.48651410143776,TRUE,0.558445959379995
"CAN","cpi",0.3,1979,3,1979,NA,0.5,7.88910686745283,8.44755282683282,8.65147652410481,7.46186747064873,FALSE,1.14108509444282
"CAN","cpi",0.3,1979,3,1978,NA,1,6.58755613777175,9.592525620931,8.65147652410481,6.93686058379669,TRUE,3.00496948315925
"CAN","cpi",0.3,1979,3,1978,NA,1.5,6.67780423560217,9.68277371876143,8.65147652410481,3.9179710204728,TRUE,3.00496948315925
"CAN","cpi",0.3,1980,3,1980,NA,0,8.78854404204745,9.13633404980729,9.5171912664748,9.43711128155219,FALSE,1.43595348395271
"CAN","cpi",0.3,1980,3,1980,NA,0.5,9.76605560424725,10.1138456120071,9.5171912664748,7.89144076485851,FALSE,1.05883097282398
"CAN","cpi",0.3,1980,3,1979,NA,1,5.42116774129182,7.87394844786799,9.5171912664748,5.69387794711803,FALSE,7.1477601883099
"CAN","cpi",0.3,1980,3,1979,NA,1.5,6.8577430175569,9.31052372413307,9.5171912664748,4.27199048256738,FALSE,3.04325939898111
"CAN","cpi",0.3,1981,3,1981,NA,0,10.0962056765042,10.9618492375457,11.5813425032741,11.617538759154,FALSE,2.63562432026561
"CAN","cpi",0.3,1981,3,1981,NA,0.5,10.3565832162267,11.2231403730093,11.5813425032741,11.3038259100907,FALSE,1.88999181468204
"CAN","cpi",0.3,1981,3,1980,NA,1,9.33696516622712,10.2035223230097,11.5813425032741,8.22922472590444,FALSE,4.80318624325232
"CAN","cpi",0.3,1981,3,1980,NA,1.5,7.3552715089513,8.63653812493608,11.5813425032741,4.54818367546621,FALSE,9.69499341123638
"CAN","cpi",0.3,1982,3,1982,NA,0,7.69501721163049,9.18045678624076,10.1124203763629,10.1863972123348,FALSE,4.14819268924508
"CAN","cpi",0.3,1982,3,1982,NA,0.5,9.3460549717246,10.8314945463349,10.1124203763629,9.38011590167964,TRUE,1.48543957461027
"CAN","cpi",0.3,1982,3,1981,NA,1,9.50561746823266,10.9910570428429,10.1124203763629,8.92774959502704,TRUE,1.48543957461027
"CAN","cpi",0.3,1982,3,1981,NA,1.5,7.94459307939728,10.1103446748288,10.1124203763629,7.65688060941457,FALSE,2.17168217124332
"CAN","cpi",0.3,1983,3,1983,NA,0,4.31970473576259,4.83002814907488,5.67091787896303,5.79231449937116,FALSE,2.91286549870701
"CAN","cpi",0.3,1983,3,1983,NA,0.5,3.74033739727246,4.75741600847659,5.67091787896303,4.48935486750539,FALSE,3.62708395545111
"CAN","cpi",0.3,1983,3,1982,NA,1,6.57199475933951,8.79989042190131,5.67091787896303,6.68360843662591,FALSE,4.80240103506602
"CAN","cpi",0.3,1983,3,1982,NA,1.5,7.57366158379897,9.80155724636076,5.67091787896303,5.80492936344428,FALSE,7.66430624780732
"CAN","cpi",0.3,1984,3,1984,NA,0,3.83123380825491,3.92251454168026,4.19799576814029,4.1863442377944,FALSE,0.878369951882566
"CAN","cpi",0.3,1984,3,1984,NA,0.5,4.89997964958726,5.25730232068931,4.19799576814029,4.37368919035215,FALSE,2.36299090380768
"CAN","cpi",0.3,1984,3,1983,NA,1,6.01628078016193,7.90264431493521,4.19799576814029,4.8252398586334,FALSE,7.08146356912082
"CAN","cpi",0.3,1984,3,1983,NA,1.5,2.73154819905226,4.61791173382554,4.19799576814029,1.63651850095104,TRUE,1.88636353477328
"CAN","cpi",0.3,1985,3,1985,NA,0,3.51582630651839,3.71710966377361,3.86444262005169,3.87488963413478,FALSE,0.622234660906881
"CAN","cpi",0.3,1985,3,1985,NA,0.5,3.29443389731721,3.70173714719111,3.86444262005169,3.66954460168274,FALSE,0.872176029475561
"CAN","cpi",0.3,1985,3,1984,NA,1,1.73317063543429,3.11932725806551,3.86444262005169,2.51760914226531,FALSE,3.51505765687746
"CAN","cpi",0.3,1985,3,1984,NA,1.5,7.19963395336415,8.58579057599536,3.86444262005169,2.74468923002786,FALSE,10.9152747178097
"CAN","cpi",0.3,1986,3,1986,NA,0,3.82006110664607,3.90176148980756,4.08685396749431,4.09009381020777,FALSE,0.610536033695064
"CAN","cpi",0.3,1986,3,1986,NA,0.5,3.7045834087558,4.54932812938614,4.08685396749431,4.18867743652029,TRUE,0.844744720630338
"CAN","cpi",0.3,1986,3,1985,NA,1,2.39951505646687,3.33046965571044,4.08685396749431,2.96346536694636,FALSE,3.09205263291178
"CAN","cpi",0.3,1986,3,1985,NA,1.5,7.13427479862404,8.08201448308698,4.08685396749431,2.65645514502224,FALSE,9.65465634483361
"CAN","cpi",0.3,1987,3,1987,NA,0,4.08361377906503,4.1971716871715,4.23980729277887,4.30382748919395,FALSE,0.235373924127525
"CAN","cpi",0.3,1987,3,1987,NA,0.5,3.35524101743403,3.82256713051623,4.23980729277887,3.60745044359556,FALSE,1.65944086240404
"CAN","cpi",0.3,1987,3,1986,NA,1,3.28113915967149,3.92753023282553,4.23980729277887,3.48954394276064,FALSE,1.53861124444929
"CAN","cpi",0.3,1987,3,1986,NA,1.5,5.71024015275258,7.58373584066011,4.23980729277887,3.05061614822702,FALSE,6.07473243068956
"CAN","cpi",0.3,1988,3,1988,NA,0,3.81670750509956,3.88647776394852,3.92899537638065,3.96651200874969,FALSE,0.191249151512203
"CAN","cpi",0.3,1988,3,1988,NA,0.5,3.38942863775623,3.84349466421709,3.92899537638065,3.27588434563216,FALSE,0.698353775499619
"CAN","cpi",0.3,1988,3,1987,NA,1,3.28028845025365,4.02543175822387,3.92899537638065,3.36557853238272,TRUE,0.745143307970213
"CAN","cpi",0.3,1988,3,1987,NA,1.5,4.11427579429071,6.58502881499693,3.92899537638065,2.22890665988493,FALSE,3.00012564330639
"CAN","cpi",0.3,1989,3,1989,NA,0,4.51709469323405,4.66308918997768,4.82821664544208,4.96224122245117,FALSE,0.617787226641915
"CAN","cpi",0.3,1989,3,1989,NA,0.5,3.76688190619773,4.0844170397674,4.82821664544208,4.15246181762677,FALSE,2.44267686406874
"CAN","cpi",0.3,1989,3,1988,NA,1,3.73912377853602,4.05665891210569,4.82821664544208,3.35061776773985,FALSE,2.52198580024506
"CAN","cpi",0.3,1989,3,1988,NA,1.5,3.90785441658286,5.1382354634147,4.82821664544208,2.03293210635829,TRUE,1.23038104683184
"CAN","cpi",0.3,1990,3,1990,NA,0,4.2832061694386,4.34970726622346,4.64347549432717,4.49116732458404,FALSE,0.905838891366894
"CAN","cpi",0.3,1990,3,1990,NA,0.5,4.45695698134863,5.71076365485832,4.64347549432717,4.80635133900141,TRUE,1.25380667350969
"CAN","cpi",0.3,1990,3,1989,NA,1,4.1483660878515,5.4021727613612,4.64347549432717,4.45332930526201,TRUE,1.25380667350969
"CAN","cpi",0.3,1990,3,1989,NA,1.5,4.26886825492462,6.62809885717606,4.64347549432717,2.93994143296931,TRUE,2.35923060225144
"CAN","cpi",0.3,1991,3,1991,NA,0,4.98519148081383,5.22104825790792,5.4258100696218,5.5966415351231,FALSE,0.820890524848021
"CAN","cpi",0.3,1991,3,1991,NA,0.5,9.83344173195919,10.0692985090533,5.4258100696218,8.0424604401558,FALSE,12.8290900980581
"CAN","cpi",0.3,1991,3,1990,NA,1,2.6008878524632,3.89462650596059,5.4258100696218,3.00766385389873,FALSE,5.66854883538655
"CAN","cpi",0.3,1991,3,1990,NA,1.5,5.80502676144785,8.37117578866458,5.4258100696218,3.42461322750937,FALSE,3.64962528957689
"CAN","cpi",0.3,1992,3,1992,NA,0,1.25548203094013,1.30951673615134,1.47496888572843,1.46118300949616,FALSE,0.526755132574331
"CAN","cpi",0.3,1992,3,1992,NA,0.5,1.62381072847461,2.25462588181991,1.47496888572843,1.2379681755847,FALSE,1.05607756119152
"CAN","cpi",0.3,1992,3,1991,NA,1,1.72725639826966,2.48290094185154,1.47496888572843,1.8723365291461,FALSE,1.47646600798538
"CAN","cpi",0.3,1992,3,1991,NA,1.5,9.56721015704308,10.322854700625,1.47496888572843,6.89933696838937,FALSE,23.8763338901951
"CAN","cpi",0.3,1993,3,1993,NA,0,1.80557900513974,2.1673301438396,1.84351085411351,1.80220567555903,TRUE,0.361751138699858
"CAN","cpi",0.3,1993,3,1993,NA,0.5,3.08040103708091,3.44215217578077,1.84351085411351,2.21818498229346,FALSE,3.89572309003527
"CAN","cpi",0.3,1993,3,1992,NA,1,1.51971309047051,1.93013641367242,1.84351085411351,1.3520429918812,TRUE,0.410423323201909
"CAN","cpi",0.3,1993,3,1992,NA,1.5,3.60323574626859,4.01365906947049,1.84351085411351,0.933485487336859,FALSE,5.43820872935926
"CAN","cpi",0.3,1994,3,1994,NA,0,-0.477484008097696,-0.17714131865582,0.161630694655448,0.202109657487191,FALSE,1.26826272747407
"CAN","cpi",0.3,1994,3,1994,NA,0.5,-0.581798427241348,-0.281455737799472,0.161630694655448,-0.572639707462777,FALSE,1.56630392502736
"CAN","cpi",0.3,1994,3,1993,NA,1,1.02759571050585,1.32793839994773,0.161630694655448,1.14110533076836,FALSE,2.77452844901446
"CAN","cpi",0.3,1994,3,1993,NA,1.5,3.45785089107058,4.11547668183485,0.161630694655448,1.65023462295923,FALSE,10.0753977805218
"CAN","cpi",0.3,1995,3,1995,NA,0,2.10692684647603,2.39513328088282,2.11688403676572,2.14851249512314,TRUE,0.288206434406781
"CAN","cpi",0.3,1995,3,1995,NA,0.5,3.37193419246496,3.80314393786816,2.11688403676572,2.60072443309243,FALSE,4.01706733311533
"CAN","cpi",0.3,1995,3,1994,NA,1,1.49457006175904,1.92577980716224,2.11688403676572,1.43373972642191,FALSE,0.977221829984563
"CAN","cpi",0.3,1995,3,1994,NA,1.5,0.0808249629206821,0.512034708323877,2.11688403676572,-1.26611333424577,FALSE,5.0164935409513
"CAN","cpi",0.3,1996,3,1996,NA,0,1.27896321446393,1.46798884280076,1.55309584667184,1.43665270425039,FALSE,0.432188496539936
"CAN","cpi",0.3,1996,3,1996,NA,0.5,1.4821596660443,1.94246750536854,1.55309584667184,1.23276330365037,TRUE,0.460307839324235
"CAN","cpi",0.3,1996,3,1995,NA,1,0.871362471517965,1.3316703108422,1.55309584667184,0.729753259393914,FALSE,1.09295222740893
"CAN","cpi",0.3,1996,3,1995,NA,1.5,3.9962026321179,4.80400583250118,1.55309584667184,2.31904839186543,FALSE,7.78810830165774
"CAN","cpi",0.3,1997,3,1997,NA,0,1.5446886799602,1.60146758716256,1.60528783555959,1.67949478723595,FALSE,0.0676939026224545
"CAN","cpi",0.3,1997,3,1997,NA,0.5,2.15948617152274,2.41322250443368,1.60528783555959,1.93291992098407,FALSE,1.83716014994852
"CAN","cpi",0.3,1997,3,1996,NA,1,1.06562747134284,1.31936380425378,1.60528783555959,0.614630451620954,FALSE,1.07066213664182
"CAN","cpi",0.3,1997,3,1996,NA,1.5,2.72843141521511,3.94381736399087,1.60528783555959,0.962161564198873,FALSE,4.42436760493437
"CAN","cpi",0.3,1998,3,1998,NA,0,0.785097839998169,0.983664117362832,0.988908029337191,0.967063680387792,FALSE,0.213548883005687
"CAN","cpi",0.3,1998,3,1998,NA,0.5,1.8229783387874,2.02154461615207,0.988908029337191,1.34897459866337,FALSE,2.58162430436527
"CAN","cpi",0.3,1998,3,1997,NA,1,1.15776389021588,1.4686472186242,0.988908029337191,0.792689959246129,FALSE,0.793328645204577
"CAN","cpi",0.3,1998,3,1997,NA,1.5,1.9153866959913,3.91179850040756,0.988908029337191,1.28384000376946,FALSE,4.64349370914229
"CAN","cpi",0.3,1999,3,1999,NA,0,1.60560033611489,1.61717393714234,1.7107350135213,1.76864633894604,FALSE,0.278890962110181
"CAN","cpi",0.3,1999,3,1999,NA,0.5,1.33489388693571,1.46748731041884,1.7107350135213,0.732099710600531,FALSE,0.827586860918714
"CAN","cpi",0.3,1999,3,1998,NA,1,1.00283743917363,1.14211463698267,1.7107350135213,0.369052571959629,FALSE,1.76390684506226
"CAN","cpi",0.3,1999,3,1998,NA,1.5,1.73016886007562,3.55734025995681,1.7107350135213,1.26847007023129,FALSE,1.88269667575069
"CAN","cpi",0.3,2000,3,2000,NA,0,2.58579543982779,2.61320585089014,2.6718361971244,2.70257810674034,FALSE,0.194925686017368
"CAN","cpi",0.3,2000,3,2000,NA,0.5,1.65404801447901,2.25433514743331,2.6718361971244,1.95948305880876,FALSE,1.79314727492885
"CAN","cpi",0.3,2000,3,1999,NA,1,1.71714578748568,2.74270036640536,2.6718361971244,2.16154661985999,TRUE,1.02555457891969
