isdrw/probabilistic-benchmark-forecasts/results/EasyUQ_idr/easyUQ_prediction_arima_auto_2026-02-19_12-04-31.csv
"country","target","tau","target_year","target_quarter","forecast_year","forecast_quarter","horizon","lower_bound","upper_bound","truth_value","prediction","covered","IS"
"CAN","cpi",0.1,1950,3,1950,NA,0,3.41276022321824,3.41276022321824,2.59031220731124,2.34506766740468,FALSE,1.82766225757111
"CAN","cpi",0.1,1950,3,1950,NA,0.5,3.41276022321824,3.41276022321824,2.59031220731124,-0.480727815155867,FALSE,1.82766225757111
"CAN","cpi",0.1,1950,3,1949,NA,1,3.4144437758168,4.38881269074397,2.59031220731124,5.09987337388258,FALSE,2.80577240049509
"CAN","cpi",0.1,1950,3,1949,NA,1.5,3.41107667061967,4.38544558554684,2.59031220731124,12.3211560066576,FALSE,2.79828994450147
"CAN","cpi",0.1,1951,3,1951,NA,0,5.33219362968554,5.86620126300568,9.87945438999359,9.91468181420993,FALSE,9.4523479155155
"CAN","cpi",0.1,1951,3,1951,NA,0.5,2.91387593112522,3.44788356444536,9.87945438999359,8.91293028153729,FALSE,14.8263872456495
"CAN","cpi",0.1,1951,3,1950,NA,1,2.45270529462963,2.98671292794977,9.87945438999359,7.18504019917801,FALSE,15.8512108823064
"CAN","cpi",0.1,1951,3,1950,NA,1.5,2.73477921562312,3.26878684894327,9.87945438999359,-2.18579641022426,FALSE,15.2243799467653
"CAN","cpi",0.1,1952,3,1952,NA,0,2.59031220731124,2.59031220731124,2.55562336095485,2.50792675283471,FALSE,0.077086325236427
"CAN","cpi",0.1,1952,3,1952,NA,0.5,2.82367404410756,2.93078191834356,2.55562336095485,5.20333179389047,FALSE,0.702776059019813
"CAN","cpi",0.1,1952,3,1951,NA,1,5.34530709083053,7.0005774392516,2.55562336095485,8.18998200969936,FALSE,7.85456752592259
"CAN","cpi",0.1,1952,3,1951,NA,1.5,3.24826874257227,5.3527491033739,2.55562336095485,7.55460015368862,FALSE,3.64369231995146
"CAN","cpi",0.1,1953,3,1953,NA,0,2.55562336095485,2.55910359556005,-1.01492775838436,-0.954275034924989,FALSE,7.93803827758123
"CAN","cpi",0.1,1953,3,1953,NA,0.5,2.55562336095485,2.55910359556005,-1.01492775838436,-1.88711612688489,FALSE,7.93803827758123
"CAN","cpi",0.1,1953,3,1952,NA,1,2.70582128087051,2.83435570015922,-1.01492775838436,-0.873617238258229,FALSE,8.39686561763288
"CAN","cpi",0.1,1953,3,1952,NA,1.5,2.79592402879365,3.20714769574834,-1.01492775838436,5.93557635631702,FALSE,8.87978319401695
"CAN","cpi",0.1,1954,3,1954,NA,0,-0.710457966276803,0.112404718504444,0.644425455961438,0.879731201855888,FALSE,2.00513099024123
"CAN","cpi",0.1,1954,3,1954,NA,0.5,1.96786540713151,2.79072809191275,0.644425455961438,-0.358875738913824,FALSE,3.76384035404806
"CAN","cpi",0.1,1954,3,1953,NA,1,1.42965278349218,2.5574640445349,0.644425455961438,3.38326531029323,FALSE,2.8727608777777
"CAN","cpi",0.1,1954,3,1953,NA,1.5,1.48451003343614,2.8370465995195,0.644425455961438,-1.28741438714058,FALSE,3.2193911826938
"CAN","cpi",0.1,1955,3,1955,NA,0,-0.921169108303306,-0.636514394628299,0.173649026558865,0.115254687233858,FALSE,2.0850178718687
"CAN","cpi",0.1,1955,3,1955,NA,0.5,0.0646817205758439,0.361439172158678,0.173649026558865,-0.770970046821609,TRUE,0.296757451582834
"CAN","cpi",0.1,1955,3,1954,NA,1,-0.289693238960253,0.0070642126225812,0.173649026558865,3.47019599757395,FALSE,0.666945926996798
"CAN","cpi",0.1,1955,3,1954,NA,1.5,0.312471861336822,1.60024493171918,0.173649026558865,-1.89562740163941,FALSE,1.59626825877782
"CAN","cpi",0.1,1956,3,1956,NA,0,0.609618288335994,0.725391180215963,1.32752769429961,1.56059797998755,FALSE,1.45385403428807
"CAN","cpi",0.1,1956,3,1956,NA,0.5,-0.317934841282879,-0.20216194940291,1.32752769429961,-0.709146002056511,FALSE,3.5150832112189
"CAN","cpi",0.1,1956,3,1955,NA,1,-1.07281420432435,-0.957041312444378,1.32752769429961,0.884549626974225,FALSE,5.1925929068666
"CAN","cpi",0.1,1956,3,1955,NA,1.5,-0.0207309845937751,0.909952452587448,1.32752769429961,-1.89150615642833,FALSE,1.8586284187638
"CAN","cpi",0.1,1957,3,1957,NA,0,7.22252323621419,7.58479707855904,3.24684755852518,3.4151370317006,FALSE,9.19710868165376
"CAN","cpi",0.1,1957,3,1957,NA,0.5,1.86318534506988,2.22545918741473,3.24684755852518,2.23982631608766,FALSE,2.63202577814584
"CAN","cpi",0.1,1957,3,1956,NA,1,2.65629867914187,3.01857252148672,3.24684755852518,6.98754636690555,FALSE,0.86955170243031
"CAN","cpi",0.1,1957,3,1956,NA,1.5,0.550237769471817,1.02651062808148,3.24684755852518,-1.88668623310337,FALSE,5.41035492626232
"CAN","cpi",0.1,1958,3,1958,NA,0,2.18629341622895,2.47701514166463,2.33186388641149,2.22387249143335,TRUE,0.290721725435684
"CAN","cpi",0.1,1958,3,1958,NA,0.5,2.52380937648569,3.51392844458004,2.33186388641149,2.22839060734872,FALSE,1.41666460159258
"CAN","cpi",0.1,1958,3,1957,NA,1,1.53441754261618,2.52453661071053,2.33186388641149,4.42088197051908,TRUE,0.99011906809435
"CAN","cpi",0.1,1958,3,1957,NA,1.5,0.968926455916962,1.95904552401131,2.33186388641149,0.91301479707402,FALSE,1.81860431787252
"CAN","cpi",0.1,1959,3,1959,NA,0,0.637901828263195,0.762313208652482,1.19382698397654,1.24991216431293,FALSE,1.08333088110942
"CAN","cpi",0.1,1959,3,1959,NA,0.5,1.78636556090353,2.04845131125843,1.19382698397654,0.437839731590327,FALSE,1.57883814352598
"CAN","cpi",0.1,1959,3,1958,NA,1,0.278078822663686,0.540164573018587,1.19382698397654,1.75862762885946,FALSE,1.71466888581702
"CAN","cpi",0.1,1959,3,1958,NA,1.5,1.71466215006564,2.04649900426759,1.19382698397654,1.77407172713766,FALSE,1.48924833439995
"CAN","cpi",0.1,1960,3,1960,NA,0,0.520192183764932,0.597255488260553,1.34209404870695,1.02361304259477,FALSE,1.73226010548762
"CAN","cpi",0.1,1960,3,1960,NA,0.5,1.16847853511781,1.26035073337367,1.34209404870695,0.53898348018166,FALSE,0.27352401010759
"CAN","cpi",0.1,1960,3,1959,NA,1,1.28657145957692,1.45032118536564,1.34209404870695,3.95759373689442,TRUE,0.163749725788727
"CAN","cpi",0.1,1960,3,1959,NA,1.5,1.23398824789211,1.61401537919321,1.34209404870695,-0.873476815404885,TRUE,0.380027131301102
"CAN","cpi",0.1,1961,3,1961,NA,0,1.07177359736254,1.19395500188466,1.00921348094007,1.00921348094007,FALSE,0.261203885460946
"CAN","cpi",0.1,1961,3,1961,NA,0.5,1.22444321417805,1.37557736372698,1.00921348094007,1.00921348094007,FALSE,0.629422445633328
"CAN","cpi",0.1,1961,3,1960,NA,1,-0.84191717380804,-0.490411949806033,1.00921348094007,0.0537704626035329,FALSE,3.68400618121557
"CAN","cpi",0.1,1961,3,1960,NA,1.5,1.15725922996025,1.50876445396226,1.00921348094007,-0.862181798940035,FALSE,0.680495777380191
"CAN","cpi",0.1,1962,3,1962,NA,0,1.1753723905711,1.23396977950484,1.04957947883042,1.10232402731478,FALSE,0.338137192801924
"CAN","cpi",0.1,1962,3,1962,NA,0.5,1.14618058054379,1.2261983346352,1.04957947883042,0,FALSE,0.29468686901001
"CAN","cpi",0.1,1962,3,1961,NA,1,0.646505209002861,0.726522963094271,1.04957947883042,0,FALSE,0.797921122393952
"CAN","cpi",0.1,1962,3,1961,NA,1.5,1.2072670186396,1.33413447896782,1.04957947883042,0,FALSE,0.477284215459746
"CAN","cpi",0.1,1963,3,1963,NA,0,1.43149926633416,1.55111071905588,1.60677118395228,1.91491729531202,FALSE,0.243301374713733
"CAN","cpi",0.1,1963,3,1963,NA,0.5,1.17029937639273,1.28991082911445,1.60677118395228,0.836828714617504,FALSE,0.82374557458358
"CAN","cpi",0.1,1963,3,1962,NA,1,0.929297195722926,1.04890864844465,1.60677118395228,2.56411490415144,FALSE,1.35930597607202
"CAN","cpi",0.1,1963,3,1962,NA,1.5,1.11600221245962,1.23561366518134,1.60677118395228,0,FALSE,0.944405938879373
"CAN","cpi",0.1,1964,3,1964,NA,0,1.49263959802935,1.5293460539572,1.88764670034376,1.98877256446048,FALSE,0.832930114564643
"CAN","cpi",0.1,1964,3,1964,NA,0.5,1.47828587647973,1.53444796394779,1.88764670034376,1.38369006227607,FALSE,0.841048168347997
"CAN","cpi",0.1,1964,3,1963,NA,1,2.54094213872251,2.59710422619057,1.88764670034376,5.39044290347256,FALSE,1.50792972830973
"CAN","cpi",0.1,1964,3,1963,NA,1.5,1.19394297052959,1.33723912520578,1.88764670034376,0,FALSE,1.36642409942725
"CAN","cpi",0.1,1965,3,1965,NA,0,2.54997886626112,2.62473464225043,2.29538304394236,2.34557047418999,FALSE,0.640524270031005
"CAN","cpi",0.1,1965,3,1965,NA,0.5,1.78890725564254,1.86366303163184,2.29538304394236,1.61079447956654,FALSE,1.03413358112378
"CAN","cpi",0.1,1965,3,1964,NA,1,1.08432557058397,1.15908134657328,2.29538304394236,2.42518862179847,FALSE,2.5998706590317
"CAN","cpi",0.1,1965,3,1964,NA,1.5,1.67048941894849,1.92922306860926,2.29538304394236,0.818102552316399,FALSE,1.07242248373432
"CAN","cpi",0.1,1966,3,1966,NA,0,3.32558368386819,3.34308437997942,3.72486065470629,3.82010987863709,FALSE,0.865892417726497
"CAN","cpi",0.1,1966,3,1966,NA,0.5,2.8027460750871,3.33559826807681,3.72486065470629,3.99123398895563,FALSE,1.397879718833
"CAN","cpi",0.1,1966,3,1965,NA,1,0.970201243269284,1.503053436259,3.72486065470629,3.20722068745854,FALSE,5.47020156731703
"CAN","cpi",0.1,1966,3,1965,NA,1.5,1.94582037128853,2.47867256427824,3.72486065470629,1.60663824631958,FALSE,3.3021590606076
"CAN","cpi",0.1,1967,3,1967,NA,0,7.1684770374663,7.54044415052214,3.49360316391996,3.76768849328632,FALSE,8.53835349871438
"CAN","cpi",0.1,1967,3,1967,NA,0.5,2.58120199234253,2.95316910539837,3.49360316391996,2.4074547441976,FALSE,1.57293168754827
"CAN","cpi",0.1,1967,3,1966,NA,1,1.19217121607824,1.56413832913408,3.49360316391996,3.18103323070284,FALSE,4.65966674591335
"CAN","cpi",0.1,1967,3,1966,NA,1.5,2.19281476638609,2.56478187944194,3.49360316391996,4.65128160487248,FALSE,2.4360144118959
"CAN","cpi",0.1,1968,3,1968,NA,0,3.60422896043505,3.62881887871834,3.95128347779386,4.17287945672396,FALSE,0.741177916228883
"CAN","cpi",0.1,1968,3,1968,NA,0.5,3.37525598932021,3.4247232515622,3.95128347779386,4.07097205779852,FALSE,1.21960109831235
"CAN","cpi",0.1,1968,3,1967,NA,1,2.53734615800065,2.58681342024264,3.95128347779386,5.84521682123848,FALSE,3.08162294568914
"CAN","cpi",0.1,1968,3,1967,NA,1.5,2.32605351093044,2.91780921550454,3.95128347779386,2.25565858240226,FALSE,2.88836517632814
"CAN","cpi",0.1,1969,3,1969,NA,0,3.83367026850288,3.85518218556976,4.42679496126681,4.46896837073893,FALSE,1.29176252972699
"CAN","cpi",0.1,1969,3,1969,NA,0.5,3.42110991952516,3.44262183659204,4.42679496126681,2.96612019395715,FALSE,2.20856330523305
"CAN","cpi",0.1,1969,3,1968,NA,1,3.33520173824807,3.65359648625517,4.42679496126681,6.72487630040807,FALSE,2.03661358136632
"CAN","cpi",0.1,1969,3,1968,NA,1.5,3.18097587868863,3.49937062669573,4.42679496126681,4.31664452944541,FALSE,2.37933771372062
"CAN","cpi",0.1,1970,3,1970,NA,0,3.33125158443759,3.35001164489106,3.28128405769805,3.52697515579364,FALSE,0.129799008763562
"CAN","cpi",0.1,1970,3,1970,NA,0.5,3.55140435487192,3.66703757497199,3.28128405769805,4.65371085276917,FALSE,0.715900547153127
"CAN","cpi",0.1,1970,3,1969,NA,1,2.15946931917673,2.34070075180346,3.28128405769805,4.52747875087707,FALSE,2.27141655683692
"CAN","cpi",0.1,1970,3,1969,NA,1.5,3.29006543840845,3.47129687103519,3.28128405769805,2.07973847283129,FALSE,0.200745611983197
"CAN","cpi",0.1,1971,3,1971,NA,0,2.56003840713977,2.57648532700516,2.64123406634756,2.8393232579169,FALSE,0.160333007292951
"CAN","cpi",0.1,1971,3,1971,NA,0.5,2.38017867028257,2.41917420953054,2.64123406634756,2.06692165705507,FALSE,0.532461887730242
"CAN","cpi",0.1,1971,3,1970,NA,1,1.40689344108949,1.54198956292736,2.64123406634756,2.64105994583495,FALSE,2.57786168499388
"CAN","cpi",0.1,1971,3,1970,NA,1.5,3.33508489307073,3.47018101490861,2.64123406634756,4.63977638900468,FALSE,1.67698684788937
"CAN","cpi",0.1,1972,3,1972,NA,0,4.19031003885588,4.24343735715617,4.83230569625923,5.03048103188219,FALSE,1.3617236274182
"CAN","cpi",0.1,1972,3,1972,NA,0.5,3.45780787483563,3.54216414230575,4.83230569625923,5.06705904355972,FALSE,2.95133749847785
"CAN","cpi",0.1,1972,3,1971,NA,1,3.71321372444355,3.79756999191367,4.83230569625923,5.9169160270675,FALSE,2.38376894379358
"CAN","cpi",0.1,1972,3,1971,NA,1.5,3.28785673217785,3.40618649204828,4.83230569625923,3.09276495441271,FALSE,3.28748354700588
"CAN","cpi",0.1,1973,3,1973,NA,0,4.73240080009105,4.80032377936654,7.12388603531779,6.99264756193144,FALSE,5.23139465916716
"CAN","cpi",0.1,1973,3,1973,NA,0.5,3.5282727486258,3.69016060404979,7.12388603531779,5.47469896411854,FALSE,7.79238881379732
"CAN","cpi",0.1,1973,3,1972,NA,1,3.99406958886762,4.19377608312387,7.12388603531779,6.69062283747837,FALSE,6.71106194357607
"CAN","cpi",0.1,1973,3,1972,NA,1.5,3.3470226353498,3.56882336967084,7.12388603531779,4.73174243586486,FALSE,8.12193999131426
"CAN","cpi",0.1,1974,3,1974,NA,0,8.37694492910844,8.65546527971814,10.2717243737774,9.94431520564033,FALSE,3.87020722629698
"CAN","cpi",0.1,1974,3,1974,NA,0.5,8.49923428505563,9.34959780915289,10.2717243737774,8.3378654175141,FALSE,2.89953366770733
"CAN","cpi",0.1,1974,3,1973,NA,1,4.94283975034491,6.48082418575192,10.2717243737774,7.16712422635118,FALSE,9.96220707546367
"CAN","cpi",0.1,1974,3,1973,NA,1.5,2.69995133077223,4.23793576617924,10.2717243737774,4.05174749178054,FALSE,14.946403563403
"CAN","cpi",0.1,1975,3,1975,NA,0,10.064184824952,10.1052449323112,10.0232981493341,10.0931823619779,FALSE,0.131919386510025
"CAN","cpi",0.1,1975,3,1975,NA,0.5,9.00892151200406,9.85804023121859,10.0232981493341,8.98267476097328,FALSE,1.21635853724904
"CAN","cpi",0.1,1975,3,1974,NA,1,7.73251017952349,8.58162889873802,10.0232981493341,7.7837982223054,FALSE,4.05282816498365
"CAN","cpi",0.1,1975,3,1974,NA,1.5,3.28552021240285,4.13463893161737,10.0232981493341,5.75931605308519,FALSE,13.9350280919184
"CAN","cpi",0.1,1976,3,1976,NA,0,5.89470437314541,6.13084200837022,7.22784311401172,7.07277954951717,FALSE,2.67391786998369
"CAN","cpi",0.1,1976,3,1976,NA,0.5,9.60375161487521,9.92258976036184,7.22784311401172,8.59089060438327,FALSE,5.59863481407216
"CAN","cpi",0.1,1976,3,1975,NA,1,9.15817386490295,10.4556941711497,7.22784311401172,10.4141477685142,FALSE,5.58714419711621
"CAN","cpi",0.1,1976,3,1975,NA,1.5,3.37603679761336,4.67355710386015,7.22784311401172,6.43051086134862,FALSE,6.97371143991693
"CAN","cpi",0.1,1977,3,1977,NA,0,7.18029509626761,7.19283266221685,7.58101410153764,7.55301151664772,FALSE,0.875162986662122
"CAN","cpi",0.1,1977,3,1977,NA,0.5,7.17914084518858,7.20690998020748,7.58101410153764,7.98165850021887,FALSE,0.859111626863703
"CAN","cpi",0.1,1977,3,1976,NA,1,1.50088437232876,2.47754905844742,7.58101410153764,3.72134649143602,FALSE,12.317698115208
"CAN","cpi",0.1,1977,3,1976,NA,1.5,3.87206489008624,6.31462402966347,7.58101410153764,8.00272044475614,FALSE,5.25675929929762
"CAN","cpi",0.1,1978,3,1978,NA,0,7.53033740928429,7.70080165674526,8.50208927062595,8.67127840358843,FALSE,1.95110338941806
"CAN","cpi",0.1,1978,3,1978,NA,0.5,7.47501206138818,8.27023889680737,8.50208927062595,8.3788273181893,FALSE,1.31044988834936
"CAN","cpi",0.1,1978,3,1977,NA,1,7.92424217729835,9.53405107315085,8.50208927062595,7.54783828416051,TRUE,1.6098088958525
"CAN","cpi",0.1,1978,3,1977,NA,1.5,5.06139150053977,7.16546683378504,8.50208927062595,9.72562756342223,FALSE,5.07434741511396
"CAN","cpi",0.1,1979,3,1979,NA,0,7.94259254780072,8.04474283167855,8.65147652410481,8.56376390232469,FALSE,1.45044737815841
"CAN","cpi",0.1,1979,3,1979,NA,0.5,7.70140506743456,8.01448302043073,8.65147652410481,8.29599284966764,FALSE,1.7286190722719
"CAN","cpi",0.1,1979,3,1978,NA,1,8.34803656901218,8.97641013756756,8.65147652410481,9.20311500508918,TRUE,0.628373568555379
"CAN","cpi",0.1,1979,3,1978,NA,1.5,6.91984421374479,7.54821778230017,8.65147652410481,8.55646910152924,FALSE,3.08005966145458
"CAN","cpi",0.1,1980,3,1980,NA,0,8.87308743176023,9.05551982518141,9.5171912664748,9.50406722106931,FALSE,1.20836892962871
"CAN","cpi",0.1,1980,3,1980,NA,0.5,8.34114860446623,8.5235809978874,9.5171912664748,8.57798914335092,FALSE,2.39045521250428
"CAN","cpi",0.1,1980,3,1979,NA,1,8.48555741720154,8.66798981062272,9.5171912664748,8.17875203710815,FALSE,2.06954673975913
"CAN","cpi",0.1,1980,3,1979,NA,1.5,7.34594615877954,7.58415844421925,9.5171912664748,8.39204766062112,FALSE,4.53384077934092
"CAN","cpi",0.1,1981,3,1981,NA,0,10.2066012093388,10.4655997899973,11.5813425032741,11.7113878984199,FALSE,2.73842683238476
"CAN","cpi",0.1,1981,3,1981,NA,0.5,10.9586581801287,11.3614838799351,11.5813425032741,12.2156196752767,FALSE,0.891400418337644
"CAN","cpi",0.1,1981,3,1980,NA,1,8.57680171550282,9.08185968185254,11.5813425032741,11.0496853423024,FALSE,6.0594642361755
"CAN","cpi",0.1,1981,3,1980,NA,1.5,7.65079720995838,8.18537234738289,11.5813425032741,8.33809792174894,FALSE,8.08117548384951
"CAN","cpi",0.1,1982,3,1982,NA,0,10.0271590726174,10.0754266887528,10.1124203763629,10.2566668151097,FALSE,0.130475810824648
"CAN","cpi",0.1,1982,3,1982,NA,0.5,9.99504293684329,10.0433105529787,10.1124203763629,10.1085355973545,FALSE,0.201845001433688
"CAN","cpi",0.1,1982,3,1981,NA,1,10.8365696191791,11.0493519330547,10.1124203763629,11.770988683124,FALSE,1.82200285346703
"CAN","cpi",0.1,1982,3,1981,NA,1.5,8.22577446391016,8.54691732356934,10.1124203763629,12.8701250351281,FALSE,3.80003853253387
"CAN","cpi",0.1,1983,3,1983,NA,0,4.5012502400568,4.67390138614465,5.67091787896303,5.7310121416489,FALSE,2.38824335235092
"CAN","cpi",0.1,1983,3,1983,NA,0.5,3.63235427879686,3.84670086632408,5.67091787896303,4.91343016009654,FALSE,4.26816217116935
"CAN","cpi",0.1,1983,3,1982,NA,1,8.62292009022653,9.03641909666265,5.67091787896303,9.18500149866057,FALSE,6.973503920355
"CAN","cpi",0.1,1983,3,1982,NA,1.5,8.17956280689796,8.59306181333408,5.67091787896303,9.68672301569366,FALSE,5.98826551295818
"CAN","cpi",0.1,1984,3,1984,NA,0.5,4.97133230980864,5.47471021522825,4.19799576814029,5.85770686024457,FALSE,2.22190355357149
"CAN","cpi",0.1,1984,3,1983,NA,1,3.71609495547494,4.21947286089455,4.19799576814029,5.76553357996429,TRUE,0.503377905419609
"CAN","cpi",0.1,1984,3,1983,NA,1.5,3.71907743377297,4.22245533919258,4.19799576814029,2.9197996794717,TRUE,0.50337790541961
"CAN","cpi",0.1,1985,3,1985,NA,0,3.60894267691343,3.63459799991297,3.86444262005169,3.85417990135378,FALSE,0.53642114553003
"CAN","cpi",0.1,1985,3,1985,NA,0.5,3.66700740263427,3.81948768313943,3.86444262005169,4.21990042382899,FALSE,0.252380140310189
"CAN","cpi",0.1,1985,3,1984,NA,1.5,7.71918269821902,8.36393186054996,3.86444262005169,8.62999660305356,FALSE,9.21083822492499
"CAN","cpi",0.1,1986,3,1986,NA,0,3.86844041425953,3.88355670603653,4.08685396749431,4.03771389199993,FALSE,0.466887983905405
"CAN","cpi",0.1,1986,3,1986,NA,0.5,3.78585607760466,3.83824542156396,4.08685396749431,4.38219332503529,FALSE,0.604852779360087
"CAN","cpi",0.1,1986,3,1985,NA,1,2.37345995485133,2.65158946719785,4.08685396749431,3.37849976080849,FALSE,3.46760617967199
"CAN","cpi",0.1,1986,3,1985,NA,1.5,5.91341073275866,6.38826661195264,4.08685396749431,4.95309858900956,FALSE,4.53387091311476
"CAN","cpi",0.1,1987,3,1987,NA,0.5,3.82941121274527,3.88181004525736,4.23980729277887,4.13342161080085,FALSE,0.847948271448787
"CAN","cpi",0.1,1987,3,1986,NA,1,2.35721852127386,2.67280518012178,4.23980729277887,3.66140988164798,FALSE,3.79781357586368
"CAN","cpi",0.1,1987,3,1986,NA,1.5,4.26669552804991,5.90415490756495,4.23980729277887,4.80242768143514,FALSE,1.69721101345069
"CAN","cpi",0.1,1988,3,1988,NA,0,3.84781839702969,3.87838190230651,3.92899537638065,3.9438316199536,FALSE,0.143037892108247
"CAN","cpi",0.1,1988,3,1988,NA,0.5,3.71007608963376,3.86225546982856,3.92899537638065,3.35419215340812,FALSE,0.300490283643902
"CAN","cpi",0.1,1988,3,1987,NA,1.5,4.19066371471054,4.34284309490533,3.92899537638065,3.89461929526446,FALSE,0.733664576483423
"CAN","cpi",0.1,1989,3,1989,NA,0,4.78744526071515,4.90068738896169,4.82821664544208,4.95130318392835,TRUE,0.113242128246538
"CAN","cpi",0.1,1989,3,1989,NA,0.5,3.91376236560083,4.02700449384737,4.82821664544208,4.23024942747073,FALSE,1.89371357623477
"CAN","cpi",0.1,1989,3,1988,NA,1,2.72273518600034,3.15600498560651,4.82821664544208,4.05841794603162,FALSE,4.14929571035187
"CAN","cpi",0.1,1989,3,1988,NA,1.5,3.77808098323087,4.21135078283705,4.82821664544208,2.597843559383,FALSE,1.80408282761735
"CAN","cpi",0.1,1990,3,1990,NA,0,4.31279017371732,4.33397540774195,4.64347549432717,4.4746950192663,FALSE,0.708963204214009
"CAN","cpi",0.1,1990,3,1990,NA,0.5,4.29278654884917,4.66064202098997,4.64347549432717,4.96487168902479,TRUE,0.367855472140803
"CAN","cpi",0.1,1990,3,1989,NA,1,3.27729405747741,3.64514952961821,4.64347549432717,5.43871373969076,FALSE,2.58635761593849
"CAN","cpi",0.1,1990,3,1989,NA,1.5,4.01713599994684,4.38499147208764,4.64347549432717,3.3732540002381,FALSE,0.942264410450861
"CAN","cpi",0.1,1991,3,1991,NA,0,5.0281989123865,5.14550711221071,5.4258100696218,5.61053369942382,FALSE,0.740203660737729
"CAN","cpi",0.1,1991,3,1991,NA,0.5,7.962564189323,8.28801633489683,5.4258100696218,7.82199295477594,FALSE,5.96268352268761
"CAN","cpi",0.1,1991,3,1990,NA,1,3.06229702591094,3.38774917148477,5.4258100696218,3.66716818384097,FALSE,4.8544763636561
"CAN","cpi",0.1,1991,3,1990,NA,1.5,4.12477790028658,4.45023004586041,5.4258100696218,4.82481948664164,FALSE,2.49340775393246
"CAN","cpi",0.1,1992,3,1991,NA,1,2.66228362127754,2.8028303242765,1.47496888572843,2.76780571233213,FALSE,2.77902389310809
"CAN","cpi",0.1,1992,3,1991,NA,1.5,5.86549522545416,6.77385552813471,1.47496888572843,7.14938182660169,FALSE,10.6650855020711
"CAN","cpi",0.2,1950,3,1950,NA,0,3.41276022321824,3.41276022321824,2.59031220731124,2.34506766740468,FALSE,2.0561200397675
"CAN","cpi",0.2,1950,3,1950,NA,0.5,3.41276022321824,3.41276022321824,2.59031220731124,-0.480727815155867,FALSE,2.0561200397675
"CAN","cpi",0.2,1950,3,1949,NA,1,3.41402300277387,5.36279216806516,2.59031220731124,5.09987337388258,FALSE,4.00804615394787
"CAN","cpi",0.2,1950,3,1949,NA,1.5,3.41149744366261,5.3602666089539,2.59031220731124,12.3211560066576,FALSE,4.00173225616972
"CAN","cpi",0.2,1951,3,1951,NA,0,5.07827836999107,6.12011652270015,9.87945438999359,9.91468181420993,FALSE,10.4401828209427
"CAN","cpi",0.2,1951,3,1951,NA,0.5,2.65996067143075,3.70179882413983,9.87945438999359,8.91293028153729,FALSE,16.4859770673435
"CAN","cpi",0.2,1951,3,1950,NA,1,2.2758327110512,3.31767086376028,9.87945438999359,7.18504019917801,FALSE,17.4462969682924
"CAN","cpi",0.2,1951,3,1950,NA,1.5,2.48086395592865,3.52270210863773,9.87945438999359,-2.18579641022426,FALSE,16.9337188560987
"CAN","cpi",0.2,1952,3,1952,NA,0,2.59031220731124,2.59031220731124,2.55562336095485,2.50792675283471,FALSE,0.0867221158909803
"CAN","cpi",0.2,1952,3,1952,NA,0.5,2.77012010698956,2.98433585546157,2.55562336095485,5.20333179389047,FALSE,0.750457613558786
"CAN","cpi",0.2,1952,3,1951,NA,1,4.51767191661999,7.82821261346214,2.55562336095485,8.18998200969936,FALSE,8.21566208600502
"CAN","cpi",0.2,1952,3,1951,NA,1.5,3.08377960810235,7.29276565475102,2.55562336095485,7.55460015368862,FALSE,5.52937666451743
"CAN","cpi",0.2,1953,3,1953,NA,0,2.55562336095485,2.56256967141585,-1.01492775838436,-0.954275034924989,FALSE,8.93332410880903
"CAN","cpi",0.2,1953,3,1953,NA,0.5,2.55562336095485,2.56256967141585,-1.01492775838436,-1.88711612688489,FALSE,8.93332410880903
"CAN","cpi",0.2,1953,3,1952,NA,1,2.64155407122616,2.89862290980358,-1.01492775838436,-0.873617238258229,FALSE,9.39827341260372
"CAN","cpi",0.2,1953,3,1952,NA,1.5,2.59031220579273,3.41275952922569,-1.01492775838436,5.93557635631702,FALSE,9.83554723387568
"CAN","cpi",0.2,1954,3,1954,NA,0,-0.694557429109809,0.666714409826387,0.644425455961438,0.879731201855888,TRUE,1.3612718389362
"CAN","cpi",0.2,1954,3,1954,NA,0.5,1.52166986910676,2.88294170804295,0.644425455961438,-0.358875738913824,FALSE,3.5543828717995
"CAN","cpi",0.2,1954,3,1953,NA,1,0.676846844854844,2.56111400972809,0.644425455961438,3.38326531029323,FALSE,1.96532063710676
"CAN","cpi",0.2,1954,3,1953,NA,1.5,0.415423499658125,3.08378103249993,0.644425455961438,-1.28741438714058,TRUE,2.66835753284181
"CAN","cpi",0.2,1955,3,1955,NA,0,-1.01492775838436,-0.494187037790796,0.173649026558865,0.115254687233858,FALSE,2.19033088146772
"CAN","cpi",0.2,1955,3,1955,NA,0.5,-0.0836970052155731,0.509817897950094,0.173649026558865,-0.770970046821609,TRUE,0.593514903165667
"CAN","cpi",0.2,1955,3,1954,NA,1,-0.438071964751669,0.155442938413998,0.173649026558865,3.47019599757395,FALSE,0.639030123527835
"CAN","cpi",0.2,1955,3,1954,NA,1.5,-0.0193546112017744,2.59028975385992,0.173649026558865,-1.89562740163941,TRUE,2.60964436506169
"CAN","cpi",0.2,1956,3,1956,NA,0,0.679904672685914,1.02254157206653,1.32752769429961,1.56059797998755,FALSE,1.10510220496331
"CAN","cpi",0.2,1956,3,1956,NA,0.5,-0.431366845033201,-0.0887299456525877,1.32752769429961,-0.709146002056511,FALSE,3.8832809992611
"CAN","cpi",0.2,1956,3,1955,NA,1,-1.14921036783975,-0.806573468459133,1.32752769429961,0.884549626974225,FALSE,5.67788980627747
"CAN","cpi",0.2,1956,3,1955,NA,1.5,-0.21957008762357,1.6301059830027,1.32752769429961,-1.89150615642833,TRUE,1.84967607062627
"CAN","cpi",0.2,1957,3,1957,NA,0,6.79532598820209,8.01147433969163,3.24684755852518,3.4151370317006,FALSE,10.0873444256818
"CAN","cpi",0.2,1957,3,1957,NA,0.5,1.43624809049753,2.65239644198708,3.24684755852518,2.23982631608766,FALSE,2.70227614283479
"CAN","cpi",0.2,1957,3,1956,NA,1,2.71288621574564,3.92903456723518,3.24684755852518,6.98754636690555,TRUE,1.21614835148954
"CAN","cpi",0.2,1957,3,1956,NA,1.5,0.324369049977095,1.54051740146664,3.24684755852518,-1.88668623310337,FALSE,5.48197374413589
"CAN","cpi",0.2,1958,3,1958,NA,0,2.04093255351111,2.60215460465027,2.33186388641149,2.22387249143335,TRUE,0.561222051139159
"CAN","cpi",0.2,1958,3,1958,NA,0.5,2.3092922479548,4.0224153090822,2.33186388641149,2.22839060734872,TRUE,1.71312306112739
"CAN","cpi",0.2,1958,3,1957,NA,1,1.24620602063672,3.18366917988112,2.33186388641149,4.42088197051908,TRUE,1.9374631592444
"CAN","cpi",0.2,1958,3,1957,NA,1.5,0.6448234354965,2.58627822144605,2.33186388641149,0.91301479707402,TRUE,1.94145478594955
"CAN","cpi",0.2,1959,3,1959,NA,0,0.586284303160935,0.825233119001067,1.19382698397654,1.24991216431293,FALSE,1.16043347827882
"CAN","cpi",0.2,1959,3,1959,NA,0.5,1.58271027661635,2.03707596333854,1.19382698397654,0.437839731590327,FALSE,1.42657391832171
"CAN","cpi",0.2,1959,3,1958,NA,1,0.181938854480042,0.63630454120223,1.19382698397654,1.75862762885946,FALSE,1.84817179365796
"CAN","cpi",0.2,1959,3,1958,NA,1.5,1.54874372296466,2.21241743136856,1.19382698397654,1.77407172713766,FALSE,1.55096555587421
"CAN","cpi",0.2,1960,3,1960,NA,0,0.481660531517122,0.635787140508363,1.34209404870695,1.02361304259477,FALSE,1.91989387948771
"CAN","cpi",0.2,1960,3,1960,NA,0.5,1.11022299271806,1.30286131968574,1.34209404870695,0.53898348018166,FALSE,0.290720149520718
"CAN","cpi",0.2,1960,3,1959,NA,1,1.23169945370327,1.54827533797993,1.34209404870695,3.95759373689442,TRUE,0.316575884276658
"CAN","cpi",0.2,1960,3,1959,NA,1.5,1.05247254720952,1.90059535186915,1.34209404870695,-0.873476815404885,TRUE,0.848122804659624
"CAN","cpi",0.2,1961,3,1961,NA,0,1.01065907535403,1.23847136612284,1.00921348094007,1.00921348094007,FALSE,0.231426276803703
"CAN","cpi",0.2,1961,3,1961,NA,0.5,1.15997452425374,1.56683389019391,1.00921348094007,1.00921348094007,FALSE,0.783761974224336
"CAN","cpi",0.2,1961,3,1960,NA,1,-0.730443312168963,-0.150505656796738,1.00921348094007,0.0537704626035329,FALSE,3.47923549971425
"CAN","cpi",0.2,1961,3,1960,NA,1.5,1.04304372674159,1.62298138211381,1.00921348094007,-0.862181798940035,FALSE,0.664513269876021
"CAN","cpi",0.2,1962,3,1962,NA,0,1.15689635002032,1.27406603096272,1.04957947883042,1.10232402731478,FALSE,0.38546185891716
"CAN","cpi",0.2,1962,3,1962,NA,0.5,1.08311538031422,1.27404513141756,1.04957947883042,0,FALSE,0.274769504812843
"CAN","cpi",0.2,1962,3,1961,NA,1,0.557499012067377,0.751054333074528,1.04957947883042,0,FALSE,0.939868185396869
"CAN","cpi",0.2,1962,3,1961,NA,1.5,1.12388075289866,1.34074415741217,1.04957947883042,0,FALSE,0.402616589684126
"CAN","cpi",0.2,1963,3,1963,NA,0,1.44280685597498,1.71201019900354,1.60677118395228,1.91491729531202,TRUE,0.269203343028556
"CAN","cpi",0.2,1963,3,1963,NA,0.5,1.0649312075504,1.33413455057895,1.60677118395228,0.836828714617504,FALSE,0.950794926461885
"CAN","cpi",0.2,1963,3,1962,NA,1,0.814207229411824,1.08341057244038,1.60677118395228,2.56411490415144,FALSE,1.57760487180831
"CAN","cpi",0.2,1963,3,1962,NA,1.5,1.09530796375942,1.36451130678798,1.60677118395228,0,FALSE,0.874853035939326
"CAN","cpi",0.2,1964,3,1964,NA,0,1.35151694989303,1.47993498907645,1.88764670034376,1.98877256446048,FALSE,1.14769731735169
"CAN","cpi",0.2,1964,3,1964,NA,0.5,1.44922741559394,1.57764545477736,1.88764670034376,1.38369006227607,FALSE,0.903421153099417
"CAN","cpi",0.2,1964,3,1963,NA,1,2.50481416286483,2.63323220204825,1.88764670034376,5.39044290347256,FALSE,1.67133669548609
"CAN","cpi",0.2,1964,3,1963,NA,1.5,1.12173597544884,1.37472803104312,1.88764670034376,0,FALSE,1.53528872884588
"CAN","cpi",0.2,1965,3,1965,NA,0,2.96187060636251,3.57175148257022,2.29538304394236,2.34557047418999,FALSE,2.2760997822581
"CAN","cpi",0.2,1965,3,1965,NA,0.5,1.39962838682518,2.00950926303289,2.29538304394236,1.61079447956654,FALSE,1.32456532848137
"CAN","cpi",0.2,1965,3,1964,NA,1,0.816762952263498,1.42664382847121,2.29538304394236,2.42518862179847,FALSE,2.78172891488559
"CAN","cpi",0.2,1965,3,1964,NA,1.5,1.47415372478273,2.08403460099044,2.29538304394236,0.818102552316399,FALSE,1.1382519835875
"CAN","cpi",0.2,1966,3,1966,NA,0,3.31683333581258,3.35183472803503,3.72486065470629,3.82010987863709,FALSE,0.9675662089006
"CAN","cpi",0.2,1966,3,1966,NA,0.5,3.06078177423579,4.07052424034205,3.72486065470629,3.99123398895563,TRUE,1.00974246610626
"CAN","cpi",0.2,1966,3,1965,NA,1,0.707705823789992,1.71744828989625,3.72486065470629,3.20722068745854,FALSE,6.02827337813135
"CAN","cpi",0.2,1966,3,1965,NA,1.5,1.62424828996136,2.63399075606762,3.72486065470629,1.60663824631958,FALSE,3.73691721270294
"CAN","cpi",0.2,1967,3,1967,NA,0,6.97828067484258,7.73064051314586,3.49360316391996,3.76768849328632,FALSE,9.46405361560983
"CAN","cpi",0.2,1967,3,1967,NA,0.5,2.39114701641729,3.14350685472057,3.49360316391996,2.4074547441976,FALSE,1.62760061130176
"CAN","cpi",0.2,1967,3,1966,NA,1,1.03803466734416,1.79039450564744,3.49360316391996,3.18103323070284,FALSE,5.01038148398458
"CAN","cpi",0.2,1967,3,1966,NA,1.5,2.06637049890184,2.81873033720511,3.49360316391996,4.65128160487248,FALSE,2.43954190509039
"CAN","cpi",0.2,1968,3,1968,NA,0,3.5919340012934,3.64111383785999,3.95128347779386,4.17287945672396,FALSE,0.824603936401257
"CAN","cpi",0.2,1968,3,1968,NA,0.5,3.31318702715584,3.46125926646424,3.95128347779386,4.07097205779852,FALSE,1.37313276763245
"CAN","cpi",0.2,1968,3,1967,NA,1,2.43175937029945,2.58422726449763,3.95128347779386,5.84521682123848,FALSE,3.57010842743875
"CAN","cpi",0.2,1968,3,1967,NA,1.5,2.31290956199963,3.24779000330059,3.95128347779386,2.25565858240226,FALSE,2.69361412753413
"CAN","cpi",0.2,1969,3,1969,NA,0,3.82291362984391,3.86593882422874,4.42679496126681,4.46896837073893,FALSE,1.44516553698002
"CAN","cpi",0.2,1969,3,1969,NA,0.5,3.4103519206151,3.45337711499994,4.42679496126681,2.96612019395715,FALSE,2.47656981005203
"CAN","cpi",0.2,1969,3,1968,NA,1,3.06990633822832,3.77015573898779,4.42679496126681,6.72487630040807,FALSE,2.34184745645703
"CAN","cpi",0.2,1969,3,1968,NA,1.5,2.55566473774699,3.44509677493788,4.42679496126681,4.31664452944541,FALSE,3.34367750301323
"CAN","cpi",0.2,1970,3,1970,NA,0,3.32187155421086,3.35939167511779,3.28128405769805,3.52697515579364,FALSE,0.138988862188957
"CAN","cpi",0.2,1970,3,1970,NA,0.5,3.49357991543617,3.7248528852465,3.28128405769805,4.65371085276917,FALSE,0.762012614155628
"CAN","cpi",0.2,1970,3,1969,NA,1,2.03262205538423,2.46754801559595,3.28128405769805,4.52747875087707,FALSE,2.46926606546695
"CAN","cpi",0.2,1970,3,1969,NA,1.5,2.56322405445196,3.49360339689097,3.28128405769805,2.07973847283129,TRUE,0.930379342439011
"CAN","cpi",0.2,1971,3,1971,NA,0,2.5190625937434,2.58468708083168,2.64123406634756,2.8393232579169,FALSE,0.206991950877985
"CAN","cpi",0.2,1971,3,1971,NA,0.5,2.36068090065859,2.43867197915452,2.64123406634756,2.06692165705507,FALSE,0.584396296478537
"CAN","cpi",0.2,1971,3,1970,NA,1,1.39417848152651,1.86195708204996,2.64123406634756,2.64105994583495,FALSE,2.41597106126746
"CAN","cpi",0.2,1971,3,1970,NA,1.5,3.25112562518,3.71890422570345,2.64123406634756,4.63977638900468,FALSE,1.99250749760455
"CAN","cpi",0.2,1972,3,1972,NA,0,4.16374637970574,4.27000101630631,4.83230569625923,5.03048103188219,FALSE,1.51201633648287
"CAN","cpi",0.2,1972,3,1972,NA,0.5,3.37330740092103,3.63234768506859,4.83230569625923,5.06705904355972,FALSE,3.25893531212416
"CAN","cpi",0.2,1972,3,1971,NA,1,3.2468481954212,3.79813969593028,4.83230569625923,5.9169160270675,FALSE,3.13670650133145
"CAN","cpi",0.2,1972,3,1971,NA,1.5,2.66496805853837,3.53759643059453,4.83230569625923,3.09276495441271,FALSE,4.10940153621791
"CAN","cpi",0.2,1973,3,1973,NA,0,4.69844281676722,4.89289125782949,7.12388603531779,6.99264756193144,FALSE,5.77193538478301
"CAN","cpi",0.2,1973,3,1973,NA,0.5,3.4504233086038,3.79277762749005,7.12388603531779,5.47469896411854,FALSE,8.6701253384556
"CAN","cpi",0.2,1973,3,1972,NA,1,3.87828618300603,4.24583873483134,7.12388603531779,6.69062283747837,FALSE,7.56267080304144
"CAN","cpi",0.2,1973,3,1972,NA,1.5,3.23349397737668,3.60104652920199,7.12388603531779,4.73174243586486,FALSE,9.17465131711481
"CAN","cpi",0.2,1974,3,1974,NA,0,8.2376847538036,8.79472545502299,10.2717243737774,9.94431520564033,FALSE,4.24953799810547
"CAN","cpi",0.2,1974,3,1974,NA,0.5,8.07405252300701,9.77477957120151,10.2717243737774,8.3378654175141,FALSE,2.94308905463427
"CAN","cpi",0.2,1974,3,1973,NA,1,4.84357271628716,7.05540249021859,10.2717243737774,7.16712422635118,FALSE,10.2526344828285
"CAN","cpi",0.2,1974,3,1973,NA,1.5,2.53666315012338,4.74849292405481,10.2717243737774,4.05174749178054,FALSE,16.019908398238
"CAN","cpi",0.2,1975,3,1975,NA,0,10.0436547712723,10.1257749859909,10.0232981493341,10.0931823619779,FALSE,0.13301176956405
"CAN","cpi",0.2,1975,3,1975,NA,0.5,7.83521439191857,9.96542752916532,10.0232981493341,8.98267476097328,FALSE,2.27488968766874
"CAN","cpi",0.2,1975,3,1974,NA,1,5.71799020849167,8.31634907406099,10.0232981493341,7.7837982223054,FALSE,6.86573155375215
"CAN","cpi",0.2,1975,3,1974,NA,1.5,2.51233773067253,5.11069659624184,10.0232981493341,5.75931605308519,FALSE,14.8798627483
"CAN","cpi",0.2,1976,3,1976,NA,0,5.776635555533,6.24891082598263,7.22784311401172,7.07277954951717,FALSE,2.91960599052235
"CAN","cpi",0.2,1976,3,1976,NA,0.5,9.32819029778048,9.96574728542968,7.22784311401172,8.59089060438327,FALSE,5.88842494707111
"CAN","cpi",0.2,1976,3,1975,NA,1,8.22594235440928,10.8510185210614,7.22784311401172,10.4141477685142,FALSE,5.12032426764598
"CAN","cpi",0.2,1976,3,1975,NA,1.5,3.42873350239873,6.06282534077436,7.22784311401172,6.43051086134862,FALSE,5.54663627146903
"CAN","cpi",0.2,1977,3,1977,NA,0,7.17402631329299,7.19910144519146,7.58101410153764,7.55301151664772,FALSE,0.979856772763924
"CAN","cpi",0.2,1977,3,1977,NA,0.5,7.16525627767914,7.22079454771693,7.58101410153764,7.98165850021887,FALSE,0.956087154589579
"CAN","cpi",0.2,1977,3,1976,NA,1,1.39498221574335,2.59029742406964,7.58101410153764,3.72134649143602,FALSE,13.6721069019963
"CAN","cpi",0.2,1977,3,1976,NA,1.5,3.46113746158689,7.67497814629507,7.58101410153764,8.00272044475614,TRUE,4.21384068470817
"CAN","cpi",0.2,1978,3,1978,NA,0,7.49672318942411,7.94407296240575,8.50208927062595,8.67127840358843,FALSE,1.84239054353213
"CAN","cpi",0.2,1978,3,1978,NA,0.5,7.36907036909657,8.95985652086293,8.50208927062595,8.3788273181893,TRUE,1.59078615176636
"CAN","cpi",0.2,1978,3,1977,NA,1,6.50920157000659,9.9024576048295,8.50208927062595,7.54783828416051,TRUE,3.39325603482291
"CAN","cpi",0.2,1978,3,1977,NA,1.5,3.69113302258099,7.20705165413186,8.50208927062595,9.72562756342223,FALSE,6.75351267278609
"CAN","cpi",0.2,1979,3,1979,NA,0,7.89151327262313,8.09580158942423,8.65147652410481,8.56376390232469,FALSE,1.59347565350255
"CAN","cpi",0.2,1979,3,1979,NA,0.5,7.55577100856922,8.17102199692882,8.65147652410481,8.29599284966764,FALSE,1.81638730629958
"CAN","cpi",0.2,1979,3,1978,NA,1,7.76505221724985,9.87945538604257,8.65147652410481,9.20311500508918,TRUE,2.11440316879272
"CAN","cpi",0.2,1979,3,1978,NA,1.5,4.44436233476989,7.43974166878299,8.65147652410481,8.55646910152924,FALSE,6.02471647231765
"CAN","cpi",0.2,1980,3,1980,NA,0,8.78053063365842,9.14807662328321,9.5171912664748,9.50406722106931,FALSE,1.29033259760375
"CAN","cpi",0.2,1980,3,1980,NA,0.5,8.13361115118397,8.59171031044827,9.5171912664748,8.57798914335092,FALSE,2.77180154933062
"CAN","cpi",0.2,1980,3,1979,NA,1,8.19473605586455,9.0813536317798,9.5171912664748,8.17875203710815,FALSE,1.97621166265274
"CAN","cpi",0.2,1980,3,1979,NA,1.5,7.06478708025386,7.9514046561691,9.5171912664748,8.39204766062112,FALSE,4.80108410167948
"CAN","cpi",0.2,1981,3,1981,NA,0,10.158540985674,10.7661969713501,11.5813425032741,11.7113878984199,FALSE,2.64551981548618
"CAN","cpi",0.2,1981,3,1981,NA,0.5,10.7572453302255,11.5628967298382,11.5813425032741,12.2156196752767,FALSE,0.851765833202471
"CAN","cpi",0.2,1981,3,1980,NA,1,8.50751325058093,9.51364189581004,11.5813425032741,11.0496853423024,FALSE,6.17538016388936
"CAN","cpi",0.2,1981,3,1980,NA,1.5,7.45079639848604,8.45692504371515,11.5813425032741,8.33809792174894,FALSE,8.81717229412659
"CAN","cpi",0.2,1982,3,1982,NA,0,9.14066299417637,9.77355568601495,10.1124203763629,10.2566668151097,FALSE,1.48005441770857
"CAN","cpi",0.2,1982,3,1982,NA,0.5,9.75586961847318,10.3887623103118,10.1124203763629,10.1085355973545,TRUE,0.632892691838581
"CAN","cpi",0.2,1982,3,1981,NA,1,10.6265144301976,11.2594071220362,10.1124203763629,11.770988683124,FALSE,1.91812782642522
"CAN","cpi",0.2,1982,3,1981,NA,1.5,7.94943528800892,8.59174142366455,10.1124203763629,12.8701250351281,FALSE,4.44400351740161
"CAN","cpi",0.2,1983,3,1983,NA,0,4.41492466701287,4.76022695918858,5.67091787896303,5.7310121416489,FALSE,2.62202959161184
"CAN","cpi",0.2,1983,3,1983,NA,0.5,3.53984408043643,3.98795266471219,5.67091787896303,4.91343016009654,FALSE,4.65552161990287
"CAN","cpi",0.2,1983,3,1982,NA,1,8.59545560354502,9.42409623053429,5.67091787896303,9.18500149866057,FALSE,8.13998493844423
"CAN","cpi",0.2,1983,3,1982,NA,1.5,7.8562577053541,8.68489833234337,5.67091787896303,9.68672301569366,FALSE,6.29199019296693
"CAN","cpi",0.2,1984,3,1984,NA,0.5,4.36332595455413,5.3291042246535,4.19799576814029,5.85770686024457,FALSE,1.37910373613396
"CAN","cpi",0.2,1984,3,1983,NA,1,3.48489477313506,4.45067304323443,4.19799576814029,5.76553357996429,TRUE,0.965778270099371
"CAN","cpi",0.2,1984,3,1983,NA,1.5,3.53094384384033,4.4967221139397,4.19799576814029,2.9197996794717,TRUE,0.965778270099371
"CAN","cpi",0.2,1985,3,1985,NA,0,3.59611501541366,3.64742566141275,3.86444262005169,3.85417990135378,FALSE,0.593853042596456
"CAN","cpi",0.2,1985,3,1985,NA,0.5,3.60915383811515,3.91411420052744,3.86444262005169,4.21990042382899,TRUE,0.304960362412293
"CAN","cpi",0.2,1985,3,1984,NA,1.5,7.39265029117681,8.53739385907553,3.86444262005169,8.62999660305356,FALSE,9.9652627457115
"CAN","cpi",0.2,1986,3,1986,NA,0,3.85667263952794,3.89111485192503,4.08685396749431,4.03771389199993,FALSE,0.523790001320283
"CAN","cpi",0.2,1986,3,1986,NA,0.5,3.75966140562501,3.86444009354361,4.08685396749431,4.38219332503529,FALSE,0.660813372795361
"CAN","cpi",0.2,1986,3,1985,NA,1,1.7197776403371,3.05436792127554,4.08685396749431,3.37849976080849,FALSE,3.91580539648537
"CAN","cpi",0.2,1986,3,1985,NA,1.5,5.48354353188643,6.81813381282488,4.08685396749431,4.95309858900956,FALSE,4.82631419191874
"CAN","cpi",0.2,1987,3,1987,NA,0.5,3.79438040356813,3.89917776700607,4.23980729277887,4.13342161080085,FALSE,0.95637117786994
"CAN","cpi",0.2,1987,3,1986,NA,1,2.3890470786592,3.02559005376298,4.23980729277887,3.66140988164798,FALSE,3.67208607264352
"CAN","cpi",0.2,1987,3,1986,NA,1.5,4.12577889484994,6.13776044145826,4.23980729277887,4.80242768143514,TRUE,2.01198154660832
"CAN","cpi",0.2,1988,3,1988,NA,0,3.83414206833727,3.8961513362617,3.92899537638065,3.9438316199536,FALSE,0.144119368221816
"CAN","cpi",0.2,1988,3,1988,NA,0.5,3.66033103508134,3.8949476335397,3.92899537638065,3.35419215340812,FALSE,0.319735955560749
"CAN","cpi",0.2,1988,3,1987,NA,1.5,4.17637595731881,4.41099255577716,3.92899537638065,3.89461929526446,FALSE,0.853068050803743
"CAN","cpi",0.2,1989,3,1989,NA,0,4.73082424759096,4.95730840208589,4.82821664544208,4.95130318392835,TRUE,0.226484154494933
"CAN","cpi",0.2,1989,3,1989,NA,0.5,3.87624114289632,4.10272529739125,4.82821664544208,4.23024942747073,FALSE,2.04021252462199
"CAN","cpi",0.2,1989,3,1988,NA,1,2.72646184201934,3.17330262934481,4.82821664544208,4.05841794603162,FALSE,4.58412582756864
"CAN","cpi",0.2,1989,3,1988,NA,1.5,3.77129548937123,4.2181362766967,4.82821664544208,2.597843559383,FALSE,1.97204170918892
"CAN","cpi",0.2,1990,3,1990,NA,0,4.30197395068007,4.3444244001582,4.64347549432717,4.4746950192663,FALSE,0.790078184900551
"CAN","cpi",0.2,1990,3,1990,NA,0.5,4.04996856338269,4.8306696825911,4.64347549432717,4.96487168902479,TRUE,0.780701119208416
"CAN","cpi",0.2,1990,3,1989,NA,1,2.89067850317816,3.67528856579288,4.64347549432717,5.43871373969076,FALSE,3.20507738395045
"CAN","cpi",0.2,1990,3,1989,NA,1.5,3.83766351401721,4.62227357663193,4.64347549432717,3.3732540002381,FALSE,0.837614856852825
"CAN","cpi",0.2,1991,3,1991,NA,0,4.9695448124744,5.20416121212281,5.4258100696218,5.61053369942382,FALSE,0.788738543395868
"CAN","cpi",0.2,1991,3,1991,NA,0.5,7.72969856845045,8.52088195576937,5.4258100696218,7.82199295477594,FALSE,6.55090463439056
"CAN","cpi",0.2,1991,3,1990,NA,1,2.70448554912543,3.49566893644434,5.4258100696218,3.66716818384097,FALSE,5.61653622026255
"CAN","cpi",0.2,1991,3,1990,NA,1.5,3.94262391854715,4.73380730586606,5.4258100696218,4.82481948664164,FALSE,2.52119029670824
"CAN","cpi",0.2,1992,3,1991,NA,1,2.59201026977806,2.87310367577598,1.47496888572843,2.76780571233213,FALSE,3.07369686612198
"CAN","cpi",0.2,1992,3,1991,NA,1.5,4.83228712199367,7.22824826723405,1.47496888572843,7.14938182660169,FALSE,10.7892567359035
"CAN","cpi",0.3,1950,3,1950,NA,0,3.41276022321824,3.41276022321824,2.59031220731124,2.34506766740468,FALSE,2.34985147402
"CAN","cpi",0.3,1950,3,1950,NA,0.5,3.41276022321824,3.41276022321824,2.59031220731124,-0.480727815155867,FALSE,2.34985147402
"CAN","cpi",0.3,1950,3,1949,NA,1,3.41360222973093,6.33677164538635,2.59031220731124,5.09987337388258,FALSE,5.27542662256883
"CAN","cpi",0.3,1950,3,1949,NA,1.5,3.41191821670555,6.33508763236096,2.59031220731124,12.3211560066576,FALSE,5.270615156782
"CAN","cpi",0.3,1951,3,1951,NA,0,4.8679589115668,6.40018926315673,9.87945438999359,9.91468181420993,FALSE,11.4729878568381
"CAN","cpi",0.3,1951,3,1951,NA,0.5,2.41476457199032,3.94699492358026,9.87945438999359,8.91293028153729,FALSE,18.4821145413423
"CAN","cpi",0.3,1951,3,1950,NA,1,2.10767928772681,3.63990963931675,9.87945438999359,7.18504019917801,FALSE,19.3595010678095
"CAN","cpi",0.3,1951,3,1950,NA,1.5,2.23566785648822,3.76789820807816,9.87945438999359,-2.18579641022426,FALSE,18.9938194427769
"CAN","cpi",0.3,1952,3,1952,NA,0,2.59031220731124,2.59031220731124,2.55562336095485,2.50792675283471,FALSE,0.0991109895896918
"CAN","cpi",0.3,1952,3,1952,NA,0.5,2.71656616987155,3.03788979257957,2.55562336095485,5.20333179389047,FALSE,0.781160219612894
"CAN","cpi",0.3,1952,3,1951,NA,1,3.69003674240946,8.65584778767268,2.55562336095485,8.18998200969936,FALSE,8.20699213513354
"CAN","cpi",0.3,1952,3,1951,NA,1.5,2.91929047363243,9.23278220619026,2.55562336095485,7.55460015368862,FALSE,7.35254062592235
"CAN","cpi",0.3,1953,3,1953,NA,0,2.55562336095485,2.56603574727165,-1.01492775838436,-0.954275034924989,FALSE,10.2119870130003
"CAN","cpi",0.3,1953,3,1953,NA,0.5,2.55562336095485,2.56603574727165,-1.01492775838436,-1.88711612688489,FALSE,10.2119870130003
"CAN","cpi",0.3,1953,3,1952,NA,1,2.5772868615818,2.96289011944794,-1.01492775838436,-0.873617238258229,FALSE,10.6490736006266
"CAN","cpi",0.3,1953,3,1952,NA,1.5,2.56428250283359,5.56832008054024,-1.01492775838436,5.93557635631702,FALSE,13.2303526097579
"CAN","cpi",0.3,1954,3,1954,NA,0,-0.624022802189348,1.23923546439949,0.644425455961438,0.879731201855888,TRUE,1.86325826658883
"CAN","cpi",0.3,1954,3,1954,NA,0.5,1.09368569433317,2.956943960922,0.644425455961438,-0.358875738913824,FALSE,3.14685894765092
"CAN","cpi",0.3,1954,3,1953,NA,1,-0.0759590937824939,2.56476397492129,0.644425455961438,3.38326531029323,TRUE,2.64072306870378
"CAN","cpi",0.3,1954,3,1953,NA,1.5,-0.657864916145726,3.33051544465765,0.644425455961438,-1.28741438714058,TRUE,3.98838036080338
"CAN","cpi",0.3,1955,3,1955,NA,0,-1.01492775838436,-0.351859680953292,0.173649026558865,0.115254687233858,FALSE,2.1645215274658
"CAN","cpi",0.3,1955,3,1955,NA,0.5,-0.11168743320541,1.01936151714625,0.173649026558865,-0.770970046821609,TRUE,1.13104895035166
"CAN","cpi",0.3,1955,3,1954,NA,1,-0.706838988344667,0.424209962006995,0.173649026558865,3.47019599757395,TRUE,1.13104895035166
"CAN","cpi",0.3,1955,3,1954,NA,1.5,-0.35122780363788,2.95013316999146,0.173649026558865,-1.89562740163941,TRUE,3.30136097362934
"CAN","cpi",0.3,1956,3,1956,NA,0,0.714517399576577,1.35536562137635,1.32752769429961,1.56059797998755,TRUE,0.640848221799775
"CAN","cpi",0.3,1956,3,1956,NA,0.5,-0.580472506242782,0.0603757155569929,1.32752769429961,-0.709146002056511,FALSE,4.26128244677867
"CAN","cpi",0.3,1956,3,1955,NA,1,-1.15425921643663,-0.513410994636855,1.32752769429961,0.884549626974225,FALSE,5.90067304733252
"CAN","cpi",0.3,1956,3,1955,NA,1.5,-0.418409190653366,2.35025951341795,1.32752769429961,-1.89150615642833,TRUE,2.76866870407131
"CAN","cpi",0.3,1957,3,1957,NA,0,6.38262781177272,8.424172516121,3.24684755852518,3.4151370317006,FALSE,11.0009168564841
"CAN","cpi",0.3,1957,3,1957,NA,0.5,1.02354991406817,3.06509461841644,3.24684755852518,2.23982631608766,FALSE,2.56083881894465
"CAN","cpi",0.3,1957,3,1956,NA,1,2.78372488770885,4.82526959205713,3.24684755852518,6.98754636690555,TRUE,2.04154470434828
"CAN","cpi",0.3,1957,3,1956,NA,1.5,0.0557399004929473,2.09728460484122,3.24684755852518,-1.88668623310337,FALSE,5.32601028630242
"CAN","cpi",0.3,1958,3,1958,NA,0,1.89557169079327,2.70348125449648,2.33186388641149,2.22387249143335,TRUE,0.807909563703213
"CAN","cpi",0.3,1958,3,1958,NA,0.5,2.48436728888736,5.42919183129199,2.33186388641149,2.22839060734872,FALSE,3.38054854947856
"CAN","cpi",0.3,1958,3,1957,NA,1,1.03791456184063,3.98273910424526,2.33186388641149,4.42088197051908,TRUE,2.94482454240463
"CAN","cpi",0.3,1958,3,1957,NA,1.5,0.190456054158383,3.13528059656301,2.33186388641149,0.91301479707402,TRUE,2.94482454240463
"CAN","cpi",0.3,1959,3,1959,NA,0,0.534666778058675,0.888153029349651,1.19382698397654,1.24991216431293,FALSE,1.2268404073678
"CAN","cpi",0.3,1959,3,1959,NA,0.5,1.4691188549358,2.15066738501909,1.19382698397654,0.437839731590327,FALSE,1.46809673282403
"CAN","cpi",0.3,1959,3,1958,NA,1,0.0683474327994949,0.749895962882778,1.19382698397654,1.75862762885946,FALSE,1.94992287606546
"CAN","cpi",0.3,1959,3,1958,NA,1.5,1.38282529586369,2.43403711324789,1.19382698397654,1.77407172713766,FALSE,1.59120699420462
"CAN","cpi",0.3,1960,3,1960,NA,0,0.443128879269312,0.699345118915661,1.34209404870695,1.02361304259477,FALSE,2.09264175333575
"CAN","cpi",0.3,1960,3,1960,NA,0.5,1.0519674503183,1.50175245223396,1.34209404870695,0.53898348018166,TRUE,0.449785001915653
"CAN","cpi",0.3,1960,3,1959,NA,1,1.12397297183671,1.64622848691035,1.34209404870695,3.95759373689442,TRUE,0.522255515073634
"CAN","cpi",0.3,1960,3,1959,NA,1.5,0.804704272235925,2.18717532454509,1.34209404870695,-0.873476815404885,TRUE,1.38247105230916
"CAN","cpi",0.3,1961,3,1961,NA,0,0.949544553345519,1.28303468914488,1.00921348094007,1.00921348094007,TRUE,0.333490135799359
"CAN","cpi",0.3,1961,3,1961,NA,0.5,1.09550583432942,1.75809041666084,1.00921348094007,1.00921348094007,FALSE,0.909134163443847
"CAN","cpi",0.3,1961,3,1960,NA,1,-0.733526851245695,0.055062420336382,1.00921348094007,0.0537704626035329,FALSE,3.51473515902119
"CAN","cpi",0.3,1961,3,1960,NA,1.5,0.834050762190361,1.62264003377244,1.00921348094007,-0.862181798940035,TRUE,0.788589271582077
"CAN","cpi",0.3,1962,3,1962,NA,0,1.13842030946954,1.31420347114881,1.04957947883042,1.10232402731478,FALSE,0.429614106362475
"CAN","cpi",0.3,1962,3,1962,NA,0.5,1.02767473171093,1.31415746098904,1.04957947883042,0,TRUE,0.286482729278108
"CAN","cpi",0.3,1962,3,1961,NA,1,0.432560718558938,0.783324602833278,1.04957947883042,0,FALSE,1.11149210140902
"CAN","cpi",0.3,1962,3,1961,NA,1.5,1.04521059042644,1.63839129185447,1.04957947883042,0,TRUE,0.593180701428036
"CAN","cpi",0.3,1963,3,1963,NA,0,1.49219998803226,1.89175820992163,1.60677118395228,1.91491729531202,TRUE,0.399558221889375
"CAN","cpi",0.3,1963,3,1963,NA,0.5,0.969181544431074,1.36873976632045,1.60677118395228,0.836828714617504,FALSE,1.07964798655176
"CAN","cpi",0.3,1963,3,1962,NA,1,0.70873565804758,1.10829387993695,1.60677118395228,2.56411490415144,FALSE,1.8237790905046
"CAN","cpi",0.3,1963,3,1962,NA,1.5,1.01717375067915,1.41673197256853,1.60677118395228,0,FALSE,0.942527397271542
"CAN","cpi",0.3,1964,3,1964,NA,0,1.38372387988442,1.54656863297321,1.88764670034376,1.98877256446048,FALSE,1.13735351700464
"CAN","cpi",0.3,1964,3,1964,NA,0.5,1.45447633737822,1.68766972647389,1.88764670034376,1.38369006227607,FALSE,0.80455617158102
"CAN","cpi",0.3,1964,3,1963,NA,1,2.45242815694183,2.6856215460375,1.88764670034376,5.39044290347256,FALSE,1.8468546936616
"CAN","cpi",0.3,1964,3,1963,NA,1.5,1.04958232249166,1.4399893647523,1.88764670034376,0,FALSE,1.66942800109339
"CAN","cpi",0.3,1965,3,1965,NA,0,2.53100506366837,2.77072105961139,2.29538304394236,2.34557047418999,FALSE,0.912921766588768
"CAN","cpi",0.3,1965,3,1965,NA,0.5,1.71790448538233,1.95762048132535,2.29538304394236,1.61079447956654,FALSE,1.20475188913447
"CAN","cpi",0.3,1965,3,1964,NA,1,0.849619759107169,1.24767021708333,2.29538304394236,2.42518862179847,FALSE,3.39151567757338
"CAN","cpi",0.3,1965,3,1964,NA,1.5,1.34964201336978,2.15021831689891,2.29538304394236,0.818102552316399,FALSE,1.2153326665104
"CAN","cpi",0.3,1966,3,1966,NA,0,3.30807746849273,3.36057814148934,3.72486065470629,3.82010987863709,FALSE,1.09330785361647
"CAN","cpi",0.3,1966,3,1966,NA,0.5,3.29454970011632,4.82487376211743,3.72486065470629,3.99123398895563,TRUE,1.5303240620011
"CAN","cpi",0.3,1966,3,1965,NA,1,0.487916749848126,2.01824081184923,3.72486065470629,3.20722068745854,FALSE,6.40638075587842
"CAN","cpi",0.3,1966,3,1965,NA,1.5,1.27741912412163,2.80774318612273,3.72486065470629,1.60663824631958,FALSE,4.15065968652556
"CAN","cpi",0.3,1967,3,1967,NA,0,6.65524661591016,8.05328621365862,3.49360316391996,3.76768849328632,FALSE,10.4313066034347
"CAN","cpi",0.3,1967,3,1967,NA,0.5,2.0683071366947,3.46634673444316,3.49360316391996,2.4074547441976,FALSE,1.47591511053932
"CAN","cpi",0.3,1967,3,1966,NA,1,0.656491820488087,2.05453141823655,3.49360316391996,3.18103323070284,FALSE,5.50967315684392
"CAN","cpi",0.3,1967,3,1966,NA,1.5,1.95548021836312,3.35351981611158,3.49360316391996,4.65128160487248,FALSE,1.79827773434382
"CAN","cpi",0.3,1968,3,1968,NA,0,3.57963904215175,3.65340879700164,3.95128347779386,4.17287945672396,FALSE,0.92484027139908
"CAN","cpi",0.3,1968,3,1968,NA,0.5,3.26340320572362,3.48551014063412,3.95128347779386,4.07097205779852,FALSE,1.55288789822403
"CAN","cpi",0.3,1968,3,1967,NA,1,2.30344807909588,2.69503501176356,3.95128347779386,5.84521682123848,FALSE,3.98086826418281
"CAN","cpi",0.3,1968,3,1967,NA,1.5,2.29976561306883,3.42893053435291,3.95128347779386,2.25565858240226,FALSE,2.62160190254393
"CAN","cpi",0.3,1969,3,1969,NA,0,3.80854981009056,3.88030264398209,4.42679496126681,4.46896837073893,FALSE,1.63315945470503
"CAN","cpi",0.3,1969,3,1969,NA,0.5,3.35744777924713,3.46052521231347,4.42679496126681,2.96612019395715,FALSE,2.86384814436161
"CAN","cpi",0.3,1969,3,1968,NA,1,2.89847925895833,3.79286183274474,4.42679496126681,6.72487630040807,FALSE,2.70562008384948
"CAN","cpi",0.3,1969,3,1968,NA,1.5,2.4812267636316,3.48147774106103,4.42679496126681,4.31664452944541,FALSE,3.70115732087452
"CAN","cpi",0.3,1970,3,1970,NA,0,3.31249152398412,3.36877170534452,3.28128405769805,3.52697515579364,FALSE,0.145444370749189
"CAN","cpi",0.3,1970,3,1970,NA,0.5,3.43295973839099,3.78145876288605,3.28128405769805,4.65371085276917,FALSE,0.781858112189187
"CAN","cpi",0.3,1970,3,1969,NA,1,1.9238908685644,2.42562418756091,3.28128405769805,4.52747875087707,FALSE,2.94647580510262
"CAN","cpi",0.3,1970,3,1969,NA,1.5,2.43881000654391,3.57868992977288,3.28128405769805,2.07973847283129,TRUE,1.13987992322898
"CAN","cpi",0.3,1971,3,1971,NA,0,2.45550864946771,2.60330791560671,2.64123406634756,2.8393232579169,FALSE,0.256159696827153
"CAN","cpi",0.3,1971,3,1971,NA,0.5,2.32577680683706,2.47357607297605,2.64123406634756,2.06692165705507,FALSE,0.626822104343309
"CAN","cpi",0.3,1971,3,1970,NA,1,1.35871035830216,1.94361367596392,2.64123406634756,2.64105994583495,FALSE,2.5781044330436
"CAN","cpi",0.3,1971,3,1970,NA,1.5,3.23198869105401,3.81689200871577,2.64123406634756,4.63977638900468,FALSE,2.2727736739659
"CAN","cpi",0.3,1972,3,1972,NA,0,4.1371827205556,4.29656467545645,4.83230569625923,5.03048103188219,FALSE,1.69007058576593
"CAN","cpi",0.3,1972,3,1972,NA,0.5,3.30428321831578,3.7017270129722,4.83230569625923,5.06705904355972,FALSE,3.62766860404794
"CAN","cpi",0.3,1972,3,1971,NA,1,3.12127453396558,3.81951361480612,4.83230569625923,5.9169160270675,FALSE,3.59193074213514
"CAN","cpi",0.3,1972,3,1971,NA,1.5,2.61577304639371,3.67803677834115,4.83230569625923,3.09276495441271,FALSE,4.36017492599909
"CAN","cpi",0.3,1973,3,1973,NA,0,4.85725778529132,5.73903046764247,7.12388603531779,6.99264756193144,FALSE,4.83850287570921
"CAN","cpi",0.3,1973,3,1973,NA,0.5,3.20909377809001,4.09086646044116,7.12388603531779,5.47469896411854,FALSE,9.54754289628439
"CAN","cpi",0.3,1973,3,1972,NA,1,3.42863019824994,4.31040288060109,7.12388603531779,6.69062283747837,FALSE,8.92029598154171
"CAN","cpi",0.3,1973,3,1972,NA,1.5,3.05174420811962,3.93351689047077,7.12388603531779,4.73174243586486,FALSE,9.99711309619979
"CAN","cpi",0.3,1974,3,1974,NA,0,8.09842457849875,8.93398563032784,10.2717243737774,9.94431520564033,FALSE,4.65767174739932
"CAN","cpi",0.3,1974,3,1974,NA,0.5,7.64887076095838,10.1999613332501,10.2717243737774,8.3378654175141,FALSE,2.75612783094113
"CAN","cpi",0.3,1974,3,1973,NA,1,4.57115020757428,7.57482205327178,10.2717243737774,7.16712422635118,FALSE,10.7091070471422
"CAN","cpi",0.3,1974,3,1973,NA,1.5,2.04944764258754,5.05311948828505,10.2717243737774,4.05174749178054,FALSE,17.9139715185329
"CAN","cpi",0.3,1975,3,1975,NA,0,10.0231247175927,10.1463050396705,10.0232981493341,10.0931823619779,TRUE,0.123180322077825
"CAN","cpi",0.3,1975,3,1975,NA,0.5,6.72894662313086,10.0053754758143,10.0232981493341,8.98267476097328,FALSE,3.32763649131154
"CAN","cpi",0.3,1975,3,1974,NA,1,5.15391911984698,8.62330918880881,10.0232981493341,7.7837982223054,FALSE,7.46935852760558
"CAN","cpi",0.3,1975,3,1974,NA,1.5,2.22380070672203,5.69319077568385,10.0232981493341,5.75931605308519,FALSE,15.8411254222483
"CAN","cpi",0.3,1976,3,1976,NA,0,5.65856673792059,6.36697964359504,7.22784311401172,7.07277954951717,FALSE,3.16802282115067
"CAN","cpi",0.3,1976,3,1976,NA,0.5,9.05262898068575,10.0089048104975,7.22784311401172,8.59089060438327,FALSE,6.16994973459473
"CAN","cpi",0.3,1976,3,1975,NA,1,7.39918383387001,11.1408698810186,7.22784311401172,10.4141477685142,FALSE,4.23123096102939
"CAN","cpi",0.3,1976,3,1975,NA,1.5,3.35338737727355,8.92565413274198,7.22784311401172,6.43051086134862,TRUE,5.57226675546843
"CAN","cpi",0.3,1977,3,1977,NA,0,7.16775753031837,7.20537022816608,7.58101410153764,7.55301151664772,FALSE,1.11088090748074
"CAN","cpi",0.3,1977,3,1977,NA,0.5,7.15137171016969,7.7504628845189,7.58101410153764,7.98165850021887,TRUE,0.599091174349216
"CAN","cpi",0.3,1977,3,1976,NA,1,1.34055259593716,3.08269139935746,7.58101410153764,3.72134649143602,FALSE,14.594489381078
"CAN","cpi",0.3,1977,3,1976,NA,1.5,3.39849071282982,8.63950856397746,7.58101410153764,8.00272044475614,TRUE,5.24101785114764
"CAN","cpi",0.3,1978,3,1978,NA,0,7.46310896956392,8.18734426806625,8.50208927062595,8.67127840358843,FALSE,1.62350673438717
"CAN","cpi",0.3,1978,3,1978,NA,0.5,7.26312867680496,9.64947414491849,8.50208927062595,8.3788273181893,TRUE,2.38634546811353
"CAN","cpi",0.3,1978,3,1977,NA,1,5.34273233836634,9.85152402761358,8.50208927062595,7.54783828416051,TRUE,4.50879168924724
"CAN","cpi",0.3,1978,3,1977,NA,1.5,3.34063894967661,7.84943063892384,8.50208927062595,9.72562756342223,FALSE,6.37353063696753
"CAN","cpi",0.3,1979,3,1979,NA,0,7.84044119342286,8.1468736686245,8.65147652410481,8.56376390232469,FALSE,1.7481549194311
"CAN","cpi",0.3,1979,3,1979,NA,0.5,7.44645578288442,8.32756097342691,8.65147652410481,8.29599284966764,FALSE,1.80657819247935
"CAN","cpi",0.3,1979,3,1978,NA,1,6.55655713210763,9.98733813969881,8.65147652410481,9.20311500508918,TRUE,3.43078100759118
"CAN","cpi",0.3,1979,3,1978,NA,1.5,3.46100754176694,7.54569618578391,8.65147652410481,8.55646910152924,FALSE,7.24406103921954
"CAN","cpi",0.3,1980,3,1980,NA,0,8.68861991485202,9.2399770829264,9.5171912664748,9.50406722106931,FALSE,1.34339769249838
"CAN","cpi",0.3,1980,3,1980,NA,0.5,7.94938849916782,8.63652482174303,9.5171912664748,8.57798914335092,FALSE,3.20332616466597
"CAN","cpi",0.3,1980,3,1979,NA,1,7.71896689834713,9.69509889315108,9.5171912664748,8.17875203710815,TRUE,1.97613199480395
"CAN","cpi",0.3,1980,3,1979,NA,1.5,3.49155177028422,8.19611422093261,9.5171912664748,8.39204766062112,FALSE,8.47906829505463
"CAN","cpi",0.3,1981,3,1981,NA,0,10.1104807620092,11.0667941527029,11.5813425032741,11.7113878984199,FALSE,2.426451535183
"CAN","cpi",0.3,1981,3,1981,NA,0.5,10.5558324803224,11.7643095797414,11.5813425032741,12.2156196752767,TRUE,1.20847709941903
"CAN","cpi",0.3,1981,3,1980,NA,1,8.00610779661186,9.55774142738079,11.5813425032741,11.0496853423024,FALSE,7.33335099046422
"CAN","cpi",0.3,1981,3,1980,NA,1.5,7.14332229769043,8.69495592845935,11.5813425032741,8.33809792174894,FALSE,9.79845241595404
"CAN","cpi",0.3,1982,3,1982,NA,0,8.29866737805189,9.41547488454258,10.1124203763629,10.2566668151097,FALSE,3.10808034026316
"CAN","cpi",0.3,1982,3,1982,NA,0.5,9.56905776713245,10.6858652736231,10.1124203763629,10.1085355973545,TRUE,1.11680750649069
"CAN","cpi",0.3,1982,3,1981,NA,1,10.3845570228715,11.5013645293622,10.1124203763629,11.770988683124,FALSE,1.89434078222955
"CAN","cpi",0.3,1982,3,1981,NA,1.5,7.59642706468839,8.71323457117907,10.1124203763629,12.8701250351281,FALSE,5.11448123558747
"CAN","cpi",0.3,1983,3,1983,NA,0,4.32859909396895,4.88539557613048,5.67091787896303,5.7310121416489,FALSE,2.80114591882598
"CAN","cpi",0.3,1983,3,1983,NA,0.5,3.4450354147416,4.24690526882801,5.67091787896303,4.91343016009654,FALSE,4.87047731161506
"CAN","cpi",0.3,1983,3,1982,NA,1,8.08237690249248,9.4816445560102,5.67091787896303,9.18500149866057,FALSE,8.28915057788758
"CAN","cpi",0.3,1983,3,1982,NA,1.5,7.45519206786253,8.85445972138024,5.67091787896303,9.68672301569366,FALSE,6.49719390751627
"CAN","cpi",0.3,1984,3,1984,NA,0.5,4.27361582008918,5.44264634447353,4.19799576814029,5.85770686024457,FALSE,1.38508781566691
"CAN","cpi",0.3,1984,3,1983,NA,1,3.38326864599257,4.55229917037692,4.19799576814029,5.76553357996429,TRUE,1.16903052438435
"CAN","cpi",0.3,1984,3,1983,NA,1.5,3.47238430910508,4.64141483348943,4.19799576814029,2.9197996794717,TRUE,1.16903052438435
"CAN","cpi",0.3,1985,3,1985,NA,0,3.58328735391389,3.66025332291252,3.86444262005169,3.85417990135378,FALSE,0.660363960824847
"CAN","cpi",0.3,1985,3,1985,NA,0.5,3.55130027359602,4.00874071791546,3.86444262005169,4.21990042382899,TRUE,0.457440444319435
"CAN","cpi",0.3,1985,3,1984,NA,1.5,5.5712085027316,8.59917584089266,3.86444262005169,8.62999660305356,FALSE,7.90444128867508
"CAN","cpi",0.3,1986,3,1986,NA,0,3.84017802000253,3.89867299781354,4.08685396749431,4.03771389199993,FALSE,0.596154891184648
"CAN","cpi",0.3,1986,3,1986,NA,0.5,3.73346673364536,3.9478245277083,4.08685396749431,4.38219332503529,FALSE,0.611584764880123
"CAN","cpi",0.3,1986,3,1985,NA,1,1.38832598331586,2.96184628050048,4.08685396749431,3.37849976080849,FALSE,4.78782797430986
"CAN","cpi",0.3,1986,3,1985,NA,1.5,4.36701521578055,6.86312249114663,4.08685396749431,4.95309858900956,FALSE,3.29656798475533
"CAN","cpi",0.3,1987,3,1987,NA,0.5,3.759349594391,3.91654548875478,4.23980729277887,4.13342161080085,FALSE,1.08080104871833
"CAN","cpi",0.3,1987,3,1986,NA,1,1.51808312744294,3.43000227901571,4.23980729277887,3.66140988164798,FALSE,4.22564776232466
"CAN","cpi",0.3,1987,3,1986,NA,1.5,4.02151010636896,6.37136597535158,4.23980729277887,4.80242768143514,TRUE,2.34985586898262
"CAN","cpi",0.3,1988,3,1988,NA,0,3.82046573964484,3.91392077021689,3.92899537638065,3.9438316199536,FALSE,0.136525333897085
"CAN","cpi",0.3,1988,3,1988,NA,0.5,3.59562871475731,3.94259706302244,3.92899537638065,3.35419215340812,TRUE,0.34696834826513
"CAN","cpi",0.3,1988,3,1987,NA,1.5,4.0459552214471,4.62501558863671,3.92899537638065,3.89461929526446,FALSE,0.913231353093745
"CAN","cpi",0.3,1989,3,1989,NA,0,4.65211994369372,5.03601270598313,4.82821664544208,4.95130318392835,TRUE,0.38389276228941
"CAN","cpi",0.3,1989,3,1989,NA,0.5,3.77247004787268,4.15636281016209,4.82821664544208,4.23024942747073,FALSE,2.30347514880366
"CAN","cpi",0.3,1989,3,1988,NA,1,2.6477962076491,3.29888695376802,4.82821664544208,4.05841794603162,FALSE,5.02060415090195
"CAN","cpi",0.3,1989,3,1988,NA,1.5,3.66809388203906,4.31918462815797,4.82821664544208,2.597843559383,FALSE,2.10546793835921
"CAN","cpi",0.3,1990,3,1990,NA,0,4.29160493969268,4.35516064176659,4.64347549432717,4.4746950192663,FALSE,0.887312423675572
"CAN","cpi",0.3,1990,3,1990,NA,0.5,3.975951557353,4.83189636475542,4.64347549432717,4.96487168902479,TRUE,0.85594480740242
"CAN","cpi",0.3,1990,3,1989,NA,1,2.79878937382974,3.91389966875254,4.64347549432717,5.43871373969076,FALSE,3.19961265370745
"CAN","cpi",0.3,1990,3,1989,NA,1.5,3.7151242193255,4.83023451424831,4.64347549432717,3.3732540002381,TRUE,1.11511029492281
"CAN","cpi",0.3,1991,3,1991,NA,0,4.9108907125623,5.26281531203492,5.4258100696218,5.61053369942382,FALSE,0.817623906863701
"CAN","cpi",0.3,1991,3,1991,NA,0.5,7.52935181513819,8.7215793965822,5.4258100696218,7.82199295477594,FALSE,7.202346854348
"CAN","cpi",0.3,1991,3,1990,NA,1,2.72299970640793,3.91522728785195,5.4258100696218,3.66716818384097,FALSE,5.50817838650072
"CAN","cpi",0.3,1991,3,1990,NA,1.5,3.74332568862983,4.93555327007384,5.4258100696218,4.82481948664164,FALSE,2.59296129443817
"CAN","cpi",0.3,1992,3,1991,NA,1,2.39740539313158,2.94337702727546,1.47496888572843,2.76780571233213,FALSE,3.18150451243859
"CAN","cpi",0.3,1992,3,1991,NA,1.5,4.35656552054042,8.18375649376429,1.47496888572843,7.14938182660169,FALSE,12.0603242155438
"CAN","cpi",0.4,1950,3,1950,NA,0,3.41276022321824,3.41276022321824,2.59031220731124,2.34506766740468,FALSE,2.74149338635667
"CAN","cpi",0.4,1950,3,1950,NA,0.5,3.41276022321824,3.41276022321824,2.59031220731124,-0.480727815155867,FALSE,2.74149338635667
"CAN","cpi",0.4,1950,3,1949,NA,1,3.413181456688,7.31075112270753,2.59031220731124,5.09987337388258,FALSE,6.64046716394207
"CAN","cpi",0.4,1950,3,1949,NA,1.5,3.41233898974848,7.30990865576802,2.59031220731124,12.3211560066576,FALSE,6.63765894081034
"CAN","cpi",0.4,1951,3,1951,NA,0,4.89891137410426,7.009807053632,9.87945438999359,9.91468181420993,FALSE,11.6763868007331
"CAN","cpi",0.4,1951,3,1951,NA,0.5,2.18234518205457,4.2932408615823,9.87945438999359,8.91293028153729,FALSE,20.7316074408987
"CAN","cpi",0.4,1951,3,1950,NA,1,1.89538929987396,4.00628497940169,9.87945438999359,7.18504019917801,FALSE,21.6881270481674
"CAN","cpi",0.4,1951,3,1950,NA,1.5,2.43309948414577,4.5439951636735,9.87945438999359,-2.18579641022426,FALSE,19.8957597672614
"CAN","cpi",0.4,1952,3,1952,NA,0,2.59031220731124,2.59031220731124,2.55562336095485,2.50792675283471,FALSE,0.11562948785464
"CAN","cpi",0.4,1952,3,1952,NA,0.5,2.66301223275355,3.09144372969757,2.55562336095485,5.20333179389047,FALSE,0.786394402939706
"CAN","cpi",0.4,1952,3,1951,NA,1,3.33069024279417,9.48348296188321,2.55562336095485,8.18998200969936,FALSE,8.73634899188678
"CAN","cpi",0.4,1952,3,1951,NA,1.5,2.75480133916251,10.2071836808083,2.55562336095485,7.55460015368862,FALSE,8.11630893567133
"CAN","cpi",0.4,1953,3,1953,NA,0,2.55562336095485,2.56950182312745,-1.01492775838436,-0.954275034924989,FALSE,11.9157155266366
"CAN","cpi",0.4,1953,3,1953,NA,0.5,2.55562336095485,2.56950182312745,-1.01492775838436,-1.88711612688489,FALSE,11.9157155266366
"CAN","cpi",0.4,1953,3,1952,NA,1,2.55562336095485,3.02715732909229,-1.01492775838436,-0.873617238258229,FALSE,12.3733710326015
"CAN","cpi",0.4,1953,3,1952,NA,1.5,2.55562336095485,7.71867536289174,-1.01492775838436,5.93557635631702,FALSE,17.0648890664009
"CAN","cpi",0.4,1954,3,1954,NA,0,-0.553488175268887,1.81175651897259,0.644425455961438,0.879731201855888,TRUE,2.36524469424147
"CAN","cpi",0.4,1954,3,1954,NA,0.5,0.665701519559575,3.03094621380105,0.644425455961438,-0.358875738913824,FALSE,2.43616490623526
"CAN","cpi",0.4,1954,3,1953,NA,1,-0.828765032419831,2.56841394011449,0.644425455961438,3.38326531029323,TRUE,3.39717897253432
"CAN","cpi",0.4,1954,3,1953,NA,1.5,-1.01492775838436,4.10755246809013,0.644425455961438,-1.28741438714058,TRUE,5.12248022647449
"CAN","cpi",0.4,1955,3,1955,NA,0,-1.01492775838436,-0.209532324115789,0.173649026558865,0.115254687233858,FALSE,2.08266660318409
"CAN","cpi",0.4,1955,3,1955,NA,0.5,-0.13189762038461,1.55224585877432,0.173649026558865,-0.770970046821609,TRUE,1.68414347915893
"CAN","cpi",0.4,1955,3,1954,NA,1,-0.9833862527483,0.700757226410629,0.173649026558865,3.47019599757395,TRUE,1.68414347915893
"CAN","cpi",0.4,1955,3,1954,NA,1.5,-0.683077636125231,3.3099542272076,0.173649026558865,-1.89562740163941,TRUE,3.99303186333283
"CAN","cpi",0.4,1956,3,1956,NA,0,0.749130126467239,1.68818967068617,1.32752769429961,1.56059797998755,TRUE,0.939059544218935
"CAN","cpi",0.4,1956,3,1956,NA,0.5,-0.729578167452362,0.209481376766573,1.32752769429961,-0.709146002056511,FALSE,4.66588060266239
"CAN","cpi",0.4,1956,3,1955,NA,1,-1.15930806503351,-0.220248520814577,1.32752769429961,0.884549626974225,FALSE,6.09831359459955
"CAN","cpi",0.4,1956,3,1955,NA,1.5,-0.617248293683162,2.89829975526524,1.32752769429961,-1.89150615642833,TRUE,3.5155480489484
"CAN","cpi",0.4,1957,3,1957,NA,0,5.83709728460512,8.96970304328861,3.24684755852518,3.4151370317006,FALSE,11.7667715122833
"CAN","cpi",0.4,1957,3,1957,NA,0.5,0.956992064937729,4.08959782362122,3.24684755852518,2.23982631608766,TRUE,3.13260575868349
"CAN","cpi",0.4,1957,3,1956,NA,1,2.66932737707381,5.80193313575729,3.24684755852518,6.98754636690555,TRUE,3.13260575868349
"CAN","cpi",0.4,1957,3,1956,NA,1.5,-0.345721599729439,2.78688415895405,3.24684755852518,-1.88668623310337,FALSE,4.66581709058725
"CAN","cpi",0.4,1958,3,1958,NA,0,1.75021082807542,2.56573723313201,2.33186388641149,2.22387249143335,TRUE,0.815526405056584
"CAN","cpi",0.4,1958,3,1958,NA,0.5,2.08688605372655,5.46234010812518,2.33186388641149,2.22839060734872,TRUE,3.37545405439864
"CAN","cpi",0.4,1958,3,1957,NA,1,1.1179896800156,4.49344373441423,2.33186388641149,4.42088197051908,TRUE,3.37545405439864
"CAN","cpi",0.4,1958,3,1957,NA,1.5,0.0206086471151616,3.3960627015138,2.33186388641149,0.91301479707402,TRUE,3.37545405439864
"CAN","cpi",0.4,1959,3,1959,NA,0,0.483049252956415,0.951072939698236,1.19382698397654,1.24991216431293,FALSE,1.27720383433617
"CAN","cpi",0.4,1959,3,1959,NA,0.5,1.18529698486226,2.22705965178087,1.19382698397654,0.437839731590327,TRUE,1.0417626669186
"CAN","cpi",0.4,1959,3,1958,NA,1,-0.0755810597429364,0.966181607175668,1.19382698397654,1.75862762885946,FALSE,1.80058058958818
"CAN","cpi",0.4,1959,3,1958,NA,1.5,0.550330399334232,2.75120217687581,1.19382698397654,1.77407172713766,TRUE,2.20087177754157
"CAN","cpi",0.4,1960,3,1960,NA,0,0.404597227021501,0.770134986538994,1.34209404870695,1.02361304259477,FALSE,2.27206796674402
"CAN","cpi",0.4,1960,3,1960,NA,0.5,1.01306548282641,1.8974598268921,1.34209404870695,0.53898348018166,TRUE,0.884394344065694
"CAN","cpi",0.4,1960,3,1959,NA,1,0.879140909390575,1.76353525345627,1.34209404870695,3.95759373689442,TRUE,0.884394344065694
"CAN","cpi",0.4,1960,3,1959,NA,1.5,0.596868736487343,2.50612360074638,1.34209404870695,-0.873476815404885,TRUE,1.90925486425904
"CAN","cpi",0.4,1961,3,1961,NA,0,0.888430031337006,1.32774290255776,1.00921348094007,1.00921348094007,TRUE,0.439312871220755
"CAN","cpi",0.4,1961,3,1961,NA,0.5,1.0310371444051,1.94934694312778,1.00921348094007,1.00921348094007,FALSE,0.99105534360611
"CAN","cpi",0.4,1961,3,1960,NA,1,-0.851414655557127,0.35397624362679,1.00921348094007,0.0537704626035329,FALSE,3.38951502356152
"CAN","cpi",0.4,1961,3,1960,NA,1.5,0.79495414615986,2.00034504534378,1.00921348094007,-0.862181798940035,TRUE,1.20539089918392
"CAN","cpi",0.4,1962,3,1962,NA,0,1.11994426891876,1.42796459634642,1.04957947883042,1.10232402731478,FALSE,0.542569627722128
"CAN","cpi",0.4,1962,3,1962,NA,0.5,0.928280702973617,1.33116888373086,1.04957947883042,0,TRUE,0.402888180757244
"CAN","cpi",0.4,1962,3,1961,NA,1,0.307621951441807,0.815596255502786,1.04957947883042,0,FALSE,1.28791838181974
"CAN","cpi",0.4,1962,3,1961,NA,1.5,0.947538931739533,2.01088137356919,1.04957947883042,0,TRUE,1.06334244182965
"CAN","cpi",0.4,1963,3,1963,NA,0,1.48049030091564,1.98550826330541,1.60677118395228,1.91491729531202,TRUE,0.505017962389767
"CAN","cpi",0.4,1963,3,1963,NA,0.5,0.905601155769299,1.41061911815907,1.60677118395228,0.836828714617504,FALSE,1.15885818170049
"CAN","cpi",0.4,1963,3,1962,NA,1,0.605113218020117,1.11013118040988,1.60677118395228,2.56411490415144,FALSE,2.16048464086443
"CAN","cpi",0.4,1963,3,1962,NA,1.5,0.951487106779094,1.45650506916886,1.60677118395228,0,FALSE,1.00590501166784
"CAN","cpi",0.4,1964,3,1964,NA,0,1.26925923175047,1.56219270721902,1.88764670034376,1.98877256446048,FALSE,1.3777801192177
"CAN","cpi",0.4,1964,3,1964,NA,0.5,1.48806364234739,1.8131546053095,1.88764670034376,1.38369006227607,FALSE,0.573397946409639
"CAN","cpi",0.4,1964,3,1963,NA,1,2.40647770097548,2.7315686639376,1.88764670034376,5.39044290347256,FALSE,2.05452763173452
"CAN","cpi",0.4,1964,3,1963,NA,1.5,1.03857107374176,1.50525010775277,1.88764670034376,0,FALSE,1.74133434264765
"CAN","cpi",0.4,1965,3,1965,NA,0,3.34711480887742,4.60923237302592,2.29538304394236,2.34557047418999,FALSE,4.76789011393205
"CAN","cpi",0.4,1965,3,1965,NA,0.5,1.26277668059913,2.52489424474763,2.29538304394236,1.61079447956654,TRUE,1.2621175641485
"CAN","cpi",0.4,1965,3,1964,NA,1,0.364710905517782,1.62682846966628,2.29538304394236,2.42518862179847,FALSE,3.49063281173542
"CAN","cpi",0.4,1965,3,1964,NA,1.5,1.07876932595543,2.34088689010393,2.29538304394236,0.818102552316399,TRUE,1.2621175641485
"CAN","cpi",0.4,1966,3,1966,NA,0,3.29933263970135,3.36933542414626,3.72486065470629,3.82010987863709,FALSE,1.25508688631168
"CAN","cpi",0.4,1966,3,1966,NA,0.5,3.5099482304797,5.60728112692601,3.72486065470629,3.99123398895563,TRUE,2.09733289644631
"CAN","cpi",0.4,1966,3,1965,NA,1,0.202524085945203,2.29985698239151,3.72486065470629,3.20722068745854,FALSE,6.84734513749556
"CAN","cpi",0.4,1966,3,1965,NA,1.5,0.884936317726545,2.98226921417286,3.72486065470629,1.60663824631958,FALSE,4.57263769822442
"CAN","cpi",0.4,1967,3,1967,NA,0,6.36627648603169,8.34225634353709,3.49360316391996,3.76768849328632,FALSE,11.5515575978778
"CAN","cpi",0.4,1967,3,1967,NA,0.5,1.70236713349038,3.67834699099579,3.49360316391996,2.4074547441976,TRUE,1.97597985750541
"CAN","cpi",0.4,1967,3,1966,NA,1,0.562308274013547,2.53828813151895,3.49360316391996,3.18103323070284,FALSE,5.16036329884209
"CAN","cpi",0.4,1967,3,1966,NA,1.5,1.55354134397025,3.52952120147566,3.49360316391996,4.65128160487248,TRUE,1.97597985750541
"CAN","cpi",0.4,1968,3,1968,NA,0,3.5673440830101,3.66570375614329,3.95128347779386,4.17287945672396,FALSE,1.05029207863508
"CAN","cpi",0.4,1968,3,1968,NA,0.5,3.13935496056408,4.30865735844526,3.95128347779386,4.07097205779852,TRUE,1.16930239788118
"CAN","cpi",0.4,1968,3,1967,NA,1,1.96185088449259,3.13115328237377,3.95128347779386,5.84521682123848,FALSE,3.90306971594815
"CAN","cpi",0.4,1968,3,1967,NA,1.5,2.01006287763013,3.46126720269926,3.95128347779386,2.25565858240226,FALSE,3.08459190871778
"CAN","cpi",0.4,1969,3,1969,NA,0,3.7965865757927,3.89225835198644,4.42679496126681,4.46896837073893,FALSE,1.877460473795
"CAN","cpi",0.4,1969,3,1969,NA,0.5,3.3021386237744,3.47007832373176,4.42679496126681,2.96612019395715,FALSE,3.35699515840754
"CAN","cpi",0.4,1969,3,1968,NA,1,2.72705080065339,3.81565693260179,4.42679496126681,6.72487630040807,FALSE,3.12573289416516
"CAN","cpi",0.4,1969,3,1968,NA,1.5,2.38215086715331,3.65548215308204,4.42679496126681,4.31664452944541,FALSE,3.84437397987798
"CAN","cpi",0.4,1970,3,1970,NA,0,3.30310682075419,3.37814470639893,3.28128405769805,3.52697515579364,FALSE,0.147780429165209
"CAN","cpi",0.4,1970,3,1970,NA,0.5,3.37126739116545,3.83806447762473,3.28128405769805,4.65371085276917,FALSE,0.766741531350619
"CAN","cpi",0.4,1970,3,1969,NA,1,2.13018731160121,2.82904493417379,3.28128405769805,4.52747875087707,FALSE,2.20632136765343
"CAN","cpi",0.4,1970,3,1969,NA,1.5,2.32612223664585,3.66372258119004,3.28128405769805,2.07973847283129,TRUE,1.33760034454419
"CAN","cpi",0.4,1971,3,1971,NA,0,2.40910789967412,2.66103755852426,2.64123406634756,2.8393232579169,TRUE,0.251929658850143
"CAN","cpi",0.4,1971,3,1971,NA,0.5,2.27371161048148,2.52564126933163,2.64123406634756,2.06692165705507,FALSE,0.637238982236594
"CAN","cpi",0.4,1971,3,1970,NA,1,1.11998374539684,1.8405703116288,2.64123406634756,2.64105994583495,FALSE,3.38946574862782
"CAN","cpi",0.4,1971,3,1970,NA,1.5,2.76309385040727,3.87805527369393,2.64123406634756,4.63977638900468,FALSE,1.52116070348569
"CAN","cpi",0.4,1972,3,1972,NA,0,4.11061352586785,4.32312998313078,4.83230569625923,5.03048103188219,FALSE,1.90976883435776
"CAN","cpi",0.4,1972,3,1972,NA,0.5,3.27439492451014,3.77013859523967,4.83230569625923,5.06705904355972,FALSE,4.03630067412806
"CAN","cpi",0.4,1972,3,1971,NA,1,2.96126066252851,3.84088753368195,4.83230569625923,5.9169160270675,FALSE,4.18435407974437
"CAN","cpi",0.4,1972,3,1971,NA,1.5,2.59031181556757,3.57188431573733,4.83230569625923,3.09276495441271,FALSE,5.18297710190943
"CAN","cpi",0.4,1973,3,1973,NA,0,4.93487723221019,6.66636519906067,7.12388603531779,6.99264756193144,FALSE,3.25655742104089
"CAN","cpi",0.4,1973,3,1973,NA,0.5,3.45609307347302,5.1875810403235,7.12388603531779,5.47469896411854,FALSE,8.18583795016477
"CAN","cpi",0.4,1973,3,1972,NA,1,2.94465494964409,4.67614291649457,7.12388603531779,6.69062283747837,FALSE,9.89063169626122
"CAN","cpi",0.4,1973,3,1972,NA,1.5,2.57487360359401,4.30636157044449,7.12388603531779,4.73174243586486,FALSE,11.1232361830948
"CAN","cpi",0.4,1974,3,1974,NA,0,7.9591644031939,9.07324580563268,10.2717243737774,9.94431520564033,FALSE,5.10900996292124
"CAN","cpi",0.4,1974,3,1974,NA,0.5,7.22368899890976,10.6251430952988,10.2717243737774,8.3378654175141,TRUE,3.401454096389
"CAN","cpi",0.4,1974,3,1973,NA,1,4.5175819476796,8.05629723773577,10.2717243737774,7.16712422635118,FALSE,10.923472410195
"CAN","cpi",0.4,1974,3,1973,NA,1.5,1.85696780002478,5.39568309008095,10.2717243737774,4.05174749178054,FALSE,19.7921862357111
"CAN","cpi",0.4,1975,3,1975,NA,0,10.002594663913,10.1668350933501,10.0232981493341,10.0931823619779,TRUE,0.1642404294371
"CAN","cpi",0.4,1975,3,1975,NA,0.5,5.62267885434315,10.0453234224632,10.0232981493341,8.98267476097328,TRUE,4.42264456812007
"CAN","cpi",0.4,1975,3,1974,NA,1,4.48112905012161,9.45227983504357,10.0232981493341,7.7837982223054,FALSE,6.87454516589047
"CAN","cpi",0.4,1975,3,1974,NA,1.5,1.87974783417803,6.85089861909999,10.0232981493341,5.75931605308519,FALSE,15.5458158857024
"CAN","cpi",0.4,1976,3,1976,NA,0,5.54049792030818,6.48504846120744,7.22784311401172,7.07277954951717,FALSE,3.4205327169135
"CAN","cpi",0.4,1976,3,1976,NA,0.5,8.77706766359102,10.3384995639756,7.22784311401172,8.59089060438327,FALSE,6.72551373231555
"CAN","cpi",0.4,1976,3,1975,NA,1,4.69983754478128,10.6845838398997,7.22784311401172,10.4141477685142,TRUE,5.98474629511839
"CAN","cpi",0.4,1976,3,1975,NA,1.5,2.52313841194401,8.5078847070624,7.22784311401172,6.43051086134862,TRUE,5.98474629511839
"CAN","cpi",0.4,1977,3,1977,NA,0,7.16148874734376,7.2116390111407,7.58101410153764,7.55301151664772,FALSE,1.28140056512009
"CAN","cpi",0.4,1977,3,1977,NA,0.5,7.18217393723609,8.7672664638498,7.58101410153764,7.98165850021887,TRUE,1.58509252661371
"CAN","cpi",0.4,1977,3,1976,NA,1,1.29278655427985,2.87787908089356,7.58101410153764,3.72134649143602,FALSE,17.262209262094
"CAN","cpi",0.4,1977,3,1976,NA,1.5,3.3074649779778,9.60403898165985,7.58101410153764,8.00272044475614,TRUE,6.29657400368206
"CAN","cpi",0.4,1978,3,1978,NA,0,7.42949474970374,8.43061557372675,8.50208927062595,8.67127840358843,FALSE,1.23936648035366
"CAN","cpi",0.4,1978,3,1978,NA,0.5,6.76044346900436,9.9369817788981,8.50208927062595,8.3788273181893,TRUE,3.17653830989374
"CAN","cpi",0.4,1978,3,1977,NA,1,4.0950605567666,9.84472099719406,8.50208927062595,7.54783828416051,TRUE,5.74966044042746
"CAN","cpi",0.4,1978,3,1977,NA,1.5,3.20755610226259,8.95721654269005,8.50208927062595,9.72562756342223,TRUE,5.74966044042746
"CAN","cpi",0.4,1979,3,1979,NA,0,7.78936911422259,8.19794574782477,8.65147652410481,8.56376390232469,FALSE,1.92034588786898
"CAN","cpi",0.4,1979,3,1979,NA,0.5,7.33714055719963,8.484099949925,8.65147652410481,8.29599284966764,FALSE,1.70488130665808
"CAN","cpi",0.4,1979,3,1978,NA,1,5.33040119593042,10.4475252434611,8.65147652410481,9.20311500508918,TRUE,5.11712404753068
"CAN","cpi",0.4,1979,3,1978,NA,1.5,3.26840018233375,8.38552422986443,8.65147652410481,8.55646910152924,FALSE,6.00363169499863
"CAN","cpi",0.4,1980,3,1980,NA,0,8.624461043984,9.33184961809561,9.5171912664748,9.50406722106931,FALSE,1.32519406870889
"CAN","cpi",0.4,1980,3,1980,NA,0.5,7.76516584715166,9.14251162613369,9.5171912664748,8.57798914335092,FALSE,2.62627791345238
"CAN","cpi",0.4,1980,3,1979,NA,1,6.2697972886711,9.91539975392271,9.5171912664748,8.17875203710815,TRUE,3.64560246525161
"CAN","cpi",0.4,1980,3,1979,NA,1.5,3.41827069742583,8.50209566018112,9.5171912664748,8.39204766062112,FALSE,8.4674769837342
"CAN","cpi",0.4,1981,3,1981,NA,0,10.0624205383444,11.3673913340557,11.5813425032741,11.7113878984199,FALSE,2.01814135977289
"CAN","cpi",0.4,1981,3,1981,NA,0.5,10.3544196304192,11.9657224296446,11.5813425032741,12.2156196752767,TRUE,1.61130279922537
"CAN","cpi",0.4,1981,3,1980,NA,1,7.58062091256927,9.88218736391265,11.5813425032741,11.0496853423024,FALSE,7.96541691588169
"CAN","cpi",0.4,1981,3,1980,NA,1.5,3.44473979762919,8.61695681528543,11.5813425032741,8.33809792174894,FALSE,15.0535026442853
"CAN","cpi",0.4,1982,3,1982,NA,0,7.39486873886551,9.11919710613212,10.1124203763629,10.2566668151097,FALSE,5.03507260136937
"CAN","cpi",0.4,1982,3,1982,NA,0.5,9.35251386707693,11.0768422343435,10.1124203763629,10.1085355973545,TRUE,1.7243283672666
"CAN","cpi",0.4,1982,3,1981,NA,1,10.0807965924836,11.8051249597502,10.1124203763629,11.770988683124,TRUE,1.7243283672666
"CAN","cpi",0.4,1982,3,1981,NA,1.5,7.26093941842653,9.14301485720213,10.1124203763629,12.8701250351281,FALSE,5.11342716931164
"CAN","cpi",0.4,1983,3,1983,NA,0,4.24227352092502,5.20708204120344,5.67091787896303,5.7310121416489,FALSE,2.51092797947707
"CAN","cpi",0.4,1983,3,1983,NA,0.5,3.32067292768862,4.44654055528023,5.67091787896303,4.91343016009654,FALSE,5.20712537320096
"CAN","cpi",0.4,1983,3,1982,NA,1,7.5797942070999,9.88111977128442,5.67091787896303,9.18500149866057,FALSE,8.66424665797408
"CAN","cpi",0.4,1983,3,1982,NA,1.5,4.71950282266205,9.14272371901095,5.67091787896303,9.68672301569366,TRUE,4.42322089634889
"CAN","cpi",0.4,1984,3,1984,NA,0.5,4.02221547839088,5.64222543457323,4.19799576814029,5.85770686024457,TRUE,1.62000995618235
"CAN","cpi",0.4,1984,3,1983,NA,1,3.03973720086295,4.65974715704531,4.19799576814029,5.76553357996429,TRUE,1.62000995618235
"CAN","cpi",0.4,1984,3,1983,NA,1.5,3.28443207210707,4.90444202828942,4.19799576814029,2.9197996794717,TRUE,1.62000995618235
"CAN","cpi",0.4,1985,3,1985,NA,0,3.57045969241412,3.67308098441229,3.86444262005169,3.85417990135378,FALSE,0.740493410796188
"CAN","cpi",0.4,1985,3,1985,NA,0.5,3.49320959832579,4.10336723530347,3.86444262005169,4.21990042382899,TRUE,0.610157636977682
"CAN","cpi",0.4,1985,3,1984,NA,1.5,4.88456350434817,8.77400904150774,3.86444262005169,8.62999660305356,FALSE,7.28984848481449
"CAN","cpi",0.4,1986,3,1986,NA,0,3.82368340047711,3.90623114370204,4.08685396749431,4.03771389199993,FALSE,0.684623822532495
"CAN","cpi",0.4,1986,3,1986,NA,0.5,3.59682575314785,4.03121447842743,4.08685396749431,4.38219332503529,FALSE,0.619853688835841
"CAN","cpi",0.4,1986,3,1985,NA,1,1.33189400078059,3.40031316808455,4.08685396749431,3.37849976080849,FALSE,4.35688849866983
"CAN","cpi",0.4,1986,3,1985,NA,1.5,3.4723736080645,7.10055043074362,4.08685396749431,4.95309858900956,TRUE,3.62817682267912
"CAN","cpi",0.4,1987,3,1987,NA,0.5,3.72130135604006,3.9339132105035,4.23980729277887,4.13342161080085,FALSE,1.23225879538135
"CAN","cpi",0.4,1987,3,1986,NA,1,1.34206851886035,3.49341000060411,4.23980729277887,3.66140988164798,FALSE,4.63933245565962
"CAN","cpi",0.4,1987,3,1986,NA,1.5,3.8471244826055,6.60497150924489,4.23980729277887,4.80242768143514,TRUE,2.75784702663939
"CAN","cpi",0.4,1988,3,1988,NA,0,3.80678941095241,3.93169020417209,3.92899537638065,3.9438316199536,TRUE,0.124900793219675
"CAN","cpi",0.4,1988,3,1988,NA,0.5,3.55252367521888,4.04618299773422,3.92899537638065,3.35419215340812,TRUE,0.493659322515336
"CAN","cpi",0.4,1988,3,1987,NA,1.5,3.88741531155963,5.02165381987389,3.92899537638065,3.89461929526446,TRUE,1.13423850831426
"CAN","cpi",0.4,1989,3,1989,NA,0,4.58080132647188,5.10733132320497,4.82821664544208,4.95130318392835,TRUE,0.526529996733085
"CAN","cpi",0.4,1989,3,1989,NA,0.5,3.69085601287525,4.21738600960833,4.82821664544208,4.23024942747073,FALSE,2.5626321161789
"CAN","cpi",0.4,1989,3,1988,NA,1,2.31665893462746,3.443613313619,4.82821664544208,4.05841794603162,FALSE,5.74229881840179
"CAN","cpi",0.4,1989,3,1988,NA,1.5,3.37583189649094,4.50278627548248,4.82821664544208,2.597843559383,FALSE,2.21172227885685
"CAN","cpi",0.4,1990,3,1990,NA,0,4.28101232268037,4.3657532587789,4.64347549432717,4.4746950192663,FALSE,1.01048172125943
"CAN","cpi",0.4,1990,3,1990,NA,0.5,3.8098903839399,4.91668719839465,4.64347549432717,4.96487168902479,TRUE,1.10679681445475
"CAN","cpi",0.4,1990,3,1989,NA,1,2.65449772502419,4.08229872851048,4.64347549432717,5.43871373969076,FALSE,3.29839022287527
"CAN","cpi",0.4,1990,3,1989,NA,1.5,3.78573925993009,5.21354026341638,4.64347549432717,3.3732540002381,TRUE,1.42780100348629
"CAN","cpi",0.4,1991,3,1991,NA,0,4.85223661265019,5.32146941194702,5.4258100696218,5.61053369942382,FALSE,0.817034991546077
"CAN","cpi",0.4,1991,3,1991,NA,0.5,7.26299590620172,8.9875846180181,5.4258100696218,7.82199295477594,FALSE,7.84854150041612
"CAN","cpi",0.4,1991,3,1990,NA,1,1.8176556870859,3.84874027328883,5.4258100696218,3.66716818384097,FALSE,7.2879839073128
"CAN","cpi",0.4,1991,3,1990,NA,1.5,3.57762798008874,5.60871256629167,5.4258100696218,4.82481948664164,TRUE,2.03108458620293
"CAN","cpi",0.4,1992,3,1991,NA,1,1.91270105934306,3.01365037877495,1.47496888572843,2.76780571233213,FALSE,2.56005656481398
"CAN","cpi",0.4,1992,3,1991,NA,1.5,3.99440403399858,8.33034338702563,1.47496888572843,7.14938182660169,FALSE,12.7340565139275
"CAN","cpi",0.5,1950,3,1950,NA,0,3.41276022321824,3.41276022321824,2.59031220731124,2.34506766740468,FALSE,3.289792063628
"CAN","cpi",0.5,1950,3,1950,NA,0.5,3.41276022321824,3.41276022321824,2.59031220731124,-0.480727815155867,FALSE,3.289792063628
"CAN","cpi",0.5,1950,3,1949,NA,1,3.41276068364506,8.28473060002872,2.59031220731124,5.09987337388258,FALSE,8.16176382171896
"CAN","cpi",0.5,1950,3,1949,NA,1.5,3.41275976279142,8.28472967917508,2.59031220731124,12.3211560066576,FALSE,8.16176013830437
"CAN","cpi",0.5,1951,3,1951,NA,0,4.62896179351914,7.92032688722986,9.87945438999359,9.91468181420993,FALSE,11.1278751047657
"CAN","cpi",0.5,1951,3,1951,NA,0.5,2.3651550059435,5.65652009965421,9.87945438999359,8.91293028153729,FALSE,20.1831022550682
"CAN","cpi",0.5,1951,3,1950,NA,1,1.66765302787244,4.95901812158316,9.87945438999359,7.18504019917801,FALSE,22.9731101673524
"CAN","cpi",0.5,1951,3,1950,NA,1.5,2.57322581495125,5.86459090866197,9.87945438999359,-2.18579641022426,FALSE,19.3508190190372
"CAN","cpi",0.5,1952,3,1952,NA,0,2.59031220731124,2.59031220731124,2.55562336095485,2.50792675283471,FALSE,0.138755385425569
"CAN","cpi",0.5,1952,3,1952,NA,0.5,2.60945829563555,3.14499766681558,2.55562336095485,5.20333179389047,FALSE,0.750879109902837
"CAN","cpi",0.5,1952,3,1951,NA,1,3.20727253703763,10.1890258848346,2.55562336095485,8.18998200969936,FALSE,9.58835005212817
"CAN","cpi",0.5,1952,3,1951,NA,1.5,2.59031220731124,10.6987776170503,2.55562336095485,7.55460015368862,FALSE,8.2472207951646
"CAN","cpi",0.5,1953,3,1953,NA,0,2.55562336095485,2.57296789898325,-1.01492775838436,-0.954275034924989,FALSE,14.2995490153852
"CAN","cpi",0.5,1953,3,1953,NA,0.5,2.55562336095485,2.57296789898325,-1.01492775838436,-1.88711612688489,FALSE,14.2995490153852
"CAN","cpi",0.5,1953,3,1952,NA,1,2.55562336095485,3.09142453873665,-1.01492775838436,-0.873617238258229,FALSE,14.8180056551386
"CAN","cpi",0.5,1953,3,1952,NA,1.5,2.55562336095485,9.87945434636555,-1.01492775838436,5.93557635631702,FALSE,21.6060354627675
"CAN","cpi",0.5,1954,3,1954,NA,0,-0.572236200787092,2.11642961622968,0.644425455961438,0.879731201855888,TRUE,2.68866581701678
"CAN","cpi",0.5,1954,3,1954,NA,0.5,0.326999997224651,3.01566581424143,0.644425455961438,-0.358875738913824,TRUE,2.68866581701678
"CAN","cpi",0.5,1954,3,1953,NA,1,-1.01492775838436,2.57206390530768,0.644425455961438,3.38326531029323,TRUE,3.58699166369205
"CAN","cpi",0.5,1954,3,1953,NA,1.5,-1.01492775838436,5.1497403935661,0.644425455961438,-1.28741438714058,TRUE,6.16466815195046
"CAN","cpi",0.5,1955,3,1955,NA,0,-1.01492775838436,-0.0672049672782855,0.173649026558865,0.115254687233858,FALSE,1.91113876645468
"CAN","cpi",0.5,1955,3,1955,NA,0.5,-0.204374893156597,1.92832894362403,0.173649026558865,-0.770970046821609,TRUE,2.13270383678062
"CAN","cpi",0.5,1955,3,1954,NA,1,-1.20766643155915,0.925037405221475,0.173649026558865,3.47019599757395,TRUE,2.13270383678062
"CAN","cpi",0.5,1955,3,1954,NA,1.5,-1.01492746861258,4.63075661448379,0.173649026558865,-1.89562740163941,TRUE,5.64568408309638
"CAN","cpi",0.5,1956,3,1956,NA,0,0.783742853357902,2.021013719996,1.32752769429961,1.56059797998755,TRUE,1.2372708666381
"CAN","cpi",0.5,1956,3,1956,NA,0.5,-0.878683828661943,0.358587037976154,1.32752769429961,-0.709146002056511,FALSE,5.11303349193191
"CAN","cpi",0.5,1956,3,1955,NA,1,-1.1643569136304,0.0729139530077006,1.32752769429961,0.884549626974225,FALSE,6.25572583180573
"CAN","cpi",0.5,1956,3,1955,NA,1.5,-0.816087396712957,3.41276076208034,1.32752769429961,-1.89150615642833,TRUE,4.2288481587933
"CAN","cpi",0.5,1957,3,1957,NA,0,5.21641589102369,9.59038443687004,3.24684755852518,3.4151370317006,FALSE,12.2522418758404
"CAN","cpi",0.5,1957,3,1957,NA,0.5,1.01684206539032,5.39081061123667,3.24684755852518,2.23982631608766,TRUE,4.37396854584635
"CAN","cpi",0.5,1957,3,1956,NA,1,2.45360035055333,6.82756889639967,3.24684755852518,6.98754636690555,TRUE,4.37396854584635
"CAN","cpi",0.5,1957,3,1956,NA,1.5,-0.825368112393676,3.54860043345267,3.24684755852518,-1.88668623310337,TRUE,4.37396854584635
"CAN","cpi",0.5,1958,3,1958,NA,0,1.60484996535758,2.9061345541889,2.33186388641149,2.22387249143335,TRUE,1.30128458883132
"CAN","cpi",0.5,1958,3,1958,NA,0.5,2.56472490844794,7.22495885254956,2.33186388641149,2.22839060734872,FALSE,5.59167803224743
"CAN","cpi",0.5,1958,3,1957,NA,1,0.79225015377417,5.45248409787579,2.33186388641149,4.42088197051908,TRUE,4.66023394410162
"CAN","cpi",0.5,1958,3,1957,NA,1.5,-0.57640429496724,4.08382964913438,2.33186388641149,0.91301479707402,TRUE,4.66023394410162
"CAN","cpi",0.5,1959,3,1959,NA,0,0.431431727854155,1.01399285004682,1.19382698397654,1.24991216431293,FALSE,1.30189765791155
"CAN","cpi",0.5,1959,3,1959,NA,0.5,0.856216256247887,2.2984721376065,1.19382698397654,0.437839731590327,TRUE,1.44225588135861
"CAN","cpi",0.5,1959,3,1958,NA,1,-0.221755379725433,1.22050050163318,1.19382698397654,1.75862762885946,TRUE,1.44225588135861
"CAN","cpi",0.5,1959,3,1958,NA,1.5,0.409224864446107,2.97533879885065,1.19382698397654,1.77407172713766,TRUE,2.56611393440454
"CAN","cpi",0.5,1960,3,1960,NA,0,0.366065574773691,0.840924854162327,1.34209404870695,1.02361304259477,FALSE,2.47953605756713
"CAN","cpi",0.5,1960,3,1960,NA,0.5,1.00709203628447,2.31948215158089,1.34209404870695,0.53898348018166,TRUE,1.31239011529642
"CAN","cpi",0.5,1960,3,1959,NA,1,0.601380375825102,1.91377049112152,1.34209404870695,3.95759373689442,TRUE,1.31239011529642
"CAN","cpi",0.5,1960,3,1959,NA,1.5,0.462213558285374,2.79597663222306,1.34209404870695,-0.873476815404885,TRUE,2.33376307393769
"CAN","cpi",0.5,1961,3,1961,NA,0,0.827315509328493,1.53238966120471,1.00921348094007,1.00921348094007,TRUE,0.705074151876215
"CAN","cpi",0.5,1961,3,1961,NA,0.5,0.966568454480785,2.14060346959471,1.00921348094007,1.00921348094007,TRUE,1.17403501511393
"CAN","cpi",0.5,1961,3,1960,NA,1,-0.997282110074116,0.684012790412501,1.00921348094007,0.0537704626035329,FALSE,2.9820976625969
"CAN","cpi",0.5,1961,3,1960,NA,1.5,0.784005461349153,2.46530036183577,1.00921348094007,-0.862181798940035,TRUE,1.68129490048662
"CAN","cpi",0.5,1962,3,1962,NA,0,1.10146822836798,1.57874739607177,1.04957947883042,1.10232402731478,FALSE,0.684834165854042
"CAN","cpi",0.5,1962,3,1962,NA,0.5,0.806478956274785,1.33663163214816,1.04957947883042,0,TRUE,0.53015267587337
"CAN","cpi",0.5,1962,3,1961,NA,1,0.182683572800484,0.847866797866341,1.04957947883042,0,FALSE,1.47203394892215
"CAN","cpi",0.5,1962,3,1961,NA,1.5,0.833883322116929,2.35448606873789,1.04957947883042,0,TRUE,1.52060274662096
"CAN","cpi",0.5,1963,3,1963,NA,0,1.5237978223371,2.16854021671449,1.60677118395228,1.91491729531202,TRUE,0.644742394377393
"CAN","cpi",0.5,1963,3,1963,NA,0.5,0.834749134125221,1.47949152850261,1.60677118395228,0.836828714617504,FALSE,1.15386101617607
"CAN","cpi",0.5,1963,3,1962,NA,1,0.479059775524022,1.12380216990141,1.60677118395228,2.56411490415144,FALSE,2.57661845058087
"CAN","cpi",0.5,1963,3,1962,NA,1.5,0.868668117135421,1.51341051151281,1.60677118395228,0,FALSE,1.01818508413527
"CAN","cpi",0.5,1964,3,1964,NA,0,1.32944229552149,1.60085021733614,1.88764670034376,1.98877256446048,FALSE,1.41859385384512
"CAN","cpi",0.5,1964,3,1964,NA,0.5,1.52418159237628,1.93948459289917,1.88764670034376,1.38369006227607,TRUE,0.415303000522894
"CAN","cpi",0.5,1964,3,1963,NA,1,2.36137081102418,2.77667381154707,1.88764670034376,5.39044290347256,FALSE,2.31019944324458
"CAN","cpi",0.5,1964,3,1963,NA,1.5,1.02756260239304,1.57051216151276,1.88764670034376,0,FALSE,1.8114877144437
"CAN","cpi",0.5,1965,3,1965,NA,0,2.44372176734844,2.98501697069953,2.29538304394236,2.34557047418999,FALSE,1.13465009697541
"CAN","cpi",0.5,1965,3,1965,NA,0.5,1.37707365881508,2.18325213845929,2.29538304394236,1.61079447956654,FALSE,1.25470210157649
"CAN","cpi",0.5,1965,3,1964,NA,1,0.526731889097003,1.33298633097513,2.29538304394236,2.42518862179847,FALSE,4.65584129374703
"CAN","cpi",0.5,1965,3,1964,NA,1.5,1.11396109323733,2.37137491053352,2.29538304394236,0.818102552316399,TRUE,1.25741381729619
"CAN","cpi",0.5,1966,3,1966,NA,0,3.29058229164574,3.37808577220187,3.72486065470629,3.82010987863709,FALSE,1.47460301057381
"CAN","cpi",0.5,1966,3,1966,NA,0.5,3.70520643999191,6.40498458882774,3.72486065470629,3.99123398895563,TRUE,2.69977814883582
"CAN","cpi",0.5,1966,3,1965,NA,1,-0.152054778573257,2.54772337026257,3.72486065470629,3.20722068745854,FALSE,7.40832728661072
"CAN","cpi",0.5,1966,3,1965,NA,1.5,0.470670595437011,3.17044874427283,3.72486065470629,1.60663824631958,FALSE,4.91742579056965
"CAN","cpi",0.5,1967,3,1967,NA,0,6.08683510744094,8.6208501796626,3.49360316391996,3.76768849328632,FALSE,12.9069428463056
"CAN","cpi",0.5,1967,3,1967,NA,0.5,1.44370662950663,3.97772170172829,3.49360316391996,2.4074547441976,TRUE,2.53401507222165
"CAN","cpi",0.5,1967,3,1966,NA,1,0.260463894311543,2.7944789665332,3.49360316391996,3.18103323070284,FALSE,5.3305118617687
"CAN","cpi",0.5,1967,3,1966,NA,1.5,1.13003285258942,3.66404792481108,3.49360316391996,4.65128160487248,TRUE,2.53401507222165
"CAN","cpi",0.5,1968,3,1968,NA,0,3.55505453518046,3.67800366361053,3.95128347779386,4.17287945672396,FALSE,1.21606838516338
"CAN","cpi",0.5,1968,3,1968,NA,0.5,3.14167592239018,5.33409269182893,3.95128347779386,4.07097205779852,TRUE,2.19241676943875
"CAN","cpi",0.5,1968,3,1967,NA,1,1.49755423671726,3.68997100615601,3.95128347779386,5.84521682123848,FALSE,3.23766665599014
"CAN","cpi",0.5,1968,3,1967,NA,1.5,1.45398899205971,3.64640576149846,3.95128347779386,2.25565858240226,FALSE,3.41192763462033
"CAN","cpi",0.5,1969,3,1969,NA,0,3.78463219879338,3.90422025527927,4.42679496126681,4.46896837073893,FALSE,2.20988688043607
"CAN","cpi",0.5,1969,3,1969,NA,0.5,3.24649560412335,3.47962333464176,4.42679496126681,2.96612019395715,FALSE,4.02181423701862
"CAN","cpi",0.5,1969,3,1968,NA,1,2.5556236035455,3.83838729929365,4.42679496126681,6.72487630040807,FALSE,3.63639434364081
"CAN","cpi",0.5,1969,3,1968,NA,1.5,2.33189260276231,3.76107577584717,4.42679496126681,4.31664452944541,FALSE,4.09205991476344
"CAN","cpi",0.5,1970,3,1970,NA,0,3.2937270850486,3.38752444210452,3.28128405769805,3.52697515579364,FALSE,0.14356946645812
"CAN","cpi",0.5,1970,3,1970,NA,0.5,3.30903924574108,3.89467019236342,3.28128405769805,4.65371085276917,FALSE,0.696651698794485
"CAN","cpi",0.5,1970,3,1969,NA,1,1.90383878664906,3.39139366957669,3.28128405769805,4.52747875087707,TRUE,1.48755488292763
"CAN","cpi",0.5,1970,3,1969,NA,1.5,2.2747919598188,3.76234684274643,3.28128405769805,2.07973847283129,TRUE,1.48755488292763
"CAN","cpi",0.5,1971,3,1971,NA,0,2.3626431951172,2.71856027777107,2.64123406634756,2.8393232579169,TRUE,0.355917082653876
"CAN","cpi",0.5,1971,3,1971,NA,0.5,2.22171789857962,2.57763498123349,2.64123406634756,2.06692165705507,FALSE,0.610313423110151
"CAN","cpi",0.5,1971,3,1970,NA,1,1.01951513778061,2.07991979105874,2.64123406634756,2.64105994583495,FALSE,3.3056617544334
"CAN","cpi",0.5,1971,3,1970,NA,1.5,2.27131159251345,4.02503029908883,2.64123406634756,4.63977638900468,TRUE,1.75371870657539
"CAN","cpi",0.5,1972,3,1972,NA,0,4.08405540225532,4.34969199375673,4.83230569625923,5.03048103188219,FALSE,2.1960914015114
"CAN","cpi",0.5,1972,3,1972,NA,0.5,3.26406322304387,3.83806607871457,4.83230569625923,5.06705904355972,FALSE,4.55096132584933
"CAN","cpi",0.5,1972,3,1971,NA,1,2.80124679109144,3.86226145255778,4.83230569625923,5.9169160270675,FALSE,4.94119163627213
"CAN","cpi",0.5,1972,3,1971,NA,1.5,2.55562892296579,3.68939116325973,4.83230569625923,3.09276495441271,FALSE,5.70542037229194
"CAN","cpi",0.5,1973,3,1973,NA,0,5.30910148963693,7.297095119971,7.12388603531779,6.99264756193144,TRUE,1.98799363033407
"CAN","cpi",0.5,1973,3,1973,NA,0.5,2.91567036195528,4.90366399228935,7.12388603531779,5.47469896411854,FALSE,10.8688818024478
"CAN","cpi",0.5,1973,3,1972,NA,1,2.75093528491813,4.7389289152522,7.12388603531779,6.69062283747837,FALSE,11.5278221105964
"CAN","cpi",0.5,1973,3,1972,NA,1.5,2.44731613802603,4.4353097683601,7.12388603531779,4.73174243586486,FALSE,12.7422986981648
"CAN","cpi",0.5,1974,3,1974,NA,0,7.81990422788906,9.21250598093753,10.2717243737774,9.94431520564033,FALSE,5.62947532440803
"CAN","cpi",0.5,1974,3,1974,NA,0.5,6.40201669145976,10.8670624755307,10.2717243737774,8.3378654175141,TRUE,4.46504578407097
"CAN","cpi",0.5,1974,3,1973,NA,1,4.25240501908938,8.71745080316035,10.2717243737774,7.16712422635118,FALSE,10.6821400665393
"CAN","cpi",0.5,1974,3,1973,NA,1.5,1.27623616538852,5.74128194945949,10.2717243737774,4.05174749178054,FALSE,22.5868154813427
"CAN","cpi",0.5,1975,3,1975,NA,0,9.9820646102334,10.1873651470298,10.0232981493341,10.0931823619779,TRUE,0.205300536796379
"CAN","cpi",0.5,1975,3,1975,NA,0.5,4.51641108555544,10.0852713691122,10.0232981493341,8.98267476097328,TRUE,5.56886028355673
"CAN","cpi",0.5,1975,3,1974,NA,1,3.77124012185595,10.1869818472308,10.0232981493341,7.7837982223054,TRUE,6.41574172537483
"CAN","cpi",0.5,1975,3,1974,NA,1.5,2.08718212109236,8.50292384646719,10.0232981493341,5.75931605308519,FALSE,12.4972389368426
"CAN","cpi",0.5,1976,3,1976,NA,0,5.42242910269577,6.60311727881985,7.22784311401172,7.07277954951717,FALSE,3.67959151689153
"CAN","cpi",0.5,1976,3,1976,NA,0.5,8.50150634649629,10.8114249179016,7.22784311401172,8.59089060438327,FALSE,7.40457150134359
"CAN","cpi",0.5,1976,3,1975,NA,1,3.90159218286834,11.1485248613737,7.22784311401172,10.4141477685142,TRUE,7.24693267850534
"CAN","cpi",0.5,1976,3,1975,NA,1.5,2.04366414523652,9.29059682374185,7.22784311401172,6.43051086134862,TRUE,7.24693267850534
"CAN","cpi",0.5,1977,3,1977,NA,0,7.15521996436914,7.21790779411532,7.58101410153764,7.55301151664772,FALSE,1.51511305943549
"CAN","cpi",0.5,1977,3,1977,NA,0.5,7.34376961724839,9.62587605940005,7.58101410153764,7.98165850021887,TRUE,2.28210644215166
"CAN","cpi",0.5,1977,3,1976,NA,1,1.0868265288419,3.36893297099356,7.58101410153764,3.72134649143602,FALSE,19.130430964328
"CAN","cpi",0.5,1977,3,1976,NA,1.5,2.62867997323922,8.06659103416058,7.58101410153764,8.00272044475614,TRUE,5.43791106092135
"CAN","cpi",0.5,1978,3,1978,NA,0,7.39588052984356,8.67388687938725,8.50208927062595,8.67127840358843,TRUE,1.27800634954369
"CAN","cpi",0.5,1978,3,1978,NA,0.5,6.05962515755515,10.0232930822617,8.50208927062595,8.3788273181893,TRUE,3.96366792470659
"CAN","cpi",0.5,1978,3,1977,NA,1,4.0545160342259,9.47840077199337,8.50208927062595,7.54783828416051,TRUE,5.42388473776747
"CAN","cpi",0.5,1978,3,1977,NA,1.5,2.70204764808861,8.12593238585608,8.50208927062595,9.72562756342223,FALSE,6.92851227684693
"CAN","cpi",0.5,1979,3,1979,NA,0,7.73829703502231,8.24901782702505,8.65147652410481,8.56376390232469,FALSE,2.12055558032178
"CAN","cpi",0.5,1979,3,1979,NA,0.5,7.22769107998301,9.3304347430235,8.65147652410481,8.29599284966764,TRUE,2.10274366304049
"CAN","cpi",0.5,1979,3,1978,NA,1,4.03764138528132,10.6865604726208,8.65147652410481,9.20311500508918,TRUE,6.64891908733948
"CAN","cpi",0.5,1979,3,1978,NA,1.5,2.96892957826864,9.61784866560813,8.65147652410481,8.55646910152924,TRUE,6.64891908733948
"CAN","cpi",0.5,1980,3,1980,NA,0,8.57908788987317,9.42376280561786,9.5171912664748,9.50406722106931,FALSE,1.21838875917244
"CAN","cpi",0.5,1980,3,1980,NA,0.5,7.5808781980159,9.87939803810453,9.5171912664748,8.57798914335092,TRUE,2.29851984008862
"CAN","cpi",0.5,1980,3,1979,NA,1,4.51927275648388,9.96934658337227,9.5171912664748,8.17875203710815,TRUE,5.45007382688839
"CAN","cpi",0.5,1980,3,1979,NA,1.5,3.04202064998225,9.19082213553082,9.5171912664748,8.39204766062112,FALSE,7.45427800932449
"CAN","cpi",0.5,1981,3,1981,NA,0,9.62746179685501,11.6679885154084,11.5813425032741,11.7113878984199,TRUE,2.04052671855342
"CAN","cpi",0.5,1981,3,1981,NA,0.5,10.1080988537279,12.1646386234182,11.5813425032741,12.2156196752767,TRUE,2.05653976969028
"CAN","cpi",0.5,1981,3,1980,NA,1,6.97571525152727,10.0236131927895,11.5813425032741,11.0496853423024,FALSE,9.2788151832007
"CAN","cpi",0.5,1981,3,1980,NA,1.5,3.21084519652483,8.9783130621011,11.5813425032741,8.33809792174894,FALSE,16.1795856302684
"CAN","cpi",0.5,1982,3,1982,NA,0,6.51734644017599,8.7966429872248,10.1124203763629,10.2566668151097,FALSE,7.54240610360141
"CAN","cpi",0.5,1982,3,1982,NA,0.5,9.16008498588919,11.439381532938,10.1124203763629,10.1085355973545,TRUE,2.27929654704881
"CAN","cpi",0.5,1982,3,1981,NA,1,9.80331250259249,12.0826090496413,10.1124203763629,11.770988683124,TRUE,2.27929654704881
"CAN","cpi",0.5,1982,3,1981,NA,1.5,3.32254220530922,9.51720510424731,10.1124203763629,12.8701250351281,FALSE,8.57552398740064
"CAN","cpi",0.5,1983,3,1983,NA,0,4.1895179971729,5.49519845698459,5.67091787896303,5.7310121416489,FALSE,2.00855814772547
"CAN","cpi",0.5,1983,3,1983,NA,0.5,3.23910235175515,4.54478281156685,5.67091787896303,4.91343016009654,FALSE,5.81022072939645
"CAN","cpi",0.5,1983,3,1982,NA,1,5.55251026206319,10.1127293289459,5.67091787896303,9.18500149866057,TRUE,4.56021906688276
"CAN","cpi",0.5,1983,3,1982,NA,1.5,3.31996218742333,9.78240331824511,5.67091787896303,9.68672301569366,TRUE,6.46244113082178
"CAN","cpi",0.5,1984,3,1984,NA,0.5,3.79171575603434,5.87568898826929,4.19799576814029,5.85770686024457,TRUE,2.08397323223495
