isdrw/probabilistic-benchmark-forecasts/results/EasyUQ_idr/easyUQ_prediction_arima1_1_0_2026-02-19_12-04-31.csv
"country","target","tau","target_year","target_quarter","forecast_year","forecast_quarter","horizon","lower_bound","upper_bound","truth_value","prediction","covered","IS"
"CAN","cpi",0.1,1950,3,1950,NA,0,3.41276022321824,3.41276022321824,2.59031220731124,2.28904261800392,FALSE,1.82766225757111
"CAN","cpi",0.1,1950,3,1950,NA,0.5,3.41276022321824,3.41276022321824,2.59031220731124,-0.0597026374682003,FALSE,1.82766225757111
"CAN","cpi",0.1,1950,3,1949,NA,1,3.41276022321824,3.41276022321824,2.59031220731124,1.71904267353831,FALSE,1.82766225757111
"CAN","cpi",0.1,1950,3,1949,NA,1.5,3.41276022321824,4.39049624334254,2.59031220731124,1.07189937513012,FALSE,2.80539827769541
"CAN","cpi",0.1,1951,3,1951,NA,0,5.43700614917911,6.14987054659004,9.87945438999359,10.0174160826209,FALSE,9.00082849386327
"CAN","cpi",0.1,1951,3,1951,NA,0.5,3.60881622846752,4.32168062587845,9.87945438999359,9.64288482270982,FALSE,13.0634727621112
"CAN","cpi",0.1,1951,3,1950,NA,1,2.34251940759026,3.0553838050012,9.87945438999359,6.5630832774632,FALSE,15.877465697394
"CAN","cpi",0.1,1951,3,1950,NA,1.5,2.23388000860577,2.9467444060167,9.87945438999359,-1.15455738512665,FALSE,16.1188865840262
"CAN","cpi",0.1,1952,3,1952,NA,0,3.08274087248431,2.09788354213816,2.55562336095485,2.46502621244774,FALSE,1.20371451486752
"CAN","cpi",0.1,1952,3,1952,NA,0.5,3.56715993474456,2.58230260439841,2.55562336095485,4.32129924776399,FALSE,1.26300172251989
"CAN","cpi",0.1,1952,3,1951,NA,1,4.18652557057542,3.20166824022927,2.55562336095485,9.65785623271456,FALSE,2.63936980214402
"CAN","cpi",0.1,1952,3,1951,NA,1.5,7.26095893178467,6.27610160143852,2.55562336095485,10.2729097180516,FALSE,9.47144393816457
"CAN","cpi",0.1,1953,3,1953,NA,0,2.55562336095485,2.55910359556005,-1.01492775838436,-1.00749856253296,FALSE,7.93803827758123
"CAN","cpi",0.1,1953,3,1953,NA,0.5,2.70582121588662,2.83435557956427,-1.01492775838436,-2.06778904141071,FALSE,8.39686541761317
"CAN","cpi",0.1,1953,3,1952,NA,1,2.70582121714041,2.83435558189101,-1.01492775838436,-1.55171650633025,FALSE,8.39686542147232
"CAN","cpi",0.1,1953,3,1952,NA,1.5,2.58337488582261,3.0015528033676,-1.01492775838436,1.96017794195978,FALSE,8.41440601578271
"CAN","cpi",0.1,1954,3,1954,NA,0,-0.430450138801554,-0.0291149561437258,0.644425455961438,0.844896913757956,FALSE,1.89809165400264
"CAN","cpi",0.1,1954,3,1954,NA,0.5,2.36236770168351,2.76370288434134,0.644425455961438,-0.153040348587994,FALSE,4.21898461759577
"CAN","cpi",0.1,1954,3,1953,NA,1,2.36529091507807,2.7666260977359,0.644425455961438,2.75483618067449,FALSE,4.22548064736145
"CAN","cpi",0.1,1954,3,1953,NA,1.5,2.67638208795093,3.07771727060876,0.644425455961438,-2.52548049332379,FALSE,4.9167943648567
"CAN","cpi",0.1,1955,3,1955,NA,0,-0.860735986192665,-0.607867666590988,0.173649026558865,0.10765252516202,FALSE,1.98957208215691
"CAN","cpi",0.1,1955,3,1955,NA,0.5,-0.631943342410948,-0.379075022809271,0.173649026558865,-0.685764272176465,FALSE,1.4811439848642
"CAN","cpi",0.1,1955,3,1954,NA,1,0.703454474059034,2.46191124269543,0.173649026558865,3.05598167297881,FALSE,2.93580220752566
"CAN","cpi",0.1,1955,3,1954,NA,1.5,0.903065673473061,2.66152244210946,0.173649026558865,-1.37299158518014,FALSE,3.37938265066795
"CAN","cpi",0.1,1956,3,1956,NA,0,0.572036918991457,0.746662479736539,1.32752769429961,1.5132196707054,FALSE,1.46543714866301
"CAN","cpi",0.1,1956,3,1956,NA,0.5,-0.269947703167572,-0.0953221424224898,1.32752769429961,-0.533297708724126,FALSE,3.33651408679419
"CAN","cpi",0.1,1956,3,1955,NA,1,-0.140974619303687,0.187784193127762,1.32752769429961,0.79482048855347,FALSE,2.86152214836888
"CAN","cpi",0.1,1956,3,1955,NA,1.5,-0.0662355682832492,0.262523244148199,1.32752769429961,-1.67555014996128,FALSE,2.69543536832347
"CAN","cpi",0.1,1957,3,1957,NA,0,2.96564157884926,3.01464056701459,3.24684755852518,3.4081189986054,FALSE,0.565014524855526
"CAN","cpi",0.1,1957,3,1957,NA,0.5,2.54956655780867,2.598565545974,3.24684755852518,2.36364513914165,FALSE,1.4896256827235
"CAN","cpi",0.1,1957,3,1956,NA,1,2.44205189673618,2.71413611519779,3.24684755852518,6.42400073504334,FALSE,1.4558874258558
"CAN","cpi",0.1,1957,3,1956,NA,1.5,0.471755102631197,0.743839321092805,3.24684755852518,-1.44175113719435,FALSE,5.8343247460891
"CAN","cpi",0.1,1958,3,1958,NA,0,2.30937400346366,2.55624900034269,2.33186388641149,2.22393716079583,TRUE,0.246874996879036
"CAN","cpi",0.1,1958,3,1958,NA,0.5,4.3371766032172,5.19260378998341,2.33186388641149,2.22874439106395,FALSE,5.31167766855668
"CAN","cpi",0.1,1958,3,1957,NA,1,1.6944115870649,2.54983877383111,2.33186388641149,4.33819969505612,TRUE,0.855427186766214
"CAN","cpi",0.1,1958,3,1957,NA,1.5,2.14525403905453,3.00068122582074,2.33186388641149,1.22685206136826,TRUE,0.855427186766215
"CAN","cpi",0.1,1959,3,1959,NA,0,0.621089233509081,0.743887988416801,1.19382698397654,1.19679708996586,FALSE,1.12266318948492
"CAN","cpi",0.1,1959,3,1959,NA,0.5,2.18738237361983,2.53489093913655,1.19382698397654,0.655175994826909,FALSE,2.5554094313907
"CAN","cpi",0.1,1959,3,1958,NA,1,0.52605828178902,0.873566847305733,1.19382698397654,1.75938857815981,FALSE,1.05919775811851
"CAN","cpi",0.1,1959,3,1958,NA,1.5,2.13143504908358,2.56602245433898,1.19382698397654,1.7749666101295,FALSE,2.51816088327104
"CAN","cpi",0.1,1960,3,1960,NA,0,0.624102923868976,0.727230561715233,1.34209404870695,1.03130246511349,FALSE,1.4694909422723
"CAN","cpi",0.1,1960,3,1960,NA,0.5,1.36811646110343,1.670204823991,1.34209404870695,0.745602653132245,FALSE,0.359915945990857
"CAN","cpi",0.1,1960,3,1959,NA,1,1.05551426855108,1.35760263143864,1.34209404870695,3.33587387303437,TRUE,0.302088362887566
"CAN","cpi",0.1,1960,3,1959,NA,1.5,1.62059150682475,2.20637784268928,1.34209404870695,-0.32541909428789,FALSE,1.2046695761263
"CAN","cpi",0.1,1961,3,1961,NA,0,1.05773014049265,1.18251155870781,1.00921348094007,1.00921348094007,FALSE,0.232596217220888
"CAN","cpi",0.1,1961,3,1961,NA,0.5,1.45249111897919,1.74561534682744,1.00921348094007,1.31141131508129,FALSE,1.27818564571296
"CAN","cpi",0.1,1961,3,1960,NA,1,0.264839955189681,0.590642947627017,1.00921348094007,0.143625905669962,FALSE,1.25595973313301
"CAN","cpi",0.1,1961,3,1960,NA,1.5,1.33772407416217,1.73800615780544,1.00921348094007,-0.34011142415222,FALSE,1.13030562413682
"CAN","cpi",0.1,1962,3,1962,NA,0,1.17535560657122,1.23395134961645,1.04957947883042,1.11132998230876,FALSE,0.338098249135909
"CAN","cpi",0.1,1962,3,1962,NA,0.5,1.18534217460019,1.30200230380763,1.04957947883042,1.64134322488006e-44,FALSE,0.418355008695831
"CAN","cpi",0.1,1962,3,1961,NA,1,0.651969560489151,0.768629689696594,1.04957947883042,-9.44308782563385e-19,FALSE,0.740992993949267
"CAN","cpi",0.1,1962,3,1961,NA,1.5,1.33346204741439,1.52968817795076,1.04957947883042,0.754384248690751,FALSE,0.827076282945196
"CAN","cpi",0.1,1963,3,1963,NA,0,1.49994328117491,1.74852354440823,1.60677118395228,1.85599510888664,TRUE,0.248580263233322
"CAN","cpi",0.1,1963,3,1963,NA,0.5,1.11596484791761,1.36454511115093,1.60677118395228,0.932300293637426,FALSE,0.7868604250141
"CAN","cpi",0.1,1963,3,1962,NA,1,0.997413009353799,1.24599327258712,1.60677118395228,2.66748522343727,FALSE,1.05030895515591
"CAN","cpi",0.1,1963,3,1962,NA,1.5,1.12601292513393,1.37459318836725,1.60677118395228,4.10321927477868e-44,FALSE,0.764531364533398
"CAN","cpi",0.1,1964,3,1964,NA,0,1.52425702196043,1.56799195337281,1.88764670034376,1.98894154569002,FALSE,0.754078813570039
"CAN","cpi",0.1,1964,3,1964,NA,0.5,1.33190098858677,1.41919848315328,1.88764670034376,1.38377582747094,FALSE,1.12829353276759
"CAN","cpi",0.1,1964,3,1963,NA,1,1.76630906517084,1.92227262328717,1.88764670034376,4.71286552905431,TRUE,0.15596355811633
"CAN","cpi",0.1,1964,3,1963,NA,1.5,1.28989298739815,1.44585654551448,1.88764670034376,0.238779673172327,FALSE,1.13771945773696
"CAN","cpi",0.1,1965,3,1965,NA,0,2.88253284155797,3.26816704966787,2.29538304394236,2.35494510510554,FALSE,1.69041153614459
"CAN","cpi",0.1,1965,3,1965,NA,0.5,1.55163793724603,1.93727214535593,2.29538304394236,1.56044896459738,FALSE,1.18143620496862
"CAN","cpi",0.1,1965,3,1964,NA,1,1.00674276386704,1.39237697197694,2.29538304394236,2.42710731898607,FALSE,2.39231436803304
"CAN","cpi",0.1,1965,3,1964,NA,1.5,1.35648900550004,1.74212321360994,2.29538304394236,0.818315757903116,FALSE,1.6151004977375
"CAN","cpi",0.1,1966,3,1966,NA,0,3.21250551395099,3.27645264626657,3.72486065470629,3.84664136390011,FALSE,1.06040937329273
"CAN","cpi",0.1,1966,3,1966,NA,0.5,3.38719136524423,3.90197563789332,3.72486065470629,3.84691400230302,TRUE,0.514784272649098
"CAN","cpi",0.1,1966,3,1965,NA,1,1.08274534099335,1.59752961364245,3.72486065470629,3.31367997089714,FALSE,5.2421865861243
"CAN","cpi",0.1,1966,3,1965,NA,1.5,1.86949846788798,2.38428274053708,3.72486065470629,1.48150382413513,FALSE,3.49384630413623
"CAN","cpi",0.1,1967,3,1967,NA,0,6.81513534485995,7.66379433389435,3.49360316391996,3.76862969063141,FALSE,8.22984161334549
"CAN","cpi",0.1,1967,3,1967,NA,0.5,5.59218667303252,6.44084566206692,3.49360316391996,2.36174420726938,FALSE,5.51217789817343
"CAN","cpi",0.1,1967,3,1966,NA,1,1.4077908221342,2.25644981116859,3.49360316391996,3.4823384545504,FALSE,3.59788866181521
"CAN","cpi",0.1,1967,3,1966,NA,1.5,2.30762922613937,3.15628821517377,3.49360316391996,4.29257700443622,FALSE,1.59824776402593
"CAN","cpi",0.1,1968,3,1968,NA,0,3.60253840580322,3.62675114470945,3.95128347779386,4.1134030125927,FALSE,0.745395701316028
"CAN","cpi",0.1,1968,3,1968,NA,0.5,3.5608244497373,4.26454689375308,3.95128347779386,3.89224433743933,TRUE,0.703722444015779
"CAN","cpi",0.1,1968,3,1967,NA,1,2.50095111552484,3.20467355954062,3.95128347779386,5.85596711509228,FALSE,2.36285559568964
"CAN","cpi",0.1,1968,3,1967,NA,1.5,2.40629165530956,3.11001409932534,3.95128347779386,2.14187095150408,FALSE,2.5732099517236
"CAN","cpi",0.1,1969,3,1969,NA,0,3.83696763270096,3.8618852423773,4.42679496126681,4.64263065146317,FALSE,1.28027254054193
"CAN","cpi",0.1,1969,3,1969,NA,0.5,3.30687883766753,3.35574497782226,4.42679496126681,3.06199492877772,FALSE,2.42897721447596
"CAN","cpi",0.1,1969,3,1968,NA,1,3.12488897764484,3.31351861971671,4.42679496126681,6.05582378748629,FALSE,2.66257706773876
"CAN","cpi",0.1,1969,3,1968,NA,1.5,3.4744983391257,3.66312798119757,4.42679496126681,3.87227485119322,FALSE,1.88566737555908
"CAN","cpi",0.1,1970,3,1970,NA,0,3.38241111291782,3.47133751131757,3.28128405769805,3.58996474924422,FALSE,0.313653187777027
"CAN","cpi",0.1,1970,3,1970,NA,0.5,3.63124258591356,3.76260253812122,3.28128405769805,4.17180269652751,FALSE,0.909045570464362
"CAN","cpi",0.1,1970,3,1969,NA,1,3.12869877849313,3.42684875190487,3.28128405769805,5.43865496465038,TRUE,0.298149973411741
"CAN","cpi",0.1,1970,3,1969,NA,1.5,3.46850022253215,3.7666501959439,3.28128405769805,2.31672730979866,FALSE,0.714185895265314
"CAN","cpi",0.1,1971,3,1971,NA,0,2.60796785281265,2.70629579069737,2.64123406634756,2.89424739818036,TRUE,0.0983279378847177
"CAN","cpi",0.1,1971,3,1971,NA,0.5,1.31059829160437,1.40892622948909,2.64123406634756,1.07533993963556,FALSE,2.83678979757021
"CAN","cpi",0.1,1971,3,1970,NA,1,1.23531790093403,1.4201141096514,2.64123406634756,2.98160965133743,FALSE,2.89839611248662
"CAN","cpi",0.1,1971,3,1970,NA,1.5,3.5024628628756,3.68725907159297,2.64123406634756,4.15708260691123,FALSE,2.09863797877967
"CAN","cpi",0.1,1972,3,1972,NA,0,4.18575675725414,4.23787226871864,4.83230569625923,5.10321489701878,FALSE,1.37307868377692
"CAN","cpi",0.1,1972,3,1972,NA,0.5,3.45864076680051,3.55801527554431,4.83230569625923,4.57526784474473,FALSE,2.9311309992214
"CAN","cpi",0.1,1972,3,1971,NA,1,3.49551507693128,3.72989849766538,4.83230569625923,6.5673313651466,FALSE,2.6841771953871
"CAN","cpi",0.1,1972,3,1971,NA,1.5,2.19643308195198,2.43081650268608,4.83230569625923,1.20127092516847,FALSE,5.57102607311888
"CAN","cpi",0.1,1973,3,1973,NA,0,4.81745707754282,4.97685646028599,7.12388603531779,7.36268749116872,FALSE,4.93057621614717
"CAN","cpi",0.1,1973,3,1973,NA,0.5,4.62176027203409,4.78115965477725,7.12388603531779,5.89432993074317,FALSE,5.36545800616658
"CAN","cpi",0.1,1973,3,1972,NA,1,3.94625724341303,4.35424889983986,7.12388603531779,7.371399360381,FALSE,6.56274084637778
"CAN","cpi",0.1,1973,3,1972,NA,1.5,3.19340119208824,3.60139284851507,7.12388603531779,4.50324671282129,FALSE,8.23575429376621
"CAN","cpi",0.1,1974,3,1974,NA,0,8.48773550970657,8.7908754046444,10.2717243737774,10.3222881332229,FALSE,3.59391538190009
"CAN","cpi",0.1,1974,3,1974,NA,0.5,8.9504207276493,9.71874788196771,10.2717243737774,8.8471290293637,FALSE,1.99716380278443
"CAN","cpi",0.1,1974,3,1973,NA,1,5.78179542684232,6.63892342348113,10.2717243737774,10.9884402825372,FALSE,8.93001899729723
"CAN","cpi",0.1,1974,3,1973,NA,1.5,3.02967017135053,3.88679816798934,10.2717243737774,6.19554852079723,FALSE,15.0458528983901
"CAN","cpi",0.1,1975,3,1975,NA,0,10.9384682550203,11.3435827982287,10.0232981493341,10.2646941702359,FALSE,2.43882588917768
"CAN","cpi",0.1,1975,3,1975,NA,0.5,9.65724001284505,10.1545751365082,10.0232981493341,9.21855388205318,TRUE,0.497335123663191
"CAN","cpi",0.1,1975,3,1974,NA,1,10.1888448347309,10.6861799583941,10.0232981493341,11.9905143933903,FALSE,0.865216646767163
"CAN","cpi",0.1,1975,3,1974,NA,1.5,3.60002240352365,6.34660360652518,10.0232981493341,8.68009129130424,FALSE,10.9170135203547
"CAN","cpi",0.1,1976,3,1976,NA,0,5.80186880502511,6.0431562680696,7.22784311401172,7.25383067322222,FALSE,2.87392489847141
"CAN","cpi",0.1,1976,3,1976,NA,0.5,7.18544773273234,7.95921592078743,7.22784311401172,7.41547675604771,TRUE,0.773768188055081
"CAN","cpi",0.1,1976,3,1975,NA,1,9.78650330373108,10.5602714917862,7.22784311401172,11.9151510581142,FALSE,6.45967972076478
"CAN","cpi",0.1,1976,3,1975,NA,1.5,6.80248066778398,7.70383233836476,7.22784311401172,8.01331538119686,TRUE,0.901351670580784
"CAN","cpi",0.1,1977,3,1977,NA,0,7.1158012148108,7.14097863776472,7.58101410153764,7.61867129691007,FALSE,1.00303400911597
"CAN","cpi",0.1,1977,3,1977,NA,0.5,7.14532674380329,7.17050416675721,7.58101410153764,7.02287871989832,FALSE,0.937421722465996
"CAN","cpi",0.1,1977,3,1976,NA,1,3.75403329435228,3.79293424110687,7.58101410153764,5.87261903876238,FALSE,8.45685619215631
"CAN","cpi",0.1,1977,3,1976,NA,1.5,7.14521730512671,7.19852481710958,7.58101410153764,6.15322645024094,FALSE,0.903283699600798
"CAN","cpi",0.1,1978,3,1978,NA,0,7.51368511704553,7.57721004648848,8.50208927062595,8.68125407245005,FALSE,2.11881209419288
"CAN","cpi",0.1,1978,3,1978,NA,0.5,7.63448112427808,8.09509808292972,8.50208927062595,8.12508742330222,FALSE,1.36504182019881
"CAN","cpi",0.1,1978,3,1977,NA,1,4.39924229893421,4.85985925758584,8.50208927062595,8.64318766852961,FALSE,8.55446143207409
"CAN","cpi",0.1,1978,3,1977,NA,1.5,7.19665373112634,8.55363230838781,8.50208927062595,7.66028936796504,TRUE,1.35697857726147
"CAN","cpi",0.1,1979,3,1979,NA,0,8.5655285621972,8.73670360994815,8.65147652410481,8.61075946409788,TRUE,0.171175047750953
"CAN","cpi",0.1,1979,3,1979,NA,0.5,7.940451585917,8.11162663366795,8.65147652410481,8.10062835274572,FALSE,1.37084147094398
"CAN","cpi",0.1,1979,3,1978,NA,1,4.7106529137079,5.55112831027149,8.65147652410481,9.5826348846829,FALSE,7.73013809397097
"CAN","cpi",0.1,1979,3,1978,NA,1.5,7.33376544567251,8.27053171205537,8.65147652410481,7.94183844676527,FALSE,1.78331029315939
"CAN","cpi",0.1,1980,3,1980,NA,0,9.39588156151504,9.84631507680759,9.5171912664748,9.53109046750286,TRUE,0.450433515292545
"CAN","cpi",0.1,1980,3,1980,NA,0.5,9.59659438364012,10.0470278989327,9.5171912664748,8.68563614915422,FALSE,0.626884886771034
"CAN","cpi",0.1,1980,3,1979,NA,1,6.00178867107242,7.29416395444633,9.5171912664748,8.32548734166583,FALSE,6.2324359767705
"CAN","cpi",0.1,1980,3,1979,NA,1.5,7.39530026517373,8.68767554854764,9.5171912664748,7.98047102096121,FALSE,3.13574354543425
"CAN","cpi",0.1,1981,3,1981,NA,0,10.2247871459189,10.2695675664965,11.5813425032741,11.708955977523,FALSE,2.95983583563911
"CAN","cpi",0.1,1981,3,1981,NA,0.5,10.0996132968604,10.227441451457,11.5813425032741,12.1263962907449,FALSE,3.13649715863459
"CAN","cpi",0.1,1981,3,1980,NA,1,8.07538210037603,9.45342722586655,11.5813425032741,10.9849401653028,FALSE,6.10674574195183
"CAN","cpi",0.1,1981,3,1980,NA,1.5,7.66619032388436,9.04423544937488,11.5813425032741,8.62735225265647,FALSE,7.0160608008222
"CAN","cpi",0.1,1982,3,1982,NA,0,11.1218312193681,11.3015120203087,10.1124203763629,10.3109749747662,FALSE,2.42281600761882
"CAN","cpi",0.1,1982,3,1982,NA,0.5,9.91130640136834,10.0909872023089,10.1124203763629,10.0996836619997,FALSE,0.227310076616177
"CAN","cpi",0.1,1982,3,1981,NA,1,9.93667446658615,10.1163552675267,10.1124203763629,11.6194795199153,TRUE,0.179680800940602
"CAN","cpi",0.1,1982,3,1981,NA,1.5,8.80663696898592,9.95790811919241,10.1124203763629,12.7194356761443,FALSE,1.49463172169657
"CAN","cpi",0.1,1983,3,1983,NA,0,4.50489046221092,4.6177750950218,5.67091787896303,5.82764740362034,FALSE,2.45320193045807
"CAN","cpi",0.1,1983,3,1983,NA,0.5,4.66204092171667,4.77492555452754,5.67091787896303,4.97543944794331,FALSE,2.10397868711196
"CAN","cpi",0.1,1983,3,1982,NA,1,7.69219723905698,8.03772813704604,5.67091787896303,9.23778396682256,FALSE,4.83726280930894
"CAN","cpi",0.1,1983,3,1982,NA,1.5,9.76062936003353,10.1061602580226,5.67091787896303,9.78870144173853,FALSE,9.43377863370127
"CAN","cpi",0.1,1984,3,1984,NA,0,3.85072025969709,3.87871385857183,4.19799576814029,4.21357537293321,FALSE,0.737508953471311
"CAN","cpi",0.1,1984,3,1984,NA,0.5,4.64663771028835,4.69552648638859,4.19799576814029,4.64258933063566,FALSE,1.04587086976259
"CAN","cpi",0.1,1984,3,1983,NA,1,5.21950351997941,5.9592085440867,4.19799576814029,6.13137654871218,FALSE,3.00972225041645
"CAN","cpi",0.1,1984,3,1983,NA,1.5,3.50947772047242,4.24918274457971,4.19799576814029,3.46832438596907,TRUE,0.739705024107289
"CAN","cpi",0.1,1985,3,1985,NA,0,3.55568114869891,3.61671682028969,3.86444262005169,3.91909325760218,FALSE,0.611537448839668
"CAN","cpi",0.1,1985,3,1985,NA,0.5,3.37331996606546,3.56298490833458,3.86444262005169,3.89150188195039,FALSE,0.859570968307145
"CAN","cpi",0.1,1985,3,1984,NA,1,1.53851579304109,2.08159851605401,3.86444262005169,3.29397074977035,FALSE,4.50495850967444
"CAN","cpi",0.1,1985,3,1984,NA,1.5,5.92614719875553,6.46922992176846,3.86444262005169,4.4666103475984,FALSE,5.1246484534659
"CAN","cpi",0.1,1986,3,1986,NA,0,4.00739090096188,4.04217236810593,4.08685396749431,4.1058885406559,FALSE,0.134073910229343
"CAN","cpi",0.1,1986,3,1986,NA,0.5,3.87578333639995,3.94584301770575,4.08685396749431,4.41001406158749,FALSE,0.383417347502605
"CAN","cpi",0.1,1986,3,1985,NA,1,2.59102597493838,3.00003863747594,4.08685396749431,3.99303879319441,FALSE,2.82415784035616
"CAN","cpi",0.1,1986,3,1985,NA,1.5,3.70545920307942,4.11447186561698,4.08685396749431,4.22326323880904,TRUE,0.409012662537561
"CAN","cpi",0.1,1987,3,1987,NA,0,4.09243507447973,4.14314461323381,4.23980729277887,4.35976718480882,FALSE,0.265515493298662
"CAN","cpi",0.1,1987,3,1987,NA,0.5,3.56881521446261,3.76673712465567,4.23980729277887,3.90936321394769,FALSE,1.24918895046684
"CAN","cpi",0.1,1987,3,1986,NA,1,2.92008474588365,3.35813251306301,4.23980729277887,4.33099659151455,FALSE,2.39732505543682
"CAN","cpi",0.1,1987,3,1986,NA,1.5,6.16372475150034,6.60177251867969,4.23980729277887,4.75247122036215,FALSE,4.7134198976715
"CAN","cpi",0.1,1988,3,1988,NA,0,3.85093007675471,3.88239528027204,3.92899537638065,4.01269560152408,FALSE,0.135020972647592
"CAN","cpi",0.1,1988,3,1988,NA,0.5,3.41791135375386,3.57572335503954,3.92899537638065,3.47075595914335,FALSE,0.94286093759927
"CAN","cpi",0.1,1988,3,1987,NA,1,3.30851489530799,3.46632689659367,3.92899537638065,4.58162438495066,FALSE,1.18596417859008
"CAN","cpi",0.1,1988,3,1987,NA,1.5,3.94016340178703,4.09797540307271,3.92899537638065,3.81364776332008,FALSE,0.182629835522072
"CAN","cpi",0.1,1989,3,1989,NA,0,4.56777816855729,4.60797028116293,4.82821664544208,5.02395320873108,FALSE,0.529628477670411
"CAN","cpi",0.1,1989,3,1989,NA,0.5,3.98857010524944,4.02876221785507,4.82821664544208,4.36789847845152,FALSE,1.81675750724343
"CAN","cpi",0.1,1989,3,1988,NA,1,3.48584794690609,3.78525972131116,4.82821664544208,4.46162561835953,FALSE,2.61709382802933
"CAN","cpi",0.1,1989,3,1988,NA,1.5,3.80463336131565,4.10404513572072,4.82821664544208,3.27838152614011,FALSE,1.90868179600808
"CAN","cpi",0.1,1990,3,1990,NA,0,4.24506397227744,4.27823708251531,4.64347549432717,4.51963128519567,FALSE,0.844814025375343
"CAN","cpi",0.1,1990,3,1990,NA,0.5,3.9740703021896,4.28955930419385,4.64347549432717,4.98434426998405,FALSE,1.10196942452274
"CAN","cpi",0.1,1990,3,1989,NA,1,4.20921738694957,4.80395014447593,4.64347549432717,5.9177493923911,TRUE,0.594732757526355
"CAN","cpi",0.1,1990,3,1989,NA,1.5,4.3480456816535,5.10810579789805,4.64347549432717,4.56185858388509,TRUE,0.760060116244544
"CAN","cpi",0.1,1991,3,1991,NA,0,5.0370681449382,5.140686999264,5.4258100696218,5.62406762795447,FALSE,0.737225677343116
"CAN","cpi",0.1,1991,3,1991,NA,0.5,8.60275775094036,8.70637660526616,5.4258100696218,8.39172083833767,FALSE,7.16350259058928
"CAN","cpi",0.1,1991,3,1990,NA,1,3.50924142579404,3.82574691408614,5.4258100696218,3.86917616551897,FALSE,3.87220138948245
"CAN","cpi",0.1,1991,3,1990,NA,1.5,4.50444482248187,5.42241305470278,5.4258100696218,5.12288497855213,FALSE,0.925517154263161
"CAN","cpi",0.1,1992,3,1992,NA,0,1.26865211184815,1.28827754124633,1.47496888572843,1.48060592990191,FALSE,0.434495083802853
"CAN","cpi",0.1,1992,3,1992,NA,0.5,1.52737731274798,1.69104961716789,1.47496888572843,1.17198715241532,FALSE,0.280135475574464
"CAN","cpi",0.1,1992,3,1991,NA,1,1.47848208379835,1.7512582768007,1.47496888572843,2.52024528073196,FALSE,0.280583299824392
"CAN","cpi",0.1,1992,3,1991,NA,1.5,8.60359353522329,9.90822261483418,1.47496888572843,10.1533377092026,FALSE,17.1460171895995
"CAN","cpi",0.1,1993,3,1993,NA,0,1.86375854517033,1.99597033465885,1.84351085411351,1.80262144325658,FALSE,0.177206658503671
"CAN","cpi",0.1,1993,3,1993,NA,0.5,3.03458693571039,3.20765892521693,1.84351085411351,2.34241315558581,FALSE,2.8199077263885
"CAN","cpi",0.1,1993,3,1992,NA,1,1.30759129946658,1.51450411635852,1.84351085411351,1.81805946412584,FALSE,0.938038900791925
"CAN","cpi",0.1,1993,3,1992,NA,1.5,2.32091869379706,2.57762987210066,1.84351085411351,1.14026360102641,FALSE,1.31761748871148
"CAN","cpi",0.1,1994,3,1994,NA,0,-0.436394623133459,-0.307721948217785,0.161630694655448,0.163616628358327,FALSE,1.1716785479673
"CAN","cpi",0.1,1994,3,1994,NA,0.5,0.738519998352708,0.980526966624069,0.161630694655448,-0.385140098029379,FALSE,1.52398319870972
"CAN","cpi",0.1,1994,3,1993,NA,1,1.20558938355897,1.44759635183033,0.161630694655448,1.37474728133383,FALSE,2.56191516583473
"CAN","cpi",0.1,1994,3,1993,NA,1.5,3.89805588561082,4.14006285388218,0.161630694655448,2.59685615311524,FALSE,8.5451740592833
"CAN","cpi",0.1,1995,3,1995,NA,0,2.31094803978862,2.36188467183698,2.11688403676572,2.19356448193293,FALSE,0.482189972099267
"CAN","cpi",0.1,1995,3,1995,NA,0.5,3.36017765976362,3.4274715536008,2.11688403676572,2.67750903542847,FALSE,2.83016861161031
"CAN","cpi",0.1,1995,3,1994,NA,1,0.879755987149978,1.03713405371185,2.11688403676572,1.34092618105198,FALSE,2.55682247334824
"CAN","cpi",0.1,1995,3,1994,NA,1.5,1.18277881698983,1.3401568835517,2.11688403676572,-1.3139842175605,FALSE,1.88343840703747
"CAN","cpi",0.1,1996,3,1996,NA,0,1.31825502402098,1.39258924291759,1.55309584667184,1.48206512402721,FALSE,0.431015560572724
"CAN","cpi",0.1,1996,3,1996,NA,0.5,1.44428500951676,1.51861922841337,1.55309584667184,1.23598680875262,FALSE,0.150948926137669
"CAN","cpi",0.1,1996,3,1995,NA,1,1.35229977430421,1.50538428668158,1.55309584667184,1.32983461361347,FALSE,0.259110201244615
"CAN","cpi",0.1,1996,3,1995,NA,1.5,3.88569164109637,4.03877615347373,1.55309584667184,3.42580605950136,FALSE,5.33663072220964
"CAN","cpi",0.1,1997,3,1997,NA,0,1.5640663016289,1.58159851994377,1.60528783555959,1.69050032419864,FALSE,0.0701751419055941
"CAN","cpi",0.1,1997,3,1997,NA,0.5,2.21719763030104,2.28874412962317,1.60528783555959,2.11979188984917,FALSE,1.43134604319201
"CAN","cpi",0.1,1997,3,1996,NA,1,1.26045493067787,1.33200143000001,1.60528783555959,1.19524084873691,FALSE,0.678849622787872
"CAN","cpi",0.1,1997,3,1996,NA,1.5,2.37128054333372,2.52309316753591,1.60528783555959,1.35560903862103,FALSE,1.85401864147803
"CAN","cpi",0.1,1998,3,1998,NA,0,0.886986332605259,0.948933220564881,0.988908029337191,0.980088020931525,FALSE,0.150779796342533
"CAN","cpi",0.1,1998,3,1998,NA,0.5,1.48305941616839,1.54500630412802,0.988908029337191,1.31078347146242,FALSE,1.16006108091785
"CAN","cpi",0.1,1998,3,1997,NA,1,1.27705618577868,1.34604116693127,0.988908029337191,1.06570792570078,FALSE,0.709314217689235
"CAN","cpi",0.1,1998,3,1997,NA,1.5,3.37401708625483,3.92975858464335,0.988908029337191,2.25360669266494,FALSE,5.85598384709439
"CAN","cpi",0.1,1999,3,1999,NA,0,1.59418044285209,1.61955339278887,1.7107350135213,1.81711295343144,FALSE,0.227998773786618
"CAN","cpi",0.1,1999,3,1999,NA,0.5,1.32330477923198,1.34867772916877,1.7107350135213,0.788387565724544,FALSE,0.829944692942404
"CAN","cpi",0.1,1999,3,1998,NA,1,1.00047898349751,1.0258519334343,1.7107350135213,0.575366492854125,FALSE,1.54733535013012
"CAN","cpi",0.1,1999,3,1998,NA,1.5,1.87159692694092,2.30997570781842,1.7107350135213,1.68716976710558,FALSE,0.795849699587775
"CAN","cpi",0.1,2000,3,2000,NA,0,2.60701817640793,2.59311530433122,2.6718361971244,2.72999398726497,FALSE,0.161032445241467
"CAN","cpi",0.1,2000,3,2000,NA,0.5,1.96911890877729,1.95521603670058,2.6718361971244,2.06798867425529,FALSE,1.57858637330956
"CAN","cpi",0.1,2000,3,1999,NA,1,1.84156230757905,2.36389523109124,2.6718361971244,3.09152396062306,FALSE,1.20664618136366
"CAN","cpi",0.1,2000,3,1999,NA,1.5,1.63776021798312,2.16009314149531,2.6718361971244,0.842861855264031,FALSE,1.65953971379906
"CAN","cpi",0.1,2001,3,2001,NA,0,2.61472292663381,2.71052171873842,2.47906219852806,2.84208465688611,FALSE,0.39726707678405
"CAN","cpi",0.1,2001,3,2001,NA,0.5,2.14853711656144,2.24433590866605,2.47906219852806,1.88638468602912,FALSE,0.617412769575754
"CAN","cpi",0.1,2001,3,2000,NA,1,3.53464177505597,3.73628366711444,2.47906219852806,3.69789354026514,FALSE,2.54737428434271
"CAN","cpi",0.1,2001,3,2000,NA,1.5,1.82274003598211,2.31362810086508,2.47906219852806,1.8681620253813,FALSE,0.858519393022936
"CAN","cpi",0.1,2002,3,2002,NA,0,2.44183889358826,2.50593118273467,2.20880570551249,2.37599565696257,FALSE,0.581943818203682
"CAN","cpi",0.1,2002,3,2002,NA,0.5,1.48198784374137,1.54608013288779,2.20880570551249,0.913576617687781,FALSE,1.53681578386797
"CAN","cpi",0.1,2002,3,2001,NA,1,1.57969558128448,1.70383112512663,2.20880570551249,1.93734082085477,FALSE,1.24630127803294
"CAN","cpi",0.1,2002,3,2001,NA,1.5,2.13461725297526,2.32970639017994,2.20880570551249,1.22267801456389,TRUE,0.19508913720468
"CAN","cpi",0.1,2003,3,2003,NA,0,2.53872137628705,2.5995077597847,2.71189071546809,2.73251886371656,FALSE,0.310526285016292
"CAN","cpi",0.1,2003,3,2003,NA,0.5,3.8283190045566,3.88910538805426,2.71189071546809,4.31675684669419,FALSE,2.54173813702767
"CAN","cpi",0.1,2003,3,2002,NA,1,3.89570188087008,3.95648826436774,2.71189071546809,4.61862409576541,FALSE,2.69147786216875
"CAN","cpi",0.1,2003,3,2002,NA,1.5,2.11358036846176,2.31361847049533,2.71189071546809,1.3655866266696,FALSE,1.08508753530638
"CAN","cpi",0.1,2004,3,2004,NA,0,1.64763220156833,1.66987093322981,1.83151661303942,1.82990600335775,FALSE,0.381451353460614
"CAN","cpi",0.1,2004,3,2004,NA,0.5,1.86086875160668,1.88310748326816,1.83151661303942,1.43982618755963,FALSE,0.0874657062553903
"CAN","cpi",0.1,2004,3,2003,NA,1,1.31957086612882,1.42735167845348,1.83151661303942,1.02946817322814,FALSE,1.00592511140453
"CAN","cpi",0.1,2004,3,2003,NA,1.5,4.56872796448352,4.69038223476683,1.83151661303942,4.64649519124043,FALSE,6.20434616238131
"CAN","cpi",0.1,2005,3,2005,NA,0,2.29460129593422,2.31910355236952,2.18071628336509,2.38454318695835,FALSE,0.277580062144477
"CAN","cpi",0.1,2005,3,2005,NA,0.5,2.16123941010607,2.19928126739119,2.18071628336509,1.60616687455658,TRUE,0.0380418572851227
"CAN","cpi",0.1,2005,3,2004,NA,1,1.54913368648668,1.77607405598034,2.18071628336509,1.65181790765431,FALSE,1.12614531923755
"CAN","cpi",0.1,2005,3,2004,NA,1.5,2.22497206501725,2.45191243451091,2.18071628336509,1.76259299547523,FALSE,0.325286550942903
"CAN","cpi",0.1,2006,3,2006,NA,0,1.94199561958166,1.97389255689413,1.97519342012289,2.13635134601064,FALSE,0.0347877444874753
"CAN","cpi",0.1,2006,3,2006,NA,0.5,2.22234109164515,2.2780569851974,1.97519342012289,1.78685076876899,FALSE,0.60493294137951
"CAN","cpi",0.1,2006,3,2005,NA,1,3.41858520305839,3.47430109661064,1.97519342012289,3.50484952590076,FALSE,3.26325318896448
"CAN","cpi",0.1,2006,3,2005,NA,1.5,2.19904712538496,2.31728703050541,1.97519342012289,1.46813842301012,FALSE,0.615692583480623
"CAN","cpi",0.1,2007,3,2007,NA,0,1.97853065591749,2.04364628089202,2.10062087284572,2.20475175639581,FALSE,0.191725829316083
"CAN","cpi",0.1,2007,3,2007,NA,0.5,2.22373592760108,2.28885155257561,2.10062087284572,1.98527746740088,FALSE,0.338704635542
"CAN","cpi",0.1,2007,3,2006,NA,1,1.51723762454038,1.58235324951491,2.10062087284572,1.24740231882683,FALSE,1.21682145459856
"CAN","cpi",0.1,2007,3,2006,NA,1.5,2.18311074929071,2.30090096054649,2.10062087284572,1.60497207990466,FALSE,0.30110104780019
"CAN","cpi",0.1,2008,3,2008,NA,0,2.66626713075906,2.68530844841294,2.31447335265955,3.01767576079065,FALSE,0.800805268986118
"CAN","cpi",0.1,2008,3,2008,NA,0.5,1.52185459641322,1.60588080692636,2.31447335265955,1.03762364210032,FALSE,1.65867631214245
"CAN","cpi",0.1,2008,3,2007,NA,1,1.5842638092646,2.10080399800025,2.31447335265955,1.40291213269118,FALSE,0.991360976867433
"CAN","cpi",0.1,2008,3,2007,NA,1.5,2.98403001285648,3.93689022178055,2.31447335265955,2.69934766650446,FALSE,2.44076389825058
"CAN","cpi",0.1,2009,3,2009,NA,0,0.16369057221934,0.166822898030447,0.284533874408197,0.321726231334406,FALSE,0.264712273317218
"CAN","cpi",0.1,2009,3,2009,NA,0.5,-0.937342187695675,-0.518580343616231,0.284533874408197,-1.32493870283985,FALSE,2.20346010635595
"CAN","cpi",0.1,2009,3,2008,NA,1,3.39498257903236,3.8137444231118,0.284533874408197,5.07610742917547,FALSE,7.33087007657758
"CAN","cpi",0.1,2009,3,2008,NA,1.5,1.99486558934908,2.41362743342853,0.284533874408197,1.01106559029091,FALSE,4.21949898839252
"CAN","cpi",0.1,2010,3,2010,NA,0,1.60549106940547,1.60653298711483,1.75525687020327,1.75432596686424,FALSE,0.331539435683676
"CAN","cpi",0.1,2010,3,2010,NA,0.5,1.89744613288577,1.98319551106869,1.75525687020327,1.49344630005585,FALSE,0.401725517477363
"CAN","cpi",0.1,2010,3,2009,NA,1,1.52793446575883,1.61368384394174,1.75525687020327,1.13010370525173,FALSE,0.400356103208538
"CAN","cpi",0.1,2010,3,2009,NA,1.5,0.347507770383016,0.434547953645032,1.75525687020327,-2.25919184326718,FALSE,3.02194888672477
"CAN","cpi",0.1,2011,3,2011,NA,0,2.60303034047334,2.62849710814543,2.85717434028225,2.90832322356675,FALSE,0.533638394642791
"CAN","cpi",0.1,2011,3,2011,NA,0.5,3.12248037293678,3.30803988485973,2.85717434028225,2.81495035644064,FALSE,0.775128473377474
"CAN","cpi",0.1,2011,3,2010,NA,1,1.79193168194158,2.06010573138116,2.85717434028225,2.24995624930718,FALSE,2.03943762477533
"CAN","cpi",0.1,2011,3,2010,NA,1.5,2.02378758364009,2.29196163307967,2.85717434028225,1.69121218305118,FALSE,1.52420228766753
"CAN","cpi",0.1,2012,3,2012,NA,0,1.45091160306989,1.49609116871817,1.50118536134935,1.50859370689259,FALSE,0.0564999937175577
"CAN","cpi",0.1,2012,3,2012,NA,0.5,2.11024761542721,2.15542718107549,1.50118536134935,1.75125264874692,FALSE,1.39865124137687
"CAN","cpi",0.1,2012,3,2011,NA,1,2.06703836147836,2.11221792712665,1.50118536134935,1.8474445607568,FALSE,1.3026306770461
"CAN","cpi",0.1,2012,3,2011,NA,1.5,2.3656362770218,3.26759891647207,1.50118536134935,3.06926058053075,FALSE,2.82296467427795
"CAN","cpi",0.1,2013,3,2013,NA,0,1.05703558308275,1.08136243667585,0.931270594714462,1.05615594966199,FALSE,0.303804605522627
"CAN","cpi",0.1,2013,3,2013,NA,0.5,1.59386550439828,1.61819235799138,0.931270594714462,1.02417936454929,FALSE,1.49675998622381
"CAN","cpi",0.1,2013,3,2012,NA,1,1.00616448500148,1.06882678435296,0.931270594714462,0.0685845185761151,FALSE,0.229093166655963
"CAN","cpi",0.1,2013,3,2012,NA,1.5,2.14537882587084,2.27458330594101,0.931270594714462,1.71916958716775,FALSE,2.82722277152878
"CAN","cpi",0.1,2014,3,2014,NA,0,1.86435373535165,1.89789752601178,1.87639912240215,2.06386975595087,TRUE,0.0335437906601292
"CAN","cpi",0.1,2014,3,2014,NA,0.5,2.2300091446365,2.28904873998207,1.87639912240215,1.92715211220712,FALSE,0.844839644755237
"CAN","cpi",0.1,2014,3,2013,NA,1,1.60683375593048,1.66587335127605,1.87639912240215,1.11372323439473,FALSE,0.526874642292462
"CAN","cpi",0.1,2014,3,2013,NA,1.5,2.10007081596858,2.20601037894506,1.87639912240215,1.40040388240124,FALSE,0.602987770901883
"CAN","cpi",0.1,2015,3,2015,NA,0,1.20636816094908,1.30307490898013,1.11090953952792,1.30732778141228,FALSE,0.308837017855857
"CAN","cpi",0.1,2015,3,2015,NA,0.5,1.02946999589452,1.12617674392558,1.11090953952792,0.0832530397055839,TRUE,0.0967067480310586
"CAN","cpi",0.1,2015,3,2014,NA,1,1.8338497037143,1.94173680750728,1.11090953952792,1.43393836679687,FALSE,1.71442080198494
"CAN","cpi",0.1,2015,3,2014,NA,1.5,2.20199490441591,2.30988200820889,1.11090953952792,2.67552344749624,FALSE,2.53252124798852
"CAN","cpi",0.1,2016,3,2016,NA,0,1.48414324675224,1.49200849985545,1.41168586698797,1.50891536161516,FALSE,0.168881652579379
"CAN","cpi",0.1,2016,3,2016,NA,0.5,1.5203793445673,1.60589136838294,1.41168586698797,0.786851742019216,FALSE,0.327053085103056
"CAN","cpi",0.1,2016,3,2015,NA,1,1.75301577131792,1.91908693857481,1.41168586698797,2.15660249634191,FALSE,0.924582065767897
"CAN","cpi",0.1,2016,3,2015,NA,1.5,1.59156477404794,1.75763594130483,1.41168586698797,-0.117220285505753,FALSE,0.565802071834609
"CAN","cpi",0.1,2017,3,2017,NA,0,1.48157320995477,1.4946947662891,1.57888581671161,1.54881337220766,FALSE,0.200212779495471
"CAN","cpi",0.1,2017,3,2017,NA,0.5,1.94871041800109,2.06462135316291,1.57888581671161,1.91336997918348,FALSE,0.937743382471777
"CAN","cpi",0.1,2017,3,2016,NA,1,1.6135443186152,1.72945525377701,1.57888581671161,1.18768855671255,FALSE,0.192929828280895
"CAN","cpi",0.1,2017,3,2016,NA,1.5,1.77821793026688,1.89412886542869,1.57888581671161,0.6644917028394,FALSE,0.558871187506848
"CAN","cpi",0.1,2018,3,2018,NA,0,2.48864748105236,2.50778328933863,2.23316270166586,2.44523056077762,FALSE,0.586879762478501
"CAN","cpi",0.1,2018,3,2018,NA,0.5,2.83343709933497,2.96820301879812,2.23316270166586,2.80156516368753,FALSE,1.4687090253945
"CAN","cpi",0.1,2018,3,2017,NA,1,1.48117349202969,1.61593941149284,2.23316270166586,0.82019125662587,FALSE,1.50637323095874
"CAN","cpi",0.1,2018,3,2017,NA,1.5,1.9839121009807,2.2616383257404,2.23316270166586,2.43256495233066,TRUE,0.277726224759705
"CAN","cpi",0.1,2019,3,2019,NA,0,1.87941696870703,1.88259758359509,1.91921619871868,2.08489368525497,FALSE,0.0845553151627082
"CAN","cpi",0.1,2019,3,2019,NA,0.5,1.78194769531104,1.80485823217998,1.91921619871868,1.47181960590434,FALSE,0.277039351399391
"CAN","cpi",0.1,2019,3,2018,NA,1,1.71153023418911,1.89469531405118,1.91921619871868,2.1812391651413,FALSE,0.23765593467873
"CAN","cpi",0.1,2019,3,2018,NA,1.5,3.80917024468983,3.9923353245519,1.91921619871868,3.59347997035086,FALSE,4.38306295979796
"CAN","cpi",0.1,2020,3,2020,NA,0,0.364751135390344,0.415602085914901,0.71139989671781,0.692133240684643,FALSE,0.708179418975467
"CAN","cpi",0.1,2020,3,2020,NA,0.5,1.52714187058911,1.60602929558382,0.71139989671781,1.05558053361148,FALSE,1.89164736693093
"CAN","cpi",0.1,2020,3,2019,NA,1,1.63976355432185,1.89287106484166,0.71139989671781,2.01486975979332,FALSE,2.31613786075101
"CAN","cpi",0.1,2020,3,2019,NA,1.5,1.97369829493303,2.22680580545283,0.71139989671781,1.77269016603738,FALSE,3.05821506210917
"CAN","cpi",0.1,2021,3,2021,NA,0,3.15342167712458,3.25717640756414,3.31148121717802,3.37410895790077,FALSE,0.22443208513708
"CAN","cpi",0.1,2021,3,2021,NA,0.5,2.32698256018196,2.65806497339598,3.31148121717802,2.68190793980083,FALSE,1.78311851050745
"CAN","cpi",0.1,2021,3,2020,NA,1,1.50143437032349,1.83251678353751,3.31148121717802,1.19247466620579,FALSE,3.61767004352628
"CAN","cpi",0.1,2021,3,2020,NA,1.5,1.8897513946491,2.22083380786312,3.31148121717802,0.994097524483704,FALSE,2.75474332280269
"CAN","cpi",0.1,2022,3,2022,NA,0,6.04149144832893,6.43427741936788,6.50977236228281,6.71215382839029,FALSE,0.560552510849907
"CAN","cpi",0.1,2022,3,2022,NA,0.5,6.53156490069337,6.92435087173231,6.50977236228281,6.42154306210558,FALSE,0.441213834173519
"CAN","cpi",0.1,2022,3,2021,NA,1,2.78004430573696,3.6031082368306,6.50977236228281,4.97199453293936,FALSE,7.28231754320966
"CAN","cpi",0.1,2022,3,2021,NA,1.5,2.07623865292433,3.2410217082806,6.50977236228281,3.45701838810354,FALSE,8.42867339758341
"CAN","cpi",0.1,2023,3,2023,NA,0,3.90698877250178,3.91645366892342,3.78831288758619,4.042121841464,FALSE,0.273189085122959
"CAN","cpi",0.1,2023,3,2023,NA,0.5,3.38584354378218,3.78892440690949,3.78831288758619,3.05997192794191,TRUE,0.403080863127311
"CAN","cpi",0.1,2023,3,2022,NA,1,3.40902718698696,3.93154033739583,3.78831288758619,5.28351765661874,TRUE,0.522513150408872
"CAN","cpi",0.1,2023,3,2022,NA,1.5,7.94758491286083,8.54687366883377,3.78831288758619,7.28752716372712,FALSE,9.84211547880546
"CAN","cpi",0.1,2024,3,2023,NA,1,3.6392791975767,3.83087170222526,NA,4.37793695924716,NA,NA
"CAN","cpi",0.1,2024,3,2023,NA,1.5,2.11114197387134,2.3027344785199,NA,2.36897983740768,NA,NA
"CAN","cpi",0.2,1950,3,1950,NA,0,3.41276022321824,3.41276022321824,2.59031220731124,2.28904261800392,FALSE,2.0561200397675
"CAN","cpi",0.2,1950,3,1950,NA,0.5,3.41276022321824,3.41276022321824,2.59031220731124,-0.0597026374682003,FALSE,2.0561200397675
"CAN","cpi",0.2,1950,3,1949,NA,1,3.41276022321824,3.41276022321824,2.59031220731124,1.71904267353831,FALSE,2.0561200397675
"CAN","cpi",0.2,1950,3,1949,NA,1.5,3.41276022321824,5.36405494762079,2.59031220731124,1.07189937513012,FALSE,4.00741476417005
"CAN","cpi",0.2,1951,3,1951,NA,0,5.10954300170463,6.47733369406452,9.87945438999359,10.0174160826209,FALSE,9.87309243218257
"CAN","cpi",0.2,1951,3,1951,NA,0.5,3.71588846271082,5.08367915507071,9.87945438999359,9.64288482270982,FALSE,13.3572287796671
"CAN","cpi",0.2,1951,3,1950,NA,1,2.0321176237811,3.39990831614098,9.87945438999359,6.5630832774632,FALSE,17.5666558769914
"CAN","cpi",0.2,1951,3,1950,NA,1.5,1.9064168611313,3.27420755349118,9.87945438999359,-1.15455738512665,FALSE,17.8809077836159
"CAN","cpi",0.2,1952,3,1952,NA,0,2.76655885434093,2.41406556028155,2.55562336095485,2.46502621244774,FALSE,0.528739941089072
"CAN","cpi",0.2,1952,3,1952,NA,0.5,3.25097791660118,2.8984846225418,2.55562336095485,4.32129924776399,FALSE,1.38589309505645
"CAN","cpi",0.2,1952,3,1951,NA,1,4.15271278735938,3.8002194933,2.55562336095485,9.65785623271456,FALSE,3.64023027195195
"CAN","cpi",0.2,1952,3,1951,NA,1.5,7.06755874135266,6.71506544729328,2.55562336095485,10.2729097180516,FALSE,10.9273451569351
"CAN","cpi",0.2,1953,3,1953,NA,0,2.55562336095485,2.56256967141585,-1.01492775838436,-1.00749856253296,FALSE,8.93332410880903
"CAN","cpi",0.2,1953,3,1953,NA,0.5,2.6415540340478,2.89862276140309,-1.01492775838436,-2.06778904141071,FALSE,9.39827320843569
"CAN","cpi",0.2,1953,3,1952,NA,1,3.62991253463161,5.14633978699437,-1.01492775838436,-1.55171650633025,FALSE,13.1285279849027
"CAN","cpi",0.2,1953,3,1952,NA,1.5,2.23638498867335,3.75281224103612,-1.01492775838436,1.96017794195978,FALSE,9.64470912000705
"CAN","cpi",0.2,1954,3,1954,NA,0,-0.326669266418859,0.354221736872772,0.644425455961438,0.844896913757956,FALSE,1.4064003010133
"CAN","cpi",0.2,1954,3,1954,NA,0.5,2.22258979136661,2.90348079465824,0.644425455961438,-0.153040348587994,FALSE,4.62630184180456
"CAN","cpi",0.2,1954,3,1953,NA,1,2.22551300476117,2.9064040080528,0.644425455961438,2.75483618067449,FALSE,4.63360987529095
"CAN","cpi",0.2,1954,3,1953,NA,1.5,2.53660411898249,3.21749512227412,0.644425455961438,-2.52548049332379,FALSE,5.41133766084425
"CAN","cpi",0.2,1955,3,1955,NA,0,-0.987170145993504,-0.48143350679015,0.173649026558865,0.10765252516202,FALSE,2.14344297257589
"CAN","cpi",0.2,1955,3,1955,NA,0.5,-0.758377502211786,-0.252640863008432,0.173649026558865,-0.685764272176465,FALSE,1.5714613631216
"CAN","cpi",0.2,1955,3,1954,NA,1,0.42578306586415,2.56315984797458,0.173649026558865,3.05598167297881,FALSE,2.76771188037365
"CAN","cpi",0.2,1955,3,1954,NA,1.5,0.298144296523268,2.57177810179187,0.173649026558865,-1.37299158518014,FALSE,2.58487198017961
"CAN","cpi",0.2,1956,3,1956,NA,0,0.600781996331676,1.08716570385303,1.32752769429961,1.5132196707054,FALSE,1.0872886836378
"CAN","cpi",0.2,1956,3,1956,NA,0.5,-0.425826776555708,0.0605569309656468,1.32752769429961,-0.533297708724126,FALSE,3.65381061585626
"CAN","cpi",0.2,1956,3,1955,NA,1,-0.364398812132035,0.2606490000257,1.32752769429961,0.79482048855347,FALSE,3.29224454784251
"CAN","cpi",0.2,1956,3,1955,NA,1.5,-0.289852430298207,0.335195381859527,1.32752769429961,-1.67555014996128,FALSE,3.10587859325794
"CAN","cpi",0.2,1957,3,1957,NA,0,2.94114511726698,3.03913702859686,3.24684755852518,3.4081189986054,FALSE,0.617268236150661
"CAN","cpi",0.2,1957,3,1957,NA,0.5,2.52505406688943,2.62304597821931,3.24684755852518,2.36364513914165,FALSE,1.65749586209454
"CAN","cpi",0.2,1957,3,1956,NA,1,2.35799490961423,2.92723534661893,3.24684755852518,6.42400073504334,FALSE,1.36827096677032
"CAN","cpi",0.2,1957,3,1956,NA,1.5,0.286778748810361,0.856019185815062,3.24684755852518,-1.44175113719435,FALSE,6.54631136877999
"CAN","cpi",0.2,1958,3,1958,NA,0,2.47101470444939,3.19064701924784,2.33186388641149,2.22393716079583,FALSE,1.06750935989321
"CAN","cpi",0.2,1958,3,1958,NA,0.5,2.36583799600353,3.08547031080198,2.33186388641149,2.22874439106395,FALSE,0.804567588778556
"CAN","cpi",0.2,1958,3,1957,NA,1,1.54409267664374,2.26372499144219,2.33186388641149,4.33819969505612,FALSE,0.8899795522217
"CAN","cpi",0.2,1958,3,1957,NA,1.5,2.213161944843,2.93279425964144,2.33186388641149,1.22685206136826,TRUE,0.719632314798449
"CAN","cpi",0.2,1959,3,1959,NA,0,0.571340779953335,0.808857299007144,1.19382698397654,1.19679708996586,FALSE,1.1999407314773
"CAN","cpi",0.2,1959,3,1959,NA,0.5,2.49989913561623,3.51472052983177,1.19382698397654,0.655175994826909,FALSE,4.28000177331477
"CAN","cpi",0.2,1959,3,1958,NA,1,0.24778927527541,1.26261066949095,1.19382698397654,1.75938857815981,TRUE,1.01482139421554
"CAN","cpi",0.2,1959,3,1958,NA,1.5,1.76773639064796,2.7825577848635,1.19382698397654,1.7749666101295,FALSE,2.44959491089409
"CAN","cpi",0.2,1960,3,1960,NA,0,0.574019412980495,0.779171158142479,1.34209404870695,1.03130246511349,FALSE,1.61245897157316
"CAN","cpi",0.2,1960,3,1960,NA,0.5,1.29012834293424,1.87717934576905,1.34209404870695,0.745602653132245,TRUE,0.58705100283481
"CAN","cpi",0.2,1960,3,1959,NA,1,0.885273286270695,1.47232428910551,1.34209404870695,3.33587387303437,TRUE,0.58705100283481
"CAN","cpi",0.2,1960,3,1959,NA,1.5,1.32752169160147,2.56256077966413,1.34209404870695,-0.32541909428789,TRUE,1.23503908806266
"CAN","cpi",0.2,1961,3,1961,NA,0,0.99533943138507,1.23105032353147,1.00921348094007,1.00921348094007,TRUE,0.235710892146396
"CAN","cpi",0.2,1961,3,1961,NA,0.5,1.33761450119348,2.01637383743543,1.00921348094007,1.31141131508129,FALSE,1.49976188687546
"CAN","cpi",0.2,1961,3,1960,NA,1,-0.00775783552568443,0.771768410520052,1.00921348094007,0.143625905669962,FALSE,1.37313892209579
"CAN","cpi",0.2,1961,3,1960,NA,1.5,1.33335439043974,2.13405304530087,1.00921348094007,-0.34011142415222,FALSE,1.61105092861031
"CAN","cpi",0.2,1962,3,1962,NA,0,1.15688207748742,1.27407104237121,1.04957947883042,1.11132998230876,FALSE,0.385445461526313
"CAN","cpi",0.2,1962,3,1962,NA,0.5,1.14343192339403,1.30990332315641,1.04957947883042,1.64134322488006e-44,FALSE,0.401102511171419
"CAN","cpi",0.2,1962,3,1961,NA,1,0.627065545211263,0.793536944973641,1.04957947883042,-9.44308782563385e-19,FALSE,0.806577734404314
"CAN","cpi",0.2,1962,3,1961,NA,1.5,1.32608197983396,1.87366506372217,1.04957947883042,0.754384248690751,FALSE,1.23883933639706
"CAN","cpi",0.2,1963,3,1963,NA,0,1.79285813086758,2.33580193458542,1.60677118395228,1.85599510888664,FALSE,1.00816117100609
"CAN","cpi",0.2,1963,3,1963,NA,0.5,0.94835942792578,1.49130323164362,1.60677118395228,0.932300293637426,FALSE,0.831613684489507
"CAN","cpi",0.2,1963,3,1962,NA,1,0.830048243169793,1.37299204688763,1.60677118395228,2.66748522343727,FALSE,1.12739164637948
"CAN","cpi",0.2,1963,3,1962,NA,1.5,0.919249727117442,1.46219353083528,1.60677118395228,4.10321927477868e-44,FALSE,0.904387936510352
"CAN","cpi",0.2,1964,3,1964,NA,0,1.50238955625424,1.58985941907901,1.88764670034376,1.98894154569002,FALSE,0.831938065986651
"CAN","cpi",0.2,1964,3,1964,NA,0.5,1.28361066117795,1.4622995603059,1.88764670034376,1.38377582747094,FALSE,1.2420567492226
"CAN","cpi",0.2,1964,3,1963,NA,1,1.64915037602634,2.03943131243167,1.88764670034376,4.71286552905431,TRUE,0.390280936405336
"CAN","cpi",0.2,1964,3,1963,NA,1.5,1.12016123342783,1.51044216983317,1.88764670034376,0.238779673172327,FALSE,1.33329226268182
"CAN","cpi",0.2,1965,3,1965,NA,0,3.22188687037491,3.96875051226924,2.29538304394236,2.35494510510554,FALSE,3.06312320797572
"CAN","cpi",0.2,1965,3,1965,NA,0.5,1.37102322035382,2.11788686224815,2.29538304394236,1.56044896459738,FALSE,1.19060409612985
"CAN","cpi",0.2,1965,3,1964,NA,1,0.831861295644985,1.57872493753932,2.29538304394236,2.42710731898607,FALSE,2.53850890790193
"CAN","cpi",0.2,1965,3,1964,NA,1.5,1.1674537815747,1.91431742346903,2.29538304394236,0.818315757903116,FALSE,1.69952769307766
"CAN","cpi",0.2,1966,3,1966,NA,0,3.14786479491162,3.29424747175167,3.72486065470629,3.84664136390011,FALSE,1.2229156342266
"CAN","cpi",0.2,1966,3,1966,NA,0.5,3.51941937275348,4.56671995469452,3.72486065470629,3.84691400230302,TRUE,1.04730058194104
"CAN","cpi",0.2,1966,3,1965,NA,1,0.842561602594864,1.88986218453591,3.72486065470629,3.31367997089714,FALSE,5.634796757367
"CAN","cpi",0.2,1966,3,1965,NA,1.5,1.4347253286652,2.48202591060624,3.72486065470629,1.48150382413513,FALSE,4.15438744219117
"CAN","cpi",0.2,1967,3,1967,NA,0,6.35055073595641,8.12837894279789,3.49360316391996,3.76862969063141,FALSE,8.9201971369326
"CAN","cpi",0.2,1967,3,1967,NA,0.5,5.12760206412898,6.90543027097046,3.49360316391996,2.36174420726938,FALSE,5.86282545736403
"CAN","cpi",0.2,1967,3,1966,NA,1,0.837540034605044,2.61536824144653,3.49360316391996,3.4823384545504,FALSE,3.97341551302507
"CAN","cpi",0.2,1967,3,1966,NA,1.5,1.87383170814811,3.65165991498959,3.49360316391996,4.29257700443622,TRUE,1.77782820684148
"CAN","cpi",0.2,1968,3,1968,NA,0,3.59042735523913,3.63885325464058,3.95128347779386,4.1134030125927,FALSE,0.829501457284644
"CAN","cpi",0.2,1968,3,1968,NA,0.5,3.76391896983953,4.98141659276028,3.95128347779386,3.89224433743933,TRUE,1.21749762292074
"CAN","cpi",0.2,1968,3,1967,NA,1,2.25247487265815,3.46997249557889,3.95128347779386,5.85596711509228,FALSE,2.42077507845816
"CAN","cpi",0.2,1968,3,1967,NA,1.5,2.16025464377049,3.37775226669124,3.95128347779386,2.14187095150408,FALSE,2.6513256506773
"CAN","cpi",0.2,1969,3,1969,NA,0,3.82450882786279,3.87434404721547,4.42679496126681,4.64263065146317,FALSE,1.43096250448105
"CAN","cpi",0.2,1969,3,1969,NA,0.5,3.28244576759016,3.38017804789963,4.42679496126681,3.06199492877772,FALSE,2.71427456372743
"CAN","cpi",0.2,1969,3,1968,NA,1,3.06922921966468,3.39703505112279,4.42679496126681,6.05582378748629,FALSE,2.90220560681817
"CAN","cpi",0.2,1969,3,1968,NA,1.5,3.31388625916081,3.64169209061892,4.42679496126681,3.87227485119322,FALSE,2.29056300807784
"CAN","cpi",0.2,1970,3,1970,NA,0,3.34892106560029,3.47776149566614,3.28128405769805,3.58996474924422,FALSE,0.297932949821457
"CAN","cpi",0.2,1970,3,1970,NA,0.5,3.53761429203555,3.8003412499218,3.28128405769805,4.17180269652751,FALSE,0.903552543730013
"CAN","cpi",0.2,1970,3,1969,NA,1,2.9323565350426,3.42003892150024,3.28128405769805,5.43865496465038,TRUE,0.487682386457635
"CAN","cpi",0.2,1970,3,1969,NA,1.5,3.38207687161021,3.86975925806784,3.28128405769805,2.31672730979866,FALSE,0.739664421238041
"CAN","cpi",0.2,1971,3,1971,NA,0,2.62156501680063,2.81221493361822,2.64123406634756,2.89424739818036,TRUE,0.190649916817593
"CAN","cpi",0.2,1971,3,1971,NA,0.5,1.28210265507311,1.4727525718907,2.64123406634756,1.07533993963556,FALSE,3.11185365295975
"CAN","cpi",0.2,1971,3,1970,NA,1,1.15690377147439,1.50089964771658,2.64123406634756,2.98160965133743,FALSE,3.19483192281965
"CAN","cpi",0.2,1971,3,1970,NA,1.5,3.41275973923248,3.95129881688303,2.64123406634756,4.15708260691123,FALSE,2.46735325986285
"CAN","cpi",0.2,1972,3,1972,NA,0,4.15969900152189,4.2639300244509,4.83230569625923,5.10321489701878,FALSE,1.52517020244984
"CAN","cpi",0.2,1972,3,1972,NA,0.5,3.39175033630003,3.65633454735663,4.83230569625923,4.57526784474473,FALSE,3.20451208331311
"CAN","cpi",0.2,1972,3,1971,NA,1,3.40265426389235,3.82986499095542,4.83230569625923,6.5673313651466,FALSE,2.93331249032259
"CAN","cpi",0.2,1972,3,1971,NA,1.5,2.17401413431334,2.60122486137642,4.83230569625923,1.20127092516847,FALSE,6.00491281427011
"CAN","cpi",0.2,1973,3,1973,NA,0,5.00243325069538,5.66196867235358,7.12388603531779,7.36268749116872,FALSE,4.31432882906873
"CAN","cpi",0.2,1973,3,1973,NA,0.5,4.37169225257657,5.03122767423477,7.12388603531779,5.89432993074317,FALSE,5.89118132436575
"CAN","cpi",0.2,1973,3,1972,NA,1,3.66930444569641,4.34957413825247,7.12388603531779,7.371399360381,FALSE,7.61604943521936
"CAN","cpi",0.2,1973,3,1972,NA,1.5,3.04188907459906,3.72215876715512,7.12388603531779,4.50324671282129,FALSE,9.18458786296273
"CAN","cpi",0.2,1974,3,1974,NA,0,8.33615746833426,8.94247601828968,10.2717243737774,10.3222881332229,FALSE,3.92943943867476
"CAN","cpi",0.2,1974,3,1974,NA,0.5,8.5662571504901,10.1029114591269,10.2717243737774,8.8471290293637,FALSE,1.95868659526308
"CAN","cpi",0.2,1974,3,1973,NA,1,5.41543845365715,7.3987634402384,10.2717243737774,10.9884402825372,FALSE,9.1657273204288
"CAN","cpi",0.2,1974,3,1973,NA,1.5,2.74195559263128,4.72528057921253,10.2717243737774,6.19554852079723,FALSE,15.8494344729935
"CAN","cpi",0.2,1975,3,1975,NA,0,10.735910983416,11.546140069833,10.0232981493341,10.2646941702359,FALSE,2.59176117162171
"CAN","cpi",0.2,1975,3,1975,NA,0.5,9.45200122244592,10.4134394964517,10.0232981493341,9.21855388205318,TRUE,0.961438274005822
"CAN","cpi",0.2,1975,3,1974,NA,1,10.0781948086943,11.0396330827001,10.0232981493341,11.9905143933903,FALSE,1.09867992240633
"CAN","cpi",0.2,1975,3,1974,NA,1.5,3.4751778801116,7.86090605270859,10.0232981493341,8.68009129130424,FALSE,9.79170841416082
"CAN","cpi",0.2,1976,3,1976,NA,0,5.68122507350286,6.16379999959185,7.22784311401172,7.25383067322222,FALSE,3.14268271213866
"CAN","cpi",0.2,1976,3,1976,NA,0.5,7.12568778334875,8.58288004728735,7.22784311401172,7.41547675604771,TRUE,1.4571922639386
"CAN","cpi",0.2,1976,3,1975,NA,1,9.59503458981234,11.0522268537509,7.22784311401172,11.9151510581142,FALSE,7.37517095344016
"CAN","cpi",0.2,1976,3,1975,NA,1.5,4.54033191257164,8.28369378684843,7.22784311401172,8.01331538119686,TRUE,3.74336187427679
"CAN","cpi",0.2,1977,3,1977,NA,0,6.84447746377654,7.04764656643157,7.58101410153764,7.61867129691007,FALSE,1.53658794042021
"CAN","cpi",0.2,1977,3,1977,NA,0.5,7.05633090395274,7.25950000660776,7.58101410153764,7.02287871989832,FALSE,1.00695433997973
"CAN","cpi",0.2,1977,3,1976,NA,1,3.49038289533119,3.69355199798621,7.58101410153764,5.87261903876238,FALSE,9.92182436153361
"CAN","cpi",0.2,1977,3,1976,NA,1.5,6.68112566549031,7.22517857310101,7.58101410153764,6.15322645024094,FALSE,1.43364172870229
"CAN","cpi",0.2,1978,3,1978,NA,0,7.48192265232406,8.13634569417023,8.50208927062595,8.68125407245005,FALSE,1.56878198298546
"CAN","cpi",0.2,1978,3,1978,NA,0.5,7.79308882578258,8.56137830732988,8.50208927062595,8.12508742330222,TRUE,0.768289481547302
"CAN","cpi",0.2,1978,3,1977,NA,1,4.24540715213436,5.01369663368167,8.50208927062595,8.64318766852961,FALSE,9.489271073908
"CAN","cpi",0.2,1978,3,1977,NA,1.5,6.98911597754964,7.75740545909694,8.50208927062595,7.66028936796504,FALSE,2.62999901036982
"CAN","cpi",0.2,1979,3,1979,NA,0,8.47994103832173,8.82229113382363,8.65147652410481,8.61075946409788,TRUE,0.342350095501903
"CAN","cpi",0.2,1979,3,1979,NA,0.5,7.85486406204152,8.19721415754342,8.65147652410481,8.10062835274572,FALSE,1.47800601190537
"CAN","cpi",0.2,1979,3,1978,NA,1,4.5889997747779,6.26994881852389,8.65147652410481,9.5826348846829,FALSE,7.6347683076983
"CAN","cpi",0.2,1979,3,1978,NA,1.5,7.20704768804959,8.96011318590055,8.65147652410481,7.94183844676527,TRUE,1.75306549785096
"CAN","cpi",0.2,1980,3,1980,NA,0,9.15205019440127,10.0901464439214,9.5171912664748,9.53109046750286,TRUE,0.938096249520086
"CAN","cpi",0.2,1980,3,1980,NA,0.5,9.24801364711788,10.186109896638,9.5171912664748,8.68563614915422,TRUE,0.938096249520086
"CAN","cpi",0.2,1980,3,1979,NA,1,5.25152580929402,7.41977494574404,9.5171912664748,8.32548734166583,FALSE,7.41178993827692
"CAN","cpi",0.2,1980,3,1979,NA,1.5,6.97339757664975,9.14164671309977,9.5171912664748,7.98047102096121,FALSE,3.10711051988758
"CAN","cpi",0.2,1981,3,1981,NA,0,10.2075399842742,10.5611569666039,11.5813425032741,11.708955977523,FALSE,2.90408082400531
"CAN","cpi",0.2,1981,3,1981,NA,0.5,10.030556170918,10.3841731532476,11.5813425032741,12.1263962907449,FALSE,3.34654035739597
"CAN","cpi",0.2,1981,3,1980,NA,1,7.93230321676761,9.58238089448104,11.5813425032741,10.9849401653028,FALSE,6.64748169969618
"CAN","cpi",0.2,1981,3,1980,NA,1.5,7.3833165884579,9.03339426617133,11.5813425032741,8.62735225265647,FALSE,8.01994827047045
"CAN","cpi",0.2,1982,3,1982,NA,0,11.0291391359565,11.3942041037203,10.1124203763629,10.3109749747662,FALSE,2.65686186674779
"CAN","cpi",0.2,1982,3,1982,NA,0.5,9.82831868370751,10.1933836514713,10.1124203763629,10.0996836619997,TRUE,0.365064967763793
"CAN","cpi",0.2,1982,3,1981,NA,1,9.84722994769032,10.2122949154541,10.1124203763629,11.6194795199153,TRUE,0.365064967763793
"CAN","cpi",0.2,1982,3,1981,NA,1.5,8.22577164932348,10.0363625117507,10.1124203763629,12.7194356761443,FALSE,2.00073552395777
"CAN","cpi",0.2,1983,3,1983,NA,0,4.44844814580549,4.67421741142723,5.67091787896303,5.82764740362034,FALSE,2.71752043446125
"CAN","cpi",0.2,1983,3,1983,NA,0.5,4.60559860531124,4.83136787093298,5.67091787896303,4.97543944794331,FALSE,2.32464428569688
"CAN","cpi",0.2,1983,3,1982,NA,1,7.29388906805992,8.36397176683173,5.67091787896303,9.23778396682256,FALSE,5.12751067151403
"CAN","cpi",0.2,1983,3,1982,NA,1.5,9.05536482745416,10.125447526226,5.67091787896303,9.78870144173853,FALSE,9.53120006999964
"CAN","cpi",0.2,1984,3,1984,NA,0,3.83672346025972,3.8927106580092,4.19799576814029,4.21357537293321,FALSE,0.819199973077199
"CAN","cpi",0.2,1984,3,1984,NA,0.5,4.62219332223823,4.7199708744387,4.19799576814029,4.64258933063566,FALSE,1.15827143744533
"CAN","cpi",0.2,1984,3,1983,NA,1,4.90625356719587,6.27245849687024,4.19799576814029,6.13137654871218,FALSE,3.13684942731332
"CAN","cpi",0.2,1984,3,1983,NA,1.5,3.23749096718663,4.60369589686099,4.19799576814029,3.46832438596907,TRUE,1.36620492967436
"CAN","cpi",0.2,1985,3,1985,NA,0,3.52516331290352,3.64723465608509,3.86444262005169,3.91909325760218,FALSE,0.665091253098083
"CAN","cpi",0.2,1985,3,1985,NA,0.5,3.33387726997733,3.63236266130091,3.86444262005169,3.89150188195039,FALSE,0.87868528820054
"CAN","cpi",0.2,1985,3,1984,NA,1,1.50050210341003,2.43751451507832,3.86444262005169,3.29397074977035,FALSE,4.50433267410171
"CAN","cpi",0.2,1985,3,1984,NA,1.5,5.72918235442785,6.66619476609614,3.86444262005169,4.4666103475984,FALSE,5.59886174760868
"CAN","cpi",0.2,1986,3,1986,NA,0,3.99000016738986,4.05956310167795,4.08685396749431,4.1058885406559,FALSE,0.137790098828994
"CAN","cpi",0.2,1986,3,1986,NA,0.5,3.8209257852502,4.01095581359336,4.08685396749431,4.41001406158749,FALSE,0.379775413095532
"CAN","cpi",0.2,1986,3,1985,NA,1,2.53985562609265,3.30240910054968,4.08685396749431,3.99303879319441,FALSE,2.7236656418186
"CAN","cpi",0.2,1986,3,1985,NA,1.5,3.46324952170739,4.22580299616442,4.08685396749431,4.22326323880904,TRUE,0.762553474457035
"CAN","cpi",0.2,1987,3,1987,NA,0,4.06708030510269,4.16849938261085,4.23980729277887,4.35976718480882,FALSE,0.279688852928215
"CAN","cpi",0.2,1987,3,1987,NA,0.5,3.41276574043539,3.80861251215186,4.23980729277887,3.90936321394769,FALSE,1.473833723284
"CAN","cpi",0.2,1987,3,1986,NA,1,2.64463189064308,3.37592568192188,4.23980729277887,4.33099659151455,FALSE,2.89099781842129
"CAN","cpi",0.2,1987,3,1986,NA,1.5,6.01710173945061,6.74839553072942,4.23980729277887,4.75247122036215,FALSE,5.17452990795816
"CAN","cpi",0.2,1988,3,1988,NA,0,3.83690773030708,3.89971814221781,3.92899537638065,4.01269560152408,FALSE,0.136003497317842
"CAN","cpi",0.2,1988,3,1988,NA,0.5,3.37266944112209,3.64807947584015,3.92899537638065,3.47075595914335,FALSE,0.977699786069316
"CAN","cpi",0.2,1988,3,1987,NA,1,3.04656578038776,3.59704864306753,3.92899537638065,4.58162438495066,FALSE,1.38034969596258
"CAN","cpi",0.2,1988,3,1987,NA,1.5,3.69477057040699,4.24525343308677,3.92899537638065,3.81364776332008,TRUE,0.550482862679775
"CAN","cpi",0.2,1989,3,1989,NA,0,4.54768211225448,4.62806633746574,4.82821664544208,5.02395320873108,FALSE,0.580759995152099
"CAN","cpi",0.2,1989,3,1989,NA,0.5,3.96847404894662,4.04885827415788,4.82821664544208,4.36789847845152,FALSE,2.02878015342174
"CAN","cpi",0.2,1989,3,1988,NA,1,3.48945313800983,3.82605833170375,4.82821664544208,4.46162561835953,FALSE,2.84200097803974
"CAN","cpi",0.2,1989,3,1988,NA,1.5,3.80024571399058,4.13685090768451,4.82821664544208,3.27838152614011,FALSE,2.06501953808785
"CAN","cpi",0.2,1990,3,1990,NA,0,4.23651502386943,4.29482363763424,4.64347549432717,4.51963128519567,FALSE,0.929938255497137
"CAN","cpi",0.2,1990,3,1990,NA,0.5,3.81632580118748,4.44730380519597,4.64347549432717,4.98434426998405,FALSE,1.12140722683649
"CAN","cpi",0.2,1990,3,1989,NA,1,4.20657709320073,5.38197186425664,4.64347549432717,5.9177493923911,TRUE,1.17539477105591
"CAN","cpi",0.2,1990,3,1989,NA,1.5,4.24134210365788,5.4167368747138,4.64347549432717,4.56185858388509,TRUE,1.17539477105591
"CAN","cpi",0.2,1991,3,1991,NA,0,4.97786127694932,5.19989386725289,5.4258100696218,5.62406762795447,FALSE,0.786823096225839
"CAN","cpi",0.2,1991,3,1991,NA,0.5,8.57491584731273,8.79694843761629,5.4258100696218,8.39172083833767,FALSE,8.09479703453089
"CAN","cpi",0.2,1991,3,1990,NA,1,3.44849009762865,3.88425139215387,5.4258100696218,3.86917616551897,FALSE,4.28965798819503
"CAN","cpi",0.2,1991,3,1990,NA,1.5,4.42212346328597,6.01478480447778,5.4258100696218,5.12288497855213,TRUE,1.59266134119181
"CAN","cpi",0.2,1992,3,1992,NA,0,1.25883939714906,1.29809025594542,1.47496888572843,1.48060592990191,FALSE,0.481447433253892
"CAN","cpi",0.2,1992,3,1992,NA,0.5,1.44797261555971,1.77531656148397,1.47496888572843,1.17198715241532,TRUE,0.327343945924257
"CAN","cpi",0.2,1992,3,1991,NA,1,1.34106020847405,1.88764637330188,1.47496888572843,2.52024528073196,TRUE,0.546586164827829
"CAN","cpi",0.2,1992,3,1991,NA,1.5,7.99541980630045,9.93699065493185,1.47496888572843,10.1533377092026,FALSE,18.2426981500614
"CAN","cpi",0.2,1993,3,1993,NA,0,1.79765265042608,2.0620762294031,1.84351085411351,1.80262144325658,TRUE,0.264423578977023
"CAN","cpi",0.2,1993,3,1993,NA,0.5,2.98614164972691,3.31670420722226,1.84351085411351,2.34241315558581,FALSE,3.18713954652885
"CAN","cpi",0.2,1993,3,1992,NA,1,1.24113933375425,1.5717018912496,1.84351085411351,1.81805946412584,FALSE,1.01008496465512
"CAN","cpi",0.2,1993,3,1992,NA,1.5,2.28954008527811,2.62010264277346,1.84351085411351,1.14026360102641,FALSE,1.44563563540684
"CAN","cpi",0.2,1994,3,1994,NA,0,-0.500730960591295,-0.243385610759949,0.161630694655448,0.163616628358327,FALSE,1.26988611336984
"CAN","cpi",0.2,1994,3,1994,NA,0.5,0.700194882244393,1.04387049085712,0.161630694655448,-0.385140098029379,FALSE,1.69008607758509
"CAN","cpi",0.2,1994,3,1993,NA,1,1.15475506338828,1.49843067200101,0.161630694655448,1.37474728133383,FALSE,2.82648653044481
"CAN","cpi",0.2,1994,3,1993,NA,1.5,3.84540479740981,4.18908040602253,0.161630694655448,2.59685615311524,FALSE,9.55311086549863
"CAN","cpi",0.2,1995,3,1995,NA,0,2.26803839037466,2.38735298786116,2.11688403676572,2.19356448193293,FALSE,0.497200481508871
"CAN","cpi",0.2,1995,3,1995,NA,0.5,3.30759716141154,3.44218346179453,2.11688403676572,2.67750903542847,FALSE,3.11136911199755
"CAN","cpi",0.2,1995,3,1994,NA,1,0.708457385976266,1.0665273010337,2.11688403676572,1.34092618105198,FALSE,2.98396175438748
"CAN","cpi",0.2,1995,3,1994,NA,1.5,1.12238368111285,1.48045359617028,2.11688403676572,-1.3139842175605,FALSE,1.94914601654601
"CAN","cpi",0.2,1996,3,1996,NA,0,1.30534130002656,1.44673194436924,1.55309584667184,1.48206512402721,FALSE,0.407300400099187
"CAN","cpi",0.2,1996,3,1996,NA,0.5,1.41723992185279,1.55863056619547,1.55309584667184,1.23598680875262,TRUE,0.141390644342676
"CAN","cpi",0.2,1996,3,1995,NA,1,1.26510401815631,1.61268418112829,1.55309584667184,1.32983461361347,TRUE,0.34758016297198
"CAN","cpi",0.2,1996,3,1995,NA,1.5,3.81054627528603,4.15812643825801,1.55309584667184,3.42580605950136,FALSE,5.99120623450744
"CAN","cpi",0.2,1997,3,1997,NA,0,1.55530019247146,1.5903646291012,1.60528783555959,1.69050032419864,FALSE,0.0723724527757169
"CAN","cpi",0.2,1997,3,1997,NA,0.5,2.17131864637971,2.33786662992246,1.60528783555959,2.11979188984917,FALSE,1.58162501059304
"CAN","cpi",0.2,1997,3,1996,NA,1,1.23478741527706,1.48144876201816,1.60528783555959,1.19524084873691,FALSE,0.556259030594676
"CAN","cpi",0.2,1997,3,1996,NA,1.5,2.29527808985304,3.40784634067716,1.60528783555959,1.35560903862103,FALSE,2.83754388655773
"CAN","cpi",0.2,1998,3,1998,NA,0,0.844826943062154,0.991092610107986,0.988908029337191,0.980088020931525,TRUE,0.146265667045833
"CAN","cpi",0.2,1998,3,1998,NA,0.5,1.46327191775188,1.60953758479771,0.988908029337191,1.31078347146242,FALSE,1.33217538808255
"CAN","cpi",0.2,1998,3,1997,NA,1,1.25156432808306,1.4920165554269,0.988908029337191,1.06570792570078,FALSE,0.897092974208512
"CAN","cpi",0.2,1998,3,1997,NA,1.5,3.02316714719758,3.9330701378096,0.988908029337191,2.25360669266494,FALSE,5.99555078526299
"CAN","cpi",0.2,1999,3,1999,NA,0,1.63398592458902,1.68149918100024,1.7107350135213,1.81711295343144,FALSE,0.120602837713865
"CAN","cpi",0.2,1999,3,1999,NA,0.5,1.31223462599477,1.35974788240598,1.7107350135213,0.788387565724544,FALSE,0.924981084199498
"CAN","cpi",0.2,1999,3,1998,NA,1,0.993360964035742,1.04087422044696,1.7107350135213,0.575366492854125,FALSE,1.72216523909706
"CAN","cpi",0.2,1999,3,1998,NA,1.5,1.69496766981177,2.32456786364087,1.7107350135213,1.68716976710558,TRUE,0.629600193829104
"CAN","cpi",0.2,2000,3,2000,NA,0,2.59179965628351,2.60833382445565,2.6718361971244,2.72999398726497,FALSE,0.175290099844025
"CAN","cpi",0.2,2000,3,2000,NA,0.5,1.84352377331413,2.00059025695822,2.6718361971244,2.06798867425529,FALSE,1.83518133405953
"CAN","cpi",0.2,2000,3,1999,NA,1,1.71214295389183,2.4152958752592,2.6718361971244,3.09152396062306,FALSE,1.34450372603037
"CAN","cpi",0.2,2000,3,1999,NA,1.5,1.49344650077018,2.19659942213756,2.6718361971244,0.842861855264031,FALSE,1.89124485883448
"CAN","cpi",0.2,2001,3,2001,NA,0,2.57980152543841,2.78825288340524,2.47906219852806,2.84208465688611,FALSE,0.4602996752427
"CAN","cpi",0.2,2001,3,2001,NA,0.5,2.07536341132852,2.28381476929536,2.47906219852806,1.88638468602912,FALSE,0.6965699310486
"CAN","cpi",0.2,2001,3,2000,NA,1,3.46830479761991,3.80004063305995,2.47906219852806,3.69789354026514,FALSE,2.80484233316965
"CAN","cpi",0.2,2001,3,2000,NA,1.5,1.7312200636589,2.54676195519879,2.47906219852806,1.8681620253813,TRUE,0.81554189153989
"CAN","cpi",0.2,2002,3,2002,NA,0,2.34117136579758,2.51939587840294,2.20880570551249,2.37599565696257,FALSE,0.509138663318095
"CAN","cpi",0.2,2002,3,2002,NA,0.5,1.43787736924836,1.61610188185373,2.20880570551249,0.913576617687781,FALSE,1.65998407175226
"CAN","cpi",0.2,2002,3,2001,NA,1,1.52040771629734,1.71910698475539,2.20880570551249,1.93734082085477,FALSE,1.42294607035079
"CAN","cpi",0.2,2002,3,2001,NA,1.5,1.9216562998535,2.41282257496561,2.20880570551249,1.22267801456389,TRUE,0.491166275112113
"CAN","cpi",0.2,2003,3,2003,NA,0,2.5096891735713,2.62085487622328,2.71189071546809,2.73251886371656,FALSE,0.338755300764005
"CAN","cpi",0.2,2003,3,2003,NA,0.5,3.74073614952133,3.90067268514249,2.71189071546809,4.31675684669419,FALSE,2.73205012075426
"CAN","cpi",0.2,2003,3,2002,NA,1,3.86145545551911,4.02139199114026,2.71189071546809,4.61862409576541,FALSE,3.03384838574869
"CAN","cpi",0.2,2003,3,2002,NA,1.5,2.11687683690317,2.33186384536638,2.71189071546809,1.3655866266696,FALSE,1.16505418371749
"CAN","cpi",0.2,2004,3,2004,NA,0,1.63651283573759,1.68099029906055,1.83151661303942,1.82990600335775,FALSE,0.420793248270134
"CAN","cpi",0.2,2004,3,2004,NA,0.5,1.84974938577594,1.8942268490989,1.83151661303942,1.43982618755963,FALSE,0.0900593951642582
"CAN","cpi",0.2,2004,3,2003,NA,1,1.2656804599665,1.48124208461581,1.83151661303942,1.02946817322814,FALSE,1.09124794570835
"CAN","cpi",0.2,2004,3,2003,NA,1.5,4.50790082934187,4.75120936990849,1.83151661303942,4.64649519124043,FALSE,6.93426908132274
"CAN","cpi",0.2,2005,3,2005,NA,0,2.27544437112351,2.331210841247,2.18071628336509,2.38454318695835,FALSE,0.29258668951953
"CAN","cpi",0.2,2005,3,2005,NA,0.5,2.14221848146351,2.21830219603375,2.18071628336509,1.60616687455658,TRUE,0.0760837145702444
"CAN","cpi",0.2,2005,3,2004,NA,1,1.50165263958905,1.88476956617161,2.18071628336509,1.65181790765431,FALSE,1.12298371956627
"CAN","cpi",0.2,2005,3,2004,NA,1.5,2.14554717908629,2.52866410566885,2.18071628336509,1.76259299547523,TRUE,0.383116926582556
"CAN","cpi",0.2,2006,3,2006,NA,0,2.01952083815432,2.18727733903579,1.97519342012289,2.13635134601064,FALSE,0.278575045960045
"CAN","cpi",0.2,2006,3,2006,NA,0.5,2.15005984033461,2.31781634121608,1.97519342012289,1.78685076876899,FALSE,0.604922551410789
"CAN","cpi",0.2,2006,3,2005,NA,1,3.24683638755661,3.49360080451227,1.97519342012289,3.50484952590076,FALSE,3.42587183553997
"CAN","cpi",0.2,2006,3,2005,NA,1.5,2.0968375559034,2.39452785722588,1.97519342012289,1.46813842301012,FALSE,0.601800640773761
"CAN","cpi",0.2,2007,3,2007,NA,0,1.94637441009995,2.07580252670957,2.10062087284572,2.20475175639581,FALSE,0.191473981950004
"CAN","cpi",0.2,2007,3,2007,NA,0.5,2.19278688864865,2.32221500525827,2.10062087284572,1.98527746740088,FALSE,0.359843156116928
"CAN","cpi",0.2,2007,3,2006,NA,1,1.48178206694755,1.61121018355717,2.10062087284572,1.24740231882683,FALSE,1.352954839831
"CAN","cpi",0.2,2007,3,2006,NA,1.5,2.00745410925649,2.32459712716787,2.10062087284572,1.60497207990466,TRUE,0.317143017911376
"CAN","cpi",0.2,2008,3,2008,NA,0,2.65327374842206,2.69388189823504,2.31447335265955,3.01767576079065,FALSE,0.887609139219248
"CAN","cpi",0.2,2008,3,2008,NA,0.5,1.49060066046908,1.606474227353,2.31447335265955,1.03762364210032,FALSE,1.8858713801503
"CAN","cpi",0.2,2008,3,2007,NA,1,1.55504804936103,2.10279060356595,2.31447335265955,1.40291213269118,FALSE,1.07694942693892
"CAN","cpi",0.2,2008,3,2007,NA,1.5,3.13459613480772,4.023723394346,2.31447335265955,2.69934766650446,FALSE,2.93943421490869
"CAN","cpi",0.2,2009,3,2009,NA,0,0.162124409313787,0.168389060936001,0.284533874408197,0.321726231334406,FALSE,0.296626685302705
"CAN","cpi",0.2,2009,3,2009,NA,0.5,-0.853232637256897,-0.273963556004377,0.284533874408197,-1.32493870283985,FALSE,1.97551265728396
"CAN","cpi",0.2,2009,3,2008,NA,1,3.37243111133084,3.95170019258336,0.284533874408197,5.07610742917547,FALSE,8.29901217355914
"CAN","cpi",0.2,2009,3,2008,NA,1.5,1.89164338062831,2.47091246188083,0.284533874408197,1.01106559029091,FALSE,4.5970428468028
"CAN","cpi",0.2,2010,3,2010,NA,0,1.58558407976401,1.62658812990825,1.75525687020327,1.75432596686424,FALSE,0.362675900881805
"CAN","cpi",0.2,2010,3,2010,NA,0.5,1.89376150615493,2.08473554362861,1.75525687020327,1.49344630005585,FALSE,0.537235627352821
"CAN","cpi",0.2,2010,3,2009,NA,1,1.44737051883882,1.6383445563125,1.75525687020327,1.13010370525173,FALSE,0.483254822200608
"CAN","cpi",0.2,2010,3,2009,NA,1.5,0.295540843277185,0.486514880750863,1.75525687020327,-2.25919184326718,FALSE,3.3628290111047
"CAN","cpi",0.2,2011,3,2011,NA,0,2.55587709426875,2.64123049198147,2.85717434028225,2.90832322356675,FALSE,0.625213018464652
"CAN","cpi",0.2,2011,3,2011,NA,0.5,3.01075457659751,3.38677173291096,2.85717434028225,2.81495035644064,FALSE,0.759967747101602
"CAN","cpi",0.2,2011,3,2010,NA,1,1.79552310404924,2.17154026036269,2.85717434028225,2.24995624930718,FALSE,2.09010235611233
"CAN","cpi",0.2,2011,3,2010,NA,1.5,1.96068424532916,2.33670140164262,2.85717434028225,1.69121218305118,FALSE,1.67719950291252
"CAN","cpi",0.2,2012,3,2012,NA,0,1.40584704514397,1.53824980796828,1.50118536134935,1.50859370689259,TRUE,0.132402762824309
"CAN","cpi",0.2,2012,3,2012,NA,0.5,2.0397817748627,2.17218453768701,1.50118536134935,1.75125264874692,FALSE,1.47889379660769
"CAN","cpi",0.2,2012,3,2011,NA,1,1.88872167291919,2.18829270561002,1.50118536134935,1.8474445607568,FALSE,1.26841181161545
"CAN","cpi",0.2,2012,3,2011,NA,1.5,2.26178106301278,3.93861368372717,1.50118536134935,3.06926058053075,FALSE,3.57832187487298
"CAN","cpi",0.2,2013,3,2013,NA,0,1.04149865743126,1.13613271352836,0.931270594714462,1.05615594966199,FALSE,0.370204212889089
"CAN","cpi",0.2,2013,3,2013,NA,0.5,1.54336690535567,1.69072834993339,0.931270594714462,1.02417936454929,FALSE,1.67760222118075
"CAN","cpi",0.2,2013,3,2012,NA,1,0.992097697539255,1.13945914211698,0.931270594714462,0.0685845185761151,FALSE,0.299429201639704
"CAN","cpi",0.2,2013,3,2012,NA,1.5,2.00373119012225,2.31727264676663,0.931270594714462,1.71916958716775,FALSE,2.99469294516385
"CAN","cpi",0.2,2014,3,2014,NA,0,1.83568465512187,1.90652963223008,1.87639912240215,2.06386975595087,TRUE,0.0708449771082114
"CAN","cpi",0.2,2014,3,2014,NA,0.5,2.13343858758029,2.29476143660317,1.87639912240215,1.92715211220712,FALSE,0.803921511968237
"CAN","cpi",0.2,2014,3,2013,NA,1,1.53406176036865,1.69538460939153,1.87639912240215,1.11372323439473,FALSE,0.613859131549425
"CAN","cpi",0.2,2014,3,2013,NA,1.5,1.92117270598978,2.31795296798046,1.87639912240215,1.40040388240124,FALSE,0.508714220959754
"CAN","cpi",0.2,2015,3,2015,NA,0,1.17666048428222,1.31564166283596,1.11090953952792,1.30732778141228,FALSE,0.303358540439504
"CAN","cpi",0.2,2015,3,2015,NA,0.5,1.02255551008467,1.16153668863841,1.11090953952792,0.0832530397055839,TRUE,0.138981178553739
"CAN","cpi",0.2,2015,3,2014,NA,1,1.60617974177301,2.04488292248257,1.11090953952792,1.43393836679687,FALSE,1.6768786863223
"CAN","cpi",0.2,2015,3,2014,NA,1.5,1.89601200770181,2.81639531726995,1.11090953952792,2.67552344749624,FALSE,2.88313948000288
"CAN","cpi",0.2,2016,3,2016,NA,0,1.48021062020064,1.49594112640705,1.41168586698797,1.50891536161516,FALSE,0.1870423892381
"CAN","cpi",0.2,2016,3,2016,NA,0.5,1.45565279114955,1.6066514708473,1.41168586698797,0.786851742019216,FALSE,0.260915990101713
"CAN","cpi",0.2,2016,3,2015,NA,1,1.67791036058924,2.05531404908565,1.41168586698797,2.15660249634191,FALSE,1.0429649224996
"CAN","cpi",0.2,2016,3,2015,NA,1.5,1.56910232245108,1.94650601094749,1.41168586698797,-0.117220285505753,FALSE,0.7709448271542
"CAN","cpi",0.2,2017,3,2017,NA,0,1.4750124317876,1.50132658473554,1.57888581671161,1.54881337220766,FALSE,0.220212232888118
"CAN","cpi",0.2,2017,3,2017,NA,0.5,1.92193061794742,2.13992291290647,1.57888581671161,1.91336997918348,FALSE,1.07560429804857
"CAN","cpi",0.2,2017,3,2016,NA,1,1.54512361637386,1.7631159113329,1.57888581671161,1.18768855671255,TRUE,0.217992294959047
"CAN","cpi",0.2,2017,3,2016,NA,1.5,1.70275771872605,1.92075001368509,1.57888581671161,0.6644917028394,FALSE,0.527672049995135
"CAN","cpi",0.2,2018,3,2018,NA,0,2.47907957690923,2.51735119348177,2.23316270166586,2.44523056077762,FALSE,0.653063804680963
"CAN","cpi",0.2,2018,3,2018,NA,0.5,2.82240899388328,3.06656145178381,2.23316270166586,2.80156516368753,FALSE,1.71726818844409
"CAN","cpi",0.2,2018,3,2017,NA,1,1.39652870998447,1.640681167885,2.23316270166586,0.82019125662587,FALSE,1.72535629235267
"CAN","cpi",0.2,2018,3,2017,NA,1.5,1.86276013422784,2.3144617071271,2.23316270166586,2.43256495233066,TRUE,0.451701572899264
"CAN","cpi",0.2,2019,3,2019,NA,0,1.877826661263,1.88418789103912,1.91921619871868,2.08489368525497,FALSE,0.0939319989750244
"CAN","cpi",0.2,2019,3,2019,NA,0.5,1.77049242687657,1.81631350061444,1.91921619871868,1.47181960590434,FALSE,0.303077818998464
"CAN","cpi",0.2,2019,3,2018,NA,1,1.68488038632215,2.08269201647615,1.91921619871868,2.1812391651413,TRUE,0.397811630153996
"CAN","cpi",0.2,2019,3,2018,NA,1.5,3.71512857532181,4.1129402054758,1.91921619871868,3.59347997035086,FALSE,4.88759257166181
"CAN","cpi",0.2,2020,3,2020,NA,0,0.339580115508339,0.441443258309644,0.71139989671781,0.692133240684643,FALSE,0.776754738821721
"CAN","cpi",0.2,2020,3,2020,NA,0.5,1.49695898078621,1.6067710579882,0.71139989671781,1.05558053361148,FALSE,2.07370978737299
"CAN","cpi",0.2,2020,3,2019,NA,1,1.61493598691117,2.08363527534719,0.71139989671781,2.01486975979332,FALSE,2.72753951391942
"CAN","cpi",0.2,2020,3,2019,NA,1.5,1.83895500075135,2.30765428918738,0.71139989671781,1.77269016603738,FALSE,3.28758704851988
"CAN","cpi",0.2,2021,3,2021,NA,0,3.06002120085408,3.26750806683661,3.31148121717802,3.37410895790077,FALSE,0.317419741836061
"CAN","cpi",0.2,2021,3,2021,NA,0.5,2.2958291227249,2.7293508854959,3.31148121717802,2.68190793980083,FALSE,1.88884759197631
"CAN","cpi",0.2,2021,3,2020,NA,1,1.44862727862162,1.88214904139261,3.31148121717802,1.19247466620579,FALSE,4.00685220223452
"CAN","cpi",0.2,2021,3,2020,NA,1.5,1.81577043352021,2.24929219629121,3.31148121717802,0.994097524483704,FALSE,3.08899431498804
"CAN","cpi",0.2,2022,3,2022,NA,0,5.84509846280946,6.63067040488735,6.50977236228281,6.71215382839029,TRUE,0.78557194207789
"CAN","cpi",0.2,2022,3,2022,NA,0.5,6.3351719151739,7.12074385725179,6.50977236228281,6.42154306210558,TRUE,0.78557194207789
"CAN","cpi",0.2,2022,3,2021,NA,1,3.01687235857729,3.92805347831129,6.50977236228281,4.97199453293936,FALSE,7.36547832966281
"CAN","cpi",0.2,2022,3,2021,NA,1.5,1.91679105366368,3.9409929840691,6.50977236228281,3.45701838810354,FALSE,8.44615037593971
"CAN","cpi",0.2,2023,3,2023,NA,0,3.90225632429096,3.92118611713425,3.78831288758619,4.042121841464,FALSE,0.303788384605214
"CAN","cpi",0.2,2023,3,2023,NA,0.5,3.36031813902904,3.85963072133754,3.78831288758619,3.05997192794191,TRUE,0.499312582308494
"CAN","cpi",0.2,2023,3,2022,NA,1,3.367891566885,3.97707995878589,3.78831288758619,5.28351765661874,TRUE,0.609188391900888
"CAN","cpi",0.2,2023,3,2022,NA,1.5,7.39602551064344,8.59168589895684,3.78831288758619,7.28752716372712,FALSE,10.2149419459565
"CAN","cpi",0.2,2024,3,2023,NA,1,3.05798597191693,3.79411770767336,NA,4.37793695924716,NA,NA
"CAN","cpi",0.2,2024,3,2023,NA,1.5,1.72033383422429,2.45646556998072,NA,2.36897983740768,NA,NA
"CAN","cpi",0.3,1950,3,1950,NA,0,3.41276022321824,3.41276022321824,2.59031220731124,2.28904261800392,FALSE,2.34985147402
"CAN","cpi",0.3,1950,3,1950,NA,0.5,3.41276022321824,3.41276022321824,2.59031220731124,-0.0597026374682003,FALSE,2.34985147402
"CAN","cpi",0.3,1950,3,1949,NA,1,3.41276022321824,3.41276022321824,2.59031220731124,1.71904267353831,FALSE,2.34985147402
"CAN","cpi",0.3,1950,3,1949,NA,1.5,3.41276022321824,6.33761365189904,2.59031220731124,1.07189937513012,FALSE,5.2747049027008
"CAN","cpi",0.3,1951,3,1951,NA,0,4.78673714620852,6.80013954956063,9.87945438999359,10.0174160826209,FALSE,10.8114448045891
"CAN","cpi",0.3,1951,3,1951,NA,0.5,3.82761798893249,5.8410203922846,9.87945438999359,9.64288482270982,FALSE,13.5517852539492
"CAN","cpi",0.3,1951,3,1950,NA,1,1.74500229986377,3.75840470321587,9.87945438999359,6.5630832774632,FALSE,19.5021157941456
"CAN","cpi",0.3,1951,3,1950,NA,1.5,1.58361100563518,3.59701340898729,9.87945438999359,-1.15455738512665,FALSE,19.9632337776558
"CAN","cpi",0.3,1952,3,1952,NA,0,2.59031220731124,2.59031220731124,2.55562336095485,2.46502621244774,FALSE,0.0991109895896918
"CAN","cpi",0.3,1952,3,1952,NA,0.5,2.92937708397197,3.22008545517101,2.55562336095485,4.32129924776399,FALSE,1.35857615124796
"CAN","cpi",0.3,1952,3,1951,NA,1,4.0516417258294,4.46602902468467,2.55562336095485,9.65785623271456,FALSE,4.68872548421114
"CAN","cpi",0.3,1952,3,1951,NA,1.5,6.80690027260671,7.22128757146197,2.55562336095485,10.2729097180516,FALSE,12.5608927607177
"CAN","cpi",0.3,1953,3,1953,NA,0,2.55562336095485,2.56603574727165,-1.01492775838436,-1.00749856253296,FALSE,10.2119870130003
"CAN","cpi",0.3,1953,3,1953,NA,0.5,2.55650009357721,2.57210564880506,-1.01492775838436,-2.06778904141071,FALSE,10.2196851322609
"CAN","cpi",0.3,1953,3,1952,NA,1,2.57728685238981,2.96288994664161,-1.01492775838436,-1.55171650633025,FALSE,10.6490734107494
"CAN","cpi",0.3,1953,3,1952,NA,1.5,2.56949912336514,5.05850122178079,-1.01492775838436,1.96017794195978,FALSE,12.7302217605571
"CAN","cpi",0.3,1954,3,1954,NA,0,-0.149310416201316,0.812994274810688,0.644425455961438,0.844896913757956,TRUE,0.962304691012004
"CAN","cpi",0.3,1954,3,1954,NA,0.5,2.00267304140291,2.96497773241492,0.644425455961438,-0.153040348587994,FALSE,4.84301207798764
"CAN","cpi",0.3,1954,3,1953,NA,1,2.08480616090098,3.04711085191298,0.644425455961438,2.75483618067449,FALSE,5.07767813369641
"CAN","cpi",0.3,1954,3,1953,NA,1.5,-0.114772056303467,3.35918916803499,0.644425455961438,-2.52548049332379,TRUE,3.47396122433846
"CAN","cpi",0.3,1955,3,1955,NA,0,-1.01385841539162,-0.321750716855069,0.173649026558865,0.10765252516202,FALSE,2.10753553686207
"CAN","cpi",0.3,1955,3,1955,NA,0.5,-0.851563031878383,-0.159455333341835,0.173649026558865,-0.685764272176465,FALSE,1.64383444110998
"CAN","cpi",0.3,1955,3,1954,NA,1,0.245592987531517,2.56692491292191,0.173649026558865,3.05598167297881,FALSE,2.52688609959797
"CAN","cpi",0.3,1955,3,1954,NA,1.5,-0.139546266240966,2.57951505145894,0.173649026558865,-1.37299158518014,TRUE,2.71906131769991
"CAN","cpi",0.3,1956,3,1956,NA,0,0.629527073671896,1.42766892796952,1.32752769429961,1.5132196707054,TRUE,0.798141854297629
"CAN","cpi",0.3,1956,3,1956,NA,0.5,-0.581705849943845,0.216436004353784,1.32752769429961,-0.533297708724126,FALSE,3.97268953985713
"CAN","cpi",0.3,1956,3,1955,NA,1,-0.587813301751184,0.333504103714439,1.32752769429961,0.79482048855347,FALSE,3.76138480713753
"CAN","cpi",0.3,1956,3,1955,NA,1.5,-0.513466301991711,0.407851103473911,1.32752769429961,-1.67555014996128,FALSE,3.54896480782476
"CAN","cpi",0.3,1957,3,1957,NA,0,2.89326702992463,3.08701511593922,3.24684755852518,3.4081189986054,FALSE,0.650412207688758
"CAN","cpi",0.3,1957,3,1957,NA,0.5,2.52394313040264,2.71769121641722,3.24684755852518,2.36364513914165,FALSE,1.70562334918016
"CAN","cpi",0.3,1957,3,1956,NA,1,2.27393792249227,3.14033457804006,3.24684755852518,6.42400073504334,FALSE,1.17071945693383
"CAN","cpi",0.3,1957,3,1956,NA,1.5,0.101802394989524,0.968199050537319,3.24684755852518,-1.44175113719435,FALSE,7.37682096408453
"CAN","cpi",0.3,1958,3,1958,NA,0,2.04100712441825,4.28559842330422,2.33186388641149,2.22393716079583,TRUE,2.24459129888597
"CAN","cpi",0.3,1958,3,1958,NA,0.5,3.61166952773425,6.25542478978991,2.33186388641149,2.22874439106395,FALSE,6.30034280869211
"CAN","cpi",0.3,1958,3,1957,NA,1,0.420935856101821,3.06469111815748,2.33186388641149,4.33819969505612,TRUE,2.64375526205566
"CAN","cpi",0.3,1958,3,1957,NA,1.5,1.09941659497432,3.74317185702998,2.33186388641149,1.22685206136826,TRUE,2.64375526205566
"CAN","cpi",0.3,1959,3,1959,NA,0,0.521592326397589,0.873826609597487,1.19382698397654,1.19679708996586,FALSE,1.26652106714005
"CAN","cpi",0.3,1959,3,1959,NA,0.5,2.50866063955436,4.06941331046466,1.19382698397654,0.655175994826909,FALSE,5.31742025827549
"CAN","cpi",0.3,1959,3,1958,NA,1,0.0302110447638329,1.59096371567414,1.19382698397654,1.75938857815981,TRUE,1.56075267091031
"CAN","cpi",0.3,1959,3,1958,NA,1.5,1.37770304180444,2.93845571271475,1.19382698397654,1.7749666101295,FALSE,2.08611283613287
"CAN","cpi",0.3,1960,3,1960,NA,0,0.523935902092014,0.831111754569725,1.34209404870695,1.03130246511349,FALSE,1.76712526429836
"CAN","cpi",0.3,1960,3,1960,NA,0.5,1.19285953472012,2.19344764361841,1.34209404870695,0.745602653132245,TRUE,1.00058810889829
"CAN","cpi",0.3,1960,3,1959,NA,1,0.734312994035238,1.73490110293353,1.34209404870695,3.33587387303437,TRUE,1.00058810889829
"CAN","cpi",0.3,1960,3,1959,NA,1.5,1.11544217886874,2.57470191227678,1.34209404870695,-0.32541909428789,TRUE,1.45925973340805
"CAN","cpi",0.3,1961,3,1961,NA,0,0.93294872227749,1.27652027250936,1.00921348094007,1.00921348094007,TRUE,0.343571550231872
"CAN","cpi",0.3,1961,3,1961,NA,0.5,1.31961940160501,2.19613056342618,1.00921348094007,1.31141131508129,FALSE,1.76338522086386
"CAN","cpi",0.3,1961,3,1960,NA,1,-0.382813441057694,0.924838330728387,1.00921348094007,0.143625905669962,FALSE,1.54872362953375
"CAN","cpi",0.3,1961,3,1960,NA,1.5,1.29194622893883,2.59959800072491,1.00921348094007,-0.34011142415222,FALSE,2.1154596232111
"CAN","cpi",0.3,1962,3,1962,NA,0,1.13840854840363,1.31419073512598,1.04957947883042,1.11132998230876,FALSE,0.429579528360098
"CAN","cpi",0.3,1962,3,1962,NA,0.5,1.0830586371729,1.33626737752016,1.04957947883042,1.64134322488006e-44,FALSE,0.348863478468647
"CAN","cpi",0.3,1962,3,1961,NA,1,0.521561007520897,0.799978727736645,1.04957947883042,-9.44308782563385e-19,FALSE,0.991562723340805
"CAN","cpi",0.3,1962,3,1961,NA,1.5,1.1477122866124,2.21734169829159,1.04957947883042,0.754384248690751,FALSE,1.35000886248485
"CAN","cpi",0.3,1963,3,1963,NA,0,2.07422628839406,2.91122233592244,1.60677118395228,1.85599510888664,FALSE,2.17258206021916
"CAN","cpi",0.3,1963,3,1963,NA,0.5,0.780909690827633,1.61790573835601,1.60677118395228,0.932300293637426,TRUE,0.836996047528379
"CAN","cpi",0.3,1963,3,1962,NA,1,0.625505980856538,1.46250202838492,1.60677118395228,2.66748522343727,FALSE,1.24919363486371
"CAN","cpi",0.3,1963,3,1962,NA,1.5,0.77055560783352,1.6075516553619,1.60677118395228,4.10321927477868e-44,TRUE,0.836996047528379
"CAN","cpi",0.3,1964,3,1964,NA,0,1.46430054272381,1.82280182617015,1.88764670034376,1.98894154569002,FALSE,0.543772352513796
"CAN","cpi",0.3,1964,3,1964,NA,0.5,1.19110984389066,1.549611127337,1.88764670034376,1.38377582747094,FALSE,1.32431720632279
"CAN","cpi",0.3,1964,3,1963,NA,1,1.55207496190312,2.13650672655489,1.88764670034376,4.71286552905431,TRUE,0.584431764651772
"CAN","cpi",0.3,1964,3,1963,NA,1.5,1.01067930452137,1.59511106917314,1.88764670034376,0.238779673172327,FALSE,1.42024785371069
"CAN","cpi",0.3,1965,3,1965,NA,0,3.55796363596602,4.67261289809567,2.29538304394236,2.35494510510554,FALSE,4.72202238219725
"CAN","cpi",0.3,1965,3,1965,NA,0.5,1.18713041023616,2.30177967236581,2.29538304394236,1.56044896459738,TRUE,1.11464926212965
"CAN","cpi",0.3,1965,3,1964,NA,1,0.62573909432712,1.74038835645677,2.29538304394236,2.42710731898607,FALSE,2.70034836923133
"CAN","cpi",0.3,1965,3,1964,NA,1.5,0.934064794495582,2.04871405662523,2.29538304394236,0.818315757903116,FALSE,1.81941779732144
"CAN","cpi",0.3,1966,3,1966,NA,0,3.00870043393066,3.31205726800758,3.72486065470629,3.84664136390011,FALSE,1.48279508178751
"CAN","cpi",0.3,1966,3,1966,NA,0.5,3.65694463225051,5.22616701950795,3.72486065470629,3.84691400230302,TRUE,1.56922238725744
"CAN","cpi",0.3,1966,3,1965,NA,1,0.627235984001404,2.19645837125884,3.72486065470629,3.31367997089714,FALSE,5.93608605425014
"CAN","cpi",0.3,1966,3,1965,NA,1.5,1.04070201110473,2.60992439836217,3.72486065470629,1.48150382413513,FALSE,4.75475454824064
"CAN","cpi",0.3,1967,3,1967,NA,0,5.96198319075703,8.51694648799726,3.49360316391996,3.76862969063141,FALSE,9.60747765963186
"CAN","cpi",0.3,1967,3,1967,NA,0.5,4.73907929816505,7.29404259540528,3.49360316391996,2.36174420726938,FALSE,6.11346653794049
"CAN","cpi",0.3,1967,3,1966,NA,1,0.583394312625823,3.13835760986606,3.49360316391996,3.4823384545504,FALSE,3.5699505945371
"CAN","cpi",0.3,1967,3,1966,NA,1.5,1.58011774307744,4.13508104031767,3.49360316391996,4.29257700443622,TRUE,2.55496329724024
"CAN","cpi",0.3,1968,3,1968,NA,0,3.57832088038876,3.65095972949095,3.95128347779386,4.1134030125927,FALSE,0.930706701396216
"CAN","cpi",0.3,1968,3,1968,NA,0.5,3.97638961379603,5.68891016791321,3.95128347779386,3.89224433743933,FALSE,1.78425237126624
"CAN","cpi",0.3,1968,3,1967,NA,1,2.06383222895625,3.77635278307344,3.95128347779386,5.85596711509228,FALSE,2.21232253903267
"CAN","cpi",0.3,1968,3,1967,NA,1.5,2.02298795618858,3.73550851030576,3.95128347779386,2.14187095150408,FALSE,2.32902046122602
"CAN","cpi",0.3,1969,3,1969,NA,0,3.81204582756397,3.88679970010299,4.42679496126681,4.64263065146317,FALSE,1.61759747586424
"CAN","cpi",0.3,1969,3,1969,NA,0.5,3.25801241984403,3.40461122682164,4.42679496126681,3.06199492877772,FALSE,3.06712376253525
"CAN","cpi",0.3,1969,3,1968,NA,1,3.22106896691953,4.51811107399596,4.42679496126681,6.05582378748629,TRUE,1.29704210707643
"CAN","cpi",0.3,1969,3,1968,NA,1.5,2.7380802750291,4.03512238210553,4.42679496126681,3.87227485119322,FALSE,2.41610661896583
"CAN","cpi",0.3,1970,3,1970,NA,0,3.31537529741808,3.50875117305581,3.28128405769805,3.58996474924422,FALSE,0.290779417694962
"CAN","cpi",0.3,1970,3,1970,NA,0.5,3.4439779562648,3.83807624635488,3.28128405769805,4.17180269652751,FALSE,0.858938000280798
"CAN","cpi",0.3,1970,3,1969,NA,1,2.75718398347388,3.4767557961903,3.28128405769805,5.43865496465038,TRUE,0.71957181271642
"CAN","cpi",0.3,1970,3,1969,NA,1.5,3.27447414894713,3.99404596166355,3.28128405769805,2.31672730979866,TRUE,0.71957181271642
"CAN","cpi",0.3,1971,3,1971,NA,0,2.63512379448713,2.91802253707522,2.64123406634756,2.89424739818036,TRUE,0.282898742588086
"CAN","cpi",0.3,1971,3,1971,NA,0.5,1.25364380477133,1.53654254735941,2.64123406634756,1.07533993963556,FALSE,3.43916022541137
"CAN","cpi",0.3,1971,3,1970,NA,1,1.11449061391899,1.58030327058849,2.64123406634756,2.98160965133743,FALSE,3.49704350169541
"CAN","cpi",0.3,1971,3,1970,NA,1.5,3.3689337709177,4.07016679151282,2.64123406634756,4.15708260691123,FALSE,2.78037503365266
"CAN","cpi",0.3,1972,3,1972,NA,0,4.13364124578964,4.28998778018315,4.83230569625923,5.10321489701878,FALSE,1.70582629461089
"CAN","cpi",0.3,1972,3,1972,NA,0.5,3.32486151595416,3.74647684818473,4.83230569625923,4.57526784474473,FALSE,3.52398346958628
"CAN","cpi",0.3,1972,3,1971,NA,1,3.32237874592968,4.24084877746398,4.83230569625923,6.5673313651466,FALSE,2.60834694237787
"CAN","cpi",0.3,1972,3,1971,NA,1.5,1.71202433359497,2.63049436512928,4.83230569625923,1.20127092516847,FALSE,7.20935954904845
"CAN","cpi",0.3,1973,3,1973,NA,0,5.2340624797896,6.3004278284795,7.12388603531779,7.36268749116872,FALSE,3.41910308251358
"CAN","cpi",0.3,1973,3,1973,NA,0.5,4.16827728906072,5.23464263775062,7.12388603531779,5.89432993074317,FALSE,6.46420362745324
"CAN","cpi",0.3,1973,3,1972,NA,1,3.46107714487866,4.52744249356856,7.12388603531779,7.371399360381,FALSE,8.48477546797343
"CAN","cpi",0.3,1973,3,1972,NA,1.5,3.03027544480448,4.09664079349437,7.12388603531779,4.50324671282129,FALSE,9.71563746818537
"CAN","cpi",0.3,1974,3,1974,NA,0,8.18459561476875,9.09401529958222,10.2717243737774,10.3222881332229,FALSE,4.2743027539426
"CAN","cpi",0.3,1974,3,1974,NA,0.5,8.17934844080053,10.4857063082876,10.2717243737774,8.8471290293637,TRUE,2.30635786748711
"CAN","cpi",0.3,1974,3,1973,NA,1,5.47991242147647,8.2029641979962,10.2717243737774,10.9884402825372,FALSE,8.63379513589465
"CAN","cpi",0.3,1974,3,1973,NA,1.5,2.46241326875369,5.18546504527342,10.2717243737774,6.19554852079723,FALSE,17.2552212865312
"CAN","cpi",0.3,1975,3,1975,NA,0,10.5333537118118,11.7486973414372,10.0232981493341,10.2646941702359,FALSE,2.67264523670447
"CAN","cpi",0.3,1975,3,1975,NA,0.5,9.24695462774849,10.6721116606936,10.0232981493341,9.21855388205318,TRUE,1.42515703294507
"CAN","cpi",0.3,1975,3,1974,NA,1,9.96723135808086,11.3923883910259,10.0232981493341,11.9905143933903,TRUE,1.42515703294507
"CAN","cpi",0.3,1975,3,1974,NA,1.5,3.38646313900421,9.375208498892,10.0232981493341,8.68009129130424,FALSE,7.8404300754367
"CAN","cpi",0.3,1976,3,1976,NA,0,5.56058134198061,6.2844437311141,7.22784311401172,7.25383067322222,FALSE,3.4192891974124
"CAN","cpi",0.3,1976,3,1976,NA,0.5,7.06592783396515,9.20654417378727,7.22784311401172,7.41547675604771,TRUE,2.14061633982212
"CAN","cpi",0.3,1976,3,1975,NA,1,9.4035658758936,11.5441822157157,7.22784311401172,11.9151510581142,FALSE,8.35696708805606
"CAN","cpi",0.3,1976,3,1975,NA,1.5,3.43297173337721,8.8635552353321,7.22784311401172,8.01331538119686,TRUE,5.43058350195489
"CAN","cpi",0.3,1977,3,1977,NA,0,6.55877684603611,6.968759464745,7.58101410153764,7.61867129691007,FALSE,2.15928158097358
"CAN","cpi",0.3,1977,3,1977,NA,0.5,6.95292414592581,7.36290676463469,7.58101410153764,7.02287871989832,FALSE,1.0331464384316
"CAN","cpi",0.3,1977,3,1976,NA,1,3.31695987538236,3.72694249409125,7.58101410153764,5.87261903876238,FALSE,11.4216157828414
"CAN","cpi",0.3,1977,3,1976,NA,1.5,4.46388611702119,9.9126486010694,7.58101410153764,6.15322645024094,TRUE,5.44876248404821
"CAN","cpi",0.3,1978,3,1978,NA,0,7.45016018760259,8.76723637523725,8.50208927062595,8.68125407245005,TRUE,1.31707618763467
"CAN","cpi",0.3,1978,3,1978,NA,0.5,7.63600407715005,9.34335098186706,8.50208927062595,8.12508742330222,TRUE,1.707346904717
"CAN","cpi",0.3,1978,3,1977,NA,1,3.86932665394879,5.57667355866579,8.50208927062595,8.64318766852961,FALSE,10.0656775103174
"CAN","cpi",0.3,1978,3,1977,NA,1.5,6.80927016780382,8.51661707252082,8.50208927062595,7.66028936796504,TRUE,1.707346904717
"CAN","cpi",0.3,1979,3,1979,NA,0,8.39435351444625,8.9078786576991,8.65147652410481,8.61075946409788,TRUE,0.513525143252853
"CAN","cpi",0.3,1979,3,1979,NA,0.5,7.76927653816604,8.2828016814189,8.65147652410481,8.10062835274572,FALSE,1.56688183664117
"CAN","cpi",0.3,1979,3,1978,NA,1,4.47794459917696,6.97817136344722,8.65147652410481,9.5826348846829,FALSE,7.28109865186337
"CAN","cpi",0.3,1979,3,1978,NA,1.5,7.16006585880454,9.6602926230748,8.65147652410481,7.94183844676527,TRUE,2.50022676427026
"CAN","cpi",0.3,1980,3,1980,NA,0,8.97170752696925,10.355140710929,9.5171912664748,9.53109046750286,TRUE,1.3834331839598
"CAN","cpi",0.3,1980,3,1980,NA,0.5,8.92059581048956,10.3040289944494,9.5171912664748,8.68563614915422,TRUE,1.3834331839598
"CAN","cpi",0.3,1980,3,1979,NA,1,5.03090205208763,7.68400509813651,9.5171912664748,8.32548734166583,FALSE,7.89077781272969
"CAN","cpi",0.3,1980,3,1979,NA,1.5,6.83104286518632,9.48414591123521,9.5171912664748,7.98047102096121,FALSE,2.74751834673343
"CAN","cpi",0.3,1981,3,1981,NA,0,10.1800067253413,10.8922763503179,11.5813425032741,11.708955977523,FALSE,2.68103006199447
"CAN","cpi",0.3,1981,3,1981,NA,0.5,9.99359263848249,10.7283904342568,11.5813425032741,12.1263962907449,FALSE,3.17180370725236
"CAN","cpi",0.3,1981,3,1980,NA,1,7.6051809776181,9.89935078236138,11.5813425032741,10.9849401653028,FALSE,7.09986043592258
"CAN","cpi",0.3,1981,3,1980,NA,1.5,7.26080530420507,9.55497510894835,11.5813425032741,8.62735225265647,FALSE,8.08379093138839
"CAN","cpi",0.3,1982,3,1982,NA,0,10.9364481670167,11.4868950726602,10.1124203763629,10.3109749747662,FALSE,2.90481202179706
"CAN","cpi",0.3,1982,3,1982,NA,0.5,9.74533208051842,10.2957789861619,10.1124203763629,10.0996836619997,TRUE,0.550446905643504
"CAN","cpi",0.3,1982,3,1981,NA,1,9.75778862236762,10.3082355280111,10.1124203763629,11.6194795199153,TRUE,0.550446905643504
"CAN","cpi",0.3,1982,3,1981,NA,1.5,7.74222571121505,10.1148169043091,10.1124203763629,12.7194356761443,TRUE,2.37259119309402
"CAN","cpi",0.3,1983,3,1983,NA,0,4.39200582940005,4.73065972783267,5.67091787896303,5.82764740362034,FALSE,3.02510575880509
"CAN","cpi",0.3,1983,3,1983,NA,0.5,4.5491562889058,4.88781018733841,5.67091787896303,4.97543944794331,FALSE,2.57610444593153
"CAN","cpi",0.3,1983,3,1982,NA,1,5.82277570943946,8.24859328620931,5.67091787896303,9.23778396682256,FALSE,2.85969709241679
"CAN","cpi",0.3,1983,3,1982,NA,1.5,7.89177558279419,10.317593159564,5.67091787896303,9.78870144173853,FALSE,8.77112530200172
"CAN","cpi",0.3,1984,3,1984,NA,0,3.82272666082235,3.90670745744657,4.19799576814029,4.21357537293321,FALSE,0.916233112891984
"CAN","cpi",0.3,1984,3,1984,NA,0.5,4.59774893418811,4.74441526248882,4.19799576814029,4.64258933063566,FALSE,1.28881823129449
"CAN","cpi",0.3,1984,3,1983,NA,1,4.59300361441234,6.58570844965377,4.19799576814029,6.13137654871218,FALSE,3.121298681733
"CAN","cpi",0.3,1984,3,1983,NA,1.5,2.96550421390083,4.95820904914227,4.19799576814029,3.46832438596907,TRUE,1.99270483524143
"CAN","cpi",0.3,1985,3,1985,NA,0,3.49464547710813,3.67775249188048,3.86444262005169,3.91909325760218,FALSE,0.716507380975823
"CAN","cpi",0.3,1985,3,1985,NA,0.5,3.29443457388919,3.70174041426724,3.86444262005169,3.89150188195039,FALSE,0.872169285476487
"CAN","cpi",0.3,1985,3,1984,NA,1,1.58709206793909,3.00982925537632,3.86444262005169,3.29397074977035,FALSE,3.86448965793829
"CAN","cpi",0.3,1985,3,1984,NA,1.5,5.48650245856578,6.909239646003,3.86444262005169,4.4666103475984,FALSE,6.05719386890604
"CAN","cpi",0.3,1986,3,1986,NA,0,3.97260943381784,4.07695383524997,4.08685396749431,4.1058885406559,FALSE,0.132630493558819
"CAN","cpi",0.3,1986,3,1986,NA,0.5,3.75657609594927,4.08159982081974,4.08685396749431,4.41001406158749,FALSE,0.3400355725121
"CAN","cpi",0.3,1986,3,1985,NA,1,2.43316248170702,3.34892592537495,4.08685396749431,3.99303879319441,FALSE,3.02412927829466
"CAN","cpi",0.3,1986,3,1985,NA,1.5,3.36584788750404,4.28161133117197,4.08685396749431,4.22326323880904,TRUE,0.91576344366793
"CAN","cpi",0.3,1987,3,1987,NA,0,4.04172553572565,4.19385415198789,4.23980729277887,4.35976718480882,FALSE,0.283423304236476
"CAN","cpi",0.3,1987,3,1987,NA,0.5,3.4007190325847,3.85048789964806,4.23980729277887,3.90936321394769,FALSE,1.56210999029425
"CAN","cpi",0.3,1987,3,1986,NA,1,2.53226737695707,3.46813599386779,4.23980729277887,4.33099659151455,FALSE,3.14064375665668
"CAN","cpi",0.3,1987,3,1986,NA,1.5,5.91481432663466,6.85068294354538,4.23980729277887,4.75247122036215,FALSE,5.72160299935582
"CAN","cpi",0.3,1988,3,1988,NA,0,3.82288538385945,3.91704100416359,3.92899537638065,4.01269560152408,FALSE,0.128310969495763
"CAN","cpi",0.3,1988,3,1988,NA,0.5,3.34220887465244,3.70565425047865,3.92899537638065,3.47075595914335,FALSE,1.00156287840337
"CAN","cpi",0.3,1988,3,1987,NA,1,2.78810620643385,3.68963748670372,3.92899537638065,4.58162438495066,FALSE,1.5854109650611
"CAN","cpi",0.3,1988,3,1987,NA,1.5,3.50936981589422,4.41090109616409,3.92899537638065,3.81364776332008,TRUE,0.901531280269871
"CAN","cpi",0.3,1989,3,1989,NA,0,4.52758605595166,4.64816239376856,4.82821664544208,5.02395320873108,FALSE,0.635017056884092
"CAN","cpi",0.3,1989,3,1989,NA,0.5,3.94837799264381,4.0689543304607,4.82821664544208,4.36789847845152,FALSE,2.28989723776368
"CAN","cpi",0.3,1989,3,1988,NA,1,2.85909893951468,3.66541796845202,4.82821664544208,4.46162561835953,FALSE,4.12860096319464
"CAN","cpi",0.3,1989,3,1988,NA,1.5,3.56824912447473,4.37456815341208,4.82821664544208,3.27838152614011,FALSE,2.10245757759449
"CAN","cpi",0.3,1990,3,1990,NA,0,4.23169525341806,4.31141019275317,4.64347549432717,4.51963128519567,FALSE,1.02847294383225
"CAN","cpi",0.3,1990,3,1990,NA,0.5,3.65858130018536,4.60504830619809,4.64347549432717,4.98434426998405,FALSE,1.05625897209581
"CAN","cpi",0.3,1990,3,1989,NA,1,4.24526863913144,5.91866174435782,4.64347549432717,5.9177493923911,TRUE,1.67339310522638
"CAN","cpi",0.3,1990,3,1989,NA,1.5,4.09330668598272,5.76669979120909,4.64347549432717,4.56185858388509,TRUE,1.67339310522638
"CAN","cpi",0.3,1991,3,1991,NA,0,4.91872264365795,5.25919055005282,5.4258100696218,5.62406762795447,FALSE,0.816523676591952
"CAN","cpi",0.3,1991,3,1991,NA,0.5,8.54706315362832,8.88753106002319,5.4258100696218,8.39172083833767,FALSE,9.25833386069923
"CAN","cpi",0.3,1991,3,1990,NA,1,3.15736626696264,3.91397040356801,5.4258100696218,3.86917616551897,FALSE,5.07614603961618
"CAN","cpi",0.3,1991,3,1990,NA,1.5,4.33980210409008,6.40981014733139,5.4258100696218,5.12288497855213,TRUE,2.07000804324131
"CAN","cpi",0.3,1992,3,1992,NA,0,1.24902668244997,1.30790297064451,1.47496888572843,1.48060592990191,FALSE,0.536207474148606
"CAN","cpi",0.3,1992,3,1992,NA,0.5,1.36856791837145,1.85958350580005,1.47496888572843,1.17198715241532,TRUE,0.491015587428605
"CAN","cpi",0.3,1992,3,1991,NA,1,1.15690278550103,1.78804241944508,1.47496888572843,2.52024528073196,TRUE,0.63113963394405
"CAN","cpi",0.3,1992,3,1991,NA,1.5,7.42210531456104,9.96575881058127,1.47496888572843,10.1533377092026,FALSE,19.5354718641134
"CAN","cpi",0.3,1993,3,1993,NA,0,1.73154675568182,2.12818212414736,1.84351085411351,1.80262144325658,TRUE,0.396635368465535
"CAN","cpi",0.3,1993,3,1993,NA,0.5,2.95306962645714,3.39775600656376,1.84351085411351,2.34241315558581,FALSE,3.61485430108841
"CAN","cpi",0.3,1993,3,1992,NA,1,1.179450327038,1.62413670714462,1.84351085411351,1.81805946412584,FALSE,1.0714696571606
"CAN","cpi",0.3,1993,3,1992,NA,1.5,2.2380252550494,2.68271163515602,1.84351085411351,1.14026360102641,FALSE,1.57187038278058
"CAN","cpi",0.3,1994,3,1994,NA,0,-0.565067298049132,-0.179049273302112,0.161630694655448,0.163616628358327,FALSE,1.35938936176862
"CAN","cpi",0.3,1994,3,1994,NA,0.5,0.699076729213156,1.16810255256215,0.161630694655448,-0.385140098029379,FALSE,2.00458592208531
"CAN","cpi",0.3,1994,3,1993,NA,1,1.09207995602015,1.56110577936915,0.161630694655448,1.37474728133383,FALSE,3.127452284391
"CAN","cpi",0.3,1994,3,1993,NA,1.5,3.7932155450649,4.2622413684139,0.161630694655448,2.59685615311524,FALSE,10.8449825388046
"CAN","cpi",0.3,1995,3,1995,NA,0,2.20326319962782,2.40727439395055,2.11688403676572,2.19356448193293,FALSE,0.450808802500166
"CAN","cpi",0.3,1995,3,1995,NA,0.5,3.25843108560032,3.46244227992305,2.11688403676572,2.67750903542847,FALSE,3.46557419099302
"CAN","cpi",0.3,1995,3,1994,NA,1,0.52400167005215,1.10907766310595,2.11688403676572,1.34092618105198,FALSE,3.46452277493884
"CAN","cpi",0.3,1995,3,1994,NA,1.5,0.865279568876334,1.75137411680531,2.11688403676572,-1.3139842175605,FALSE,1.9304086049587
"CAN","cpi",0.3,1996,3,1996,NA,0,1.29242757618051,1.50087464567253,1.55309584667184,1.48206512402721,FALSE,0.357650500918643
"CAN","cpi",0.3,1996,3,1996,NA,0.5,1.39019483531912,1.59864190481114,1.55309584667184,1.23598680875262,TRUE,0.20844706949202
"CAN","cpi",0.3,1996,3,1995,NA,1,1.18312156764295,1.69511565464298,1.55309584667184,1.32983461361347,TRUE,0.511994087000027
"CAN","cpi",0.3,1996,3,1995,NA,1.5,3.72790730688541,4.23990139388543,1.55309584667184,3.42580605950136,FALSE,6.72574111618163
"CAN","cpi",0.3,1997,3,1997,NA,0,1.5379883524175,1.59913073825864,1.60528783555959,1.69050032419864,FALSE,0.0787340924152948
"CAN","cpi",0.3,1997,3,1997,NA,0.5,2.13049252958852,2.38206736301284,1.60528783555959,2.11979188984917,FALSE,1.75215967350696
"CAN","cpi",0.3,1997,3,1996,NA,1,1.20406703274612,1.49040466078418,1.60528783555959,1.19524084873691,FALSE,0.614575270253528
"CAN","cpi",0.3,1997,3,1996,NA,1.5,1.97410601457295,3.60245097984931,1.60528783555959,1.35560903862103,FALSE,2.68211119102881
"CAN","cpi",0.3,1998,3,1998,NA,0,0.793601082193029,1.04231847097711,0.988908029337191,0.980088020931525,TRUE,0.248717388784083
"CAN","cpi",0.3,1998,3,1998,NA,0.5,1.43886412574247,1.68758151452655,0.988908029337191,1.31078347146242,FALSE,1.53430623565631
"CAN","cpi",0.3,1998,3,1997,NA,1,1.22607247038743,1.54147703159087,0.988908029337191,1.06570792570078,FALSE,0.993017249918411
"CAN","cpi",0.3,1998,3,1997,NA,1.5,2.67231836188327,3.9363817433229,0.988908029337191,2.25360669266494,FALSE,6.07380718871415
"CAN","cpi",0.3,1999,3,1999,NA,0,1.56901109518189,1.64513007709954,1.7107350135213,1.81711295343144,FALSE,0.26356165740839
"CAN","cpi",0.3,1999,3,1999,NA,0.5,1.29793176324155,1.3740507451592,1.7107350135213,0.788387565724544,FALSE,1.03807403438078
"CAN","cpi",0.3,1999,3,1998,NA,1,0.983010235057973,1.05912921697562,1.7107350135213,0.575366492854125,FALSE,1.937849829191
"CAN","cpi",0.3,1999,3,1998,NA,1.5,1.58825978686433,2.57643930918963,1.7107350135213,1.68716976710558,TRUE,0.988179522325307
"CAN","cpi",0.3,2000,3,2000,NA,0,2.58154019883629,2.61246736649868,2.6718361971244,2.72999398726497,FALSE,0.200552398021589
"CAN","cpi",0.3,2000,3,2000,NA,0.5,1.66595943512706,2.05706208637348,2.6718361971244,2.06798867425529,FALSE,2.14760011053477
