isdrw/probabilistic-benchmark-forecasts/results/EasyUQ_idr/easyUQ_prediction_rw_2026-02-19_12-04-31.csv
"country","target","tau","target_year","target_quarter","forecast_year","forecast_quarter","horizon","lower_bound","upper_bound","truth_value","prediction","covered","IS"
"CAN","cpi",0.1,1950,3,1950,NA,0,3.41276022321824,3.41276022321824,2.59031220731124,2.34506766740468,FALSE,1.82766225757111
"CAN","cpi",0.1,1950,3,1950,NA,0.5,3.41276022321824,3.41276022321824,2.59031220731124,-0.480727815155867,FALSE,1.82766225757111
"CAN","cpi",0.1,1950,3,1949,NA,1,3.41276022321824,3.41276022321824,2.59031220731124,2.05479851121881,FALSE,1.82766225757111
"CAN","cpi",0.1,1950,3,1949,NA,1.5,3.41276022321824,4.39049624334254,2.59031220731124,0,FALSE,2.80539827769541
"CAN","cpi",0.1,1951,3,1951,NA,0,5.28554379549783,6.1308643531555,9.87945438999359,9.94785600170898,FALSE,9.1755206395201
"CAN","cpi",0.1,1951,3,1951,NA,0.5,3.92910694576477,4.77442750342244,9.87945438999359,9.56401243485552,FALSE,12.189824750038
"CAN","cpi",0.1,1951,3,1950,NA,1,2.34737159031702,3.19269214797468,9.87945438999359,7.18504019917801,FALSE,15.7047922065886
"CAN","cpi",0.1,1951,3,1950,NA,1.5,2.16765192848241,3.01297248614007,9.87945438999359,-2.18579641022426,FALSE,16.1041692328877
"CAN","cpi",0.1,1952,3,1952,NA,0,3.08275484404698,2.0978695705755,2.55562336095485,2.49651395855886,FALSE,1.20374866757626
"CAN","cpi",0.1,1952,3,1952,NA,0.5,3.56467590777247,2.57979063430098,2.55562336095485,3.9078404779387,FALSE,1.25745371945656
"CAN","cpi",0.1,1952,3,1951,NA,1,4.18721914640769,3.2023338729362,2.55562336095485,8.88778808098424,FALSE,2.64088313864594
"CAN","cpi",0.1,1952,3,1951,NA,1.5,7.26060896079432,6.27572368732284,2.55562336095485,10.076419411745,FALSE,9.47063828172736
"CAN","cpi",0.1,1953,3,1953,NA,0,2.55562336095485,2.55910359556005,-1.01492775838436,-0.954275034924989,FALSE,7.93803827758123
"CAN","cpi",0.1,1953,3,1953,NA,0.5,2.70582125844791,2.83435553700298,-1.01492775838436,-2.19876634474816,FALSE,8.39686542707123
"CAN","cpi",0.1,1953,3,1952,NA,1,2.70582097438668,2.83435525294176,-1.01492775838436,-1.18145267469342,FALSE,8.39686479582406
"CAN","cpi",0.1,1953,3,1952,NA,1.5,2.5833750136019,3.00155753653677,-1.01492775838436,0.93216905581622,FALSE,8.41441090512657
"CAN","cpi",0.1,1954,3,1954,NA,0,-0.501444124793782,-0.0966091229785768,0.644425455961438,0.879731201855888,FALSE,2.05157851057079
"CAN","cpi",0.1,1954,3,1954,NA,0.5,2.36211651670884,2.76695151852404,0.644425455961438,-0.358875738913824,FALSE,4.22192624792054
"CAN","cpi",0.1,1954,3,1953,NA,1,2.36397443691899,2.7688094387342,0.644425455961438,3.38326531029323,FALSE,4.22605495949866
"CAN","cpi",0.1,1954,3,1953,NA,1.5,2.67463217837224,3.07946718018745,0.644425455961438,-2.85717744192413,FALSE,4.91640549606144
"CAN","cpi",0.1,1955,3,1955,NA,0,-0.921169108303306,-0.636514394628299,0.173649026558865,0.115254687233858,FALSE,2.0850178718687
"CAN","cpi",0.1,1955,3,1955,NA,0.5,0.107455777394791,0.50725514773662,0.173649026558865,-0.770970046821609,TRUE,0.399799370341828
"CAN","cpi",0.1,1955,3,1954,NA,1,1.02111149534844,2.05082290396132,0.173649026558865,3.47019599757395,FALSE,2.91296133925638
"CAN","cpi",0.1,1955,3,1954,NA,1.5,2.05377609298127,3.08348750159415,0.173649026558865,-1.89562740163941,FALSE,5.20777155621822
"CAN","cpi",0.1,1956,3,1956,NA,0,0.595593142414661,0.739416326137296,1.32752769429961,1.56059797998755,FALSE,1.45073733519444
"CAN","cpi",0.1,1956,3,1956,NA,0.5,-0.331959987204212,-0.188136803481577,1.32752769429961,-0.709146002056511,FALSE,3.51196651212527
"CAN","cpi",0.1,1956,3,1955,NA,1,-0.313917269994955,-0.17009408627232,1.32752769429961,0.884549626974225,FALSE,3.47187158499359
"CAN","cpi",0.1,1956,3,1955,NA,1.5,1.12681487445294,1.27063805817557,1.32752769429961,-1.89150615642833,FALSE,0.270244597331603
"CAN","cpi",0.1,1957,3,1957,NA,0,2.94535505743115,3.03199807203447,3.24684755852518,3.4151370317006,FALSE,0.564086317916002
"CAN","cpi",0.1,1957,3,1957,NA,0.5,2.40038655768592,2.57208653059685,3.24684755852518,2.23982631608766,FALSE,1.67116892386276
"CAN","cpi",0.1,1957,3,1956,NA,1,2.40293847798517,2.71236123108016,3.24684755852518,6.98754636690555,FALSE,1.49717014741725
"CAN","cpi",0.1,1957,3,1956,NA,1.5,1.31451407674407,1.88863968724013,3.24684755852518,-1.88668623310337,FALSE,3.59236532446283
"CAN","cpi",0.1,1958,3,1958,NA,0,2.18629341622895,2.47701514166463,2.33186388641149,2.22387249143335,TRUE,0.290721725435684
"CAN","cpi",0.1,1958,3,1958,NA,0.5,4.75059360607084,5.64341114697487,2.33186388641149,2.22839060734872,FALSE,6.26777247348037
"CAN","cpi",0.1,1958,3,1957,NA,1,1.21126855993972,2.10408610084375,2.33186388641149,4.42088197051908,FALSE,1.39899039772123
"CAN","cpi",0.1,1958,3,1957,NA,1.5,2.12222404080142,3.01504158170545,2.33186388641149,0.91301479707402,TRUE,0.892817540904033
"CAN","cpi",0.1,1959,3,1959,NA,0,0.637901828263195,0.762313208652482,1.19382698397654,1.24991216431293,FALSE,1.08333088110942
"CAN","cpi",0.1,1959,3,1959,NA,0.5,1.76453646557518,2.07018560981208,1.19382698397654,0.437839731590327,FALSE,1.57389243667832
"CAN","cpi",0.1,1959,3,1958,NA,1,0.512553987340862,0.818203131577761,1.19382698397654,1.75862762885946,FALSE,1.14036881623419
"CAN","cpi",0.1,1959,3,1958,NA,1.5,2.53231833930902,2.83796748354592,1.19382698397654,1.77407172713766,FALSE,3.28007437830908
"CAN","cpi",0.1,1960,3,1960,NA,0,0.520192183764932,0.597255488260553,1.34209404870695,1.02361304259477,FALSE,1.73226010548762
"CAN","cpi",0.1,1960,3,1960,NA,0.5,1.16847847104125,1.26035108364809,1.34209404870695,0.53898348018166,FALSE,0.273523646070979
"CAN","cpi",0.1,1960,3,1959,NA,1,1.62312030266708,1.85936811346906,1.34209404870695,3.95759373689442,FALSE,0.860750597380041
"CAN","cpi",0.1,1960,3,1959,NA,1.5,2.03053358549529,2.48848816154393,1.34209404870695,-0.873476815404885,FALSE,1.98782021335605
"CAN","cpi",0.1,1961,3,1961,NA,0,1.07177359736254,1.19395500188466,1.00921348094007,1.00921348094007,FALSE,0.261203885460946
"CAN","cpi",0.1,1961,3,1961,NA,0.5,1.22444359203641,1.38314865728609,1.00921348094007,1.00921348094007,FALSE,0.636994201019321
"CAN","cpi",0.1,1961,3,1960,NA,1,-0.460165453241441,0.204844917404863,1.00921348094007,0.0537704626035329,FALSE,2.45249606739121
"CAN","cpi",0.1,1961,3,1960,NA,1.5,1.2585228638282,1.92353323447451,1.00921348094007,-0.862181798940035,FALSE,1.21903122150881
"CAN","cpi",0.1,1962,3,1962,NA,0,1.1753723905711,1.23398351970174,1.04957947883042,1.10232402731478,FALSE,0.33815093299882
"CAN","cpi",0.1,1962,3,1962,NA,0.5,1.1480131945698,1.22436572060918,1.04957947883042,0,FALSE,0.295094116571348
"CAN","cpi",0.1,1962,3,1961,NA,1,0.684997234538366,0.761349760577738,1.04957947883042,0,FALSE,0.716863011045322
"CAN","cpi",0.1,1962,3,1961,NA,1.5,1.5276580487889,1.89882755044016,1.04957947883042,0,FALSE,1.43356632378122
"CAN","cpi",0.1,1963,3,1963,NA,0,1.80769514581173,2.22094137704681,1.60677118395228,1.91491729531202,FALSE,0.859743924256075
"CAN","cpi",0.1,1963,3,1963,NA,0.5,1.02348198713605,1.43672821837112,1.60677118395228,0.836828714617504,FALSE,0.791119488082096
"CAN","cpi",0.1,1963,3,1962,NA,1,0.915080092271336,1.32832632350641,1.60677118395228,2.56411490415144,FALSE,1.03201258778146
"CAN","cpi",0.1,1963,3,1962,NA,1.5,1.2526308671857,1.66587709842078,1.60677118395228,0,TRUE,0.413246231235073
"CAN","cpi",0.1,1964,3,1964,NA,0,1.43800546424735,1.49228704861028,1.88764670034376,1.98877256446048,FALSE,0.932858588215105
"CAN","cpi",0.1,1964,3,1964,NA,0.5,1.4528840696241,1.55984734379202,1.88764670034376,1.38369006227607,FALSE,0.835406288727339
"CAN","cpi",0.1,1964,3,1963,NA,1,2.1500712171341,2.3465118774638,1.88764670034376,5.39044290347256,FALSE,0.779606253197131
"CAN","cpi",0.1,1964,3,1963,NA,1.5,1.29719385926492,1.49363451959462,1.88764670034376,0,FALSE,1.07202328421668
"CAN","cpi",0.1,1965,3,1965,NA,0,2.87780956194677,3.27273246931683,2.29538304394236,2.34557047418999,FALSE,1.68920405849097
"CAN","cpi",0.1,1965,3,1965,NA,0.5,1.62882368995216,2.02374659732222,2.29538304394236,1.61079447956654,FALSE,0.998559455414807
"CAN","cpi",0.1,1965,3,1964,NA,1,1.03916570120063,1.43408860857069,2.29538304394236,2.42518862179847,FALSE,2.30891054152931
"CAN","cpi",0.1,1965,3,1964,NA,1.5,1.61900118447558,2.01392409184564,2.29538304394236,0.818102552316399,FALSE,1.02038724536276
"CAN","cpi",0.1,1966,3,1966,NA,0,3.20824469889396,3.27554288817285,3.72486065470629,3.82010987863709,FALSE,1.06578211490876
"CAN","cpi",0.1,1966,3,1966,NA,0.5,3.08082400087156,3.26137925226401,3.72486065470629,3.99123398895563,FALSE,1.2105139234864
"CAN","cpi",0.1,1966,3,1965,NA,1,1.3300074937944,1.51056274518684,3.72486065470629,3.20722068745854,FALSE,5.10121727254677
"CAN","cpi",0.1,1966,3,1965,NA,1.5,2.09200527737818,2.39903755273524,3.72486065470629,1.60663824631958,FALSE,3.25330583529273
"CAN","cpi",0.1,1967,3,1967,NA,0,7.33146491934764,7.80718263904864,3.49360316391996,3.76768849328632,FALSE,9.00429939842918
"CAN","cpi",0.1,1967,3,1967,NA,0.5,2.55302546972269,3.02874318942369,3.49360316391996,2.4074547441976,FALSE,1.50873988524827
"CAN","cpi",0.1,1967,3,1966,NA,1,1.23657419003203,1.71229190973303,3.49360316391996,3.18103323070284,FALSE,4.43418717344974
"CAN","cpi",0.1,1967,3,1966,NA,1.5,2.43726304793336,3.00152129723206,3.49360316391996,4.65128160487248,FALSE,1.65777350860514
"CAN","cpi",0.1,1968,3,1968,NA,0,3.60446632008668,3.6285068793234,3.95128347779386,4.17287945672396,FALSE,0.741321889171068
"CAN","cpi",0.1,1968,3,1968,NA,0.5,3.59906008716083,3.62310064639756,3.95128347779386,4.07097205779852,FALSE,0.753335740117388
"CAN","cpi",0.1,1968,3,1967,NA,1,2.32440099703407,2.44258351395603,3.95128347779386,5.84521682123848,FALSE,3.47084910322823
"CAN","cpi",0.1,1968,3,1967,NA,1.5,3.32430689826424,3.4424894151862,3.95128347779386,2.25565858240226,FALSE,1.24883598938342
"CAN","cpi",0.1,1969,3,1969,NA,0,3.83497076142348,3.85944462510298,4.42679496126681,4.59520664360618,FALSE,1.28525238848803
"CAN","cpi",0.1,1969,3,1969,NA,0.5,3.30490135055847,3.35467840338442,4.42679496126681,2.96612019395715,FALSE,2.43225829256461
"CAN","cpi",0.1,1969,3,1968,NA,1,3.14975022401034,3.28864793922392,4.42679496126681,6.72487630040807,FALSE,2.66811331975334
"CAN","cpi",0.1,1969,3,1968,NA,1.5,3.38373321318941,3.522630928403,4.42679496126681,4.31664452944541,FALSE,2.14815112157763
"CAN","cpi",0.1,1970,3,1970,NA,0,3.4265228411533,3.49140698709743,3.28128405769805,3.60761538249925,FALSE,0.387636998066919
"CAN","cpi",0.1,1970,3,1970,NA,0.5,3.85175401033437,3.91663815627849,3.28128405769805,4.36016077421692,FALSE,1.33259515180261
"CAN","cpi",0.1,1970,3,1969,NA,1,1.88128792511131,2.24250503019484,3.28128405769805,4.91369447805135,FALSE,2.66961494397955
"CAN","cpi",0.1,1970,3,1969,NA,1.5,3.34332089346881,3.70453799855234,3.28128405769805,2.07973847283129,FALSE,0.499076740129673
"CAN","cpi",0.1,1971,3,1971,NA,0,2.6054955669753,2.68975001543154,2.64123406634756,2.91872900980337,TRUE,0.0842544484562344
"CAN","cpi",0.1,1971,3,1971,NA,0.5,1.72508631301749,1.80934076147372,2.64123406634756,1.38357105636307,FALSE,1.93290623706477
"CAN","cpi",0.1,1971,3,1970,NA,1,1.72647207851987,1.89250079923324,2.64123406634756,3.17686610979278,FALSE,1.82988042541186
"CAN","cpi",0.1,1971,3,1970,NA,1.5,3.3817146390932,3.54774335980658,2.64123406634756,4.62066312326275,FALSE,1.81154110459257
"CAN","cpi",0.1,1972,3,1972,NA,0,4.19156112035229,4.24496648077332,4.83230569625923,5.17210692165851,FALSE,1.35860361705639
"CAN","cpi",0.1,1972,3,1972,NA,0.5,3.7017956083389,3.7973570872731,4.83230569625923,4.76224255478946,FALSE,2.39544727668116
"CAN","cpi",0.1,1972,3,1971,NA,1,3.48104705702796,3.72714529408837,4.83230569625923,6.83863498061675,FALSE,2.70201024188454
"CAN","cpi",0.1,1972,3,1971,NA,1.5,3.25215931476737,3.49825755182779,4.83230569625923,1.95441162589064,FALSE,3.21064966913028
"CAN","cpi",0.1,1973,3,1973,NA,0,4.85950753627812,5.09546290414453,7.12388603531779,7.41057825703995,FALSE,4.74356232602921
"CAN","cpi",0.1,1973,3,1973,NA,0.5,4.6027072945564,4.83866266242281,7.12388603531779,6.24191401313708,FALSE,5.31422952985525
"CAN","cpi",0.1,1973,3,1972,NA,1,3.86541012190704,4.11609543476546,7.12388603531779,8.12590883681935,FALSE,6.93466442519694
"CAN","cpi",0.1,1973,3,1972,NA,1.5,3.32891199731366,3.57959731017207,7.12388603531779,4.96130694391223,FALSE,8.1268824798489
"CAN","cpi",0.1,1974,3,1974,NA,0,8.50226176523957,8.8086296395912,10.2717243737774,10.2919804098732,FALSE,3.55768950587656
"CAN","cpi",0.1,1974,3,1974,NA,0.5,9.19556937938944,9.91236991985663,10.2717243737774,9.01679902243293,FALSE,1.5153659936245
"CAN","cpi",0.1,1974,3,1973,NA,1,9.36889169650265,10.0856922369698,10.2717243737774,11.5076386824751,FALSE,1.13020528892847
"CAN","cpi",0.1,1974,3,1973,NA,1.5,3.21497844646029,3.93177898692748,10.2717243737774,7.03851017911898,FALSE,14.8055680668004
"CAN","cpi",0.1,1975,3,1975,NA,0,10.0577489199138,10.0973788606409,10.0232981493341,10.3166994702432,FALSE,0.116187208681907
"CAN","cpi",0.1,1975,3,1975,NA,0.5,9.58576301236201,9.91221095787783,10.0232981493341,8.87817825771755,FALSE,0.573308370974247
"CAN","cpi",0.1,1975,3,1974,NA,1,9.93865302625979,10.2651009717756,10.0232981493341,11.6634485116586,TRUE,0.326447945515824
"CAN","cpi",0.1,1975,3,1974,NA,1.5,3.48273059454898,5.72982661963475,10.0232981493341,9.09165939347615,FALSE,11.7881438688622
"CAN","cpi",0.1,1976,3,1976,NA,0,5.77423532018433,6.02056584473617,7.22784311401172,7.25911367403926,FALSE,2.92916890071973
"CAN","cpi",0.1,1976,3,1976,NA,0.5,6.48065003573049,6.84701022016577,7.22784311401172,7.22502565269042,FALSE,1.21265550409294
"CAN","cpi",0.1,1976,3,1975,NA,1,10.8504729811807,11.271569831954,7.22784311401172,12.4780790437784,FALSE,8.47138544448218
"CAN","cpi",0.1,1976,3,1975,NA,1.5,6.80228615402749,7.70377266846023,7.22784311401172,7.18586013837568,TRUE,0.90148651443274
"CAN","cpi",0.1,1977,3,1977,NA,0,7.05163392195251,7.10998161957334,7.58101410153764,7.59139014959698,FALSE,1.1050865464304
"CAN","cpi",0.1,1977,3,1977,NA,0.5,7.14761723124895,7.20596492886978,7.58101410153764,7.25038656554249,FALSE,0.89179030354941
"CAN","cpi",0.1,1977,3,1976,NA,1,3.74552172153917,3.80386941916,7.58101410153764,5.92994518665441,FALSE,8.45200254734892
"CAN","cpi",0.1,1977,3,1976,NA,1.5,4.73807732201426,5.60655895903189,7.58101410153764,5.68954314963938,FALSE,5.25615973147485
"CAN","cpi",0.1,1978,3,1978,NA,0,7.52584512065632,7.66361757769923,8.50208927062595,8.68881076810062,FALSE,2.00104288576894
"CAN","cpi",0.1,1978,3,1978,NA,0.5,7.56624005894874,8.62543664343421,8.50208927062595,8.11208508764938,TRUE,1.05919658448546
"CAN","cpi",0.1,1978,3,1977,NA,1,4.23656152987806,5.31141643196298,8.50208927062595,8.34671923233743,FALSE,8.16523898800262
"CAN","cpi",0.1,1978,3,1977,NA,1.5,7.19665535799565,8.55371579578311,8.50208927062595,8.21410731625775,TRUE,1.35706043778745
"CAN","cpi",0.1,1979,3,1979,NA,0,8.48942014042949,8.67437735739159,8.65147652410481,8.56136533364911,TRUE,0.184957216962101
"CAN","cpi",0.1,1979,3,1979,NA,0.5,8.03482989208714,8.21978710904924,8.65147652410481,8.23092589685401,FALSE,1.1442670281967
"CAN","cpi",0.1,1979,3,1978,NA,1,5.24300119944665,6.41163243463669,8.65147652410481,9.66481845899329,FALSE,6.14606254511919
"CAN","cpi",0.1,1979,3,1978,NA,1.5,7.21786512710448,8.38649636229452,8.65147652410481,7.91014806370246,FALSE,1.75747603921291
"CAN","cpi",0.1,1980,3,1980,NA,0,8.87677089669165,9.05973902992499,9.5171912664748,9.53576705858497,FALSE,1.19952865889957
"CAN","cpi",0.1,1980,3,1980,NA,0.5,9.16037054161889,9.73761988808652,9.5171912664748,8.6434746104286,TRUE,0.577249346467632
"CAN","cpi",0.1,1980,3,1979,NA,1,6.68881173171212,7.58537302117744,9.5171912664748,7.78967249140325,FALSE,5.18949072345944
"CAN","cpi",0.1,1980,3,1979,NA,1.5,7.67001722551695,8.56657851498226,9.5171912664748,8.29781572565185,FALSE,3.00903407055984
"CAN","cpi",0.1,1981,3,1981,NA,0,10.1793787872137,10.2694504876303,11.5813425032741,11.7120328235834,FALSE,3.00538729073621
"CAN","cpi",0.1,1981,3,1981,NA,0.5,10.2381789918498,10.6496218802675,11.5813425032741,12.3296185245412,FALSE,2.48193316176586
"CAN","cpi",0.1,1981,3,1980,NA,1,8.7796539819699,9.73297241833932,11.5813425032741,11.0356264341109,FALSE,5.06080751400235
"CAN","cpi",0.1,1981,3,1980,NA,1.5,8.07918883664834,9.03250727301777,11.5813425032741,8.52474858684185,FALSE,6.61739672582803
"CAN","cpi",0.1,1982,3,1982,NA,0,9.98888349900037,10.0213029755761,10.1124203763629,10.253224031375,FALSE,0.234902589435387
"CAN","cpi",0.1,1982,3,1982,NA,0.5,10.0550702999112,10.1175162500773,10.1124203763629,10.1221315066235,TRUE,0.062445950166115
"CAN","cpi",0.1,1982,3,1981,NA,1,9.99450251463976,10.0729564910329,10.1124203763629,11.652777546881,FALSE,0.166151499348784
"CAN","cpi",0.1,1982,3,1981,NA,1.5,9.08434886870173,9.95791836391741,10.1124203763629,13.2139534836213,FALSE,1.2169073006502
"CAN","cpi",0.1,1983,3,1983,NA,0,4.48999672387358,4.59545169445592,5.67091787896303,5.84362752346853,FALSE,2.49537982504259
"CAN","cpi",0.1,1983,3,1983,NA,0.5,4.54480771829435,4.65026268887669,5.67091787896303,4.70635148143536,FALSE,2.37357761521866
"CAN","cpi",0.1,1983,3,1982,NA,1,7.81687874699232,8.11251523098197,5.67091787896303,8.61437359933683,FALSE,5.06443841294363
"CAN","cpi",0.1,1983,3,1982,NA,1.5,9.78557709808201,10.0812135820717,5.67091787896303,9.84330302935538,FALSE,9.43932363758738
"CAN","cpi",0.1,1984,3,1984,NA,0,3.83765409220916,3.86274159147707,4.19799576814029,4.21315663178917,FALSE,0.770096780741727
"CAN","cpi",0.1,1984,3,1984,NA,0.5,4.60517198739453,5.06134156189026,4.19799576814029,4.73004206452632,FALSE,1.36100561728293
"CAN","cpi",0.1,1984,3,1983,NA,1,4.42064912906403,4.87681870355976,4.19799576814029,6.30529961834119,FALSE,0.950954820992932
"CAN","cpi",0.1,1984,3,1983,NA,1.5,3.42667528755649,3.88284486205222,4.19799576814029,2.81189439817776,FALSE,1.15650492135811
"CAN","cpi",0.1,1985,3,1985,NA,0,3.54495537600031,3.6036053634561,3.86444262005169,3.90546894544143,FALSE,0.638288335445995
"CAN","cpi",0.1,1985,3,1985,NA,0.5,3.58650183775456,3.66612854768987,3.86444262005169,4.0117649915267,FALSE,0.520324648517131
"CAN","cpi",0.1,1985,3,1984,NA,1,2.00946919303761,2.39661062707967,3.86444262005169,3.28942198062367,FALSE,3.64899030731322
"CAN","cpi",0.1,1985,3,1984,NA,1.5,3.77830645066941,4.16544788471146,3.86444262005169,4.67970369844593,TRUE,0.387141434042057
"CAN","cpi",0.1,1986,3,1986,NA,0,3.9770861188225,4.01739658034048,4.08685396749431,4.12727747445429,FALSE,0.194660210748724
"CAN","cpi",0.1,1986,3,1986,NA,0.5,4.05782710690439,4.13731925838236,4.08685396749431,4.57514120825518,TRUE,0.0794921514779716
"CAN","cpi",0.1,1986,3,1985,NA,1,2.51944035879666,2.9038353018433,4.08685396749431,3.84501750700332,FALSE,3.01332531116001
"CAN","cpi",0.1,1986,3,1985,NA,1.5,3.65906041281894,4.04345535586558,4.08685396749431,4.51624000588938,FALSE,0.4808363022216
"CAN","cpi",0.1,1987,3,1987,NA,0,4.08737556015846,4.13695984417672,4.23980729277887,4.3376164199738,FALSE,0.278134169800816
"CAN","cpi",0.1,1987,3,1987,NA,0.5,3.37957475845963,3.56294973096102,4.23980729277887,3.8898385702312,FALSE,1.68750288765218
"CAN","cpi",0.1,1987,3,1986,NA,1,2.65993480816273,3.20083534390695,4.23980729277887,4.56284936423577,FALSE,2.84972708879294
"CAN","cpi",0.1,1987,3,1986,NA,1.5,6.16293391925355,6.70383445499778,4.23980729277887,5.15474659430673,FALSE,4.81451526124352
"CAN","cpi",0.1,1988,3,1988,NA,0,3.83471565883542,3.85915343065176,3.92899537638065,4.00028299604827,FALSE,0.179642095658333
"CAN","cpi",0.1,1988,3,1988,NA,0.5,3.65547118144524,3.79464679051971,3.92899537638065,3.53181278911538,FALSE,0.437728022098799
"CAN","cpi",0.1,1988,3,1987,NA,1,2.61471157692559,3.10341278301633,3.92899537638065,4.34173286045961,FALSE,2.32332919134479
"CAN","cpi",0.1,1988,3,1987,NA,1.5,3.69688169284998,4.18558289894072,3.92899537638065,3.76612293581706,TRUE,0.488701206090747
"CAN","cpi",0.1,1989,3,1989,NA,0,4.52304529298393,4.57329181593764,4.82821664544208,5.00606812502784,FALSE,0.616746144074676
"CAN","cpi",0.1,1989,3,1989,NA,0.5,4.05233543005363,4.10258195300734,4.82821664544208,4.51521437972404,FALSE,1.66276806169756
"CAN","cpi",0.1,1989,3,1988,NA,1,3.32123434593804,3.47825365803944,4.82821664544208,4.3270389784901,FALSE,3.15693706188504
"CAN","cpi",0.1,1989,3,1988,NA,1.5,3.84537512706123,4.00239443916262,4.82821664544208,3.42699250808196,FALSE,1.99217977050019
"CAN","cpi",0.1,1990,3,1990,NA,0,4.37602342767789,4.45857661914244,4.64347549432717,4.52171223749059,FALSE,0.493439580763951
"CAN","cpi",0.1,1990,3,1990,NA,0.5,4.89162241761669,5.07752675486761,4.64347549432717,5.22335253259958,FALSE,0.737341944560961
"CAN","cpi",0.1,1990,3,1989,NA,1,3.84748766098029,4.0333919982312,4.64347549432717,5.7236432392913,FALSE,1.5416454396864
"CAN","cpi",0.1,1990,3,1989,NA,1.5,4.22869956493547,4.75665425970895,4.64347549432717,4.92041342133377,TRUE,0.527954694773484
"CAN","cpi",0.1,1991,3,1991,NA,0,4.98891092708471,5.08728966983044,5.4258100696218,5.6161816682171,FALSE,0.850646297837635
"CAN","cpi",0.1,1991,3,1991,NA,0.5,9.81326325741056,9.91164200015629,5.4258100696218,8.8240510060175,FALSE,9.84827471560965
"CAN","cpi",0.1,1991,3,1990,NA,1,3.1629055384718,3.57574956099354,5.4258100696218,3.89170713423419,FALSE,4.5240895972512
"CAN","cpi",0.1,1991,3,1990,NA,1.5,7.3765312710796,7.78937529360133,5.4258100696218,5.70462042447442,FALSE,4.74778002576129
"CAN","cpi",0.1,1992,3,1992,NA,0,1.25681974864539,1.28038937690021,1.47496888572843,1.47544467241393,FALSE,0.455968536761986
"CAN","cpi",0.1,1992,3,1992,NA,0.5,1.84465193369665,1.9610834128424,1.47496888572843,1.36069384263819,FALSE,0.937949363519557
"CAN","cpi",0.1,1992,3,1991,NA,1,1.85598092871866,2.07564537895432,1.47496888572843,2.43500720778875,FALSE,1.06635787910283
"CAN","cpi",0.1,1992,3,1991,NA,1.5,8.91122392507612,9.9244376071761,1.47496888572843,11.2072976243743,FALSE,17.5382248806504
"CAN","cpi",0.1,1993,3,1993,NA,0,1.5714589918863,1.62899343970449,1.84351085411351,1.81496037239602,FALSE,0.534239813171579
"CAN","cpi",0.1,1993,3,1993,NA,0.5,3.41165421905984,3.49373725354382,1.84351085411351,2.43338635087472,FALSE,3.56684606769804
"CAN","cpi",0.1,1993,3,1992,NA,1,1.14706152771425,1.22914456219822,1.84351085411351,1.76228766319361,FALSE,1.4473414609624
"CAN","cpi",0.1,1993,3,1992,NA,1.5,3.49727392848236,3.6667368620752,1.84351085411351,1.598750613598,FALSE,3.84449198774584
"CAN","cpi",0.1,1994,3,1994,NA,0,-0.390381670881695,-0.262374398515162,0.161630694655448,0.220147227157928,FALSE,1.07024081274567
"CAN","cpi",0.1,1994,3,1994,NA,0.5,0.0638480816498541,0.191855354016387,0.161630694655448,-0.741542526043691,TRUE,0.128007272366533
"CAN","cpi",0.1,1994,3,1993,NA,1,1.13052846522943,1.25853573759596,0.161630694655448,1.50794631797803,FALSE,2.2811134291976
"CAN","cpi",0.1,1994,3,1993,NA,1.5,3.90435903159697,4.0323663039635,0.161630694655448,2.81797717341095,FALSE,8.4451813544588
"CAN","cpi",0.1,1995,3,1995,NA,0,2.19762190872288,2.2695884756109,2.11688403676572,2.15484685959489,FALSE,0.251384060126165
"CAN","cpi",0.1,1995,3,1995,NA,0.5,3.32584993818729,3.3978165050753,2.11688403676572,2.90883921660758,FALSE,2.75855745893596
"CAN","cpi",0.1,1995,3,1994,NA,1,1.67249840098884,1.74446496787686,2.11688403676572,1.95173420121315,FALSE,0.899564497752151
"CAN","cpi",0.1,1995,3,1994,NA,1.5,0.854738194531067,0.926704761419085,2.11688403676572,-2.17983456081826,FALSE,2.71680940099164
"CAN","cpi",0.1,1996,3,1996,NA,0,1.30393031836117,1.33483692805195,1.55309584667184,1.44166889374788,FALSE,0.515926428846106
"CAN","cpi",0.1,1996,3,1996,NA,0.5,1.34825495037883,1.42371713446658,1.55309584667184,1.36236766996786,FALSE,0.362970433432781
"CAN","cpi",0.1,1996,3,1995,NA,1,0.908763016095831,1.03009391983835,1.55309584667184,0.911474268150699,FALSE,1.28355740781694
"CAN","cpi",0.1,1996,3,1995,NA,1.5,3.86222383155616,3.98355473529868,1.55309584667184,3.98784768949811,FALSE,5.25272642570767
"CAN","cpi",0.1,1997,3,1997,NA,0,1.53032481141413,1.56415878327718,1.60528783555959,1.68811714545079,FALSE,0.125231865823969
"CAN","cpi",0.1,1997,3,1997,NA,0.5,2.29126385806773,2.38052123535268,1.60528783555959,2.10620867662285,FALSE,1.61364853841415
"CAN","cpi",0.1,1997,3,1996,NA,1,1.06538176007565,1.16742848048886,1.60528783555959,0.758460286059383,FALSE,1.07506750945928
"CAN","cpi",0.1,1997,3,1996,NA,1.5,2.02102284332484,2.8987766895397,1.60528783555959,1.66287852692671,FALSE,1.80160941902652
"CAN","cpi",0.1,1998,3,1998,NA,0,0.844069760654176,0.847208910873106,0.988908029337191,0.970744023070627,FALSE,0.318026080139119
"CAN","cpi",0.1,1998,3,1998,NA,0.5,2.0141274153416,2.01726656556053,0.988908029337191,1.52096865004292,FALSE,2.28140445245094
"CAN","cpi",0.1,1998,3,1997,NA,1,1.27177538891727,1.39705757570873,0.988908029337191,1.03996058978499,FALSE,0.753876319191634
"CAN","cpi",0.1,1998,3,1997,NA,1.5,3.81335751832237,3.93863970511383,0.988908029337191,2.22059574107629,FALSE,6.40183660675852
"CAN","cpi",0.1,1999,3,1999,NA,0,1.60625095187865,1.60661548612219,1.7107350135213,1.79141464940687,FALSE,0.231741261797103
"CAN","cpi",0.1,1999,3,1999,NA,0.5,1.29278326431656,1.34048309711635,1.7107350135213,0.800552372711202,FALSE,0.870481869255223
"CAN","cpi",0.1,1999,3,1998,NA,1,0.997326586652247,1.04502641945204,1.7107350135213,0.474525424909611,FALSE,1.52705226406481
"CAN","cpi",0.1,1999,3,1998,NA,1.5,2.93079347396321,3.25241231266758,1.7107350135213,2.19776497346126,FALSE,3.03285986190862
"CAN","cpi",0.1,2000,3,2000,NA,0,2.59149398777927,2.60057113762243,2.6718361971244,2.73388860624727,FALSE,0.167443948736417
"CAN","cpi",0.1,2000,3,2000,NA,0.5,1.91274766034416,2.11366566421434,2.6718361971244,2.11525832235237,FALSE,1.44129696589253
"CAN","cpi",0.1,2000,3,1999,NA,1,2.09857379206741,2.29949179593759,2.6718361971244,2.81438082878813,FALSE,1.02835000650754
"CAN","cpi",0.1,2000,3,1999,NA,1.5,1.82354949308569,2.02548675713819,2.6718361971244,0.872413614651861,FALSE,1.63826935291075
"CAN","cpi",0.1,2001,3,2001,NA,0,2.60659885287516,2.71861953038707,2.47906219852806,2.73506715681632,FALSE,0.395435464949902
"CAN","cpi",0.1,2001,3,2001,NA,0.5,1.76803993668744,2.13184876618498,2.47906219852806,1.72363549629744,FALSE,1.13539423470439
"CAN","cpi",0.1,2001,3,2000,NA,1,3.44689979739625,3.8107086268938,2.47906219852806,3.73995761394105,FALSE,2.51455904920462
"CAN","cpi",0.1,2001,3,2000,NA,1.5,1.87231114944378,2.91832926134138,2.47906219852806,1.98299961497232,TRUE,1.0460181118976
"CAN","cpi",0.1,2002,3,2002,NA,0,2.33055369038129,2.49690810002734,2.20880570551249,2.3500140093739,FALSE,0.436905487132289
"CAN","cpi",0.1,2002,3,2002,NA,0.5,1.7786247689153,1.94497917856136,2.20880570551249,1.47074452365548,FALSE,0.752635580648564
"CAN","cpi",0.1,2002,3,2001,NA,1,1.24670200991212,1.42217885650079,2.20880570551249,0.79597273109289,FALSE,1.92353651105911
"CAN","cpi",0.1,2002,3,2001,NA,1.5,1.88554437579249,2.06102122238117,2.20880570551249,0.827019109774735,FALSE,0.503886809102721
"CAN","cpi",0.1,2003,3,2003,NA,0,2.59847583336962,2.61820952184895,2.71189071546809,2.76866538316948,FALSE,0.227914118744087
"CAN","cpi",0.1,2003,3,2003,NA,0.5,4.21878364966589,4.38572115546828,2.71189071546809,4.59645517963757,FALSE,3.51558847068639
"CAN","cpi",0.1,2003,3,2002,NA,1,3.82438667019668,3.99132417599907,2.71189071546809,4.33746529644743,FALSE,2.63915073853258
"CAN","cpi",0.1,2003,3,2002,NA,1.5,3.80801815649349,3.97495566229588,2.71189071546809,2.71468890277684,FALSE,2.60277626363661
"CAN","cpi",0.1,2004,3,2004,NA,0,1.60659202494007,1.64405836669493,1.83151661303942,1.7684769390021,FALSE,0.454040222520398
"CAN","cpi",0.1,2004,3,2004,NA,0.5,2.1365482030035,2.20268851678482,1.83151661303942,1.5625176897836,FALSE,0.743988291479269
"CAN","cpi",0.1,2004,3,2003,NA,1,1.36145555946934,1.42759587325065,1.83151661303942,1.41754396673829,FALSE,0.963741957756358
"CAN","cpi",0.1,2004,3,2003,NA,1.5,5.21262115170449,5.71903349755352,1.83151661303942,5.32651436309904,FALSE,8.01997798732696
"CAN","cpi",0.1,2005,3,2005,NA,0,2.34340896712314,2.35847340759742,2.18071628336509,2.38196957660787,FALSE,0.376603737714392
"CAN","cpi",0.1,2005,3,2005,NA,0.5,1.91494910825684,1.93001354873112,2.18071628336509,1.57253942332725,FALSE,0.572181628549773
"CAN","cpi",0.1,2005,3,2004,NA,1,1.35298124559667,1.54211297533761,2.18071628336509,0.993232956459974,FALSE,1.60825019202424
"CAN","cpi",0.1,2005,3,2004,NA,1.5,2.38908928864235,2.57822101838329,2.18071628336509,2.05989686108521,FALSE,0.652182852579285
"CAN","cpi",0.1,2006,3,2006,NA,0,1.84519088764385,1.91766872148007,1.97519342012289,2.0667253719809,FALSE,0.200310497486922
"CAN","cpi",0.1,2006,3,2006,NA,0.5,2.26091396369516,2.36053091723412,1.97519342012289,1.93779395271753,FALSE,0.734551494810688
"CAN","cpi",0.1,2006,3,2005,NA,1,2.8126240132473,3.26140751252117,1.97519342012289,3.47726378201784,FALSE,2.30974037288368
"CAN","cpi",0.1,2006,3,2005,NA,1.5,2.01264569886504,2.4614291981389,1.97519342012289,1.38669164389589,FALSE,0.532010785367535
"CAN","cpi",0.1,2007,3,2007,NA,0,1.91944674830155,2.00134521615473,2.10062087284572,2.10807340507977,FALSE,0.302511038277605
"CAN","cpi",0.1,2007,3,2007,NA,0.5,2.50069818127732,2.76754651372386,2.10062087284572,2.41912196921498,FALSE,1.15590901785009
"CAN","cpi",0.1,2007,3,2006,NA,1,1.37634150012849,1.64318983257503,2.10062087284572,0.502333085291807,FALSE,1.2833617552703
"CAN","cpi",0.1,2007,3,2006,NA,1.5,2.12262403067685,2.3894723631234,2.10062087284572,1.9704266811846,FALSE,0.315744238737942
"CAN","cpi",0.1,2008,3,2008,NA,0,2.63245877346677,2.67983640523087,2.31447335265955,2.95401501251803,FALSE,0.754011900224583
"CAN","cpi",0.1,2008,3,2008,NA,0.5,1.44705435977691,1.54012775707925,2.31447335265955,1.1596607753752,FALSE,1.81384138748079
"CAN","cpi",0.1,2008,3,2007,NA,1,1.18839493253774,1.37236843067467,2.31447335265955,0.365030180386173,FALSE,2.27753999143667
"CAN","cpi",0.1,2008,3,2007,NA,1.5,3.742965474187,3.92693897232394,2.31447335265955,3.74970428078329,FALSE,3.3584004348646
"CAN","cpi",0.1,2009,3,2009,NA,0,0.143902012213087,0.164082601230289,0.284533874408197,0.277323060325678,FALSE,0.287850084968109
"CAN","cpi",0.1,2009,3,2009,NA,0.5,-0.114501281847532,0.149957700152192,0.284533874408197,-0.926841850998946,FALSE,0.563517147013069
"CAN","cpi",0.1,2009,3,2008,NA,1,3.31785604057155,3.59435128270571,0.284533874408197,4.39167027484448,FALSE,7.01721116694162
"CAN","cpi",0.1,2009,3,2008,NA,1.5,1.94957957694409,2.22607481907824,0.284533874408197,1.30718110670587,FALSE,3.97659680332502
"CAN","cpi",0.1,2010,3,2010,NA,0,1.61649094576397,1.67143024378721,1.75525687020327,1.74893097969613,FALSE,0.24122069005893
"CAN","cpi",0.1,2010,3,2010,NA,0.5,2.13729816232133,2.21179714801453,1.75525687020327,1.60514557059791,FALSE,0.923479634844445
"CAN","cpi",0.1,2010,3,2009,NA,1,1.57469799218748,1.66545225996872,1.75525687020327,0.646877121410091,FALSE,0.290320068302468
"CAN","cpi",0.1,2010,3,2009,NA,1.5,1.40854515547577,1.5705739733518,1.75525687020327,-1.29107136836179,FALSE,0.572435255323749
"CAN","cpi",0.1,2011,3,2011,NA,0,2.59307673200433,2.62517940041209,2.85717434028225,2.83658425111878,FALSE,0.54764697923033
"CAN","cpi",0.1,2011,3,2011,NA,0.5,2.20025233605707,2.39574729066128,2.85717434028225,2.89516877702572,FALSE,1.22088839820636
"CAN","cpi",0.1,2011,3,2010,NA,1,2.11161416688271,2.30710912148693,2.85717434028225,2.19120159589417,FALSE,1.4178621074827
"CAN","cpi",0.1,2011,3,2010,NA,1.5,2.00972929808973,2.25757803181594,2.85717434028225,1.9636150267392,FALSE,1.58028497476244
"CAN","cpi",0.1,2012,3,2012,NA,0,1.4090719202553,1.40798135246685,1.50118536134935,1.46012306845465,FALSE,0.206029451950429
"CAN","cpi",0.1,2012,3,2012,NA,0.5,2.09283086101959,2.09174029323114,1.50118536134935,1.81318735388827,FALSE,1.31367720925653
"CAN","cpi",0.1,2012,3,2011,NA,1,1.59867328275811,1.71919501038538,1.50118536134935,1.0674603716489,FALSE,0.33716155298007
"CAN","cpi",0.1,2012,3,2011,NA,1.5,2.99078917840537,3.87310421081708,1.50118536134935,3.26492178435033,FALSE,4.19254573698065
"CAN","cpi",0.1,2013,3,2013,NA,0,1.04558125339597,1.09281692888388,0.931270594714462,1.03964630394149,FALSE,0.30125936144681
"CAN","cpi",0.1,2013,3,2013,NA,0.5,1.55319461571573,1.60043029120364,0.931270594714462,1.16522799725517,FALSE,1.42928905549073
"CAN","cpi",0.1,2013,3,2012,NA,1,0.744197238318022,0.979068166600987,0.931270594714462,-0.4587869493051,TRUE,0.234870928282964
"CAN","cpi",0.1,2013,3,2012,NA,1.5,2.09845005563811,2.33332098392108,0.931270594714462,1.87018597092114,FALSE,2.82860306366886
"CAN","cpi",0.1,2014,3,2014,NA,0,1.73432300055171,1.76271675697555,1.87639912240215,1.98941686448128,FALSE,0.281021235149619
"CAN","cpi",0.1,2014,3,2014,NA,0.5,2.41323197735429,2.48937983983547,1.87639912240215,2.28534818047506,FALSE,1.26910976237482
"CAN","cpi",0.1,2014,3,2013,NA,1,1.56880976782458,1.67970183153453,1.87639912240215,0.933988257976399,FALSE,0.547997154526879
"CAN","cpi",0.1,2014,3,2013,NA,1.5,1.8721352709356,2.13064379844718,1.87639912240215,1.74432822228681,TRUE,0.258508527511588
"CAN","cpi",0.1,2015,3,2015,NA,0,1.09901108243905,1.1363399050984,1.11090953952792,1.2616807067513,TRUE,0.0373288226593553
"CAN","cpi",0.1,2015,3,2015,NA,0.5,1.08923304657668,1.15896169505781,1.11090953952792,0.218363095132572,TRUE,0.0697286484811253
"CAN","cpi",0.1,2015,3,2014,NA,1,1.5932914637275,1.71845022192282,1.11090953952792,0.62327975322943,FALSE,1.19711858974995
"CAN","cpi",0.1,2015,3,2014,NA,1.5,2.67046217312405,3.80618546712509,1.11090953952792,3.54844533129153,FALSE,4.60139581310356
"CAN","cpi",0.1,2016,3,2016,NA,0,1.44838624526577,1.4802117662217,1.41168586698797,1.44403049252289,FALSE,0.113381917128828
"CAN","cpi",0.1,2016,3,2016,NA,0.5,1.42163986133574,1.5296593548614,1.41168586698797,0.943700860843074,FALSE,0.130139480965162
"CAN","cpi",0.1,2016,3,2015,NA,1,1.56245681150947,1.6927633923219,1.41168586698797,1.65805837950254,FALSE,0.465353124193549
"CAN","cpi",0.1,2016,3,2015,NA,1.5,1.60674515716228,1.8649003794537,1.41168586698797,0.212753204814446,FALSE,0.691620311567679
"CAN","cpi",0.1,2017,3,2017,NA,0,1.43937216371656,1.46310290085121,1.57888581671161,1.52172534057668,FALSE,0.281026105713318
"CAN","cpi",0.1,2017,3,2017,NA,0.5,2.32838163070193,2.44457813536474,1.57888581671161,2.17995751143343,FALSE,1.78174275797463
"CAN","cpi",0.1,2017,3,2016,NA,1,1.52906845865272,1.64526496331553,1.57888581671161,0.478660156386378,TRUE,0.11619650466281
"CAN","cpi",0.1,2017,3,2016,NA,1.5,1.85345776250685,2.03690886713523,1.57888581671161,1.04780579189651,FALSE,0.793610984173347
"CAN","cpi",0.1,2018,3,2018,NA,0,2.32338016240911,2.39559623826906,2.23316270166586,2.42606863838048,FALSE,0.272699321956066
"CAN","cpi",0.1,2018,3,2018,NA,0.5,3.80311555221839,3.87533162807834,2.23316270166586,3.02101124054505,FALSE,3.56100018819891
"CAN","cpi",0.1,2018,3,2017,NA,1,1.54388183873023,1.61609791459018,2.23316270166586,0.52369802733857,FALSE,1.44347115825035
"CAN","cpi",0.1,2018,3,2017,NA,1.5,2.30112192779721,2.61834055518038,2.23316270166586,3.08408184322128,FALSE,0.468239129897282
"CAN","cpi",0.1,2019,3,2019,NA,0,1.88302954068685,1.88701176385263,1.91921619871868,2.02292335146186,FALSE,0.075547633979231
"CAN","cpi",0.1,2019,3,2019,NA,0.5,1.9610748457688,2.04346184863847,1.91921619871868,1.7605507439285,FALSE,0.175406218536597
"CAN","cpi",0.1,2019,3,2018,NA,1,2.06557763984671,2.14796464271638,1.91921619871868,1.97136692329685,FALSE,0.407634649820844
"CAN","cpi",0.1,2019,3,2018,NA,1.5,3.43741515876922,3.82257409289456,1.91921619871868,4.13001487917394,FALSE,3.75893440090432
"CAN","cpi",0.1,2020,3,2020,NA,0,0.391124498212376,0.43718029816095,0.71139989671781,0.748237853268385,FALSE,0.655432685630486
"CAN","cpi",0.1,2020,3,2020,NA,0.5,1.4244395449797,1.4876414979819,0.71139989671781,1.20638084891419,FALSE,1.64773450469528
"CAN","cpi",0.1,2020,3,2019,NA,1,1.56839968825377,1.67657541761646,0.71139989671781,1.33625965438418,FALSE,2.01261971055371
"CAN","cpi",0.1,2020,3,2019,NA,1.5,2.22570222078455,2.33387795014724,0.71139989671781,2.47827605395127,FALSE,3.47329200506655
"CAN","cpi",0.1,2021,3,2021,NA,0,3.153416230925,3.25717626618015,3.31148121717802,3.36073739108717,FALSE,0.22443770413932
"CAN","cpi",0.1,2021,3,2021,NA,0.5,2.28247594882593,2.54527203554843,3.31148121717802,2.87786599282032,FALSE,1.96548315701049
"CAN","cpi",0.1,2021,3,2020,NA,1,1.63167883215937,1.89447491888187,3.31148121717802,1.80567605729774,FALSE,3.41169897182506
"CAN","cpi",0.1,2021,3,2020,NA,1.5,1.77140384202652,2.03419992874903,3.31148121717802,1.36315122932478,FALSE,3.10119894989805
"CAN","cpi",0.1,2022,3,2022,NA,0,5.6955793420542,6.00082190113168,6.50977236228281,6.58141742776733,FALSE,1.43624358385778
"CAN","cpi",0.1,2022,3,2022,NA,0.5,6.72270007575329,7.02794263483077,6.50977236228281,6.74293883776587,FALSE,0.778415255678545
"CAN","cpi",0.1,2022,3,2021,NA,1,3.01489832225144,3.32014088132892,6.50977236228281,4.82564214996571,FALSE,7.39331251675279
"CAN","cpi",0.1,2022,3,2021,NA,1.5,2.09250645794686,2.39774901702434,6.50977236228281,3.93575064315212,FALSE,9.44307221520741
"CAN","cpi",0.1,2023,3,2023,NA,0,3.89723405933346,3.90452894252571,3.78831288758619,4.01453285616146,FALSE,0.24934193151951
"CAN","cpi",0.1,2023,3,2023,NA,0.5,3.44190094666571,3.77207583148961,3.78831288758619,3.07888421739245,FALSE,0.366257231705195
"CAN","cpi",0.1,2023,3,2022,NA,1,3.25971150889434,3.58988639371824,3.78831288758619,3.85673280569707,FALSE,0.771122648974911
"CAN","cpi",0.1,2023,3,2022,NA,1.5,8.04114962213123,8.53192686330033,3.78831288758619,8.07292283446253,FALSE,9.94152554015808
"CAN","cpi",0.1,2024,3,2023,NA,1,3.17339096003636,3.66630736181256,NA,4.07504753996503,NA,NA
"CAN","cpi",0.1,2024,3,2023,NA,1.5,1.9853559591178,2.478272360894,NA,2.41529048319689,NA,NA
"CAN","cpi",0.2,1950,3,1950,NA,0,3.41276022321824,3.41276022321824,2.59031220731124,2.34506766740468,FALSE,2.0561200397675
"CAN","cpi",0.2,1950,3,1950,NA,0.5,3.41276022321824,3.41276022321824,2.59031220731124,-0.480727815155867,FALSE,2.0561200397675
"CAN","cpi",0.2,1950,3,1949,NA,1,3.41276022321824,3.41276022321824,2.59031220731124,2.05479851121881,FALSE,2.0561200397675
"CAN","cpi",0.2,1950,3,1949,NA,1.5,3.41276022321824,5.36405494762079,2.59031220731124,0,FALSE,4.00741476417005
"CAN","cpi",0.2,1951,3,1951,NA,0,4.95500956039177,6.46139858826156,9.87945438999359,9.94785600170898,FALSE,10.0515285321999
"CAN","cpi",0.2,1951,3,1951,NA,0.5,3.9670768855498,5.47346591341958,9.87945438999359,9.56401243485552,FALSE,12.5213602193048
"CAN","cpi",0.2,1951,3,1950,NA,1,2.01683735521096,3.52322638308074,9.87945438999359,7.18504019917801,FALSE,17.3969590451519
"CAN","cpi",0.2,1951,3,1950,NA,1.5,1.83711769337634,3.34350672124613,9.87945438999359,-2.18579641022426,FALSE,17.8462581997384
"CAN","cpi",0.2,1952,3,1952,NA,0,2.76664555814816,2.41397885647431,2.55562336095485,2.49651395855886,FALSE,0.529000052510779
"CAN","cpi",0.2,1952,3,1952,NA,0.5,3.24856662187365,2.8958999201998,2.55562336095485,3.9078404779387,FALSE,1.37969145062316
"CAN","cpi",0.2,1952,3,1951,NA,1,4.15338116428836,3.80071446261451,2.55562336095485,8.88778808098424,FALSE,3.64172780665993
"CAN","cpi",0.2,1952,3,1951,NA,1.5,7.06732495929222,6.71465825761837,2.55562336095485,10.076419411745,FALSE,10.9265872941696
"CAN","cpi",0.2,1953,3,1953,NA,0,2.55562336095485,2.56256967141585,-1.01492775838436,-0.954275034924989,FALSE,8.93332410880903
"CAN","cpi",0.2,1953,3,1953,NA,0.5,2.6415540340478,2.89862276140309,-1.01492775838436,-2.19876634474816,FALSE,9.39827320843569
"CAN","cpi",0.2,1953,3,1952,NA,1,2.64155403476511,2.89862276426631,-1.01492775838436,-1.18145267469342,FALSE,9.39827321237489
"CAN","cpi",0.2,1953,3,1952,NA,1.5,2.57643710042876,3.41276022637234,-1.01492775838436,0.93216905581622,FALSE,9.81473527297639
"CAN","cpi",0.2,1954,3,1954,NA,0,-0.347480247558685,0.319637228275263,0.644425455961438,0.879731201855888,FALSE,1.47908804504939
"CAN","cpi",0.2,1954,3,1954,NA,0.5,2.23097527969947,2.89809275553342,0.644425455961438,-0.358875738913824,FALSE,4.63349203517902
"CAN","cpi",0.2,1954,3,1953,NA,1,2.23283319990962,2.89995067574357,0.644425455961438,3.38326531029323,FALSE,4.63813683570441
"CAN","cpi",0.2,1954,3,1953,NA,1.5,2.54349088271133,3.21060835854527,0.644425455961438,-2.85717744192413,FALSE,5.41478104270867
"CAN","cpi",0.2,1955,3,1955,NA,0,-1.01492775838436,-0.494187037790796,0.173649026558865,0.115254687233858,FALSE,2.19033088146772
"CAN","cpi",0.2,1955,3,1955,NA,0.5,0.426613037634626,2.06857743412384,0.173649026558865,-0.770970046821609,FALSE,2.27437442417862
"CAN","cpi",0.2,1955,3,1954,NA,1,0.631844488582067,2.27380888507128,0.173649026558865,3.47019599757395,FALSE,2.78745305154722
"CAN","cpi",0.2,1955,3,1954,NA,1.5,1.7476495990431,3.38961399553232,0.173649026558865,-1.89562740163941,FALSE,5.5769658276998
"CAN","cpi",0.2,1956,3,1956,NA,0,0.612763367958222,1.08968287679422,1.32752769429961,1.56059797998755,FALSE,1.07153155259947
"CAN","cpi",0.2,1956,3,1956,NA,0.5,-0.498508149760893,-0.0215886409248957,1.32752769429961,-0.709146002056511,FALSE,3.84971034689726
"CAN","cpi",0.2,1956,3,1955,NA,1,-0.801518988833339,0.230500967578538,1.32752769429961,0.884549626974225,FALSE,3.77458677321455
"CAN","cpi",0.2,1956,3,1955,NA,1.5,0.173962381786903,1.4224039727961,1.32752769429961,-1.89150615642833,TRUE,1.24844159100919
"CAN","cpi",0.2,1957,3,1957,NA,0,2.90203355012949,3.07531957933613,3.24684755852518,3.4151370317006,FALSE,0.602105977179258
"CAN","cpi",0.2,1957,3,1957,NA,0.5,2.24467167125625,2.58849930895557,3.24684755852518,2.23982631608766,FALSE,1.98969826162333
"CAN","cpi",0.2,1957,3,1956,NA,1,2.2732326843728,2.97294994570845,3.24684755852518,6.98754636690555,FALSE,1.38446129337746
"CAN","cpi",0.2,1957,3,1956,NA,1.5,1.02745127149605,2.17570249248815,3.24684755852518,-1.88668623310337,FALSE,3.82611388608467
"CAN","cpi",0.2,1958,3,1958,NA,0,2.04093255351111,2.60215432486122,2.33186388641149,2.22387249143335,TRUE,0.561221771350109
"CAN","cpi",0.2,1958,3,1958,NA,0.5,4.37579446189789,6.01821029114782,2.33186388641149,2.22839060734872,FALSE,6.75224226796593
"CAN","cpi",0.2,1958,3,1957,NA,1,0.879178839493032,2.52159466874297,2.33186388641149,4.42088197051908,TRUE,1.64241582924994
"CAN","cpi",0.2,1958,3,1957,NA,1.5,1.74742489662847,3.3898407258784,2.33186388641149,0.91301479707402,TRUE,1.64241582924994
"CAN","cpi",0.2,1959,3,1959,NA,0,0.586284303160935,0.825233119001067,1.19382698397654,1.24991216431293,FALSE,1.16043347827882
"CAN","cpi",0.2,1959,3,1959,NA,0.5,1.61751548416959,2.21721017910575,1.19382698397654,0.437839731590327,FALSE,1.65891594541878
"CAN","cpi",0.2,1959,3,1958,NA,1,0.386484460257044,0.986179155193199,1.19382698397654,1.75862762885946,FALSE,1.11881426689451
"CAN","cpi",0.2,1959,3,1958,NA,1.5,2.4974591029533,3.09715379788946,1.19382698397654,1.77407172713766,FALSE,3.85877499237806
"CAN","cpi",0.2,1960,3,1960,NA,0,0.481660531517122,0.635787140508363,1.34209404870695,1.02361304259477,FALSE,1.91989387948771
"CAN","cpi",0.2,1960,3,1960,NA,0.5,1.11022293576446,1.30286192512097,1.34209404870695,0.53898348018166,FALSE,0.290719298321463
"CAN","cpi",0.2,1960,3,1959,NA,1,1.50499639726609,1.97749201887005,1.34209404870695,3.95759373689442,FALSE,0.879751493001802
"CAN","cpi",0.2,1960,3,1959,NA,1.5,1.7292532721625,2.562561115643,1.34209404870695,-0.873476815404885,FALSE,1.80120590211938
"CAN","cpi",0.2,1961,3,1961,NA,0,1.01065907535403,1.23849484551477,1.00921348094007,1.00921348094007,FALSE,0.231449756195638
"CAN","cpi",0.2,1961,3,1961,NA,0.5,1.15997452425374,1.6176414837461,1.00921348094007,1.00921348094007,FALSE,0.834569567776525
"CAN","cpi",0.2,1961,3,1960,NA,1,-0.889831548420632,0.356841876001722,1.00921348094007,0.0537704626035329,FALSE,2.87760243676823
"CAN","cpi",0.2,1961,3,1960,NA,1.5,1.21024724340385,2.4569206678262,1.00921348094007,-0.862181798940035,FALSE,1.7492578305818
"CAN","cpi",0.2,1962,3,1962,NA,0,1.15689635002032,1.27409349542527,1.04957947883042,1.10232402731478,FALSE,0.385489323379708
"CAN","cpi",0.2,1962,3,1962,NA,0.5,1.10224250377853,1.25491800795324,1.04957947883042,0,FALSE,0.284333066545002
"CAN","cpi",0.2,1962,3,1961,NA,1,0.646835745470699,0.799511249645404,1.04957947883042,0,FALSE,0.777846077137232
"CAN","cpi",0.2,1962,3,1961,NA,1.5,1.34209298765475,2.2522386488523,1.04957947883042,0,FALSE,1.64142943325838
"CAN","cpi",0.2,1963,3,1963,NA,0,2.03359138605002,2.78826475281994,1.60677118395228,1.91491729531202,FALSE,1.82172387201426
"CAN","cpi",0.2,1963,3,1963,NA,0.5,0.822196452214626,1.57686981898455,1.60677118395228,0.836828714617504,FALSE,0.829426779189265
"CAN","cpi",0.2,1963,3,1962,NA,1,0.744366619045771,1.49903998581569,1.60677118395228,2.56411490415144,FALSE,1.0240013621114
"CAN","cpi",0.2,1963,3,1962,NA,1.5,1.13813848200206,1.89281184877198,1.60677118395228,0,TRUE,0.754673366769921
"CAN","cpi",0.2,1964,3,1964,NA,0,1.3424926006176,1.48895933835188,1.88764670034376,1.98877256446048,FALSE,1.14318514271398
"CAN","cpi",0.2,1964,3,1964,NA,0.5,1.39940243254013,1.62746437158478,1.88764670034376,1.38369006227607,FALSE,0.878517760942091
"CAN","cpi",0.2,1964,3,1963,NA,1,2.03097634144981,2.39175027932333,1.88764670034376,5.39044290347256,FALSE,0.719098040638648
"CAN","cpi",0.2,1964,3,1963,NA,1.5,1.2426574707421,1.60343140861563,1.88764670034376,0,FALSE,1.07131216719386
"CAN","cpi",0.2,1965,3,1965,NA,0,3.18620444579154,4.00395835299751,2.29538304394236,2.34557047418999,FALSE,3.04480741182893
"CAN","cpi",0.2,1965,3,1965,NA,0.5,1.29569187132605,2.11344577853202,2.29538304394236,1.61079447956654,FALSE,1.27259707073181
"CAN","cpi",0.2,1965,3,1964,NA,1,0.803699713800967,1.62145362100694,2.29538304394236,2.42518862179847,FALSE,2.50257746454451
"CAN","cpi",0.2,1965,3,1964,NA,1.5,1.41883670008189,2.23659060728786,2.29538304394236,0.818102552316399,FALSE,0.964734998842207
"CAN","cpi",0.2,1966,3,1966,NA,0,3.10681558271962,3.29326250291873,3.72486065470629,3.82010987863709,FALSE,1.26544229966801
"CAN","cpi",0.2,1966,3,1966,NA,0.5,2.88140376592004,3.27754655604948,3.72486065470629,3.99123398895563,FALSE,1.51442803677146
"CAN","cpi",0.2,1966,3,1965,NA,1,1.27878421075642,1.67492700088586,3.72486065470629,3.20722068745854,FALSE,5.52097692468052
"CAN","cpi",0.2,1966,3,1965,NA,1.5,1.88765210859874,2.47236942885771,3.72486065470629,1.60663824631958,FALSE,3.71594538488042
"CAN","cpi",0.2,1967,3,1967,NA,0,7.04330822358102,8.09513028242425,3.49360316391996,3.76768849328632,FALSE,9.92608470799588
"CAN","cpi",0.2,1967,3,1967,NA,0.5,2.26481696158183,3.31663902042506,3.49360316391996,2.4074547441976,FALSE,1.49423241758048
"CAN","cpi",0.2,1967,3,1966,NA,1,1.10749233164542,2.15931439048866,3.49360316391996,3.18103323070284,FALSE,4.38754399242149
"CAN","cpi",0.2,1967,3,1966,NA,1.5,2.34127985540094,3.41275735429229,3.49360316391996,4.65128160487248,FALSE,1.27359202296051
"CAN","cpi",0.2,1968,3,1968,NA,0,3.59244142624833,3.64052274456253,3.95128347779386,4.17287945672396,FALSE,0.82498315139251
"CAN","cpi",0.2,1968,3,1968,NA,0.5,3.58703970762209,3.6351210259363,3.95128347779386,4.07097205779852,FALSE,0.838487447958101
"CAN","cpi",0.2,1968,3,1967,NA,1,2.3061819637858,2.5706344628884,3.95128347779386,5.84521682123848,FALSE,3.71607503636624
"CAN","cpi",0.2,1968,3,1967,NA,1.5,2.59030213945017,3.46126531143469,3.95128347779386,2.25565858240226,FALSE,2.09600858788243
"CAN","cpi",0.2,1969,3,1969,NA,0,3.82273382958372,3.87168155694273,4.42679496126681,4.59520664360618,FALSE,1.43673123816922
"CAN","cpi",0.2,1969,3,1969,NA,0.5,3.28001282414549,3.37956692979739,4.42679496126681,2.96612019395715,FALSE,2.71762418432546
"CAN","cpi",0.2,1969,3,1968,NA,1,2.99289803965274,3.41182437343439,4.42679496126681,6.72487630040807,FALSE,2.95635280336271
"CAN","cpi",0.2,1969,3,1968,NA,1.5,3.14347054968822,3.56239688346986,4.42679496126681,4.31664452944541,FALSE,2.57992152827402
"CAN","cpi",0.2,1970,3,1970,NA,0,3.38829425808747,3.48172503644509,3.28128405769805,3.60761538249925,FALSE,0.360956279331172
"CAN","cpi",0.2,1970,3,1970,NA,0.5,3.8374814483361,3.93091222669371,3.28128405769805,4.36016077421692,FALSE,1.48392425495274
"CAN","cpi",0.2,1970,3,1969,NA,1,1.77296282690546,2.29154908603718,3.28128405769805,4.91369447805135,FALSE,2.99292368828389
"CAN","cpi",0.2,1970,3,1969,NA,1.5,3.29495925151986,3.81354551065157,3.28128405769805,2.07973847283129,FALSE,0.552774243686249
"CAN","cpi",0.2,1971,3,1971,NA,0,2.6226797962914,2.79417186172784,2.64123406634756,2.91872900980337,TRUE,0.171492065436437
"CAN","cpi",0.2,1971,3,1971,NA,0.5,1.68146800807153,1.85296007350797,2.64123406634756,1.38357105636307,FALSE,2.14217704753542
"CAN","cpi",0.2,1971,3,1970,NA,1,1.54163996827755,2.14695666794645,2.64123406634756,3.17686610979278,FALSE,1.84101019567168
"CAN","cpi",0.2,1971,3,1970,NA,1.5,3.26615702578055,3.87147372544945,2.64123406634756,4.62066312326275,FALSE,2.16762409825138
"CAN","cpi",0.2,1972,3,1972,NA,0,4.16485844014177,4.27166916098383,4.83230569625923,5.17210692165851,FALSE,1.50840205903055
"CAN","cpi",0.2,1972,3,1972,NA,0.5,3.60032272199136,3.83825330189651,4.83230569625923,4.76224255478946,FALSE,2.72306156581195
"CAN","cpi",0.2,1972,3,1971,NA,1,3.38457965261709,3.82248607053373,4.83230569625923,6.83863498061675,FALSE,2.96245548223038
"CAN","cpi",0.2,1972,3,1971,NA,1.5,3.18445218160062,3.62235859951726,4.83230569625923,1.95441162589064,FALSE,3.46277415977156
"CAN","cpi",0.2,1973,3,1973,NA,0,4.91996828023995,5.41079598067508,7.12388603531779,7.41057825703995,FALSE,4.7735528370419
"CAN","cpi",0.2,1973,3,1973,NA,0.5,4.47510905764296,4.96593675807809,7.12388603531779,6.24191401313708,FALSE,5.88570089353438
"CAN","cpi",0.2,1973,3,1972,NA,1,3.57864692611963,4.26765681510472,7.12388603531779,8.12590883681935,FALSE,7.82958293951776
"CAN","cpi",0.2,1973,3,1972,NA,1.5,3.12221546752976,3.81122535651485,7.12388603531779,4.96130694391223,FALSE,8.97066158599245
"CAN","cpi",0.2,1974,3,1974,NA,0,8.34907782806375,8.96181357676702,10.2717243737774,10.2919804098732,FALSE,3.88751274122927
"CAN","cpi",0.2,1974,3,1974,NA,0.5,8.82985723874301,10.2780820605031,10.2717243737774,9.01679902243293,TRUE,1.44822482176005
"CAN","cpi",0.2,1974,3,1973,NA,1,8.54244478129404,10.077207566155,10.2717243737774,11.5076386824751,FALSE,2.02105480391695
"CAN","cpi",0.2,1974,3,1973,NA,1.5,2.83357384665978,4.36833663152078,10.2717243737774,7.03851017911898,FALSE,16.2932321405026
"CAN","cpi",0.2,1975,3,1975,NA,0,10.0379339495503,10.1171938310044,10.0232981493341,10.3166994702432,FALSE,0.115849381994491
"CAN","cpi",0.2,1975,3,1975,NA,0.5,9.44370472262019,10.1106461865978,10.0232981493341,8.87817825771755,TRUE,0.666941463977608
"CAN","cpi",0.2,1975,3,1974,NA,1,9.76837069812097,10.4353121620986,10.0232981493341,11.6634485116586,TRUE,0.666941463977608
"CAN","cpi",0.2,1975,3,1974,NA,1.5,3.4360825742885,7.5083857892467,10.0232981493341,9.09165939347615,FALSE,10.3595841151767
"CAN","cpi",0.2,1976,3,1976,NA,0,5.65107005790841,6.14373110701209,7.22784311401172,7.25911367403926,FALSE,3.20294106660275
"CAN","cpi",0.2,1976,3,1976,NA,0.5,6.29746994351284,7.03019031238341,7.22784311401172,7.22502565269042,FALSE,1.22685237294133
"CAN","cpi",0.2,1976,3,1975,NA,1,10.639753085795,11.4820118758848,7.22784311401172,12.4780790437784,FALSE,9.37203371954802
"CAN","cpi",0.2,1976,3,1975,NA,1.5,3.57597404268524,8.28365449232963,7.22784311401172,7.18586013837568,TRUE,4.70768044964439
"CAN","cpi",0.2,1977,3,1977,NA,0,6.80300105848965,7.0038717243538,7.58101410153764,7.59139014959698,FALSE,1.64372660882377
"CAN","cpi",0.2,1977,3,1977,NA,0.5,7.07635574712729,7.27722641299144,7.58101410153764,7.25038656554249,FALSE,0.96033988722965
"CAN","cpi",0.2,1977,3,1976,NA,1,3.67420835603623,3.87507902190038,7.58101410153764,5.92994518665441,FALSE,9.46570836495732
"CAN","cpi",0.2,1977,3,1976,NA,1.5,4.30383650350545,6.0407997775407,7.58101410153764,5.68954314963938,FALSE,5.5874990840276
"CAN","cpi",0.2,1978,3,1978,NA,0,7.49273154648987,7.9109728783184,8.50208927062595,8.68881076810062,FALSE,1.89603231259739
"CAN","cpi",0.2,1978,3,1978,NA,0.5,7.73579088607753,9.06850598173878,8.50208927062595,8.11208508764938,TRUE,1.33271509566125
"CAN","cpi",0.2,1978,3,1977,NA,1,4.25206215750542,5.58477725316667,8.50208927062595,8.34671923233743,FALSE,8.62599513930945
"CAN","cpi",0.2,1978,3,1977,NA,1.5,6.752579543188,8.08529463884925,8.50208927062595,8.21410731625775,FALSE,2.37470167510299
"CAN","cpi",0.2,1979,3,1979,NA,0,8.39694153194844,8.76685596587264,8.65147652410481,8.56136533364911,TRUE,0.369914433924205
"CAN","cpi",0.2,1979,3,1979,NA,0.5,7.94235128360609,8.31226571753029,8.65147652410481,8.23092589685401,FALSE,1.2179414503605
"CAN","cpi",0.2,1979,3,1978,NA,1,4.73254240776659,6.98043098254319,8.65147652410481,9.66481845899329,FALSE,6.42550242868065
"CAN","cpi",0.2,1979,3,1978,NA,1.5,6.95964292459288,9.20753149936949,8.65147652410481,7.91014806370246,TRUE,2.2478885747766
"CAN","cpi",0.2,1980,3,1980,NA,0,8.78528683007498,9.15122309654166,9.5171912664748,9.53576705858497,FALSE,1.28085669129952
"CAN","cpi",0.2,1980,3,1980,NA,0.5,8.87174586838508,10.0762394380683,9.5171912664748,8.6434746104286,TRUE,1.20449356968318
"CAN","cpi",0.2,1980,3,1979,NA,1,6.0422703458735,7.69751292156105,9.5171912664748,7.78967249140325,FALSE,6.20443843797191
"CAN","cpi",0.2,1980,3,1979,NA,1.5,7.32924352036573,8.98448609605329,9.5171912664748,8.29781572565185,FALSE,2.98700550174132
"CAN","cpi",0.2,1981,3,1981,NA,0,10.1343493944719,10.5794893016466,11.5813425032741,11.7120328235834,FALSE,2.94977291124362
"CAN","cpi",0.2,1981,3,1981,NA,0.5,10.1866117623386,10.9296532912653,11.5813425032741,12.3296185245412,FALSE,2.37226455894881
"CAN","cpi",0.2,1981,3,1980,NA,1,8.5804914138588,9.85812901968938,11.5813425032741,11.0356264341109,FALSE,5.58567131479249
"CAN","cpi",0.2,1981,3,1980,NA,1.5,7.89609485135826,9.17373245718884,11.5813425032741,8.52474858684185,FALSE,7.29666272104382
"CAN","cpi",0.2,1982,3,1982,NA,0,10.0462705948637,10.2607736380582,10.1124203763629,10.253224031375,TRUE,0.214503043194476
"CAN","cpi",0.2,1982,3,1982,NA,0.5,9.97904175339702,10.1935447965915,10.1124203763629,10.1221315066235,TRUE,0.214503043194476
"CAN","cpi",0.2,1982,3,1981,NA,1,9.93693291045277,10.1514359536472,10.1124203763629,11.652777546881,TRUE,0.214503043194476
"CAN","cpi",0.2,1982,3,1981,NA,1.5,8.65144592859014,9.81902186241368,10.1124203763629,13.2139534836213,FALSE,1.9010722186967
"CAN","cpi",0.2,1983,3,1983,NA,0,4.43726923858242,4.64817917974709,5.67091787896303,5.84362752346853,FALSE,2.76775668920454
"CAN","cpi",0.2,1983,3,1983,NA,0.5,4.49208023300319,4.70299017416786,5.67091787896303,4.70635148143536,FALSE,2.63072920315262
"CAN","cpi",0.2,1983,3,1982,NA,1,7.09608253944007,8.07357996417373,5.67091787896303,8.61437359933683,FALSE,4.54040907592625
"CAN","cpi",0.2,1983,3,1982,NA,1.5,9.43828790813589,10.4157853328696,5.67091787896303,9.84330302935538,FALSE,10.3959224976658
"CAN","cpi",0.2,1984,3,1984,NA,0,3.82511034257521,3.87528534111102,4.19799576814029,4.21315663178917,FALSE,0.856951066108979
"CAN","cpi",0.2,1984,3,1984,NA,0.5,4.40359029447809,5.2651274325234,4.19799576814029,4.73004206452632,FALSE,1.37552345388981
"CAN","cpi",0.2,1984,3,1983,NA,1,4.44006333294329,5.3016004709886,4.19799576814029,6.30529961834119,FALSE,1.46670605005281
"CAN","cpi",0.2,1984,3,1983,NA,1.5,3.2302059073131,4.09174304535841,4.19799576814029,2.81189439817776,FALSE,1.12716894500001
"CAN","cpi",0.2,1985,3,1985,NA,0,3.51563038227241,3.632930357184,3.86444262005169,3.90546894544143,FALSE,0.696080632080821
"CAN","cpi",0.2,1985,3,1985,NA,0.5,3.54668848278691,3.70594190265753,3.86444262005169,4.0117649915267,FALSE,0.555505213356031
"CAN","cpi",0.2,1985,3,1984,NA,1,1.63740706966872,2.46908184267281,3.86444262005169,3.28942198062367,FALSE,4.32007671645129
"CAN","cpi",0.2,1985,3,1984,NA,1.5,3.47079960098277,4.30247437398686,3.86444262005169,4.67970369844593,TRUE,0.831674773004092
"CAN","cpi",0.2,1986,3,1986,NA,0,3.95693088806351,4.03755181109947,4.08685396749431,4.12727747445429,FALSE,0.203876314023071
"CAN","cpi",0.2,1986,3,1986,NA,0.5,4.0180810311654,4.17706533412134,4.08685396749431,4.57514120825518,TRUE,0.158984302955943
"CAN","cpi",0.2,1986,3,1985,NA,1,2.04439580747261,2.67695345605772,4.08685396749431,3.84501750700332,FALSE,4.15730892717658
"CAN","cpi",0.2,1986,3,1985,NA,1.5,3.47498680426816,4.10754445285327,4.08685396749431,4.51624000588938,TRUE,0.632557648585112
"CAN","cpi",0.2,1987,3,1987,NA,0,4.06258341814933,4.16175198618585,4.23980729277887,4.3376164199738,FALSE,0.294306834519072
"CAN","cpi",0.2,1987,3,1987,NA,0.5,3.34638901771449,3.63233479515836,4.23980729277887,3.8898385702312,FALSE,1.80462702149515
"CAN","cpi",0.2,1987,3,1986,NA,1,2.53909771663449,3.30591631005188,4.23980729277887,4.56284936423577,FALSE,3.10154605023487
"CAN","cpi",0.2,1987,3,1986,NA,1.5,6.04997489041697,6.81679348383436,4.23980729277887,5.15474659430673,FALSE,5.29223758751264
"CAN","cpi",0.2,1988,3,1988,NA,0,3.82249677292725,3.87595406987519,3.92899537638065,4.00028299604827,FALSE,0.186060563211601
"CAN","cpi",0.2,1988,3,1988,NA,0.5,3.58608858653395,3.86443984537447,3.92899537638065,3.53181278911538,FALSE,0.439740086355981
"CAN","cpi",0.2,1988,3,1987,NA,1,2.68764486950767,3.29539382321926,3.92899537638065,4.34173286045961,FALSE,2.19175283661508
"CAN","cpi",0.2,1988,3,1987,NA,1.5,3.62372868529332,4.23147763900491,3.92899537638065,3.76612293581706,TRUE,0.607748953711596
"CAN","cpi",0.2,1989,3,1989,NA,0,4.49790741562192,4.59839774729968,4.82821664544208,5.00606812502784,FALSE,0.675037577033744
"CAN","cpi",0.2,1989,3,1989,NA,0.5,4.02721352569161,4.12770385736937,4.82821664544208,4.51521437972404,FALSE,1.85177230185953
"CAN","cpi",0.2,1989,3,1988,NA,1,2.85980687208695,3.57414620110352,4.82821664544208,4.3270389784901,FALSE,3.84951543986297
"CAN","cpi",0.2,1989,3,1988,NA,1.5,3.57316826614918,4.28750759516575,4.82821664544208,3.42699250808196,FALSE,2.0661119547074
"CAN","cpi",0.2,1990,3,1990,NA,0,4.33473283507551,4.49982834594184,4.64347549432717,4.52171223749059,FALSE,0.524213381829661
"CAN","cpi",0.2,1990,3,1990,NA,0.5,4.80917728570129,5.17487387378812,4.64347549432717,5.22335253259958,FALSE,0.779951066522129
"CAN","cpi",0.2,1990,3,1989,NA,1,3.75759153556233,4.12328812364916,4.64347549432717,5.7236432392913,FALSE,1.66616501478186
"CAN","cpi",0.2,1990,3,1989,NA,1.5,4.22185402380686,5.83188001391948,4.64347549432717,4.92041342133377,TRUE,1.61002599011262
"CAN","cpi",0.2,1991,3,1991,NA,0,4.93596146648072,5.14023913043443,5.4258100696218,5.6161816682171,FALSE,0.918205011922129
"CAN","cpi",0.2,1991,3,1991,NA,0.5,9.7320503025185,9.9363279664722,5.4258100696218,8.8240510060175,FALSE,10.9698782461955
"CAN","cpi",0.2,1991,3,1990,NA,1,3.03069175870938,3.72528038574666,5.4258100696218,3.89170713423419,FALSE,4.94591283672512
"CAN","cpi",0.2,1991,3,1990,NA,1.5,7.23565896882182,7.9302475958591,5.4258100696218,5.70462042447442,FALSE,5.21921087503735
"CAN","cpi",0.2,1992,3,1992,NA,0,1.24503493451798,1.29217419102761,1.47496888572843,1.47544467241393,FALSE,0.504125993261679
"CAN","cpi",0.2,1992,3,1992,NA,0.5,1.8147179685354,2.09136437471668,1.47496888572843,1.36069384263819,FALSE,1.1260191131987
"CAN","cpi",0.2,1992,3,1991,NA,1,1.74614870360084,2.18547760407214,1.47496888572843,2.43500720778875,FALSE,1.11727844515232
"CAN","cpi",0.2,1992,3,1991,NA,1.5,8.22575847344265,9.96941772738244,1.47496888572843,11.2072976243743,FALSE,18.6206332232253
"CAN","cpi",0.2,1993,3,1993,NA,0,1.5426917679772,1.65776066361358,1.84351085411351,1.81496037239602,FALSE,0.579444371886204
"CAN","cpi",0.2,1993,3,1993,NA,0.5,3.41030942038433,3.57497370783581,1.84351085411351,2.43338635087472,FALSE,4.08166070312853
"CAN","cpi",0.2,1993,3,1992,NA,1,1.0985422590075,1.26320654645898,1.84351085411351,1.76228766319361,FALSE,1.61542505658781
"CAN","cpi",0.2,1993,3,1992,NA,1.5,3.49292956646668,3.75146832887163,1.84351085411351,1.598750613598,FALSE,4.38208554328787
"CAN","cpi",0.2,1994,3,1994,NA,0,-0.457484339778318,-0.19527172961854,0.161630694655448,0.220147227157928,FALSE,1.15446867084475
"CAN","cpi",0.2,1994,3,1994,NA,0.5,0.0142778662338849,0.276490476393662,0.161630694655448,-0.741542526043691,TRUE,0.262212610159777
"CAN","cpi",0.2,1994,3,1993,NA,1,1.06416674418304,1.32637935434282,0.161630694655448,1.50794631797803,FALSE,2.51855273397876
"CAN","cpi",0.2,1994,3,1993,NA,1.5,3.85034990307937,4.11256251323914,0.161630694655448,2.81797717341095,FALSE,9.48401063121958
"CAN","cpi",0.2,1995,3,1995,NA,0,2.1236958299627,2.28827991620257,2.11688403676572,2.15484685959489,FALSE,0.181613569232336
"CAN","cpi",0.2,1995,3,1995,NA,0.5,3.27954117851136,3.44412526475123,2.11688403676572,2.90883921660758,FALSE,3.07122694060398
"CAN","cpi",0.2,1995,3,1994,NA,1,1.60678003021376,1.81018113750855,2.11688403676572,1.95173420121315,FALSE,0.970158355437701
"CAN","cpi",0.2,1995,3,1994,NA,1.5,0.582016834510908,1.14271264143248,2.11688403676572,-2.17983456081826,FALSE,2.99612429525465
"CAN","cpi",0.2,1996,3,1996,NA,0,1.28822755395552,1.37436635080501,1.55309584667184,1.44166889374788,FALSE,0.532962536516571
"CAN","cpi",0.2,1996,3,1996,NA,0.5,1.31052385833496,1.46144822651045,1.55309584667184,1.36236766996786,FALSE,0.380043418578974
"CAN","cpi",0.2,1996,3,1995,NA,1,0.768947312604692,1.04999466230432,1.55309584667184,0.911474268150699,FALSE,1.53880031061844
"CAN","cpi",0.2,1996,3,1995,NA,1.5,3.79445893690255,4.07550628660217,1.55309584667184,3.98784768949811,FALSE,5.88445507527639
"CAN","cpi",0.2,1997,3,1997,NA,0,1.50675047986384,1.5748571718626,1.60528783555959,1.68811714545079,FALSE,0.144183351241235
"CAN","cpi",0.2,1997,3,1997,NA,0.5,2.22571350213449,2.41511782194807,1.60528783555959,2.10620867662285,FALSE,1.74046848625082
"CAN","cpi",0.2,1997,3,1996,NA,1,1.022037613917,1.21144193373058,1.60528783555959,0.758460286059383,FALSE,1.17401907438612
"CAN","cpi",0.2,1997,3,1996,NA,1.5,1.97111245760734,3.15633584503126,1.60528783555959,1.66287852692671,FALSE,2.09978494254329
"CAN","cpi",0.2,1998,3,1998,NA,0,0.761361953176358,0.929916718350923,0.988908029337191,0.970744023070627,FALSE,0.316033042640234
"CAN","cpi",0.2,1998,3,1998,NA,0.5,1.89720116835482,2.06575593352938,0.988908029337191,1.52096865004292,FALSE,2.43928761271863
"CAN","cpi",0.2,1998,3,1997,NA,1,1.19384872385839,1.36330836964899,0.988908029337191,1.03996058978499,FALSE,0.681811382093594
"CAN","cpi",0.2,1998,3,1997,NA,1.5,3.46335964869785,3.93969083440292,0.988908029337191,2.22059574107629,FALSE,6.66246023410671
"CAN","cpi",0.2,1999,3,1999,NA,0,1.60606868475688,1.61181269766768,1.7107350135213,1.79141464940687,FALSE,0.253049802544839
"CAN","cpi",0.2,1999,3,1999,NA,0.5,1.27245531559952,1.36971981392689,1.7107350135213,0.800552372711202,FALSE,0.949802497313389
"CAN","cpi",0.2,1999,3,1998,NA,1,0.973934562676736,1.0711990610041,1.7107350135213,0.474525424909611,FALSE,1.69610437962035
"CAN","cpi",0.2,1999,3,1998,NA,1.5,2.76998405461103,3.41322173201975,1.7107350135213,2.19776497346126,FALSE,3.29136028013307
"CAN","cpi",0.2,2000,3,2000,NA,0,2.58145507453903,2.60510971254401,2.6718361971244,2.73388860624727,FALSE,0.190470849455947
"CAN","cpi",0.2,2000,3,2000,NA,0.5,1.84880713264825,2.18590220298212,2.6718361971244,2.11525832235237,FALSE,1.55193005568957
"CAN","cpi",0.2,2000,3,1999,NA,1,1.9692858984356,2.36688317088022,2.6718361971244,2.81438082878813,FALSE,1.15997983805507
"CAN","cpi",0.2,2000,3,1999,NA,1.5,1.73749760134771,2.16345023258636,2.6718361971244,0.872413614651861,FALSE,1.69691754258376
"CAN","cpi",0.2,2001,3,2001,NA,0,2.57197283921386,2.79602556049177,2.47906219852806,2.73506715681632,FALSE,0.456329322992401
"CAN","cpi",0.2,2001,3,2001,NA,0.5,1.84056415584609,2.18854366335393,2.47906219852806,1.72363549629744,FALSE,1.07427584544317
"CAN","cpi",0.2,2001,3,2000,NA,1,3.05349361601696,3.86470601310076,2.47906219852806,3.73995761394105,FALSE,2.24729094080604
"CAN","cpi",0.2,2001,3,2000,NA,1.5,1.79016582584384,3.16488074834108,2.47906219852806,1.98299961497232,TRUE,1.37471492249724
"CAN","cpi",0.2,2002,3,2002,NA,0,2.31262513293719,2.52587235886582,2.20880570551249,2.3500140093739,FALSE,0.472795794490389
"CAN","cpi",0.2,2002,3,2002,NA,0.5,1.72384488282246,1.9997590646542,2.20880570551249,1.47074452365548,FALSE,0.798530783977456
"CAN","cpi",0.2,2002,3,2001,NA,1,1.1233792981129,1.39929347994464,2.20880570551249,0.79597273109289,FALSE,2.29969474575135
"CAN","cpi",0.2,2002,3,2001,NA,1.5,1.84296089873467,2.12743719159696,2.20880570551249,0.827019109774735,FALSE,0.487897577651111
"CAN","cpi",0.2,2003,3,2003,NA,0,2.55079549955375,2.62807636608861,2.71189071546809,2.76866538316948,FALSE,0.286816739983554
"CAN","cpi",0.2,2003,3,2003,NA,0.5,4.05056882958599,4.52320781137707,2.71189071546809,4.59645517963757,FALSE,3.81933426708584
"CAN","cpi",0.2,2003,3,2002,NA,1,3.19133538709197,3.87028604348874,2.71189071546809,4.33746529644743,FALSE,1.87756233545646
"CAN","cpi",0.2,2003,3,2002,NA,1.5,3.49401885040325,4.17296950680002,2.71189071546809,2.71468890277684,FALSE,2.63427099373467
"CAN","cpi",0.2,2004,3,2004,NA,0,1.60630574460904,1.67119243444238,1.83151661303942,1.7684769390021,FALSE,0.46569713632594
"CAN","cpi",0.2,2004,3,2004,NA,0.5,1.8729580384841,2.19824425693189,1.83151661303942,1.5625176897836,FALSE,0.428889782059482
"CAN","cpi",0.2,2004,3,2003,NA,1,1.21780774978489,1.54309396823267,1.83151661303942,1.41754396673829,FALSE,1.04634283046466
"CAN","cpi",0.2,2004,3,2003,NA,1.5,4.78659159828928,6.01245787900121,1.83151661303942,5.32651436309904,FALSE,8.61355374383658
"CAN","cpi",0.2,2005,3,2005,NA,0,2.30807988175681,2.47184098264958,2.18071628336509,2.38196957660787,FALSE,0.482170096872062
"CAN","cpi",0.2,2005,3,2005,NA,0.5,1.84624439048137,2.01000549137413,2.18071628336509,1.57253942332725,FALSE,0.590538080870162
"CAN","cpi",0.2,2005,3,2004,NA,1,1.27404374460524,1.57398063368471,2.18071628336509,0.993232956459974,FALSE,1.81677601328043
"CAN","cpi",0.2,2005,3,2004,NA,1.5,2.2036083498172,2.68517780762396,2.18071628336509,2.05989686108521,FALSE,0.538799623937037
"CAN","cpi",0.2,2006,3,2006,NA,0,1.82146469702588,1.98994741023763,1.97519342012289,2.0667253719809,TRUE,0.168482713211753
"CAN","cpi",0.2,2006,3,2006,NA,0.5,2.22363788915659,2.39212060236834,1.97519342012289,1.93779395271753,FALSE,0.789593885796015
"CAN","cpi",0.2,2006,3,2005,NA,1,2.76988898343245,3.32419208808898,1.97519342012289,3.47726378201784,FALSE,2.54104201293045
"CAN","cpi",0.2,2006,3,2005,NA,1.5,1.94748437053432,2.50178747519085,1.97519342012289,1.38669164389589,TRUE,0.55430310465653
"CAN","cpi",0.2,2007,3,2007,NA,0,1.88465352835691,2.06709091267335,2.10062087284572,2.10807340507977,FALSE,0.26626228474738
"CAN","cpi",0.2,2007,3,2007,NA,0.5,2.49277382300181,2.8928723418151,2.10062087284572,2.41912196921498,FALSE,1.3804808942035
"CAN","cpi",0.2,2007,3,2006,NA,1,1.32585197387731,1.7259504926906,2.10062087284572,0.502333085291807,FALSE,1.3367744692011
"CAN","cpi",0.2,2007,3,2006,NA,1.5,2.02487151808171,2.424970036895,2.10062087284572,1.9704266811846,TRUE,0.400098518813287
"CAN","cpi",0.2,2008,3,2008,NA,0,2.58220319359339,2.68421977175306,2.31447335265955,2.95401501251803,FALSE,0.771341180494269
"CAN","cpi",0.2,2008,3,2008,NA,0.5,1.41914034625407,1.60528782459944,2.31447335265955,1.1596607753752,FALSE,1.95911129849564
"CAN","cpi",0.2,2008,3,2007,NA,1,1.05377837370547,1.5491809352419,2.31447335265955,0.365030180386173,FALSE,2.40863360508057
"CAN","cpi",0.2,2008,3,2007,NA,1.5,3.46260563590907,3.9580081974455,2.31447335265955,3.74970428078329,FALSE,3.36573326966022
"CAN","cpi",0.2,2009,3,2009,NA,0,0.0150769336060863,0.165399144726621,0.284533874408197,0.277323060325678,FALSE,0.448159035324476
"CAN","cpi",0.2,2009,3,2009,NA,0.5,-0.246730772847395,0.282399065761819,0.284533874408197,-0.926841850998946,FALSE,0.53446686022516
"CAN","cpi",0.2,2009,3,2008,NA,1,2.90055951194907,3.72620277462713,0.284533874408197,4.39167027484448,FALSE,7.36570735653024
"CAN","cpi",0.2,2009,3,2008,NA,1.5,1.70274180525868,2.52838506793674,0.284533874408197,1.30718110670587,FALSE,4.37116308980427
"CAN","cpi",0.2,2010,3,2010,NA,0,1.60651766866116,1.69889989279883,1.75525687020327,1.74893097969613,FALSE,0.233274667648769
"CAN","cpi",0.2,2010,3,2010,NA,0.5,2.09353591257893,2.22849438934823,1.75525687020327,1.60514557059791,FALSE,0.980656082708443
"CAN","cpi",0.2,2010,3,2009,NA,1,1.50869901767702,1.7320850734454,1.75525687020327,0.646877121410091,FALSE,0.281315547663064
"CAN","cpi",0.2,2010,3,2009,NA,1.5,1.32753074653776,1.83157892064469,1.75525687020327,-1.29107136836179,TRUE,0.504048174106939
"CAN","cpi",0.2,2011,3,2011,NA,0,2.57702539780045,2.64123073461597,2.85717434028225,2.83658425111878,FALSE,0.604064350981212
"CAN","cpi",0.2,2011,3,2011,NA,0.5,2.30020352086366,2.71154241320054,2.85717434028225,2.89516877702572,FALSE,0.775418710041153
"CAN","cpi",0.2,2011,3,2010,NA,1,1.93643756706617,2.34777645940305,2.85717434028225,2.19120159589417,FALSE,1.68483359453487
"CAN","cpi",0.2,2011,3,2010,NA,1.5,1.91872727028983,2.3790734899184,2.85717434028225,1.9636150267392,FALSE,1.65559834553818
"CAN","cpi",0.2,2012,3,2012,NA,0,1.3686623439707,1.44839092875145,1.50118536134935,1.46012306845465,FALSE,0.211714666275489
"CAN","cpi",0.2,2012,3,2012,NA,0.5,2.04585884775851,2.16733457792914,1.50118536134935,1.81318735388827,FALSE,1.48315944619354
"CAN","cpi",0.2,2012,3,2011,NA,1,1.56318745202613,1.75524393416586,1.50118536134935,1.0674603716489,FALSE,0.347061708831692
"CAN","cpi",0.2,2012,3,2011,NA,1.5,2.70011671701538,3.91036126415861,1.50118536134935,3.26492178435033,FALSE,4.20757293630832
"CAN","cpi",0.2,2013,3,2013,NA,0,1.04149864457503,1.13613289375307,0.931270594714462,1.03964630394149,FALSE,0.370204373829468
"CAN","cpi",0.2,2013,3,2013,NA,0.5,1.49210702693021,1.64768094545603,0.931270594714462,1.16522799725517,FALSE,1.55766499906519
"CAN","cpi",0.2,2013,3,2012,NA,1,-0.373708910266771,0.696299458024607,0.931270594714462,-0.4587869493051,FALSE,1.65743621001601
"CAN","cpi",0.2,2013,3,2012,NA,1.5,1.67938593537053,2.74939430366191,0.931270594714462,1.87018597092114,FALSE,2.94029671993155
"CAN","cpi",0.2,2014,3,2014,NA,0,1.7201261223398,1.77691363518746,1.87639912240215,1.98941686448128,FALSE,0.305501230884385
"CAN","cpi",0.2,2014,3,2014,NA,0.5,2.37310135006696,2.62128931093835,1.87639912240215,2.28534818047506,FALSE,1.48994353003342
"CAN","cpi",0.2,2014,3,2013,NA,1,1.50612817943505,1.75431614030644,1.87639912240215,0.933988257976399,FALSE,0.553395416110672
"CAN","cpi",0.2,2014,3,2013,NA,1.5,1.80791787805961,2.19065216518926,1.87639912240215,1.74432822228681,TRUE,0.382734287129651
"CAN","cpi",0.2,2015,3,2015,NA,0,1.08034667110937,1.15500431642808,1.11090953952792,1.2616807067513,TRUE,0.0746576453187102
"CAN","cpi",0.2,2015,3,2015,NA,0.5,1.05436872233612,1.19382601929837,1.11090953952792,0.218363095132572,TRUE,0.139457296962251
"CAN","cpi",0.2,2015,3,2014,NA,1,1.55315601924614,1.74298164664719,1.11090953952792,0.62327975322943,FALSE,1.29544182669661
"CAN","cpi",0.2,2015,3,2014,NA,1.5,2.27900679071978,3.89026457248754,1.11090953952792,3.54844533129153,FALSE,4.53150090974742
"CAN","cpi",0.2,2016,3,2016,NA,0,1.42180595477058,1.4854551102798,1.41168586698797,1.44403049252289,FALSE,0.0889493749657591
"CAN","cpi",0.2,2016,3,2016,NA,0.5,1.34480898636563,1.60286969642674,1.41168586698797,0.943700860843074,TRUE,0.258060710061108
"CAN","cpi",0.2,2016,3,2015,NA,1,1.51783650920324,1.77589721926434,1.41168586698797,1.65805837950254,FALSE,0.523437315599283
"CAN","cpi",0.2,2016,3,2015,NA,1.5,1.60569032961427,1.88347281314029,1.41168586698797,0.212753204814446,FALSE,0.762793640091778
"CAN","cpi",0.2,2017,3,2017,NA,0,1.42750679514924,1.47496826941853,1.57888581671161,1.52172534057668,FALSE,0.307255342501991
"CAN","cpi",0.2,2017,3,2017,NA,0.5,2.17231890161502,2.54652837179013,1.57888581671161,2.17995751143343,FALSE,1.85779218243364
"CAN","cpi",0.2,2017,3,2016,NA,1,1.41920679027275,1.79341626044786,1.57888581671161,0.478660156386378,TRUE,0.374209470175106
"CAN","cpi",0.2,2017,3,2016,NA,1.5,1.78893931675397,2.16314878692907,1.57888581671161,1.04780579189651,FALSE,0.899343220280994
"CAN","cpi",0.2,2018,3,2018,NA,0,2.30612972393082,2.48285124104848,2.23316270166586,2.42606863838048,FALSE,0.359139072780061
"CAN","cpi",0.2,2018,3,2018,NA,0.5,3.72483058871018,3.90317287479823,2.23316270166586,3.02101124054505,FALSE,3.90751200369886
"CAN","cpi",0.2,2018,3,2017,NA,1,1.5138647665364,1.70799880389591,2.23316270166586,0.52369802733857,FALSE,1.50704378178438
"CAN","cpi",0.2,2018,3,2017,NA,1.5,2.11692330187536,2.68122730810788,2.23316270166586,3.08408184322128,TRUE,0.564304006232522
"CAN","cpi",0.2,2019,3,2019,NA,0,1.88103677696185,1.90439988850939,1.91921619871868,2.02292335146186,FALSE,0.0604038870707773
"CAN","cpi",0.2,2019,3,2019,NA,0.5,1.89410115977751,2.08804749093468,1.91921619871868,1.7605507439285,TRUE,0.193946331157167
"CAN","cpi",0.2,2019,3,2018,NA,1,2.00979797570296,2.20374430686013,1.91921619871868,1.97136692329685,FALSE,0.420400773617867
"CAN","cpi",0.2,2019,3,2018,NA,1.5,2.62404774706458,3.88273731825507,1.91921619871868,4.13001487917394,FALSE,3.02076844205523
"CAN","cpi",0.2,2020,3,2020,NA,0,0.368096598238089,0.460208198135237,0.71139989671781,0.748237853268385,FALSE,0.720090846353582
"CAN","cpi",0.2,2020,3,2020,NA,0.5,1.39591352601828,1.53038693275591,0.71139989671781,1.20638084891419,FALSE,1.8457574799888
"CAN","cpi",0.2,2020,3,2019,NA,1,1.52852776595048,1.73833285965018,0.71139989671781,1.33625965438418,FALSE,2.25262476678137
"CAN","cpi",0.2,2020,3,2019,NA,1.5,2.11611664311792,2.52254425139802,0.71139989671781,2.47827605395127,FALSE,3.91821947428038
"CAN","cpi",0.2,2021,3,2021,NA,0,3.06001270357611,3.26750804894551,3.31148121717802,3.36073739108717,FALSE,0.317428265950685
"CAN","cpi",0.2,2021,3,2021,NA,0.5,2.26084638692721,2.60922259820156,3.31148121717802,2.87786599282032,FALSE,2.10402275871551
"CAN","cpi",0.2,2021,3,2020,NA,1,1.58888876988344,1.9372649811578,3.31148121717802,1.80567605729774,FALSE,3.78391680132492
"CAN","cpi",0.2,2021,3,2020,NA,1.5,1.79325024568191,2.14162645695626,3.31148121717802,1.36315122932478,FALSE,3.27301311182875
"CAN","cpi",0.2,2022,3,2022,NA,0,5.60395530222853,6.28320451843223,6.50977236228281,6.58141742776733,FALSE,1.24566882583016
"CAN","cpi",0.2,2022,3,2022,NA,0.5,6.49458977072393,7.17383898692763,6.50977236228281,6.74293883776587,TRUE,0.679249216203704
"CAN","cpi",0.2,2022,3,2021,NA,1,2.91330972544012,3.59255894164383,6.50977236228281,4.82564214996571,FALSE,7.97228276780117
"CAN","cpi",0.2,2022,3,2021,NA,1.5,1.86292104023706,2.54217025644076,6.50977236228281,3.93575064315212,FALSE,10.5982544808088
"CAN","cpi",0.2,2023,3,2023,NA,0,3.89358661773733,3.90817638412183,3.78831288758619,4.01453285616146,FALSE,0.277774091762356
"CAN","cpi",0.2,2023,3,2023,NA,0.5,3.35716925264294,3.87735168040895,3.78831288758619,3.07888421739245,TRUE,0.520182427766004
"CAN","cpi",0.2,2023,3,2022,NA,1,2.75581689008486,3.79919801807245,3.78831288758619,3.85673280569707,TRUE,1.04338112798759
"CAN","cpi",0.2,2023,3,2022,NA,1.5,7.448629586726,8.5618143357607,3.78831288758619,8.07292283446253,FALSE,10.2639764968842
"CAN","cpi",0.2,2024,3,2023,NA,1,2.79408723061325,3.66920007325888,NA,4.07504753996503,NA,NA
"CAN","cpi",0.2,2024,3,2023,NA,1.5,1.89480366593221,2.76991650857783,NA,2.41529048319689,NA,NA
"CAN","cpi",0.3,1950,3,1950,NA,0,3.41276022321824,3.41276022321824,2.59031220731124,2.34506766740468,FALSE,2.34985147402
"CAN","cpi",0.3,1950,3,1950,NA,0.5,3.41276022321824,3.41276022321824,2.59031220731124,-0.480727815155867,FALSE,2.34985147402
"CAN","cpi",0.3,1950,3,1949,NA,1,3.41276022321824,3.41276022321824,2.59031220731124,2.05479851121881,FALSE,2.34985147402
"CAN","cpi",0.3,1950,3,1949,NA,1.5,3.41276022321824,6.33761365189904,2.59031220731124,0,FALSE,5.2747049027008
"CAN","cpi",0.3,1951,3,1951,NA,0,4.63260542822306,6.78380272043027,9.87945438999359,9.94785600170898,FALSE,10.9959163481024
"CAN","cpi",0.3,1951,3,1951,NA,0.5,4.03914730780058,6.19034460000779,9.87945438999359,9.56401243485552,FALSE,12.6915109778809
"CAN","cpi",0.3,1951,3,1950,NA,1,1.70098325526325,3.85218054747046,9.87945438999359,7.18504019917801,FALSE,19.3719796994162
"CAN","cpi",0.3,1951,3,1950,NA,1.5,1.51471356120764,3.66591085341484,9.87945438999359,-2.18579641022426,FALSE,19.9041788252893
"CAN","cpi",0.3,1952,3,1952,NA,0,2.59031220731124,2.59031220731124,2.55562336095485,2.49651395855886,FALSE,0.0991109895896918
"CAN","cpi",0.3,1952,3,1952,NA,0.5,2.92762848589375,3.2168380561797,2.55562336095485,3.9078404779387,FALSE,1.35208135582567
"CAN","cpi",0.3,1952,3,1951,NA,1,4.05206963967863,4.46656859478322,2.55562336095485,8.88778808098424,FALSE,4.69005975145825
"CAN","cpi",0.3,1952,3,1951,NA,1.5,6.80656741529971,7.2210663704043,2.55562336095485,10.076419411745,FALSE,12.5600533960899
"CAN","cpi",0.3,1953,3,1953,NA,0,2.55562336095485,2.56603574727165,-1.01492775838436,-0.954275034924989,FALSE,10.2119870130003
"CAN","cpi",0.3,1953,3,1953,NA,0.5,2.55650009357721,2.57210564880506,-1.01492775838436,-2.19876634474816,FALSE,10.2196851322609
"CAN","cpi",0.3,1953,3,1952,NA,1,2.57728685238981,2.96288994664161,-1.01492775838436,-1.18145267469342,FALSE,10.6490734107494
"CAN","cpi",0.3,1953,3,1952,NA,1.5,2.56949918725562,5.28063220448779,-1.01492775838436,0.93216905581622,FALSE,12.9523528619178
"CAN","cpi",0.3,1954,3,1954,NA,0,-0.139138966374203,0.754351628584342,0.644425455961438,0.879731201855888,TRUE,0.893490594958545
"CAN","cpi",0.3,1954,3,1954,NA,0.5,2.11779623542923,3.01128683038777,0.644425455961438,-0.358875738913824,FALSE,5.10312139343794
"CAN","cpi",0.3,1954,3,1953,NA,1,2.11964664034732,3.01313723530587,0.644425455961438,3.38326531029323,FALSE,5.10840826463251
"CAN","cpi",0.3,1954,3,1953,NA,1.5,-0.114772056303467,3.35918916803499,0.644425455961438,-2.85717744192413,TRUE,3.47396122433846
"CAN","cpi",0.3,1955,3,1955,NA,0,-1.01492775838436,-0.351859680953292,0.173649026558865,0.115254687233858,FALSE,2.1645215274658
"CAN","cpi",0.3,1955,3,1955,NA,0.5,0.0588402337459077,2.33959127435346,0.173649026558865,-0.770970046821609,TRUE,2.28075104060755
"CAN","cpi",0.3,1955,3,1954,NA,1,0.229310306413369,2.51006134702092,0.173649026558865,3.47019599757395,FALSE,2.43978326876328
"CAN","cpi",0.3,1955,3,1954,NA,1.5,0.714792070876916,2.99554311148447,0.173649026558865,-1.89562740163941,FALSE,3.82687402437341
"CAN","cpi",0.3,1956,3,1956,NA,0,0.644851670550443,1.42503135040249,1.32752769429961,1.56059797998755,TRUE,0.780179679852042
"CAN","cpi",0.3,1956,3,1956,NA,0.5,-0.650138235268915,0.130041444583126,1.32752769429961,-0.709146002056511,FALSE,4.20156896475627
"CAN","cpi",0.3,1956,3,1955,NA,1,-1.01492775838436,0.34105889185743,1.32752769429961,0.884549626974225,FALSE,4.17446894293373
"CAN","cpi",0.3,1956,3,1955,NA,1.5,-0.123436095852117,1.81172443444203,1.32752769429961,-1.89150615642833,TRUE,1.93516053029415
"CAN","cpi",0.3,1957,3,1957,NA,0,2.85871204282784,3.11864108663778,3.24684755852518,3.4151370317006,FALSE,0.626233249202499
"CAN","cpi",0.3,1957,3,1957,NA,0.5,2.23964166649756,3.63102319941584,3.24684755852518,2.23982631608766,TRUE,1.39138153291828
"CAN","cpi",0.3,1957,3,1956,NA,1,1.99284200908945,3.38422354200773,3.24684755852518,6.98754636690555,TRUE,1.39138153291828
"CAN","cpi",0.3,1957,3,1956,NA,1.5,0.740388466248022,2.46276529773618,3.24684755852518,-1.88668623310337,FALSE,3.96261186231387
"CAN","cpi",0.3,1958,3,1958,NA,0,1.89557169079327,2.70348082686293,2.33186388641149,2.22387249143335,TRUE,0.807909136069668
"CAN","cpi",0.3,1958,3,1958,NA,0.5,3.91537883535997,6.47862591768574,2.33186388641149,2.22839060734872,FALSE,7.08757550789286
"CAN","cpi",0.3,1958,3,1957,NA,1,0.30446597112635,2.86771305345212,2.33186388641149,4.42088197051908,TRUE,2.56324708232577
"CAN","cpi",0.3,1958,3,1957,NA,1.5,0.829713249081485,3.39296033140725,2.33186388641149,0.91301479707402,TRUE,2.56324708232577
"CAN","cpi",0.3,1959,3,1959,NA,0,0.534666778058675,0.888153029349651,1.19382698397654,1.24991216431293,FALSE,1.2268404073678
"CAN","cpi",0.3,1959,3,1959,NA,0.5,1.47043753756446,2.36428812571088,1.19382698397654,0.437839731590327,FALSE,1.68416645554047
"CAN","cpi",0.3,1959,3,1958,NA,1,0.260359677814169,1.15421026596059,1.19382698397654,1.75862762885946,FALSE,1.00704121104913
"CAN","cpi",0.3,1959,3,1958,NA,1.5,2.46257536288761,3.35642595103404,1.19382698397654,1.77407172713766,FALSE,4.51884595646377
"CAN","cpi",0.3,1960,3,1960,NA,0,0.443128879269312,0.699345118915661,1.34209404870695,1.02361304259477,FALSE,2.09264175333575
"CAN","cpi",0.3,1960,3,1960,NA,0.5,1.0519674503183,1.50175245223396,1.34209404870695,0.53898348018166,TRUE,0.449785001915653
"CAN","cpi",0.3,1960,3,1959,NA,1,1.38687249186509,2.09561592427104,1.34209404870695,3.95759373689442,FALSE,0.836681841429215
"CAN","cpi",0.3,1960,3,1959,NA,1.5,1.42797295882972,2.57470210104591,1.34209404870695,-0.873476815404885,FALSE,1.39209745685267
"CAN","cpi",0.3,1961,3,1961,NA,0,0.949544553345519,1.28303468914488,1.00921348094007,1.00921348094007,TRUE,0.333490135799359
"CAN","cpi",0.3,1961,3,1961,NA,0.5,1.09550583432942,1.8521359327667,1.00921348094007,1.00921348094007,FALSE,1.0031796795497
"CAN","cpi",0.3,1961,3,1960,NA,1,-0.897722738364652,0.567324634193938,1.00921348094007,0.0537704626035329,FALSE,2.7275869346904
"CAN","cpi",0.3,1961,3,1960,NA,1.5,1.21471954806701,2.6797669206256,1.00921348094007,-0.862181798940035,FALSE,2.05220756434985
"CAN","cpi",0.3,1962,3,1962,NA,0,1.13842030946954,1.31420347114881,1.04957947883042,1.10232402731478,FALSE,0.429614106362475
"CAN","cpi",0.3,1962,3,1962,NA,0.5,1.04909612294352,1.29281767609076,1.04957947883042,0,TRUE,0.243721553147241
"CAN","cpi",0.3,1962,3,1961,NA,1,0.58660442286843,0.83032597601567,1.04957947883042,0,FALSE,0.87016013261794
"CAN","cpi",0.3,1962,3,1961,NA,1.5,1.24745518134244,2.26999705209143,1.04957947883042,0,FALSE,1.58790102078335
"CAN","cpi",0.3,1963,3,1963,NA,0,2.22868060476814,3.38623032492411,1.60677118395228,1.91491729531202,FALSE,2.93443377962984
"CAN","cpi",0.3,1963,3,1963,NA,0.5,0.590185795297775,1.74773551545375,1.60677118395228,0.836828714617504,TRUE,1.15754972015597
"CAN","cpi",0.3,1963,3,1962,NA,1,0.493084610059901,1.65063433021587,1.60677118395228,2.56411490415144,TRUE,1.15754972015597
"CAN","cpi",0.3,1963,3,1962,NA,1.5,0.98416520463958,2.14171492479555,1.60677118395228,0,TRUE,1.15754972015597
"CAN","cpi",0.3,1964,3,1964,NA,0,1.38372387988442,1.54656863297321,1.88764670034376,1.98877256446048,FALSE,1.13735351700464
"CAN","cpi",0.3,1964,3,1964,NA,0.5,1.34592059248703,1.79622460094353,1.88764670034376,1.38369006227607,FALSE,0.711510006742869
"CAN","cpi",0.3,1964,3,1963,NA,1,1.863022516043,2.47786082712646,1.88764670034376,5.39044290347256,TRUE,0.614838311083458
"CAN","cpi",0.3,1964,3,1963,NA,1.5,1.04953699225031,1.66437530333377,1.88764670034376,0,FALSE,1.25275658825487
"CAN","cpi",0.3,1965,3,1965,NA,0,3.4892028960147,4.74071291327764,2.29538304394236,2.34557047418999,FALSE,4.66242388032678
"CAN","cpi",0.3,1965,3,1965,NA,0.5,1.08583880078785,2.33734881805079,2.29538304394236,1.61079447956654,TRUE,1.25151001726293
"CAN","cpi",0.3,1965,3,1964,NA,1,0.627323393798169,1.8788334110611,2.29538304394236,2.42518862179847,FALSE,2.44165182549509
"CAN","cpi",0.3,1965,3,1964,NA,1.5,1.19084647994492,2.44235649720786,2.29538304394236,0.818102552316399,TRUE,1.25151001726294
"CAN","cpi",0.3,1966,3,1966,NA,0,3.07142701670851,3.31097231322109,3.72486065470629,3.82010987863709,FALSE,1.42208341504171
"CAN","cpi",0.3,1966,3,1966,NA,0.5,2.67652121486617,3.29993705809261,3.72486065470629,3.99123398895563,FALSE,1.83748326212267
"CAN","cpi",0.3,1966,3,1965,NA,1,1.13071848625474,1.83309128667793,3.72486065470629,3.20722068745854,FALSE,6.10742813764707
"CAN","cpi",0.3,1966,3,1965,NA,1.5,1.6769879085609,2.56082369875837,3.72486065470629,1.60663824631958,FALSE,4.20965566433437
"CAN","cpi",0.3,1967,3,1967,NA,0,6.83079815068519,8.30784940771109,3.49360316391996,3.76768849328632,FALSE,11.0118940763551
"CAN","cpi",0.3,1967,3,1967,NA,0.5,2.05220236249049,3.52925361951639,3.49360316391996,2.4074547441976,TRUE,1.4770512570259
"CAN","cpi",0.3,1967,3,1966,NA,1,0.927311754929643,2.40436301195554,3.49360316391996,3.18103323070284,FALSE,4.58916597692424
"CAN","cpi",0.3,1967,3,1966,NA,1.5,2.10710120324992,3.58415246027582,3.49360316391996,4.65128160487248,TRUE,1.4770512570259
"CAN","cpi",0.3,1968,3,1968,NA,0,3.58041245294998,3.65253503430543,3.95128347779386,4.17287945672396,FALSE,0.925689562750951
"CAN","cpi",0.3,1968,3,1968,NA,0.5,3.57501907610147,3.64714165745692,3.95128347779386,4.07097205779852,FALSE,0.941099210889553
"CAN","cpi",0.3,1968,3,1967,NA,1,1.87610870173281,2.84236309940769,3.95128347779386,5.84521682123848,FALSE,4.13459833592108
"CAN","cpi",0.3,1968,3,1967,NA,1.5,2.46426135207512,3.48551981943704,3.95128347779386,2.25565858240226,FALSE,2.35201177695282
"CAN","cpi",0.3,1969,3,1969,NA,0,3.81049689774397,3.88391848878248,4.42679496126681,4.59520664360618,FALSE,1.62449722670803
"CAN","cpi",0.3,1969,3,1969,NA,0.5,3.25512429773252,3.40445545621037,4.42679496126681,2.96612019395715,FALSE,3.07030117292484
"CAN","cpi",0.3,1969,3,1968,NA,1,3.12918361454528,4.60988718463064,4.42679496126681,6.72487630040807,TRUE,1.48070357008536
"CAN","cpi",0.3,1969,3,1968,NA,1.5,2.43716550326906,3.91786907335442,4.42679496126681,4.31664452944541,FALSE,2.93477753554935
"CAN","cpi",0.3,1970,3,1970,NA,0,3.36005647868321,3.50204240063556,3.28128405769805,3.60761538249925,FALSE,0.367049981909967
"CAN","cpi",0.3,1970,3,1970,NA,0.5,3.81320387653873,3.95518979849108,3.28128405769805,4.36016077421692,FALSE,1.66175683292573
"CAN","cpi",0.3,1970,3,1969,NA,1,1.65808285390547,2.34714801667366,3.28128405769805,4.91369447805135,FALSE,3.35802527998072
"CAN","cpi",0.3,1970,3,1969,NA,1.5,3.22545015487134,3.91451531763954,3.28128405769805,2.07973847283129,TRUE,0.689065162768197
"CAN","cpi",0.3,1971,3,1971,NA,0,2.5886161472807,2.94984158635094,2.64123406634756,2.91872900980337,TRUE,0.361225439070237
"CAN","cpi",0.3,1971,3,1971,NA,0.5,1.33034277072424,1.69156820979447,2.64123406634756,1.38357105636307,FALSE,3.07455645779335
"CAN","cpi",0.3,1971,3,1970,NA,1,1.49012269941654,2.30059098053134,2.64123406634756,3.17686610979278,FALSE,1.78373424058972
"CAN","cpi",0.3,1971,3,1970,NA,1.5,3.17940353860815,3.98987181972295,2.64123406634756,4.62066312326275,FALSE,2.34809534471649
"CAN","cpi",0.3,1972,3,1972,NA,0,4.13815575993126,4.29837184119434,4.83230569625923,5.17210692165851,FALSE,1.68574138144847
"CAN","cpi",0.3,1972,3,1972,NA,0.5,3.4988521415055,3.87914986203326,4.83230569625923,4.76224255478946,FALSE,3.10360010403054
"CAN","cpi",0.3,1972,3,1971,NA,1,3.53112123235928,4.68353304832396,4.83230569625923,6.83863498061675,FALSE,1.57747652435116
"CAN","cpi",0.3,1972,3,1971,NA,1.5,2.84084902488117,3.99326084084585,4.83230569625923,1.95441162589064,FALSE,3.54968283143147
"CAN","cpi",0.3,1973,3,1973,NA,0,5.24632319943794,6.41295069866016,7.12388603531779,7.41057825703995,FALSE,3.19787131824402
"CAN","cpi",0.3,1973,3,1973,NA,0.5,4.1373712288785,5.30399872810071,7.12388603531779,6.24191401313708,FALSE,6.36630551984243
"CAN","cpi",0.3,1973,3,1972,NA,1,3.42710928087108,4.59373678009329,7.12388603531779,8.12590883681935,FALSE,8.3956253712922
"CAN","cpi",0.3,1973,3,1972,NA,1.5,2.80742346881334,3.97405096803556,7.12388603531779,4.96130694391223,FALSE,10.1661562628857
"CAN","cpi",0.3,1974,3,1974,NA,0,8.19589389088794,9.11499751394283,10.2717243737774,10.2919804098732,FALSE,4.22403750829657
"CAN","cpi",0.3,1974,3,1974,NA,0.5,8.467801033303,10.6401382659431,10.2717243737774,9.01679902243293,TRUE,2.17233723264007
"CAN","cpi",0.3,1974,3,1973,NA,1,7.75027192286485,10.0853858162958,10.2717243737774,11.5076386824751,FALSE,2.86750977194991
"CAN","cpi",0.3,1974,3,1973,NA,1.5,2.44494530782967,4.7800592012606,10.2717243737774,7.03851017911898,FALSE,18.0255858149075
"CAN","cpi",0.3,1975,3,1975,NA,0,10.0181189791867,10.1370088013679,10.0232981493341,10.3166994702432,TRUE,0.118889822181231
"CAN","cpi",0.3,1975,3,1975,NA,0.5,9.301639407088,10.3090884411081,10.0232981493341,8.87817825771755,TRUE,1.00744903402013
"CAN","cpi",0.3,1975,3,1974,NA,1,9.59815248200764,10.6056015160278,10.0232981493341,11.6634485116586,TRUE,1.00744903402013
"CAN","cpi",0.3,1975,3,1974,NA,1.5,3.38646300128835,9.33428930510966,10.0232981493341,9.09165939347615,FALSE,7.91642300160548
"CAN","cpi",0.3,1976,3,1976,NA,0,5.52790479563249,6.26689636928801,7.22784311401172,7.25911367403926,FALSE,3.48455370143754
"CAN","cpi",0.3,1976,3,1976,NA,0.5,6.18553044717892,7.59130219126632,7.22784311401172,7.22502565269042,TRUE,1.4057717440874
"CAN","cpi",0.3,1976,3,1975,NA,1,10.3581355345237,11.7639072786111,7.22784311401172,12.4780790437784,FALSE,10.3494643741215
"CAN","cpi",0.3,1976,3,1975,NA,1.5,3.76764580453424,8.86353631619903,7.22784311401172,7.18586013837568,TRUE,5.09589051166479
"CAN","cpi",0.3,1977,3,1977,NA,0,6.49838310130728,6.95374692285375,7.58101410153764,7.59139014959698,FALSE,2.24755576064331
"CAN","cpi",0.3,1977,3,1977,NA,0.5,6.94910916928614,7.4044729908326,7.58101410153764,7.25038656554249,FALSE,0.959766994989447
"CAN","cpi",0.3,1977,3,1976,NA,1,3.37597871428279,3.83449668997906,7.58101410153764,5.92994518665441,FALSE,11.1628534372922
"CAN","cpi",0.3,1977,3,1976,NA,1.5,3.86959568499664,6.47504059604952,7.58101410153764,5.68954314963938,FALSE,5.76536921244752
"CAN","cpi",0.3,1978,3,1978,NA,0,7.45961797232341,8.15832817893758,8.50208927062595,8.68881076810062,FALSE,1.68088475429522
"CAN","cpi",0.3,1978,3,1978,NA,0.5,7.68149565368509,9.72202444206291,8.50208927062595,8.11208508764938,TRUE,2.04052878837782
"CAN","cpi",0.3,1978,3,1977,NA,1,3.92794489035586,5.96847367873367,8.50208927062595,8.34671923233743,FALSE,9.2794304794986
"CAN","cpi",0.3,1978,3,1977,NA,1.5,6.64266510388157,8.68319389225938,8.50208927062595,8.21410731625775,TRUE,2.04052878837782
"CAN","cpi",0.3,1979,3,1979,NA,0,8.30446292346738,8.85933457435369,8.65147652410481,8.56136533364911,TRUE,0.554871650886309
"CAN","cpi",0.3,1979,3,1979,NA,0.5,7.84987267512504,8.40474432601135,8.65147652410481,8.23092589685401,FALSE,1.25982078829621
"CAN","cpi",0.3,1979,3,1978,NA,1,4.46155929816403,7.52096006048824,8.65147652410481,9.66481845899329,FALSE,6.2894478012287
"CAN","cpi",0.3,1979,3,1978,NA,1.5,6.88046819323469,9.9398689555589,8.65147652410481,7.91014806370246,TRUE,3.05940076232421
"CAN","cpi",0.3,1980,3,1980,NA,0,8.69380276345831,9.24270716315834,9.5171912664748,9.53576705858497,FALSE,1.33314469488992
"CAN","cpi",0.3,1980,3,1980,NA,0.5,8.64658724679538,10.4631660264392,9.5171912664748,8.6434746104286,TRUE,1.81657877964386
"CAN","cpi",0.3,1980,3,1979,NA,1,5.35493669055505,7.85044464440718,9.5171912664748,7.78967249140325,FALSE,7.25764115975961
"CAN","cpi",0.3,1980,3,1979,NA,1.5,6.92396610155997,9.41947405541209,9.5171912664748,8.29781572565185,FALSE,2.77469998545985
"CAN","cpi",0.3,1981,3,1981,NA,0,10.0893130432301,10.9035592443013,11.5813425032741,11.7120328235834,FALSE,2.75076979813645
"CAN","cpi",0.3,1981,3,1981,NA,0.5,10.1350445328274,11.2096847022631,11.5813425032741,12.3296185245412,FALSE,2.13651960089574
"CAN","cpi",0.3,1981,3,1980,NA,1,7.48118715674778,9.68323839137279,11.5813425032741,11.0356264341109,FALSE,7.62520584005744
"CAN","cpi",0.3,1981,3,1980,NA,1.5,7.41295363640155,9.61500487102655,11.5813425032741,8.52474858684185,FALSE,7.8201587553324
"CAN","cpi",0.3,1982,3,1982,NA,0,10.1264845449818,10.5190847663131,10.1124203763629,10.253224031375,FALSE,0.432783560242278
"CAN","cpi",0.3,1982,3,1982,NA,0.5,9.87877592036122,10.2713761416926,10.1124203763629,10.1221315066235,TRUE,0.39260022133135
"CAN","cpi",0.3,1982,3,1981,NA,1,9.858339250598,10.2509394719294,10.1124203763629,11.652777546881,TRUE,0.39260022133135
"CAN","cpi",0.3,1982,3,1981,NA,1.5,8.099111707893,10.1148481740313,10.1124203763629,13.2139534836213,TRUE,2.01573646613826
"CAN","cpi",0.3,1983,3,1983,NA,0,4.38454175329125,4.70090666503825,5.67091787896303,5.84362752346853,FALSE,3.08782552296066
"CAN","cpi",0.3,1983,3,1983,NA,0.5,4.43935274771202,4.75571765945902,5.67091787896303,4.70635148143536,FALSE,2.93122268175847
"CAN","cpi",0.3,1983,3,1982,NA,1,6.12071232865052,8.13398935293162,5.67091787896303,8.61437359933683,FALSE,3.2984040233882
"CAN","cpi",0.3,1983,3,1982,NA,1.5,8.43447591644513,10.4477529407262,5.67091787896303,9.84330302935538,FALSE,9.9091571313728
"CAN","cpi",0.3,1984,3,1984,NA,0,3.81256659294126,3.88782909074497,4.19799576814029,4.21315663178917,FALSE,0.961453004647474
"CAN","cpi",0.3,1984,3,1984,NA,0.5,4.2051890899828,5.46573281473538,4.19799576814029,4.73004206452632,FALSE,1.28109607287404
"CAN","cpi",0.3,1984,3,1983,NA,1,4.4626580252437,5.72320174999628,4.19799576814029,6.30529961834119,FALSE,2.01672160219091
"CAN","cpi",0.3,1984,3,1983,NA,1.5,3.04645848075434,4.30700220550691,4.19799576814029,2.81189439817776,TRUE,1.26054372475257
"CAN","cpi",0.3,1985,3,1985,NA,0,3.48630538854452,3.6622553509119,3.86444262005169,3.90546894544143,FALSE,0.753627874195372
"CAN","cpi",0.3,1985,3,1985,NA,0.5,3.50687512781925,3.7953059207368,3.86444262005169,4.0117649915267,FALSE,0.485964219531525
"CAN","cpi",0.3,1985,3,1984,NA,1,1.5525697965154,2.46135607795539,3.86444262005169,3.28942198062367,FALSE,4.91760497314372
"CAN","cpi",0.3,1985,3,1984,NA,1.5,3.5175042386254,4.42629052006539,3.86444262005169,4.67970369844593,TRUE,0.908786281439991
"CAN","cpi",0.3,1986,3,1986,NA,0,3.93677565730452,4.05770704185846,4.08685396749431,4.12727747445429,FALSE,0.204208314942096
"CAN","cpi",0.3,1986,3,1986,NA,0.5,3.97833495542642,4.28751486154006,4.08685396749431,4.57514120825518,TRUE,0.309179906113647
"CAN","cpi",0.3,1986,3,1985,NA,1,1.77973022614615,2.97224021714569,4.08685396749431,3.84501750700332,FALSE,4.37712070628131
"CAN","cpi",0.3,1986,3,1985,NA,1.5,3.16116803816772,4.35367802916726,4.08685396749431,4.51624000588938,TRUE,1.19250999099953
"CAN","cpi",0.3,1987,3,1987,NA,0,4.0377912761402,4.18654412819498,4.23980729277887,4.3376164199738,FALSE,0.300933322294469
"CAN","cpi",0.3,1987,3,1987,NA,0.5,3.31320327696936,3.7017198593557,4.23980729277887,3.8898385702312,FALSE,1.92590924930969
"CAN","cpi",0.3,1987,3,1986,NA,1,2.13251239589974,3.28723988009379,4.23980729277887,4.56284936423577,FALSE,3.87634866329428
"CAN","cpi",0.3,1987,3,1986,NA,1.5,5.85602044502864,7.01074792922269,4.23980729277887,5.15474659430673,FALSE,5.77247934776482
"CAN","cpi",0.3,1988,3,1988,NA,0,3.81027788701908,3.89625179746886,3.92899537638065,4.00028299604827,FALSE,0.179526993054904
"CAN","cpi",0.3,1988,3,1988,NA,0.5,3.51670599162267,3.9024372147164,3.92899537638065,3.53181278911538,FALSE,0.461611684991605
"CAN","cpi",0.3,1988,3,1987,NA,1,2.64604061332076,3.43488279163645,3.92899537638065,4.34173286045961,FALSE,2.20059242044198
"CAN","cpi",0.3,1988,3,1987,NA,1.5,3.51687452132233,4.30571669963802,3.92899537638065,3.76612293581706,TRUE,0.78884217831569
"CAN","cpi",0.3,1989,3,1989,NA,0,4.47278483270248,4.62352033021912,4.82821664544208,5.00606812502784,FALSE,0.735582112439365
"CAN","cpi",0.3,1989,3,1989,NA,0.5,4.00209094277217,4.15282644028881,4.82821664544208,4.51521437972404,FALSE,2.08042179795455
"CAN","cpi",0.3,1989,3,1988,NA,1,2.78838685339882,3.60257110058601,4.82821664544208,4.3270389784901,FALSE,4.31602866106166
"CAN","cpi",0.3,1989,3,1988,NA,1.5,3.52528839797983,4.33947264516702,4.82821664544208,3.42699250808196,FALSE,2.21059567654449
"CAN","cpi",0.3,1990,3,1990,NA,0,4.29345895735893,4.54110222365842,4.64347549432717,4.52171223749059,FALSE,0.540138325353069
"CAN","cpi",0.3,1990,3,1990,NA,0.5,4.72673215378589,5.27222099270864,4.64347549432717,5.22335253259958,FALSE,0.783365008804799
"CAN","cpi",0.3,1990,3,1989,NA,1,3.66769541014437,4.21318424906712,4.64347549432717,5.7236432392913,FALSE,1.77489239680861
"CAN","cpi",0.3,1990,3,1989,NA,1.5,4.21500848267825,6.04231370148169,4.64347549432717,4.92041342133377,TRUE,1.82730521880344
"CAN","cpi",0.3,1991,3,1991,NA,0,4.88301200587673,5.19318859103841,5.4258100696218,5.6161816682171,FALSE,0.974809381114202
"CAN","cpi",0.3,1991,3,1991,NA,0.5,9.65083734762644,9.96101393278812,5.4258100696218,8.8240510060175,FALSE,12.3816830937464
"CAN","cpi",0.3,1991,3,1990,NA,1,2.01544069803149,3.54446099898249,5.4258100696218,3.89170713423419,FALSE,6.90430335992044
"CAN","cpi",0.3,1991,3,1990,NA,1.5,6.81844313186496,8.34746343281597,5.4258100696218,5.70462042447442,FALSE,5.50797190736005
"CAN","cpi",0.3,1992,3,1992,NA,0,1.23322142804223,1.30395119642557,1.47496888572843,1.47544467241393,FALSE,0.559351737820095
"CAN","cpi",0.3,1992,3,1992,NA,0.5,1.78478400337416,2.22164533659097,1.47496888572843,1.36069384263819,FALSE,1.32204738363316
"CAN","cpi",0.3,1992,3,1991,NA,1,1.63631647848301,2.29530982918997,1.47496888572843,2.43500720778875,FALSE,1.1199864728629
"CAN","cpi",0.3,1992,3,1991,NA,1.5,7.74217997935297,10.0143978475888,1.47496888572843,11.2072976243743,FALSE,20.1785352785916
"CAN","cpi",0.3,1993,3,1993,NA,0,1.5139245440681,1.68652788752268,1.84351085411351,1.81496037239602,FALSE,0.621126105142666
"CAN","cpi",0.3,1993,3,1993,NA,0.5,3.40891320139096,3.65626158244567,1.84351085411351,2.43338635087472,FALSE,4.71992651613314
"CAN","cpi",0.3,1993,3,1992,NA,1,1.04987492891163,1.29722330996633,1.84351085411351,1.76228766319361,FALSE,1.80816993576093
"CAN","cpi",0.3,1993,3,1992,NA,1.5,2.73594463660778,3.83619979566805,1.84351085411351,1.598750613598,FALSE,3.65006596618675
"CAN","cpi",0.3,1994,3,1994,NA,0,-0.524149772799705,-0.128606296597153,0.161630694655448,0.220147227157928,FALSE,1.22479202263855
"CAN","cpi",0.3,1994,3,1994,NA,0.5,-0.0348551133068497,0.360688362895703,0.161630694655448,-0.741542526043691,TRUE,0.395543476202553
"CAN","cpi",0.3,1994,3,1993,NA,1,0.998113647565276,1.39365712376783,0.161630694655448,1.50794631797803,FALSE,2.78549477023063
"CAN","cpi",0.3,1994,3,1993,NA,1.5,3.79387061115635,4.1894140873589,0.161630694655448,2.81797717341095,FALSE,10.7733718090623
"CAN","cpi",0.3,1995,3,1995,NA,0,2.05892854647133,2.29781256152544,2.11688403676572,2.15484685959489,TRUE,0.238884015054107
"CAN","cpi",0.3,1995,3,1995,NA,0.5,3.24239121410424,3.48127522915835,2.11688403676572,2.90883921660758,FALSE,3.4546188074499
"CAN","cpi",0.3,1995,3,1994,NA,1,1.5455890852639,1.86103167099581,2.11688403676572,1.95173420121315,FALSE,1.0464493450745
"CAN","cpi",0.3,1995,3,1994,NA,1.5,0.276111171876148,1.39190482406048,2.11688403676572,-2.17983456081826,FALSE,3.18716283134214
"CAN","cpi",0.3,1996,3,1996,NA,0,1.27244745933646,1.43861485695088,1.55309584667184,1.44166889374788,FALSE,0.493255939674313
"CAN","cpi",0.3,1996,3,1996,NA,0.5,1.27279276629109,1.49685671539017,1.55309584667184,1.36236766996786,FALSE,0.384747181332434
"CAN","cpi",0.3,1996,3,1995,NA,1,0.609880856455982,1.08913370499029,1.55309584667184,0.911474268150699,FALSE,1.80485896762446
"CAN","cpi",0.3,1996,3,1995,NA,1.5,3.67351621558084,4.15276906411515,1.55309584667184,3.98784768949811,FALSE,6.53759675970288
"CAN","cpi",0.3,1997,3,1997,NA,0,1.48317614831355,1.58555556044803,1.60528783555959,1.68811714545079,FALSE,0.158757341024658
"CAN","cpi",0.3,1997,3,1997,NA,0.5,2.15934654185171,2.45053048084739,1.60528783555959,2.10620867662285,FALSE,1.87420881411602
"CAN","cpi",0.3,1997,3,1996,NA,1,0.946100792983102,1.23728473197878,1.60528783555959,0.758460286059383,FALSE,1.34262137779801
"CAN","cpi",0.3,1997,3,1996,NA,1.5,1.79613285294771,3.41389500052282,1.60528783555959,1.66287852692671,FALSE,2.16303362582688
"CAN","cpi",0.3,1998,3,1998,NA,0,0.726309933272931,0.96496873825435,0.988908029337191,0.970744023070627,FALSE,0.307056779503821
"CAN","cpi",0.3,1998,3,1998,NA,0.5,1.92323486730287,2.16189367228429,0.988908029337191,1.52096865004292,FALSE,2.90816405631192
"CAN","cpi",0.3,1998,3,1997,NA,1,1.13229816279001,1.39475832476005,0.988908029337191,1.03996058978499,FALSE,0.672146257549517
"CAN","cpi",0.3,1998,3,1997,NA,1.5,3.27520764931811,3.94838474952358,0.988908029337191,2.22059574107629,FALSE,7.20546172872237
"CAN","cpi",0.3,1999,3,1999,NA,0,1.60588641763511,1.64639781966951,1.7107350135213,1.79141464940687,FALSE,0.224331955896649
"CAN","cpi",0.3,1999,3,1999,NA,0.5,1.24772591928459,1.40335797833531,1.7107350135213,0.800552372711202,FALSE,1.03385215958211
"CAN","cpi",0.3,1999,3,1998,NA,1,0.955613665849758,1.11124572490047,1.7107350135213,0.474525424909611,FALSE,1.86845859796735
"CAN","cpi",0.3,1999,3,1998,NA,1.5,2.60917463525885,3.54741899293448,1.7107350135213,2.19776497346126,FALSE,3.50521470549722
"CAN","cpi",0.3,2000,3,2000,NA,0,2.56947973281545,2.60964828746559,2.6718361971244,2.73388860624727,FALSE,0.217848296532454
"CAN","cpi",0.3,2000,3,2000,NA,0.5,1.67101937347273,2.21803149426052,2.6718361971244,2.11525832235237,FALSE,1.84359698611317
"CAN","cpi",0.3,2000,3,1999,NA,1,1.73749147228588,2.43561720081417,2.6718361971244,2.81438082878813,FALSE,1.37303714655751
"CAN","cpi",0.3,2000,3,1999,NA,1.5,1.62102437906188,2.31915010759017,2.6718361971244,0.872413614651861,FALSE,1.70580027005466
