isdrw/probabilistic-benchmark-forecasts/results/linear_quantile_regression/ldr_prediction_arima1_1_0_2026-02-18_16-02-44.csv
"country","target","tau","target_year","target_quarter","forecast_year","forecast_quarter","horizon","lower_bound","upper_bound","truth_value","prediction","covered","IS"
"CAN","cpi",0.1,1950,3,1950,NA,0,2.42545523840043,2.42545523840043,2.59031220731124,2.28904261800392,FALSE,0.366348819801797
"CAN","cpi",0.1,1950,3,1950,NA,0.5,0.683942621145295,0.683942621145295,2.59031220731124,-0.0597026374682003,FALSE,4.23637685814654
"CAN","cpi",0.1,1950,3,1949,NA,1,-25.685196572393,-25.685196572393,2.59031220731124,1.71904267353831,FALSE,62.8344639548983
"CAN","cpi",0.1,1950,3,1949,NA,1.5,14.2269133930234,14.2269133930234,2.59031220731124,1.07189937513012,FALSE,25.859113746027
"CAN","cpi",0.1,1951,3,1951,NA,0,9.8757227711946,9.89261060303134,9.87945438999359,10.0174160826209,TRUE,0.0168878318367405
"CAN","cpi",0.1,1951,3,1951,NA,0.5,9.1147706728572,9.13165850469394,9.87945438999359,9.64288482270982,FALSE,1.67865646583597
"CAN","cpi",0.1,1951,3,1950,NA,1,7.14213108476665,7.15901891660339,9.87945438999359,6.5630832774632,FALSE,6.06229999492608
"CAN","cpi",0.1,1951,3,1950,NA,1.5,2.46581029846084,15.8639563260731,9.87945438999359,-1.15455738512665,TRUE,13.3981460276123
"CAN","cpi",0.1,1952,3,1952,NA,0,2.69684059797749,2.72089562146741,2.55562336095485,2.46502621244774,FALSE,0.337871105762464
"CAN","cpi",0.1,1952,3,1952,NA,0.5,5.52808110468908,5.55213612817901,2.55562336095485,4.32129924776399,FALSE,6.62951667623267
"CAN","cpi",0.1,1952,3,1951,NA,1,10.0520197563561,10.076074779846,2.55562336095485,9.65785623271456,FALSE,16.6827136799371
"CAN","cpi",0.1,1952,3,1951,NA,1.5,5.50360482415127,5.52765984764119,2.55562336095485,10.2729097180516,FALSE,6.57512494170419
"CAN","cpi",0.1,1953,3,1953,NA,0,-0.643770263307478,-0.846742175583432,-1.01492775838436,-1.00749856253296,FALSE,0.621822521228233
"CAN","cpi",0.1,1953,3,1953,NA,0.5,0.264568751268269,0.0615968389923153,-1.01492775838436,-2.06778904141071,FALSE,2.64035366472989
"CAN","cpi",0.1,1953,3,1952,NA,1,0.99226105949325,0.789289147217296,-1.01492775838436,-1.55171650633025,FALSE,4.25744768300763
"CAN","cpi",0.1,1953,3,1952,NA,1.5,8.69002626998302,8.69002626998302,-1.01492775838436,1.96017794195978,FALSE,21.5665645074831
"CAN","cpi",0.1,1954,3,1954,NA,0,0.991566350289168,1.02883159991325,0.644425455961438,0.844896913757956,FALSE,0.808689459241264
"CAN","cpi",0.1,1954,3,1954,NA,0.5,0.518027677606749,0.609758436148465,0.644425455961438,-0.153040348587994,FALSE,0.168768580348323
"CAN","cpi",0.1,1954,3,1953,NA,1,0.61774418678967,3.56542595602425,0.644425455961438,2.75483618067449,TRUE,2.94768176923458
"CAN","cpi",0.1,1954,3,1953,NA,1.5,2.38914923461067,10.4029706197939,0.644425455961438,-2.52548049332379,FALSE,11.890985337737
"CAN","cpi",0.1,1955,3,1955,NA,0,0.269591144031328,0.269591144031328,0.173649026558865,0.10765252516202,FALSE,0.213204705494363
"CAN","cpi",0.1,1955,3,1955,NA,0.5,0.186353044848445,0.222189922521646,0.173649026558865,-0.685764272176465,FALSE,0.0640680294278234
"CAN","cpi",0.1,1955,3,1954,NA,1,1.03414460515548,3.21639107065337,0.173649026558865,3.05598167297881,FALSE,4.09445886237926
"CAN","cpi",0.1,1955,3,1954,NA,1.5,0.54503424619983,2.72728071169772,0.173649026558865,-1.37299158518014,FALSE,3.00754695358892
"CAN","cpi",0.1,1956,3,1956,NA,0,1.57321155554271,1.60969733006311,1.32752769429961,1.5132196707054,FALSE,0.582449910616184
"CAN","cpi",0.1,1956,3,1956,NA,0.5,0.282996892883756,0.31948266740415,1.32752769429961,-0.533297708724126,FALSE,2.27658583428808
"CAN","cpi",0.1,1956,3,1955,NA,1,-0.136297974353266,-0.0998121998328727,1.32752769429961,0.79482048855347,FALSE,3.20835220592591
"CAN","cpi",0.1,1956,3,1955,NA,1.5,0.772962629772329,2.43667674649746,1.32752769429961,-1.67555014996128,TRUE,1.66371411672513
"CAN","cpi",0.1,1957,3,1957,NA,0,3.40618681760154,3.40618681760154,3.24684755852518,3.4081189986054,FALSE,0.354087242391913
"CAN","cpi",0.1,1957,3,1957,NA,0.5,2.61000313425294,2.63914353104566,3.24684755852518,2.36364513914165,FALSE,1.37959379119165
"CAN","cpi",0.1,1957,3,1956,NA,1,3.07560547921512,5.72960111273059,3.24684755852518,6.42400073504334,TRUE,2.65399563351547
"CAN","cpi",0.1,1957,3,1956,NA,1.5,-0.245108606134569,2.4088870273809,3.24684755852518,-1.44175113719435,FALSE,4.51613014716941
"CAN","cpi",0.1,1958,3,1958,NA,0,2.16932577242018,2.23050564711255,2.33186388641149,2.22393716079583,FALSE,0.286420406467796
"CAN","cpi",0.1,1958,3,1958,NA,0.5,2.48691330862099,2.54809318331335,2.33186388641149,2.22874439106395,FALSE,0.405734146269027
"CAN","cpi",0.1,1958,3,1957,NA,1,1.25450955988874,2.13231263719052,2.33186388641149,4.33819969505612,FALSE,1.32125029779282
"CAN","cpi",0.1,1958,3,1957,NA,1.5,1.67425406303871,2.5989770534302,2.33186388641149,1.22685206136826,TRUE,0.92472299039149
"CAN","cpi",0.1,1959,3,1959,NA,0,1.23376927839897,1.24037731904898,1.19382698397654,1.19679708996586,FALSE,0.0953686949220752
"CAN","cpi",0.1,1959,3,1959,NA,0.5,1.25212334972988,1.2850155323331,1.19382698397654,0.655175994826909,FALSE,0.162439662055078
"CAN","cpi",0.1,1959,3,1958,NA,1,0.754340821947503,0.866521561591365,1.19382698397654,1.75938857815981,FALSE,0.839526122722031
"CAN","cpi",0.1,1959,3,1958,NA,1.5,1.73973284692442,2.37257457197692,1.19382698397654,1.7749666101295,FALSE,1.84596586493667
"CAN","cpi",0.1,1960,3,1960,NA,0,1.04532424186317,1.06516752959001,1.34209404870695,1.03130246511349,FALSE,0.635235552431155
"CAN","cpi",0.1,1960,3,1960,NA,0.5,1.30827733457832,1.32812062230516,1.34209404870695,0.745602653132245,FALSE,0.0508953463974845
"CAN","cpi",0.1,1960,3,1959,NA,1,1.87868580242154,1.89852909014838,1.34209404870695,3.33587387303437,FALSE,1.21226940709258
"CAN","cpi",0.1,1960,3,1959,NA,1.5,1.48881686243357,2.21657042617946,1.34209404870695,-0.32541909428789,FALSE,1.05380426091616
"CAN","cpi",0.1,1961,3,1961,NA,0,1.01778347247127,1.04950157252166,1.00921348094007,1.00921348094007,FALSE,0.0507625256752731
"CAN","cpi",0.1,1961,3,1961,NA,0.5,1.76654187131212,1.79825997136252,1.00921348094007,1.31141131508129,FALSE,1.71467007865495
"CAN","cpi",0.1,1961,3,1960,NA,1,0.00218348975113314,0.37147112856248,1.00921348094007,0.143625905669962,FALSE,1.78649286631711
"CAN","cpi",0.1,1961,3,1960,NA,1.5,1.22898953703205,1.59827717584339,1.00921348094007,-0.34011142415222,FALSE,0.857678874571294
"CAN","cpi",0.1,1962,3,1962,NA,0,1.12376724263715,1.14326079221335,1.04957947883042,1.11132998230876,FALSE,0.1843552469245
"CAN","cpi",0.1,1962,3,1962,NA,0.5,0.715562015337921,0.735055564914113,1.04957947883042,1.64134322488006e-44,FALSE,0.718435580501308
"CAN","cpi",0.1,1962,3,1961,NA,1,0.409726237603116,0.429219787179309,1.04957947883042,-9.44308782563385e-19,FALSE,1.39807064213421
"CAN","cpi",0.1,1962,3,1961,NA,1.5,1.48092674208859,1.61781217900337,1.04957947883042,0.754384248690751,FALSE,1.09543491082183
"CAN","cpi",0.1,1963,3,1963,NA,0,1.84424901727027,1.87804609678146,1.60677118395228,1.85599510888664,FALSE,0.561525597995612
"CAN","cpi",0.1,1963,3,1963,NA,0.5,1.46441794758949,1.49821502710068,1.60677118395228,0.932300293637426,FALSE,0.275032983625862
"CAN","cpi",0.1,1963,3,1962,NA,1,1.47207824510613,1.87098809588622,1.60677118395228,2.66748522343727,TRUE,0.398909850780088
"CAN","cpi",0.1,1963,3,1962,NA,1.5,1.02247499938883,1.42138485016892,1.60677118395228,4.10321927477868e-44,FALSE,0.810879481409783
"CAN","cpi",0.1,1964,3,1964,NA,0,1.96613932362281,1.97393689402931,1.88764670034376,1.98894154569002,FALSE,0.182225622137717
"CAN","cpi",0.1,1964,3,1964,NA,0.5,1.83120959606126,1.86250177873311,1.88764670034376,1.38377582747094,FALSE,0.0871697862510681
"CAN","cpi",0.1,1964,3,1963,NA,1,2.16468127785388,2.4317343136558,1.88764670034376,4.71286552905431,FALSE,0.882685430268854
"CAN","cpi",0.1,1964,3,1963,NA,1.5,1.35189919386849,1.61895222967042,1.88764670034376,0.238779673172327,FALSE,0.864151859520464
"CAN","cpi",0.1,1965,3,1965,NA,0,2.29156443883437,2.32467641534611,2.29538304394236,2.35494510510554,TRUE,0.0331119765117407
"CAN","cpi",0.1,1965,3,1965,NA,0.5,1.979079100481,2.01219107699274,2.29538304394236,1.56044896459738,FALSE,0.66242745862199
"CAN","cpi",0.1,1965,3,1964,NA,1,1.37088619903975,1.50244679620629,2.29538304394236,2.42710731898607,FALSE,1.89364114769113
"CAN","cpi",0.1,1965,3,1964,NA,1.5,1.4891465569962,1.62544955605286,2.29538304394236,0.818315757903116,FALSE,1.62504408325554
"CAN","cpi",0.1,1966,3,1966,NA,0,3.75981131353598,3.79946626791522,3.72486065470629,3.84664136390011,FALSE,0.117323085111884
"CAN","cpi",0.1,1966,3,1966,NA,0.5,3.79957344511478,3.83922839949403,3.72486065470629,3.84691400230302,FALSE,0.20568337750923
"CAN","cpi",0.1,1966,3,1965,NA,1,1.77413152137859,1.99788782026297,3.72486065470629,3.31367997089714,FALSE,4.06147370875843
"CAN","cpi",0.1,1966,3,1965,NA,1.5,1.56349384968211,1.78725014856649,3.72486065470629,1.48150382413513,FALSE,4.5295574236395
"CAN","cpi",0.1,1967,3,1967,NA,0,3.67385368249659,3.69855893712424,3.49360316391996,3.76862969063141,FALSE,0.425261962575718
"CAN","cpi",0.1,1967,3,1967,NA,0.5,2.61877961606684,2.64348487069449,3.49360316391996,2.36174420726938,FALSE,1.91385701735092
"CAN","cpi",0.1,1967,3,1966,NA,1,1.88833087986885,2.11447466436795,3.49360316391996,3.4823384545504,FALSE,3.29087378350356
"CAN","cpi",0.1,1967,3,1966,NA,1.5,1.95620291497422,2.18234669947332,3.49360316391996,4.29257700443622,FALSE,3.14004703882497
"CAN","cpi",0.1,1968,3,1968,NA,0,4.0067707981609,4.04043676574244,3.95128347779386,4.1134030125927,FALSE,0.156971123952737
"CAN","cpi",0.1,1968,3,1968,NA,0.5,3.83847886094131,3.87214482852286,3.95128347779386,3.89224433743933,FALSE,0.209529632628212
"CAN","cpi",0.1,1968,3,1967,NA,1,2.47673537691483,2.95216830821647,3.95128347779386,5.85596711509228,FALSE,2.69568886369584
"CAN","cpi",0.1,1968,3,1967,NA,1.5,1.69126930976456,2.16670224106619,3.95128347779386,2.14187095150408,FALSE,4.44116901291867
"CAN","cpi",0.1,1969,3,1969,NA,0,4.5249525725245,4.53565000872945,4.42679496126681,4.64263065146317,FALSE,0.228825461222032
"CAN","cpi",0.1,1969,3,1969,NA,0.5,3.18033084881119,3.21483721825706,4.42679496126681,3.06199492877772,FALSE,2.72774579835644
"CAN","cpi",0.1,1969,3,1968,NA,1,2.8734722395769,3.11566983317958,4.42679496126681,6.05582378748629,FALSE,3.15580898935209
"CAN","cpi",0.1,1969,3,1968,NA,1.5,1.99028119191672,2.24422178421192,4.42679496126681,3.87227485119322,FALSE,5.10410320797274
"CAN","cpi",0.1,1970,3,1970,NA,0,3.48245730459905,3.50480350561034,3.28128405769805,3.58996474924422,FALSE,0.469397860791296
"CAN","cpi",0.1,1970,3,1970,NA,0.5,4.07228429492055,4.1518918306973,3.28128405769805,4.17180269652751,FALSE,1.83738584071565
"CAN","cpi",0.1,1970,3,1969,NA,1,2.91238152001734,3.63921300314824,3.28128405769805,5.43865496465038,TRUE,0.726831483130904
"CAN","cpi",0.1,1970,3,1969,NA,1.5,1.77619042926303,2.50302191239394,3.28128405769805,2.31672730979866,FALSE,2.45630291714003
"CAN","cpi",0.1,1971,3,1971,NA,0,2.79958327290036,2.8235068121469,2.64123406634756,2.89424739818036,FALSE,0.375810664919424
"CAN","cpi",0.1,1971,3,1971,NA,0.5,1.60376614146508,1.64372551901498,2.64123406634756,1.07533993963556,FALSE,2.25664503828898
"CAN","cpi",0.1,1971,3,1970,NA,1,1.74913547810769,2.22175906159111,2.64123406634756,2.98160965133743,FALSE,1.40479026071998
"CAN","cpi",0.1,1971,3,1970,NA,1.5,2.07733185803238,2.5499554415158,2.64123406634756,4.15708260691123,FALSE,0.675464971998446
"CAN","cpi",0.1,1972,3,1972,NA,0,4.95948526398651,4.9765496079267,4.83230569625923,5.10321489701878,FALSE,0.299685605556367
"CAN","cpi",0.1,1972,3,1972,NA,0.5,4.39206967443631,4.46887491984506,4.83230569625923,4.57526784474473,FALSE,0.884429192995796
"CAN","cpi",0.1,1972,3,1971,NA,1,3.46588615925657,4.14969140452211,4.83230569625923,6.5673313651466,FALSE,2.20072589357024
"CAN","cpi",0.1,1972,3,1971,NA,1.5,1.81412997247357,2.49793521773911,4.83230569625923,1.20127092516847,FALSE,5.87129519753248
"CAN","cpi",0.1,1973,3,1973,NA,0,7.17949101391527,7.19193394843915,7.12388603531779,7.36268749116872,FALSE,0.136009553629385
"CAN","cpi",0.1,1973,3,1973,NA,0.5,5.43755469746674,5.50519832137059,7.12388603531779,5.89432993074317,FALSE,3.66472743267541
"CAN","cpi",0.1,1973,3,1972,NA,1,4.19991836277496,4.6475974140271,7.12388603531779,7.371399360381,FALSE,5.95054265412035
"CAN","cpi",0.1,1973,3,1972,NA,1.5,2.21683924275867,2.66451829401081,7.12388603531779,4.50324671282129,FALSE,10.3573851430454
"CAN","cpi",0.1,1974,3,1974,NA,0,10.0016761316022,10.0937849970217,10.2717243737774,10.3222881332229,FALSE,0.487529702654489
"CAN","cpi",0.1,1974,3,1974,NA,0.5,7.77793523481559,7.87594823593668,10.2717243737774,8.8471290293637,FALSE,5.42195997410051
"CAN","cpi",0.1,1974,3,1973,NA,1,5.98511069309733,7.01016750617477,10.2717243737774,10.9884402825372,FALSE,8.27296096330554
"CAN","cpi",0.1,1974,3,1973,NA,1.5,2.14977612894677,3.17483294202421,10.2717243737774,6.19554852079723,FALSE,16.7959266614179
"CAN","cpi",0.1,1975,3,1975,NA,0,10.0308075249193,10.0373148437479,10.0232981493341,10.2646941702359,FALSE,0.0231948201290513
"CAN","cpi",0.1,1975,3,1975,NA,0.5,8.43598139595454,8.7886829581215,10.0232981493341,9.21855388205318,FALSE,3.09629087597278
"CAN","cpi",0.1,1975,3,1974,NA,1,7.93331345806411,8.28601502023107,10.0232981493341,11.9905143933903,FALSE,4.21333073795152
"CAN","cpi",0.1,1975,3,1974,NA,1.5,3.51112142792316,5.00679043515942,10.0232981493341,8.68009129130424,FALSE,12.6434639276245
"CAN","cpi",0.1,1976,3,1976,NA,0,7.06340590949861,7.08520121334819,7.22784311401172,7.25383067322222,FALSE,0.338777305324088
"CAN","cpi",0.1,1976,3,1976,NA,0.5,7.14092430970166,7.78938872279996,7.22784311401172,7.41547675604771,TRUE,0.648464413098306
"CAN","cpi",0.1,1976,3,1975,NA,1,8.6499317706788,9.81428060220469,7.22784311401172,11.9151510581142,FALSE,4.32454584634163
"CAN","cpi",0.1,1976,3,1975,NA,1.5,4.64830361224864,5.81265244377452,7.22784311401172,8.01331538119686,FALSE,4.30921698760854
"CAN","cpi",0.1,1977,3,1977,NA,0,7.42659005423303,7.44292283678967,7.58101410153764,7.61867129691007,FALSE,0.32320225977436
"CAN","cpi",0.1,1977,3,1977,NA,0.5,6.88634466616931,6.98669823547926,7.58101410153764,7.02287871989832,FALSE,1.42105549388413
"CAN","cpi",0.1,1977,3,1976,NA,1,3.96244715252144,4.40662065651306,7.58101410153764,5.87261903876238,FALSE,7.4983811596018
"CAN","cpi",0.1,1977,3,1976,NA,1.5,4.19868583865677,5.37047687435224,7.58101410153764,6.15322645024094,FALSE,6.08409598499636
"CAN","cpi",0.1,1978,3,1978,NA,0,8.47502582132448,8.48477182735694,8.50208927062595,8.68125407245005,FALSE,0.0482292132969234
"CAN","cpi",0.1,1978,3,1978,NA,0.5,7.90948880041635,8.39084847652562,8.50208927062595,8.12508742330222,FALSE,0.728561440776664
"CAN","cpi",0.1,1978,3,1977,NA,1,5.75547762761177,6.23683730372104,8.50208927062595,8.64318766852961,FALSE,5.51525293589795
"CAN","cpi",0.1,1978,3,1977,NA,1.5,5.22545789112287,6.66627893999864,8.50208927062595,7.66028936796504,FALSE,5.52039956138089
"CAN","cpi",0.1,1979,3,1979,NA,0,8.40576256215241,8.43284419714573,8.65147652410481,8.61075946409788,FALSE,0.512931250457944
"CAN","cpi",0.1,1979,3,1979,NA,0.5,7.95402095644057,8.43229374344458,8.65147652410481,8.10062835274572,FALSE,0.965345632915627
"CAN","cpi",0.1,1979,3,1978,NA,1,7.17789914786724,7.83229040519881,8.65147652410481,9.5826348846829,FALSE,2.47480485490047
"CAN","cpi",0.1,1979,3,1978,NA,1.5,6.75405184100159,7.40844309833316,8.65147652410481,7.94183844676527,FALSE,3.41668775904634
"CAN","cpi",0.1,1980,3,1980,NA,0,9.31001788469392,9.33686209931675,9.5171912664748,9.53109046750286,FALSE,0.427575697196265
"CAN","cpi",0.1,1980,3,1980,NA,0.5,8.49347509180674,9.00614815050422,9.5171912664748,8.68563614915422,FALSE,1.64832442752098
"CAN","cpi",0.1,1980,3,1979,NA,1,6.28678704472461,6.79946010342208,9.5171912664748,8.32548734166583,FALSE,6.55207564325906
"CAN","cpi",0.1,1980,3,1979,NA,1.5,6.94927693361295,7.46194999231042,9.5171912664748,7.98047102096121,FALSE,5.07987589017387
"CAN","cpi",0.1,1981,3,1981,NA,0,11.4605288882011,11.5420055012562,11.5813425032741,11.708955977523,FALSE,0.168892173094947
"CAN","cpi",0.1,1981,3,1981,NA,0.5,12.2118033321489,12.293279945204,11.5813425032741,12.1263962907449,FALSE,1.48250067722122
"CAN","cpi",0.1,1981,3,1980,NA,1,8.01381051981717,9.4153480786889,11.5813425032741,10.9849401653028,FALSE,6.21485850239448
"CAN","cpi",0.1,1981,3,1980,NA,1.5,7.64878995328873,9.25340607717819,11.5813425032741,8.62735225265647,FALSE,6.77780818188046
"CAN","cpi",0.1,1982,3,1982,NA,0,10.1124663162864,10.1695376112266,10.1124203763629,10.3109749747662,FALSE,0.0571733836590313
"CAN","cpi",0.1,1982,3,1982,NA,0.5,9.77621181606274,10.308086927113,10.1124203763629,10.0996836619997,TRUE,0.531875111050276
"CAN","cpi",0.1,1982,3,1981,NA,1,9.71926527392473,10.4197846197759,10.1124203763629,11.6194795199153,TRUE,0.700519345851188
"CAN","cpi",0.1,1982,3,1981,NA,1.5,10.6093414962582,12.846544428399,10.1124203763629,12.7194356761443,FALSE,3.34147208746359
"CAN","cpi",0.1,1983,3,1983,NA,0,5.68243372357843,5.73929162488771,5.67091787896303,5.82764740362034,FALSE,0.0824486671212716
"CAN","cpi",0.1,1983,3,1983,NA,0.5,5.38037861463394,5.49980457310127,5.67091787896303,4.97543944794331,FALSE,0.499677749271251
"CAN","cpi",0.1,1983,3,1982,NA,1,7.76765964565963,8.10030579561924,5.67091787896303,9.23778396682256,FALSE,4.99207229817426
"CAN","cpi",0.1,1983,3,1982,NA,1.5,8.44494128094264,10.1481422577584,5.67091787896303,9.78870144173853,FALSE,7.86769742565938
"CAN","cpi",0.1,1984,3,1984,NA,0,4.08743675886435,4.12519625756936,4.19799576814029,4.21357537293321,FALSE,0.199536188862628
"CAN","cpi",0.1,1984,3,1984,NA,0.5,5.07300437763414,5.22770415106243,4.19799576814029,4.64258933063566,FALSE,2.0991633500813
"CAN","cpi",0.1,1984,3,1983,NA,1,5.22221163783331,5.47593692882857,4.19799576814029,6.13137654871218,FALSE,2.52976055697975
"CAN","cpi",0.1,1984,3,1983,NA,1.5,4.03750218229202,4.38865974525488,4.19799576814029,3.46832438596907,TRUE,0.351157562962854
"CAN","cpi",0.1,1985,3,1985,NA,0,3.79658682553076,3.85333432845342,3.86444262005169,3.91909325760218,FALSE,0.0814325953632585
"CAN","cpi",0.1,1985,3,1985,NA,0.5,4.37940410695624,4.48270280087944,3.86444262005169,3.89150188195039,FALSE,1.24765755371108
"CAN","cpi",0.1,1985,3,1984,NA,1,2.49345414093147,2.94051680883078,3.86444262005169,3.29397074977035,FALSE,2.50023113727912
"CAN","cpi",0.1,1985,3,1984,NA,1.5,4.55473525542985,5.00179792332915,3.86444262005169,4.4666103475984,FALSE,1.98104630207298
"CAN","cpi",0.1,1986,3,1986,NA,0,3.99769054473287,4.03791799758833,4.08685396749431,4.1058885406559,FALSE,0.148974052646524
"CAN","cpi",0.1,1986,3,1986,NA,0.5,4.70859786323685,4.96924342219687,4.08685396749431,4.41001406158749,FALSE,1.6422986606101
"CAN","cpi",0.1,1986,3,1985,NA,1,3.10910009689484,3.53865028485903,4.08685396749431,3.99303879319441,FALSE,1.64778059382036
"CAN","cpi",0.1,1986,3,1985,NA,1.5,4.40248046460143,4.83203065256561,4.08685396749431,4.22326323880904,FALSE,1.13094240375778
"CAN","cpi",0.1,1987,3,1987,NA,0,4.24971052258491,4.2887907759939,4.23980729277887,4.35976718480882,FALSE,0.0610874307557489
"CAN","cpi",0.1,1987,3,1987,NA,0.5,4.27282298000742,4.48614208880443,4.23980729277887,3.90936321394769,FALSE,0.286687302638222
"CAN","cpi",0.1,1987,3,1986,NA,1,3.73556884569446,3.94888795449147,4.23980729277887,4.33099659151455,FALSE,0.859806527213447
"CAN","cpi",0.1,1987,3,1986,NA,1.5,4.86009783376119,5.0734169425582,4.23980729277887,4.75247122036215,FALSE,1.59174253320216
"CAN","cpi",0.1,1988,3,1988,NA,0,3.90594308688048,3.94582844178585,3.92899537638065,4.01269560152408,TRUE,0.0398853549053655
"CAN","cpi",0.1,1988,3,1988,NA,0.5,3.86867845034235,4.07952054797035,3.92899537638065,3.47075595914335,TRUE,0.210842097627994
"CAN","cpi",0.1,1988,3,1987,NA,1,4.02136735487977,4.31871988590689,3.92899537638065,4.58162438495066,FALSE,0.502623594358489
"CAN","cpi",0.1,1988,3,1987,NA,1.5,4.19376173031108,4.4911142613382,3.92899537638065,3.81364776332008,FALSE,0.88572220642806
"CAN","cpi",0.1,1989,3,1989,NA,0,4.9015154506183,4.94511298755872,4.82821664544208,5.02395320873108,FALSE,0.206483770665365
"CAN","cpi",0.1,1989,3,1989,NA,0.5,4.66808306905812,4.83059038532777,4.82821664544208,4.36789847845152,TRUE,0.162507316269647
"CAN","cpi",0.1,1989,3,1988,NA,1,3.85417611062237,4.04599258020412,4.82821664544208,4.46162561835953,FALSE,1.93009217011055
"CAN","cpi",0.1,1989,3,1988,NA,1.5,3.8919351799622,4.08375164954394,4.82821664544208,3.27838152614011,FALSE,1.84618312713316
"CAN","cpi",0.1,1990,3,1990,NA,0,4.40501587828314,4.42822926503895,4.64347549432717,4.51963128519567,FALSE,0.501538340729629
"CAN","cpi",0.1,1990,3,1990,NA,0.5,5.22013613909542,5.39864410075825,4.64347549432717,4.98434426998405,FALSE,1.45997606114783
"CAN","cpi",0.1,1990,3,1989,NA,1,5.11209846077181,5.40964948714083,4.64347549432717,5.9177493923911,FALSE,1.33893539624599
"CAN","cpi",0.1,1990,3,1989,NA,1.5,4.68932517167736,4.98687619804638,4.64347549432717,4.56185858388509,FALSE,0.399439198258332
"CAN","cpi",0.1,1991,3,1991,NA,0,5.49232171659984,5.53812218773837,5.4258100696218,5.62406762795447,FALSE,0.193604131089739
"CAN","cpi",0.1,1991,3,1991,NA,0.5,8.29322031391954,8.4988512098765,5.4258100696218,8.39172083833767,FALSE,6.57765366106305
"CAN","cpi",0.1,1991,3,1990,NA,1,3.35810353094675,3.56373442690371,5.4258100696218,3.86917616551897,FALSE,4.34357676866381
"CAN","cpi",0.1,1991,3,1990,NA,1.5,5.08203741173254,5.2876683076895,5.4258100696218,5.12288497855213,FALSE,0.512612589139841
"CAN","cpi",0.1,1992,3,1992,NA,0,1.41312772350788,1.43537534939833,1.47496888572843,1.48060592990191,FALSE,0.110233262179565
"CAN","cpi",0.1,1992,3,1992,NA,0.5,1.82034570285958,1.88556370515871,1.47496888572843,1.17198715241532,FALSE,0.832722040368348
"CAN","cpi",0.1,1992,3,1991,NA,1,2.32194779893606,2.65822110756636,1.47496888572843,2.52024528073196,FALSE,2.21844867131392
"CAN","cpi",0.1,1992,3,1991,NA,1.5,8.37411732902151,8.71039063765181,1.47496888572843,10.1533377092026,FALSE,15.667714293726
"CAN","cpi",0.1,1993,3,1993,NA,0,1.73014857309753,1.76192106187661,1.84351085411351,1.80262144325658,FALSE,0.213083138194423
"CAN","cpi",0.1,1993,3,1993,NA,0.5,2.86326132959974,2.96089664700018,1.84351085411351,2.34241315558581,FALSE,2.36374748514761
"CAN","cpi",0.1,1993,3,1992,NA,1,1.70282204222103,1.83194129471099,1.84351085411351,1.81805946412584,FALSE,0.154829384495563
"CAN","cpi",0.1,1993,3,1992,NA,1.5,2.50684871491083,2.67106869997067,1.84351085411351,1.14026360102641,FALSE,1.63830412016498
"CAN","cpi",0.1,1994,3,1994,NA,0,0.135429117732183,0.160270706756131,0.161630694655448,0.163616628358327,FALSE,0.0278637843557624
"CAN","cpi",0.1,1994,3,1994,NA,0.5,0.402869193369772,0.430090295230671,0.161630694655448,-0.385140098029379,FALSE,0.563306654559397
"CAN","cpi",0.1,1994,3,1993,NA,1,1.3452874147111,1.46951317737351,0.161630694655448,1.37474728133383,FALSE,2.75457402945275
"CAN","cpi",0.1,1994,3,1993,NA,1.5,3.39084735803666,3.60714749377307,0.161630694655448,2.59685615311524,FALSE,7.39233716547244
"CAN","cpi",0.1,1995,3,1995,NA,0,2.129395629037,2.16311169486126,2.11688403676572,2.19356448193293,FALSE,0.0615196042048964
"CAN","cpi",0.1,1995,3,1995,NA,0.5,3.13612953576807,3.25832856718713,2.11688403676572,2.67750903542847,FALSE,2.38718902920207
"CAN","cpi",0.1,1995,3,1994,NA,1,1.31801044159683,1.44098020800972,2.11688403676572,1.34092618105198,FALSE,1.62497827475954
"CAN","cpi",0.1,1995,3,1994,NA,1.5,0.89780785429926,1.04948211250209,2.11688403676572,-1.3139842175605,FALSE,2.52367853434422
"CAN","cpi",0.1,1996,3,1996,NA,0,1.43050777830692,1.46070747389074,1.55309584667184,1.48206512402721,FALSE,0.23550719065293
"CAN","cpi",0.1,1996,3,1996,NA,0.5,1.78861297860489,1.9218158986757,1.55309584667184,1.23598680875262,FALSE,0.656574324366465
"CAN","cpi",0.1,1996,3,1995,NA,1,1.30374248093387,1.43694540100468,1.55309584667184,1.32983461361347,FALSE,0.391315021553395
"CAN","cpi",0.1,1996,3,1995,NA,1.5,3.93090013997783,4.13987191789549,1.55309584667184,3.42580605950136,FALSE,5.49298131859763
"CAN","cpi",0.1,1997,3,1997,NA,0,1.63524841151436,1.66710222751623,1.60528783555959,1.69050032419864,FALSE,0.0984328736791333
"CAN","cpi",0.1,1997,3,1997,NA,0.5,2.57844587674064,2.70854543408025,1.60528783555959,2.11979188984917,FALSE,2.29267298218639
"CAN","cpi",0.1,1997,3,1996,NA,1,1.20820208051903,1.43344758732977,1.60528783555959,1.19524084873691,FALSE,0.607112725099234
"CAN","cpi",0.1,1997,3,1996,NA,1.5,2.59190283907326,2.817148345884,1.60528783555959,1.35560903862103,FALSE,2.41772329239667
"CAN","cpi",0.1,1998,3,1998,NA,0,0.937428347102798,0.966652349063568,0.988908029337191,0.980088020931525,FALSE,0.0786810692354882
"CAN","cpi",0.1,1998,3,1998,NA,0.5,1.82178142124312,1.95793410650641,0.988908029337191,1.31078347146242,FALSE,1.98698244505424
"CAN","cpi",0.1,1998,3,1997,NA,1,1.09604483760374,1.33338505398816,0.988908029337191,1.06570792570078,FALSE,0.475422012532307
"CAN","cpi",0.1,1998,3,1997,NA,1.5,3.03816872380522,3.35347190365689,0.988908029337191,2.25360669266494,FALSE,4.86921583422507
"CAN","cpi",0.1,1999,3,1999,NA,0,1.75961679967463,1.79193931204987,1.7107350135213,1.81711295343144,FALSE,0.140948703827083
"CAN","cpi",0.1,1999,3,1999,NA,0.5,1.3503929908102,1.42689782357715,1.7107350135213,0.788387565724544,FALSE,0.707254143753937
"CAN","cpi",0.1,1999,3,1998,NA,1,0.700580764314857,0.925500088830828,1.7107350135213,0.575366492854125,FALSE,1.96988582382812
"CAN","cpi",0.1,1999,3,1998,NA,1.5,2.71471755333107,2.98766065268602,1.7107350135213,1.68716976710558,FALSE,2.50401541004333
"CAN","cpi",0.1,2000,3,2000,NA,0,2.6448397037646,2.69201861283024,2.6718361971244,2.72999398726497,TRUE,0.0471789090656394
"CAN","cpi",0.1,2000,3,2000,NA,0.5,2.50505203676604,2.66048155792547,2.6718361971244,2.06798867425529,FALSE,0.180662052712609
"CAN","cpi",0.1,2000,3,1999,NA,1,2.75368695463868,2.99473100262764,2.6718361971244,3.09152396062306,FALSE,0.422934620242909
"CAN","cpi",0.1,2000,3,1999,NA,1.5,2.09620439133516,2.33724843932413,2.6718361971244,0.842861855264031,FALSE,0.984572398656234
"CAN","cpi",0.1,2001,3,2001,NA,0,2.76642061885881,2.80253738559181,2.47906219852806,2.84208465688611,FALSE,0.674691034134667
"CAN","cpi",0.1,2001,3,2001,NA,0.5,2.36845047333566,2.49198638828684,2.47906219852806,1.88638468602912,TRUE,0.123535914951181
"CAN","cpi",0.1,2001,3,2000,NA,1,3.22330695858312,3.51855431413077,2.47906219852806,3.69789354026514,FALSE,1.94912460011445
"CAN","cpi",0.1,2001,3,2000,NA,1.5,2.81368462524867,3.10893198079632,2.47906219852806,1.8681620253813,FALSE,1.03885274826012
"CAN","cpi",0.1,2002,3,2002,NA,0,2.29643339364634,2.32439377769774,2.20880570551249,2.37599565696257,FALSE,0.222688579904414
"CAN","cpi",0.1,2002,3,2002,NA,0.5,1.49321946330884,1.58939904919793,2.20880570551249,0.913576617687781,FALSE,1.47263882214366
"CAN","cpi",0.1,2002,3,2001,NA,1,1.803190532846,2.0527611207895,2.20880570551249,1.93734082085477,FALSE,0.596336331772354
"CAN","cpi",0.1,2002,3,2001,NA,1.5,2.44379801865513,2.69336860659862,2.20880570551249,1.22267801456389,FALSE,0.771775728260471
"CAN","cpi",0.1,2003,3,2003,NA,0,2.64732469539508,2.67431431384983,2.71189071546809,2.73251886371656,FALSE,0.110492733161998
"CAN","cpi",0.1,2003,3,2003,NA,0.5,4.6012541053165,4.75510117570684,2.71189071546809,4.31675684669419,FALSE,4.35243238116459
"CAN","cpi",0.1,2003,3,2002,NA,1,3.98672720587661,4.26093076849672,2.71189071546809,4.61862409576541,FALSE,3.10717354130571
"CAN","cpi",0.1,2003,3,2002,NA,1.5,2.4104032195147,2.6846067821348,2.71189071546809,1.3655866266696,FALSE,0.334834525582961
"CAN","cpi",0.1,2004,3,2004,NA,0,1.75897017724168,1.7884174912835,1.83151661303942,1.82990600335775,FALSE,0.125223140166091
"CAN","cpi",0.1,2004,3,2004,NA,0.5,1.96668381620061,2.07766206265872,1.83151661303942,1.43982618755963,FALSE,0.411349809038527
"CAN","cpi",0.1,2004,3,2003,NA,1,1.06569663190689,1.30323942650406,1.83151661303942,1.02946817322814,FALSE,1.41149209800908
"CAN","cpi",0.1,2004,3,2003,NA,1.5,4.43613671867248,4.85041317080352,1.83151661303942,4.64649519124043,FALSE,6.20232113131562
"CAN","cpi",0.1,2005,3,2005,NA,0,2.31698918791709,2.35141222133991,2.18071628336509,2.38454318695835,FALSE,0.337251710205036
"CAN","cpi",0.1,2005,3,2005,NA,0.5,2.11633977838555,2.22323626464833,2.18071628336509,1.60616687455658,TRUE,0.106896486262787
"CAN","cpi",0.1,2005,3,2004,NA,1,1.58627930367979,1.8056146462237,2.18071628336509,1.65181790765431,FALSE,1.05289453619144
"CAN","cpi",0.1,2005,3,2004,NA,1.5,2.71338523286752,2.93272057541142,2.18071628336509,1.76259299547523,FALSE,1.40304411921596
"CAN","cpi",0.1,2006,3,2006,NA,0,2.06057468197314,2.08918758582717,1.97519342012289,2.13635134601064,FALSE,0.218349041299035
"CAN","cpi",0.1,2006,3,2006,NA,0.5,2.27890025909449,2.3885290905282,1.97519342012289,1.78685076876899,FALSE,0.784532918037271
"CAN","cpi",0.1,2006,3,2005,NA,1,3.14379681922223,3.45713592394987,1.97519342012289,3.50484952590076,FALSE,2.91023554717063
"CAN","cpi",0.1,2006,3,2005,NA,1.5,2.44194379403085,2.75528289875849,1.97519342012289,1.46813842301012,FALSE,1.35056215785645
"CAN","cpi",0.1,2007,3,2007,NA,0,2.12789458874364,2.15632124731562,2.10062087284572,2.20475175639581,FALSE,0.0890349161229093
"CAN","cpi",0.1,2007,3,2007,NA,0.5,2.45742386052389,2.56956366569945,2.10062087284572,1.98527746740088,FALSE,0.90503533334927
"CAN","cpi",0.1,2007,3,2006,NA,1,1.45227164841738,1.64560285993233,2.10062087284572,1.24740231882683,FALSE,1.20448235132249
"CAN","cpi",0.1,2007,3,2006,NA,1.5,2.55332777861236,2.81208415099074,2.10062087284572,1.60497207990466,FALSE,1.26477171852646
"CAN","cpi",0.1,2008,3,2008,NA,0,2.92635663161414,2.95561329611785,2.31447335265955,3.01767576079065,FALSE,1.3889972844028
"CAN","cpi",0.1,2008,3,2008,NA,0.5,1.57529330407757,1.70232077526165,2.31447335265955,1.03762364210032,FALSE,1.48736653206831
"CAN","cpi",0.1,2008,3,2007,NA,1,1.55888826849381,1.7725468838223,2.31447335265955,1.40291213269118,FALSE,1.41793965718905
"CAN","cpi",0.1,2008,3,2007,NA,1.5,3.1919448508393,3.53090514220083,2.31447335265955,2.69934766650446,FALSE,2.28889695398319
"CAN","cpi",0.1,2009,3,2009,NA,0,0.272222980178255,0.294102329884838,0.284533874408197,0.321726231334406,TRUE,0.0218793497065828
"CAN","cpi",0.1,2009,3,2009,NA,0.5,-0.52076262494256,-0.458191020013389,0.284533874408197,-1.32493870283985,FALSE,1.71307137031047
"CAN","cpi",0.1,2009,3,2008,NA,1,4.18149596606537,4.66046877567217,0.284533874408197,5.07610742917547,FALSE,9.13888856884495
"CAN","cpi",0.1,2009,3,2008,NA,1.5,2.05497578401132,2.53394859361812,0.284533874408197,1.01106559029091,FALSE,4.41328816428041
"CAN","cpi",0.1,2010,3,2010,NA,0,1.68260219001264,1.70493680040268,1.75525687020327,1.75432596686424,FALSE,0.134156987724682
"CAN","cpi",0.1,2010,3,2010,NA,0.5,2.04594582199448,2.10576297684023,1.75525687020327,1.49344630005585,FALSE,0.705792603270656
"CAN","cpi",0.1,2010,3,2009,NA,1,1.43433532667567,1.49415248152143,1.75525687020327,1.13010370525173,FALSE,0.640049129694296
"CAN","cpi",0.1,2010,3,2009,NA,1.5,0.268380764791074,0.328197919636828,1.75525687020327,-2.25919184326718,FALSE,3.23105926721563
"CAN","cpi",0.1,2011,3,2011,NA,0,2.8203519191839,2.84140155623121,2.85717434028225,2.90832322356675,FALSE,0.0561002682718299
"CAN","cpi",0.1,2011,3,2011,NA,0.5,3.20387679846493,3.32802220374631,2.85717434028225,2.81495035644064,FALSE,0.89459531235401
"CAN","cpi",0.1,2011,3,2010,NA,1,2.17288180901546,2.46603210557385,2.85717434028225,2.24995624930718,FALSE,1.16235526257706
"CAN","cpi",0.1,2011,3,2010,NA,1.5,2.54376218067459,2.86872941719084,2.85717434028225,1.69121218305118,TRUE,0.324967236516256
"CAN","cpi",0.1,2012,3,2012,NA,0,1.44273356812712,1.46701385462404,1.50118536134935,1.50859370689259,FALSE,0.100216968108714
"CAN","cpi",0.1,2012,3,2012,NA,0.5,2.21924256489611,2.35749940681586,1.50118536134935,1.75125264874692,FALSE,1.73393951646812
"CAN","cpi",0.1,2012,3,2011,NA,1,1.90175342276176,2.1637670755648,1.50118536134935,1.8474445607568,FALSE,1.15216490038618
"CAN","cpi",0.1,2012,3,2011,NA,1.5,3.32891178848106,3.7637646156428,1.50118536134935,3.06926058053075,FALSE,4.49646710967667
"CAN","cpi",0.1,2013,3,2013,NA,0,1.00649054584864,1.02899698650906,0.931270594714462,1.05615594966199,FALSE,0.189661887625262
"CAN","cpi",0.1,2013,3,2013,NA,0.5,1.5867619629969,1.66504040352687,0.931270594714462,1.02417936454929,FALSE,1.53492592560206
"CAN","cpi",0.1,2013,3,2012,NA,1,0.631154962289989,0.70943340281996,0.931270594714462,0.0685845185761151,FALSE,0.571249978073308
"CAN","cpi",0.1,2013,3,2012,NA,1.5,2.55925156527782,2.8755669531562,0.931270594714462,1.71916958716775,FALSE,3.93405087801917
"CAN","cpi",0.1,2014,3,2014,NA,0,1.98923806486916,2.01475320012081,1.87639912240215,2.06386975595087,FALSE,0.2762683407339
"CAN","cpi",0.1,2014,3,2014,NA,0.5,2.34563745562832,2.49324030294542,1.87639912240215,1.92715211220712,FALSE,1.19035469893081
"CAN","cpi",0.1,2014,3,2013,NA,1,1.40752509390772,1.56695213711762,1.87639912240215,1.11372323439473,FALSE,0.847087010508859
"CAN","cpi",0.1,2014,3,2013,NA,1.5,2.38264415999577,2.66585741857938,1.87639912240215,1.40040388240124,FALSE,1.40820223101387
"CAN","cpi",0.1,2015,3,2015,NA,0,1.2425372284189,1.26847969043606,1.11090953952792,1.30732778141228,FALSE,0.318448437330465
"CAN","cpi",0.1,2015,3,2015,NA,0.5,0.675934517533426,0.821356581809967,1.11090953952792,0.0832530397055839,FALSE,0.788873081427541
"CAN","cpi",0.1,2015,3,2014,NA,1,1.62729606465571,1.84264148173258,1.11090953952792,1.43393836679687,FALSE,1.36287102847196
"CAN","cpi",0.1,2015,3,2014,NA,1.5,3.08910522041868,3.49346501994896,1.11090953952792,2.67552344749624,FALSE,4.80035020150976
"CAN","cpi",0.1,2016,3,2016,NA,0,1.44099805807543,1.46325468031769,1.41168586698797,1.50891536161516,FALSE,0.0873948246588456
"CAN","cpi",0.1,2016,3,2016,NA,0.5,1.31306310988042,1.47716831545957,1.41168586698797,0.786851742019216,TRUE,0.164105205579156
"CAN","cpi",0.1,2016,3,2015,NA,1,2.15674924117364,2.37834184643353,1.41168586698797,2.15660249634191,FALSE,1.87728899233916
"CAN","cpi",0.1,2016,3,2015,NA,1.5,1.47819922413924,1.69979182939912,1.41168586698797,-0.117220285505753,FALSE,0.369400065596044
"CAN","cpi",0.1,2017,3,2017,NA,0,1.46736389829018,1.50254652663942,1.57888581671161,1.54881337220766,FALSE,0.204825495176335
"CAN","cpi",0.1,2017,3,2017,NA,0.5,2.33794535528564,2.47617163233582,1.57888581671161,1.91336997918348,FALSE,1.82502525165913
"CAN","cpi",0.1,2017,3,2016,NA,1,1.46017631277553,1.59840258982571,1.57888581671161,1.18768855671255,TRUE,0.138226277050174
"CAN","cpi",0.1,2017,3,2016,NA,1.5,1.918408897531,2.05663517458118,1.57888581671161,0.6644917028394,FALSE,0.892722012204377
"CAN","cpi",0.1,2018,3,2018,NA,0,2.36279041779709,2.38534458825672,2.23316270166586,2.44523056077762,FALSE,0.310615761862364
"CAN","cpi",0.1,2018,3,2018,NA,0.5,3.14512922248777,3.24235554981696,2.23316270166586,2.80156516368753,FALSE,2.12381859582232
"CAN","cpi",0.1,2018,3,2017,NA,1,1.20967265901495,1.30689898634413,2.23316270166586,0.82019125662587,FALSE,2.15559013915525
"CAN","cpi",0.1,2018,3,2017,NA,1.5,2.79379571376216,3.23345845602078,2.23316270166586,2.43256495233066,FALSE,1.6855138802504
"CAN","cpi",0.1,2019,3,2019,NA,0,1.99609984413203,2.03048225485133,1.91921619871868,2.08489368525497,FALSE,0.2052349560823
"CAN","cpi",0.1,2019,3,2019,NA,0.5,1.9227354890534,2.06060787215849,1.91921619871868,1.47181960590434,FALSE,0.145693028293351
"CAN","cpi",0.1,2019,3,2018,NA,1,2.14203156564738,2.43527834164381,1.91921619871868,2.1812391651413,FALSE,0.788392035837981
"CAN","cpi",0.1,2019,3,2018,NA,1.5,3.40485880773248,4.00977716519123,1.91921619871868,3.59347997035086,FALSE,3.90634637748942
"CAN","cpi",0.1,2020,3,2020,NA,0,0.620338317630343,0.658881803140477,0.71139989671781,0.692133240684643,FALSE,0.15525036012643
"CAN","cpi",0.1,2020,3,2020,NA,0.5,1.5474488025597,1.68848409058303,0.71139989671781,1.05558053361148,FALSE,1.99892174544976
"CAN","cpi",0.1,2020,3,2019,NA,1,2.00437577726492,2.27185664453135,0.71139989671781,2.01486975979332,FALSE,3.14076060181556
"CAN","cpi",0.1,2020,3,2019,NA,1.5,2.4464618242988,2.77358101813539,0.71139989671781,1.77269016603738,FALSE,4.18281236623879
"CAN","cpi",0.1,2021,3,2021,NA,0,3.26765270661513,3.30011068033339,3.31148121717802,3.37410895790077,FALSE,0.0577258333730016
"CAN","cpi",0.1,2021,3,2021,NA,0.5,2.96179766278391,3.11946041751767,3.31148121717802,2.68190793980083,FALSE,0.584375642867885
"CAN","cpi",0.1,2021,3,2020,NA,1,1.45399141649428,1.61165417122804,3.31148121717802,1.19247466620579,FALSE,3.93505619017816
"CAN","cpi",0.1,2021,3,2020,NA,1.5,2.02602059933718,2.22923242970472,3.31148121717802,0.994097524483704,FALSE,2.60820913586377
"CAN","cpi",0.1,2022,3,2022,NA,0,6.56353101361594,6.59994660048269,6.50977236228281,6.71215382839029,FALSE,0.155879256495924
"CAN","cpi",0.1,2022,3,2022,NA,0.5,6.34010295229149,6.48573259706271,6.50977236228281,6.42154306210558,FALSE,0.199051345260338
"CAN","cpi",0.1,2022,3,2021,NA,1,3.91148529780167,4.5388707623215,6.50977236228281,4.97199453293936,FALSE,5.00716679776718
"CAN","cpi",0.1,2022,3,2021,NA,1.5,3.30421067480411,3.93159613932393,6.50977236228281,3.45701838810354,FALSE,6.356665959984
"CAN","cpi",0.1,2023,3,2023,NA,0,3.92785389915009,3.95797454803295,3.78831288758619,4.042121841464,FALSE,0.340211785691532
"CAN","cpi",0.1,2023,3,2023,NA,0.5,3.35943562557145,3.47231106794133,3.78831288758619,3.05997192794191,FALSE,0.815101708247351
"CAN","cpi",0.1,2023,3,2022,NA,1,4.21626249176782,4.95869708444789,3.78831288758619,5.28351765661874,FALSE,1.69343371308368
"CAN","cpi",0.1,2023,3,2022,NA,1.5,5.3492697871911,6.48003373372732,3.78831288758619,7.28752716372712,FALSE,4.59955705676935
"CAN","cpi",0.1,2024,3,2023,NA,1,3.51062970890949,4.08604444934309,NA,4.37793695924716,NA,NA
"CAN","cpi",0.1,2024,3,2023,NA,1.5,2.62819706460971,3.20361180504331,NA,2.36897983740768,NA,NA
"CAN","cpi",0.2,1950,3,1950,NA,0,2.42545523840043,2.42545523840043,2.59031220731124,2.28904261800392,FALSE,0.412142422277024
"CAN","cpi",0.2,1950,3,1950,NA,0.5,0.683942621145299,0.683942621145291,2.59031220731124,-0.0597026374682003,FALSE,4.76592396541486
"CAN","cpi",0.2,1950,3,1949,NA,1,-25.685196572393,-25.685196572393,2.59031220731124,1.71904267353831,FALSE,70.6887719492605
"CAN","cpi",0.2,1950,3,1949,NA,1.5,14.2269133930234,14.2269133930234,2.59031220731124,1.07189937513012,FALSE,29.0915029642803
"CAN","cpi",0.2,1951,3,1951,NA,0,9.85883493935785,9.90949843486808,9.87945438999359,10.0174160826209,TRUE,0.050663495510225
"CAN","cpi",0.2,1951,3,1951,NA,0.5,8.39549387367149,9.12321458877557,9.87945438999359,9.64288482270982,FALSE,2.61832021814914
"CAN","cpi",0.2,1951,3,1950,NA,1,3.06412638916156,7.15057500068502,9.87945438999359,6.5630832774632,FALSE,10.9086470847949
"CAN","cpi",0.2,1951,3,1950,NA,1.5,2.46581029846084,15.8639563260731,9.87945438999359,-1.15455738512665,TRUE,13.3981460276123
"CAN","cpi",0.2,1952,3,1952,NA,0,2.6555677457813,2.6961319101497,2.55562336095485,2.46502621244774,FALSE,0.290425126434546
"CAN","cpi",0.2,1952,3,1952,NA,0.5,5.51982653424984,5.56039069861824,2.55562336095485,4.32129924776399,FALSE,7.45107209760589
"CAN","cpi",0.2,1952,3,1951,NA,1,10.0437651859168,10.0843293502852,2.55562336095485,9.65785623271456,FALSE,18.7609187267733
"CAN","cpi",0.2,1952,3,1951,NA,1.5,5.49535025371203,5.53591441808043,2.55562336095485,10.2729097180516,FALSE,7.38988139626136
"CAN","cpi",0.2,1953,3,1953,NA,0,-0.614797274434409,-0.788796197837293,-1.01492775838436,-1.00749856253296,FALSE,0.826327286472
"CAN","cpi",0.2,1953,3,1953,NA,0.5,0.250082256831734,0.07608333342885,-1.01492775838436,-2.06778904141071,FALSE,2.98852611463736
"CAN","cpi",0.2,1953,3,1952,NA,1,0.977774565056715,0.80377564165383,-1.01492775838436,-1.55171650633025,FALSE,4.80775688519981
"CAN","cpi",0.2,1953,3,1952,NA,1.5,2.63998412510246,8.69002626998302,-1.01492775838436,1.96017794195978,FALSE,15.1873218535976
"CAN","cpi",0.2,1954,3,1954,NA,0,0.991566350289168,1.02883159991325,0.644425455961438,0.844896913757956,FALSE,0.905117485443411
"CAN","cpi",0.2,1954,3,1954,NA,0.5,0.518027677606749,0.609758436148465,0.644425455961438,-0.153040348587994,FALSE,0.178398308074149
"CAN","cpi",0.2,1954,3,1953,NA,1,0.61774418678967,3.56542595602425,0.644425455961438,2.75483618067449,TRUE,2.94768176923458
"CAN","cpi",0.2,1954,3,1953,NA,1.5,2.60387473500021,10.4029706197939,0.644425455961438,-2.52548049332379,FALSE,12.6977190823906
"CAN","cpi",0.2,1955,3,1955,NA,0,0.117286415308427,0.230768527014761,0.173649026558865,0.10765252516202,TRUE,0.113482111706335
"CAN","cpi",0.2,1955,3,1955,NA,0.5,0.147530427831878,0.261012539538213,0.173649026558865,-0.685764272176465,TRUE,0.113482111706335
"CAN","cpi",0.2,1955,3,1954,NA,1,1.01273434194971,3.20925431625145,0.173649026558865,3.05598167297881,FALSE,4.29423326277884
"CAN","cpi",0.2,1955,3,1954,NA,1.5,0.537897491797905,2.73441746609965,0.173649026558865,-1.37299158518014,FALSE,3.10714113739934
"CAN","cpi",0.2,1956,3,1956,NA,0,1.56132873135783,1.61305231952869,1.32752769429961,1.5132196707054,FALSE,0.636226180816407
"CAN","cpi",0.2,1956,3,1956,NA,0.5,0.275377986058522,0.327101574229384,1.32752769429961,-0.533297708724126,FALSE,2.55278888834642
"CAN","cpi",0.2,1956,3,1955,NA,1,-0.125324078062451,1.27931070370917,1.32752769429961,0.79482048855347,FALSE,1.52517725824771
"CAN","cpi",0.2,1956,3,1955,NA,1.5,0.772962629772329,2.43667674649746,1.32752769429961,-1.67555014996128,TRUE,1.66371411672513
"CAN","cpi",0.2,1957,3,1957,NA,0,3.32757618597296,3.39314012090689,3.24684755852518,3.4081189986054,FALSE,0.267385503553387
"CAN","cpi",0.2,1957,3,1957,NA,0.5,2.58662629280639,2.65219022774031,3.24684755852518,2.36364513914165,FALSE,1.55220726189609
"CAN","cpi",0.2,1957,3,1956,NA,1,3.07202222237617,5.74565629858572,3.24684755852518,6.42400073504334,TRUE,2.67363407620955
"CAN","cpi",0.2,1957,3,1956,NA,1.5,-0.25492782748161,2.41870624872794,3.24684755852518,-1.44175113719435,FALSE,4.74398735070264
"CAN","cpi",0.2,1958,3,1958,NA,0,2.153454154001,2.24637726553173,2.33186388641149,2.22393716079583,FALSE,0.306639663730132
"CAN","cpi",0.2,1958,3,1958,NA,0.5,2.50278492704017,3.14610350708504,2.33186388641149,2.22874439106395,FALSE,1.07062118161657
"CAN","cpi",0.2,1958,3,1957,NA,1,1.76838722403339,4.21429908107883,2.33186388641149,4.33819969505612,TRUE,2.44591185704544
"CAN","cpi",0.2,1958,3,1957,NA,1.5,0.68248282627845,3.12839468332389,2.33186388641149,1.22685206136826,TRUE,2.44591185704544
"CAN","cpi",0.2,1959,3,1959,NA,0,1.18007283648411,1.29205825317396,1.19382698397654,1.19679708996586,TRUE,0.111985416689851
"CAN","cpi",0.2,1959,3,1959,NA,0.5,1.20674666438114,1.31873208107099,1.19382698397654,0.655175994826909,FALSE,0.14428461770135
"CAN","cpi",0.2,1959,3,1958,NA,1,0.260870603856657,0.866521561591365,1.19382698397654,1.75938857815981,FALSE,1.42391451369765
"CAN","cpi",0.2,1959,3,1958,NA,1.5,1.73973284692442,2.62962723663051,1.19382698397654,1.7749666101295,FALSE,2.25465904707579
"CAN","cpi",0.2,1960,3,1960,NA,0,0.996569543738045,1.06581018302507,1.34209404870695,1.03130246511349,FALSE,0.759950303491724
"CAN","cpi",0.2,1960,3,1960,NA,0.5,1.29992546195798,1.36916610124501,1.34209404870695,0.745602653132245,TRUE,0.0692406392870275
"CAN","cpi",0.2,1960,3,1959,NA,1,0.862601857599762,1.88953456409298,1.34209404870695,3.33587387303437,TRUE,1.02693270649321
"CAN","cpi",0.2,1960,3,1959,NA,1.5,0.972963081963577,2.21657042617946,1.34209404870695,-0.32541909428789,TRUE,1.24360734421589
"CAN","cpi",0.2,1961,3,1961,NA,0,1.03679955008771,1.11769908251657,1.00921348094007,1.00921348094007,FALSE,0.149864705297956
"CAN","cpi",0.2,1961,3,1961,NA,0.5,1.7363765165501,1.81727604897896,1.00921348094007,1.31141131508129,FALSE,1.89880712145393
"CAN","cpi",0.2,1961,3,1960,NA,1,-0.197355350425993,0.480786182026136,1.00921348094007,0.143625905669962,FALSE,1.99920977973697
"CAN","cpi",0.2,1961,3,1960,NA,1.5,1.34020502350585,2.21547916738569,1.00921348094007,-0.34011142415222,FALSE,1.70275300029429
"CAN","cpi",0.2,1962,3,1962,NA,0,1.11308809074706,1.15253448494652,1.04957947883042,1.11132998230876,FALSE,0.198217923991074
"CAN","cpi",0.2,1962,3,1962,NA,0.5,0.715088933282996,0.754535327482452,1.04957947883042,1.64134322488006e-44,FALSE,0.777056772569364
"CAN","cpi",0.2,1962,3,1961,NA,1,0.32501190831245,0.428814740664948,1.04957947883042,-9.44308782563385e-19,FALSE,1.65571467776617
"CAN","cpi",0.2,1962,3,1961,NA,1.5,1.1724087619701,1.61781217900337,1.04957947883042,0.754384248690751,FALSE,0.752476624882483
"CAN","cpi",0.2,1963,3,1963,NA,0,1.83778531588301,1.88450979816873,1.60677118395228,1.85599510888664,FALSE,0.624259812112531
"CAN","cpi",0.2,1963,3,1963,NA,0.5,1.45943724530003,1.50616172758575,1.60677118395228,0.932300293637426,FALSE,0.298248123202057
"CAN","cpi",0.2,1963,3,1962,NA,1,1.43584989510864,1.9072164458837,1.60677118395228,2.66748522343727,TRUE,0.471366550775062
"CAN","cpi",0.2,1963,3,1962,NA,1.5,1.05754808416261,1.52891463493768,1.60677118395228,4.10321927477868e-44,FALSE,0.666007923311581
"CAN","cpi",0.2,1964,3,1964,NA,0,1.93574121506782,2.00352092846524,1.88764670034376,1.98894154569002,FALSE,0.188016000207562
"CAN","cpi",0.2,1964,3,1964,NA,0.5,1.80741935892422,1.87519907232164,1.88764670034376,1.38377582747094,FALSE,0.0988987834527304
"CAN","cpi",0.2,1964,3,1963,NA,1,2.00691381889539,2.60727507313415,1.88764670034376,4.71286552905431,FALSE,0.898529050617839
"CAN","cpi",0.2,1964,3,1963,NA,1.5,1.06365066465625,1.66401191889502,1.88764670034376,0.238779673172327,FALSE,1.15944820786062
"CAN","cpi",0.2,1965,3,1965,NA,0,2.2819057887134,2.33433506546707,2.29538304394236,2.35494510510554,TRUE,0.0524292767536743
"CAN","cpi",0.2,1965,3,1965,NA,0.5,1.97162821712362,2.02736559174574,2.29538304394236,1.56044896459738,FALSE,0.725781005113658
"CAN","cpi",0.2,1965,3,1964,NA,1,1.37088619903975,1.8227948299498,2.29538304394236,2.42710731898607,FALSE,1.63337916589145
"CAN","cpi",0.2,1965,3,1964,NA,1.5,1.18194129907505,1.70042775093284,2.29538304394236,0.818315757903116,FALSE,2.00587468438158
"CAN","cpi",0.2,1966,3,1966,NA,0,3.74749739536775,3.80018355327701,3.72486065470629,3.84664136390011,FALSE,0.109278009562914
"CAN","cpi",0.2,1966,3,1966,NA,0.5,3.78589298440812,3.83857914231739,3.72486065470629,3.84691400230302,FALSE,0.205266982163848
"CAN","cpi",0.2,1966,3,1965,NA,1,1.63035515783615,2.11429553087007,3.72486065470629,3.31367997089714,FALSE,4.51035318262447
"CAN","cpi",0.2,1966,3,1965,NA,1.5,1.55003793232273,2.03397830535665,3.72486065470629,1.48150382413513,FALSE,4.71114624640803
"CAN","cpi",0.2,1967,3,1967,NA,0,3.66945553458019,3.72491903851536,3.49360316391996,3.76862969063141,FALSE,0.495094430585753
"CAN","cpi",0.2,1967,3,1967,NA,0.5,2.60704242122073,2.6625059251559,3.49360316391996,2.36174420726938,FALSE,2.13320660084532
"CAN","cpi",0.2,1967,3,1966,NA,1,1.70031031546026,2.14915491624642,3.49360316391996,3.4823384545504,FALSE,3.80996521997001
"CAN","cpi",0.2,1967,3,1966,NA,1.5,1.88623187293952,2.33507647372568,3.49360316391996,4.29257700443622,FALSE,3.34516132627186
"CAN","cpi",0.2,1968,3,1968,NA,0,3.99623261391331,4.04221940443621,3.95128347779386,4.1134030125927,FALSE,0.158359630821536
"CAN","cpi",0.2,1968,3,1968,NA,0.5,3.82492349550951,3.9322563240063,3.95128347779386,3.89224433743933,FALSE,0.154900712965679
"CAN","cpi",0.2,1968,3,1967,NA,1,2.37868455027999,3.05255708553327,3.95128347779386,5.85596711509228,FALSE,2.92068851590475
"CAN","cpi",0.2,1968,3,1967,NA,1.5,1.65931896251959,2.39423177111311,3.95128347779386,2.14187095150408,FALSE,4.62754207529539
"CAN","cpi",0.2,1969,3,1969,NA,0,4.51569042373971,4.55806638494268,4.42679496126681,4.64263065146317,FALSE,0.264614617385207
"CAN","cpi",0.2,1969,3,1969,NA,0.5,3.16504684986719,3.27996944499447,4.42679496126681,3.06199492877772,FALSE,2.98198638580815
"CAN","cpi",0.2,1969,3,1968,NA,1,2.70055970310862,3.78072617390087,4.42679496126681,6.05582378748629,FALSE,2.69533843920711
"CAN","cpi",0.2,1969,3,1968,NA,1.5,1.71679020497421,2.79695667576646,4.42679496126681,3.87227485119322,FALSE,5.15476218454313
"CAN","cpi",0.2,1970,3,1970,NA,0,3.47266748277596,3.52990026233464,3.28128405769805,3.58996474924422,FALSE,0.535691342253465
"CAN","cpi",0.2,1970,3,1970,NA,0.5,4.0610493269242,4.17046594757717,3.28128405769805,4.17180269652751,FALSE,2.05882979371835
"CAN","cpi",0.2,1970,3,1969,NA,1,2.95291608543582,3.84818259897098,3.28128405769805,5.43865496465038,TRUE,0.895266513535156
"CAN","cpi",0.2,1970,3,1969,NA,1.5,1.66099970304906,2.55626621658422,3.28128405769805,2.31672730979866,FALSE,2.70781111631973
"CAN","cpi",0.2,1971,3,1971,NA,0,2.78910242264385,2.85037505897558,2.64123406634756,2.89424739818036,FALSE,0.430943527072446
"CAN","cpi",0.2,1971,3,1971,NA,0.5,1.58606682698827,1.71915052838746,2.64123406634756,1.07533993963556,FALSE,2.43829254629945
"CAN","cpi",0.2,1971,3,1970,NA,1,1.79374687256877,2.42023637079082,2.64123406634756,2.98160965133743,FALSE,1.17898373711391
"CAN","cpi",0.2,1971,3,1970,NA,1.5,1.97365966239727,2.60014916061933,2.64123406634756,4.15708260691123,FALSE,0.729201762542638
"CAN","cpi",0.2,1972,3,1972,NA,0,4.95077392778085,4.98668737768187,4.83230569625923,5.10321489701878,FALSE,0.332084028705061
"CAN","cpi",0.2,1972,3,1972,NA,0.5,4.38123019214735,4.48679520328669,4.83230569625923,4.57526784474473,FALSE,0.969341243570692
"CAN","cpi",0.2,1972,3,1971,NA,1,3.36044250113198,4.25653077852749,4.83230569625923,6.5673313651466,FALSE,2.33552557172485
"CAN","cpi",0.2,1972,3,1971,NA,1.5,1.61006612108305,2.50615439847856,4.83230569625923,1.20127092516847,FALSE,6.71146652184719
"CAN","cpi",0.2,1973,3,1973,NA,0,7.10753886526539,7.19932618137373,7.12388603531779,7.36268749116872,TRUE,0.0917873161083413
"CAN","cpi",0.2,1973,3,1973,NA,0.5,5.42800818981138,5.61438672711943,7.12388603531779,5.89432993074317,FALSE,3.96012680780396
"CAN","cpi",0.2,1973,3,1972,NA,1,3.88023489276445,4.97977148984544,7.12388603531779,7.371399360381,FALSE,6.45982296076187
"CAN","cpi",0.2,1973,3,1972,NA,1.5,1.90241186878231,3.0019484658633,7.12388603531779,4.50324671282129,FALSE,11.4043805207172
"CAN","cpi",0.2,1974,3,1974,NA,0,10.0077546541492,10.0975809515336,10.2717243737774,10.3222881332229,FALSE,0.525184852993999
"CAN","cpi",0.2,1974,3,1974,NA,0.5,7.77128312794177,8.42700966941578,10.2717243737774,8.8471290293637,FALSE,5.26751330237811
"CAN","cpi",0.2,1974,3,1973,NA,1,5.65233028571282,7.03864048760513,10.2717243737774,10.9884402825372,FALSE,9.46901991732304
"CAN","cpi",0.2,1974,3,1973,NA,1.5,1.90318354527372,3.28949374716602,10.2717243737774,6.19554852079723,FALSE,18.8418867684208
"CAN","cpi",0.2,1975,3,1975,NA,0,9.95740642193382,10.0411807820014,10.0232981493341,10.2646941702359,TRUE,0.0837743600675509
"CAN","cpi",0.2,1975,3,1975,NA,0.5,8.06603753541658,9.28244050589122,10.0232981493341,9.21855388205318,FALSE,3.06854707908189
"CAN","cpi",0.2,1975,3,1974,NA,1,6.99852653863664,8.2602165917733,10.0232981493341,11.9905143933903,FALSE,5.66939394703871
"CAN","cpi",0.2,1975,3,1974,NA,1.5,2.60021111660676,4.7241522698773,10.0232981493341,8.68009129130424,FALSE,15.3718058519126
"CAN","cpi",0.2,1976,3,1976,NA,0,7.04886222050038,7.09272572069168,7.22784311401172,7.25383067322222,FALSE,0.381656983491388
"CAN","cpi",0.2,1976,3,1976,NA,0.5,6.85854846988831,7.80730764932273,7.22784311401172,7.41547675604771,TRUE,0.948759179434425
"CAN","cpi",0.2,1976,3,1975,NA,1,8.0134423006794,9.96239919851652,7.22784311401172,11.9151510581142,FALSE,3.91295486450634
"CAN","cpi",0.2,1976,3,1975,NA,1.5,3.50978824742643,6.3834014940729,7.22784311401172,8.01331538119686,FALSE,4.98471729649351
"CAN","cpi",0.2,1977,3,1977,NA,0,7.42207010397354,7.45000401794785,7.58101410153764,7.61867129691007,FALSE,0.35545912294879
"CAN","cpi",0.2,1977,3,1977,NA,0.5,6.55796414985872,7.44207563226362,7.58101410153764,7.02287871989832,FALSE,1.23145765558995
"CAN","cpi",0.2,1977,3,1976,NA,1,3.554969577308,5.07960229320215,7.58101410153764,5.87261903876238,FALSE,7.77816223673288
"CAN","cpi",0.2,1977,3,1976,NA,1.5,3.61817088172538,5.77529944553245,7.58101410153764,6.15322645024094,FALSE,6.67141520382006
"CAN","cpi",0.2,1978,3,1978,NA,0,8.46666429252547,8.55911223593035,8.50208927062595,8.68125407245005,TRUE,0.0924479434048777
"CAN","cpi",0.2,1978,3,1978,NA,0.5,7.7512077027512,8.46745495385333,8.50208927062595,8.12508742330222,FALSE,0.802833043033662
"CAN","cpi",0.2,1978,3,1977,NA,1,5.28381577892906,7.31841937982466,8.50208927062595,8.64318766852961,FALSE,4.99377832789882
"CAN","cpi",0.2,1978,3,1977,NA,1.5,4.82775951060351,7.00731339534808,8.50208927062595,7.66028936796504,FALSE,5.91649357293923
"CAN","cpi",0.2,1979,3,1979,NA,0,8.40071362568337,8.43292740596433,8.65147652410481,8.61075946409788,FALSE,0.578586575632159
"CAN","cpi",0.2,1979,3,1979,NA,0.5,7.82444211971929,8.47925200856299,8.65147652410481,8.10062835274572,FALSE,1.08537117769825
"CAN","cpi",0.2,1979,3,1978,NA,1,6.41251740281339,8.07755974433554,8.65147652410481,9.5826348846829,FALSE,3.09983429094532
"CAN","cpi",0.2,1979,3,1978,NA,1.5,5.35161917768997,7.18319261333944,8.65147652410481,7.94183844676527,FALSE,5.50228321256289
"CAN","cpi",0.2,1980,3,1980,NA,0,9.30592991107511,9.39888676020522,9.5171912664748,9.53109046750286,FALSE,0.388718114804046
"CAN","cpi",0.2,1980,3,1980,NA,0.5,8.33384043587373,9.02546967143744,9.5171912664748,8.68563614915422,FALSE,1.92093322315711
"CAN","cpi",0.2,1980,3,1979,NA,1,5.69488342139585,7.47207045972096,9.5171912664748,8.32548734166583,FALSE,6.88998905520971
"CAN","cpi",0.2,1980,3,1979,NA,1.5,6.99184195282442,8.76902899114952,9.5171912664748,7.98047102096121,FALSE,3.64759272663829
"CAN","cpi",0.2,1981,3,1981,NA,0,11.4480280472559,11.5509668349803,11.5813425032741,11.708955977523,FALSE,0.178877958459095
"CAN","cpi",0.2,1981,3,1981,NA,0.5,11.5203683854778,12.4067916430734,11.5813425032741,12.1263962907449,TRUE,0.886423257595617
"CAN","cpi",0.2,1981,3,1980,NA,1,8.04219073992549,9.74757536761295,11.5813425032741,10.9849401653028,FALSE,6.28980246684043
"CAN","cpi",0.2,1981,3,1980,NA,1.5,7.56004761290471,9.26543224059217,11.5813425032741,8.62735225265647,FALSE,7.49516028439238
"CAN","cpi",0.2,1982,3,1982,NA,0,10.0730062717406,10.1965739362242,10.1124203763629,10.3109749747662,TRUE,0.123567664483659
"CAN","cpi",0.2,1982,3,1982,NA,0.5,9.77542716500891,10.3457558836925,10.1124203763629,10.0996836619997,TRUE,0.570328718683626
"CAN","cpi",0.2,1982,3,1981,NA,1,8.61647020356848,10.8365322289811,10.1124203763629,11.6194795199153,TRUE,2.22006202541266
"CAN","cpi",0.2,1982,3,1981,NA,1.5,10.4572439685129,12.6773059939256,10.1124203763629,12.7194356761443,FALSE,3.08212100578763
"CAN","cpi",0.2,1983,3,1983,NA,0,5.68148953447315,5.75561866997359,5.67091787896303,5.82764740362034,FALSE,0.100558274275742
"CAN","cpi",0.2,1983,3,1983,NA,0.5,5.20943636200573,5.56128511974165,5.67091787896303,4.97543944794331,FALSE,0.625930655789384
"CAN","cpi",0.2,1983,3,1982,NA,1,6.85320847606276,8.64821594931102,5.67091787896303,9.23778396682256,FALSE,4.75073396599757
"CAN","cpi",0.2,1983,3,1982,NA,1.5,8.18742011763617,10.0642476836783,5.67091787896303,9.78870144173853,FALSE,8.16808316272497
"CAN","cpi",0.2,1984,3,1984,NA,0,4.08628119238553,4.14432984211839,4.19799576814029,4.21357537293321,FALSE,0.192213464787595
"CAN","cpi",0.2,1984,3,1984,NA,0.5,4.912848121688,5.25050530743925,4.19799576814029,4.64258933063566,FALSE,2.12478806962053
"CAN","cpi",0.2,1984,3,1983,NA,1,4.48364666407125,5.65523029590236,4.19799576814029,6.13137654871218,FALSE,1.88571087165852
"CAN","cpi",0.2,1984,3,1983,NA,1.5,4.01592219587961,5.22942969971064,4.19799576814029,3.46832438596907,TRUE,1.21350750383103
"CAN","cpi",0.2,1985,3,1985,NA,0,3.79524069478662,3.88384470459131,3.86444262005169,3.91909325760218,TRUE,0.0886040098046905
"CAN","cpi",0.2,1985,3,1985,NA,0.5,4.24358681412957,4.54922024191728,3.86444262005169,3.89150188195039,FALSE,1.2534939129824
"CAN","cpi",0.2,1985,3,1984,NA,1,2.34856452280124,3.19190660484404,3.86444262005169,3.29397074977035,FALSE,2.52468212006193
"CAN","cpi",0.2,1985,3,1984,NA,1.5,4.69169996228586,5.9930757413692,3.86444262005169,4.4666103475984,FALSE,3.36951913466876
"CAN","cpi",0.2,1986,3,1986,NA,0,3.97985289803697,4.04944746807641,4.08685396749431,4.1058885406559,FALSE,0.163110818584199
"CAN","cpi",0.2,1986,3,1986,NA,0.5,4.6846054057659,5.03335141533423,4.08685396749431,4.41001406158749,FALSE,1.8431246052473
"CAN","cpi",0.2,1986,3,1985,NA,1,2.96667040708729,3.91000751029702,4.08685396749431,3.99303879319441,FALSE,1.38545324620295
"CAN","cpi",0.2,1986,3,1985,NA,1.5,4.49802931396801,5.44136641717775,4.08685396749431,4.22326323880904,FALSE,1.97127546939399
"CAN","cpi",0.2,1987,3,1987,NA,0,4.23189231846031,4.31929353168496,4.23980729277887,4.35976718480882,TRUE,0.0874012132246484
"CAN","cpi",0.2,1987,3,1987,NA,0.5,4.23713440559055,4.56589724191503,4.23980729277887,3.90936321394769,TRUE,0.328762836324483
"CAN","cpi",0.2,1987,3,1986,NA,1,3.21286494878145,4.19130371272728,4.23980729277887,4.33099659151455,FALSE,1.09969771407481
"CAN","cpi",0.2,1987,3,1986,NA,1.5,4.84232713472516,5.82076589867099,4.23980729277887,4.75247122036215,FALSE,2.48473836881156
"CAN","cpi",0.2,1988,3,1988,NA,0,3.88894274324119,3.95782012958042,3.92899537638065,4.01269560152408,TRUE,0.0688773863392296
"CAN","cpi",0.2,1988,3,1988,NA,0.5,3.84511663928355,4.13755334408169,3.92899537638065,3.47075595914335,TRUE,0.292436704798135
"CAN","cpi",0.2,1988,3,1987,NA,1,3.45590307968765,4.3667361505044,3.92899537638065,4.58162438495066,TRUE,0.910833070816754
"CAN","cpi",0.2,1988,3,1987,NA,1.5,3.77715715426693,4.68799022508368,3.92899537638065,3.81364776332008,TRUE,0.910833070816754
"CAN","cpi",0.2,1989,3,1989,NA,0,4.88830157512828,4.95871247529429,4.82821664544208,5.02395320873108,FALSE,0.220623224381525
"CAN","cpi",0.2,1989,3,1989,NA,0.5,4.64948713197951,4.92972469382204,4.82821664544208,4.36789847845152,TRUE,0.280237561842526
"CAN","cpi",0.2,1989,3,1988,NA,1,3.41257295920824,4.25277360931552,4.82821664544208,4.46162561835953,FALSE,2.27880824042367
"CAN","cpi",0.2,1989,3,1988,NA,1.5,3.52657417646026,4.36677482656754,4.82821664544208,3.27838152614011,FALSE,1.99380519729363
"CAN","cpi",0.2,1990,3,1990,NA,0,4.38985778714427,4.4592244834462,4.64347549432717,4.51963128519567,FALSE,0.529994223504359
"CAN","cpi",0.2,1990,3,1990,NA,0.5,5.20025265057977,5.50816032214357,4.64347549432717,4.98434426998405,FALSE,1.69985056219529
"CAN","cpi",0.2,1990,3,1989,NA,1,4.48767374814467,5.44957959134474,4.64347549432717,5.9177493923911,TRUE,0.961905843200073
"CAN","cpi",0.2,1990,3,1989,NA,1.5,4.23305587253087,5.19496171573094,4.64347549432717,4.56185858388509,TRUE,0.961905843200073
"CAN","cpi",0.2,1991,3,1991,NA,0,5.4811772521981,5.55307479061001,5.4258100696218,5.62406762795447,FALSE,0.210315494852677
"CAN","cpi",0.2,1991,3,1991,NA,0.5,8.24458444505939,8.70543741173771,5.4258100696218,8.39172083833767,FALSE,7.50778890527231
"CAN","cpi",0.2,1991,3,1990,NA,1,3.02452872750913,3.71645279226831,5.4258100696218,3.86917616551897,FALSE,4.9653172581429
"CAN","cpi",0.2,1991,3,1990,NA,1.5,4.86571285859388,5.55763692335305,5.4258100696218,5.12288497855213,TRUE,0.691924064759174
"CAN","cpi",0.2,1992,3,1992,NA,0,1.38692552511844,1.45926821426311,1.47496888572843,1.48060592990191,FALSE,0.111594367807975
"CAN","cpi",0.2,1992,3,1992,NA,0.5,1.81712524736703,1.93087386001261,1.47496888572843,1.17198715241532,FALSE,0.969139516742061
"CAN","cpi",0.2,1992,3,1991,NA,1,2.15300299559304,2.68226739071143,1.47496888572843,2.52024528073196,FALSE,2.22434966977991
"CAN","cpi",0.2,1992,3,1991,NA,1.5,8.12460459209146,8.65386898720985,1.47496888572843,10.1533377092026,FALSE,17.153353661026
"CAN","cpi",0.2,1993,3,1993,NA,0,1.72810932474335,1.79037974411232,1.84351085411351,1.80262144325658,FALSE,0.195098194371949
"CAN","cpi",0.2,1993,3,1993,NA,0.5,2.7787372205371,3.01921967667985,1.84351085411351,2.34241315558581,FALSE,2.57854837220172
"CAN","cpi",0.2,1993,3,1992,NA,1,1.47375966017313,2.06698160184533,1.84351085411351,1.81805946412584,TRUE,0.593221941672198
"CAN","cpi",0.2,1993,3,1992,NA,1.5,2.40295364135934,2.99617558303154,1.84351085411351,1.14026360102641,FALSE,1.99182890978677
"CAN","cpi",0.2,1994,3,1994,NA,0,0.119361427035102,0.176458413792035,0.161630694655448,0.163616628358327,TRUE,0.0570969867569331
"CAN","cpi",0.2,1994,3,1994,NA,0.5,0.34428389696202,0.450673675632913,0.161630694655448,-0.385140098029379,FALSE,0.563022784437324
"CAN","cpi",0.2,1994,3,1993,NA,1,1.09267367886641,1.71160969999605,0.161630694655448,1.37474728133383,FALSE,2.94654348165704
"CAN","cpi",0.2,1994,3,1993,NA,1.5,3.18917018406744,3.84426744267025,0.161630694655448,2.59685615311524,FALSE,8.22394598213279
"CAN","cpi",0.2,1995,3,1995,NA,0,2.11183534304262,2.1753397535795,2.11688403676572,2.19356448193293,TRUE,0.0635044105368827
"CAN","cpi",0.2,1995,3,1995,NA,0.5,3.05505796754471,3.27289947913064,2.11688403676572,2.67750903542847,FALSE,2.56327633853342
"CAN","cpi",0.2,1995,3,1994,NA,1,1.12933598351598,1.62199373206901,2.11688403676572,1.34092618105198,FALSE,1.7298835102948
"CAN","cpi",0.2,1995,3,1994,NA,1.5,0.96958992837141,1.46224767692444,2.11688403676572,-1.3139842175605,FALSE,2.12924864815622
"CAN","cpi",0.2,1996,3,1996,NA,0,1.41578610053878,1.4618854940112,1.55309584667184,1.48206512402721,FALSE,0.274125275124022
"CAN","cpi",0.2,1996,3,1996,NA,0.5,1.75680095764456,1.94086849822963,1.55309584667184,1.23598680875262,FALSE,0.693330318016859
"CAN","cpi",0.2,1996,3,1995,NA,1,1.0603281554271,1.71866375298958,1.55309584667184,1.32983461361347,TRUE,0.658335597562482
"CAN","cpi",0.2,1996,3,1995,NA,1.5,3.64670316875596,4.36209922500275,1.55309584667184,3.42580605950136,FALSE,5.94941436145708
"CAN","cpi",0.2,1997,3,1997,NA,0,1.62033313496424,1.67997453725622,1.60528783555959,1.69050032419864,FALSE,0.0972546508035933
"CAN","cpi",0.2,1997,3,1997,NA,0.5,2.50109366441257,2.74776192171226,1.60528783555959,2.11979188984917,FALSE,2.48618282943213
"CAN","cpi",0.2,1997,3,1996,NA,1,0.963395463659447,1.5598348711369,1.60528783555959,1.19524084873691,FALSE,0.710071818534182
"CAN","cpi",0.2,1997,3,1996,NA,1.5,2.46964526945694,3.06888017178463,1.60528783555959,1.35560903862103,FALSE,2.76012848707106
"CAN","cpi",0.2,1998,3,1998,NA,0,0.923172915705992,0.98043445101435,0.988908029337191,0.980088020931525,FALSE,0.0784454811154596
"CAN","cpi",0.2,1998,3,1998,NA,0.5,1.77900007445246,1.99908505999091,0.988908029337191,1.31078347146242,FALSE,2.19531509832663
"CAN","cpi",0.2,1998,3,1997,NA,1,0.967870358742905,1.49646816962047,0.988908029337191,1.06570792570078,TRUE,0.528597810877568
"CAN","cpi",0.2,1998,3,1997,NA,1.5,2.93760695267305,3.61252135744753,0.988908029337191,2.25360669266494,FALSE,5.54666171311413
"CAN","cpi",0.2,1999,3,1999,NA,0,1.74458392278261,1.80464947484598,1.7107350135213,1.81711295343144,FALSE,0.144687825216656
"CAN","cpi",0.2,1999,3,1999,NA,0.5,1.22467428559172,1.51564666998772,1.7107350135213,0.788387565724544,FALSE,0.778693243229937
"CAN","cpi",0.2,1999,3,1998,NA,1,0.619581868478903,1.03572371301731,1.7107350135213,0.575366492854125,FALSE,2.10367009579838
"CAN","cpi",0.2,1999,3,1998,NA,1.5,2.58097194144779,3.05926720046611,1.7107350135213,1.68716976710558,FALSE,2.65388757883455
"CAN","cpi",0.2,2000,3,2000,NA,0,2.63836206897244,2.70355969106778,2.6718361971244,2.72999398726497,TRUE,0.0651976220953365
"CAN","cpi",0.2,2000,3,2000,NA,0.5,2.45485586382916,2.69982191516049,2.6718361971244,2.06798867425529,TRUE,0.244966051331329
"CAN","cpi",0.2,2000,3,1999,NA,1,2.60472532606111,3.10837292318519,2.6718361971244,3.09152396062306,TRUE,0.503647597124083
"CAN","cpi",0.2,2000,3,1999,NA,1.5,2.03409308576105,2.53774068288514,2.6718361971244,0.842861855264031,FALSE,0.838886382722243
"CAN","cpi",0.2,2001,3,2001,NA,0,2.75043572775238,2.81393491448814,2.47906219852806,2.84208465688611,FALSE,0.741933009796554
"CAN","cpi",0.2,2001,3,2001,NA,0.5,2.2927622776205,2.5317609891044,2.47906219852806,1.88638468602912,TRUE,0.238998711483901
"CAN","cpi",0.2,2001,3,2000,NA,1,3.03152857636557,3.64769513990029,2.47906219852806,3.69789354026514,FALSE,1.99733250812848
"CAN","cpi",0.2,2001,3,2000,NA,1.5,2.61886569667553,3.23503226021025,2.47906219852806,1.8681620253813,FALSE,0.965675308903393
"CAN","cpi",0.2,2002,3,2002,NA,0,2.29089873970726,2.34348039101183,2.20880570551249,2.37599565696257,FALSE,0.257814236791502
"CAN","cpi",0.2,2002,3,2002,NA,0.5,1.42446665245071,1.62940505828804,2.20880570551249,0.913576617687781,FALSE,1.65344002389844
"CAN","cpi",0.2,2002,3,2001,NA,1,1.64737312721963,2.17917248634047,2.20880570551249,1.93734082085477,FALSE,0.605882407050875
"CAN","cpi",0.2,2002,3,2001,NA,1.5,2.28005690133899,2.81185626045982,2.20880570551249,1.22267801456389,FALSE,0.709927348687085
"CAN","cpi",0.2,2003,3,2003,NA,0,2.64084033483631,2.69508381897009,2.71189071546809,2.73251886371656,FALSE,0.0962607253787708
"CAN","cpi",0.2,2003,3,2003,NA,0.5,4.48437603186715,4.78088888531352,2.71189071546809,4.31675684669419,FALSE,4.72772614444403
"CAN","cpi",0.2,2003,3,2002,NA,1,3.76001561268727,4.37327271264534,2.71189071546809,4.61862409576541,FALSE,3.23356934300601
"CAN","cpi",0.2,2003,3,2002,NA,1.5,2.26831025211574,2.88156735207381,2.71189071546809,1.3655866266696,TRUE,0.613257099958068
"CAN","cpi",0.2,2004,3,2004,NA,0,1.75489019707737,1.80492640478429,1.83151661303942,1.82990600335775,FALSE,0.116511728344749
"CAN","cpi",0.2,2004,3,2004,NA,0.5,1.8941792444179,2.11537622548857,1.83151661303942,1.43982618755963,FALSE,0.377853559516872
"CAN","cpi",0.2,2004,3,2003,NA,1,0.963591178477399,1.44374362091119,1.83151661303942,1.02946817322814,FALSE,1.44958492275437
"CAN","cpi",0.2,2004,3,2003,NA,1.5,4.18245672345263,4.93452769725592,1.83151661303942,4.64649519124043,FALSE,6.62942124983631
"CAN","cpi",0.2,2005,3,2005,NA,0,2.29928847766674,2.36339570245517,2.18071628336509,2.38454318695835,FALSE,0.360537710542546
"CAN","cpi",0.2,2005,3,2005,NA,0.5,2.04264932346798,2.26898543001967,2.18071628336509,1.60616687455658,TRUE,0.226336106551687
"CAN","cpi",0.2,2005,3,2004,NA,1,1.73889231112683,1.98885489991895,2.18071628336509,1.65181790765431,FALSE,0.72961604740748
"CAN","cpi",0.2,2005,3,2004,NA,1.5,2.5852979669238,3.04326822441441,2.18071628336509,1.76259299547523,FALSE,1.46942446638739
"CAN","cpi",0.2,2006,3,2006,NA,0,2.05567839261781,2.11900221289618,1.97519342012289,2.13635134601064,FALSE,0.264536251515681
"CAN","cpi",0.2,2006,3,2006,NA,0.5,2.20392166483617,2.43584003283886,1.97519342012289,1.78685076876899,FALSE,0.803738979785903
"CAN","cpi",0.2,2006,3,2005,NA,1,2.93984101206641,3.51076781998267,1.97519342012289,3.50484952590076,FALSE,2.98254578777507
"CAN","cpi",0.2,2006,3,2005,NA,1.5,2.31404393072422,2.88497073864048,1.97519342012289,1.46813842301012,FALSE,1.41805308441959
"CAN","cpi",0.2,2007,3,2007,NA,0,2.11165039544261,2.17459954029695,2.10062087284572,2.20475175639581,FALSE,0.0905229513465569
"CAN","cpi",0.2,2007,3,2007,NA,0.5,2.39339571020527,2.58284723308743,2.10062087284572,1.98527746740088,FALSE,0.921388616281023
"CAN","cpi",0.2,2007,3,2006,NA,1,1.47202186012374,1.66147338300589,2.10062087284572,1.24740231882683,FALSE,1.28732024748173
"CAN","cpi",0.2,2007,3,2006,NA,1.5,2.41801267102001,2.93990062403998,2.10062087284572,1.60497207990466,FALSE,1.31536744845569
"CAN","cpi",0.2,2008,3,2008,NA,0,2.9103748272787,2.97630574398876,2.31447335265955,3.01767576079065,FALSE,1.55568460325794
"CAN","cpi",0.2,2008,3,2008,NA,0.5,1.48118094912583,1.70442884484163,2.31447335265955,1.03762364210032,FALSE,1.7483591652606
"CAN","cpi",0.2,2008,3,2007,NA,1,1.56937744565855,1.79262534137436,2.31447335265955,1.40291213269118,FALSE,1.52786792392879
"CAN","cpi",0.2,2008,3,2007,NA,1.5,2.96246778453791,3.61794473622282,2.31447335265955,2.69934766650446,FALSE,2.2754630313808
"CAN","cpi",0.2,2009,3,2009,NA,0,0.260175136458022,0.317558492191128,0.284533874408197,0.321726231334406,TRUE,0.0573833557331052
"CAN","cpi",0.2,2009,3,2009,NA,0.5,-0.665211379339711,-0.471380994494742,0.284533874408197,-1.32493870283985,FALSE,2.08361755710232
"CAN","cpi",0.2,2009,3,2008,NA,1,4.03930060519937,4.71280238389386,0.284533874408197,5.07610742917547,FALSE,10.0604186056724
"CAN","cpi",0.2,2009,3,2008,NA,1.5,1.93820873830156,2.61171051699605,0.284533874408197,1.01106559029091,FALSE,4.80768893842789
"CAN","cpi",0.2,2010,3,2010,NA,0,1.67932656876196,1.71848359957276,1.75525687020327,1.75432596686424,FALSE,0.131090207387075
"CAN","cpi",0.2,2010,3,2010,NA,0.5,2.0338870224565,2.0730440532673,1.75525687020327,1.49344630005585,FALSE,0.735732411443876
"CAN","cpi",0.2,2010,3,2009,NA,1,1.49230819757353,1.53146522838433,1.75525687020327,1.13010370525173,FALSE,0.598636135358156
"CAN","cpi",0.2,2010,3,2009,NA,1.5,0.381119212656963,0.420276243467763,1.75525687020327,-2.25919184326718,FALSE,3.37660859764957
"CAN","cpi",0.2,2011,3,2011,NA,0,2.80293238162351,2.86846219771889,2.85717434028225,2.90832322356675,TRUE,0.0655298160953848
"CAN","cpi",0.2,2011,3,2011,NA,0.5,3.07332600426987,3.38525032260088,2.85717434028225,2.81495035644064,FALSE,0.852303478300076
"CAN","cpi",0.2,2011,3,2010,NA,1,2.1125877609637,2.50846202756754,2.85717434028225,2.24995624930718,FALSE,1.2676550483906
"CAN","cpi",0.2,2011,3,2010,NA,1.5,2.40489408198202,2.92413605868575,2.85717434028225,1.69121218305118,TRUE,0.519241976703729
"CAN","cpi",0.2,2012,3,2012,NA,0,1.4276523346749,1.48687364166404,1.50118536134935,1.50859370689259,FALSE,0.0950006062024077
"CAN","cpi",0.2,2012,3,2012,NA,0.5,2.11275107384796,2.40296654290616,1.50118536134935,1.75125264874692,FALSE,1.81912975030473
"CAN","cpi",0.2,2012,3,2011,NA,1,1.86783529953276,2.23871319777082,1.50118536134935,1.8474445607568,FALSE,1.28750274369659
"CAN","cpi",0.2,2012,3,2011,NA,1.5,2.98194790575063,3.82235903093568,1.50118536134935,3.06926058053075,FALSE,4.54231748618826
"CAN","cpi",0.2,2013,3,2013,NA,0,0.995423988729499,1.0418535778027,0.931270594714462,1.05615594966199,FALSE,0.206813074110794
"CAN","cpi",0.2,2013,3,2013,NA,0.5,1.51910059247133,1.62401480964852,0.931270594714462,1.02417936454929,FALSE,1.57448921156937
"CAN","cpi",0.2,2013,3,2012,NA,1,0.705342749647944,0.810256966825127,0.931270594714462,0.0685845185761151,FALSE,0.40744828690052
"CAN","cpi",0.2,2013,3,2012,NA,1.5,2.41659466296893,2.94235891839656,0.931270594714462,1.71916958716775,FALSE,4.23907442606381
"CAN","cpi",0.2,2014,3,2014,NA,0,1.97322922058127,2.03566161604497,1.87639912240215,2.06386975595087,FALSE,0.304507640911501
"CAN","cpi",0.2,2014,3,2014,NA,0.5,2.23657812633288,2.51504891714983,1.87639912240215,1.92715211220712,FALSE,1.17891830064377
"CAN","cpi",0.2,2014,3,2013,NA,1,1.39537061081147,1.67384140162842,1.87639912240215,1.11372323439473,FALSE,0.784865092751267
"CAN","cpi",0.2,2014,3,2013,NA,1.5,2.22232841855863,2.67956284971065,1.87639912240215,1.40040388240124,FALSE,1.32205767154322
"CAN","cpi",0.2,2015,3,2015,NA,0,1.22935064603903,1.28835727160804,1.11090953952792,1.30732778141228,FALSE,0.355109391846791
"CAN","cpi",0.2,2015,3,2015,NA,0.5,0.576614988164649,0.819011165685042,1.11090953952792,0.0832530397055839,FALSE,0.97214211212758
"CAN","cpi",0.2,2015,3,2014,NA,1,1.69049337247507,1.99732999163933,1.11090953952792,1.43393836679687,FALSE,1.75579620153213
"CAN","cpi",0.2,2015,3,2014,NA,1.5,2.78281606297765,3.51689436617809,1.11090953952792,2.67552344749624,FALSE,4.91384461182478
"CAN","cpi",0.2,2016,3,2016,NA,0,1.42684185209872,1.48719090216297,1.41168586698797,1.50891536161516,FALSE,0.0982390128411422
"CAN","cpi",0.2,2016,3,2016,NA,0.5,1.19998537272146,1.48498744303457,1.41168586698797,0.786851742019216,TRUE,0.285002070313113
"CAN","cpi",0.2,2016,3,2015,NA,1,2.15392018731255,2.47499825363108,1.41168586698797,2.15660249634191,FALSE,2.17666386713
"CAN","cpi",0.2,2016,3,2015,NA,1.5,1.46000539544781,1.78108346176634,1.41168586698797,-0.117220285505753,FALSE,0.441876887468139
"CAN","cpi",0.2,2017,3,2017,NA,0,1.45420566321679,1.51426616678356,1.57888581671161,1.54881337220766,FALSE,0.221609628386895
"CAN","cpi",0.2,2017,3,2017,NA,0.5,2.21871871054615,2.50792991126358,1.57888581671161,1.91336997918348,FALSE,1.88879343530378
"CAN","cpi",0.2,2017,3,2016,NA,1,1.43857812704762,1.72778932776505,1.57888581671161,1.18768855671255,TRUE,0.289211200717427
"CAN","cpi",0.2,2017,3,2016,NA,1.5,1.76577393596643,2.19434647013098,1.57888581671161,0.6644917028394,FALSE,0.895792832301591
"CAN","cpi",0.2,2018,3,2018,NA,0,2.34697138356858,2.4107148127425,2.23316270166586,2.44523056077762,FALSE,0.348265133930722
"CAN","cpi",0.2,2018,3,2018,NA,0.5,3.03205006878169,3.29402556562936,2.23316270166586,2.80156516368753,FALSE,2.25919391463726
"CAN","cpi",0.2,2018,3,2017,NA,1,1.196120247943,1.45809574479067,2.23316270166586,0.82019125662587,FALSE,2.19964288903565
"CAN","cpi",0.2,2018,3,2017,NA,1.5,2.52250583260279,3.35567369754119,2.23316270166586,2.43256495233066,FALSE,1.55652569228073
"CAN","cpi",0.2,2019,3,2019,NA,0,1.98250294889145,2.04380012589631,1.91921619871868,2.08489368525497,FALSE,0.219514052436776
"CAN","cpi",0.2,2019,3,2019,NA,0.5,1.76942778613389,2.10734608283893,1.91921619871868,1.47181960590434,TRUE,0.337918296705041
"CAN","cpi",0.2,2019,3,2018,NA,1,2.07080344520251,2.59272432876637,1.91921619871868,2.1812391651413,FALSE,0.90088899977344
"CAN","cpi",0.2,2019,3,2018,NA,1.5,3.00716923055228,4.10863799007261,1.91921619871868,3.59347997035086,FALSE,3.82135133910433
"CAN","cpi",0.2,2020,3,2020,NA,0,0.609963154846454,0.668047399375503,0.71139989671781,0.692133240684643,FALSE,0.166465487884817
"CAN","cpi",0.2,2020,3,2020,NA,0.5,1.43807218215631,1.70692110277708,0.71139989671781,1.05558053361148,FALSE,2.08552963421701
"CAN","cpi",0.2,2020,3,2019,NA,1,1.96964036690194,2.37361416742971,0.71139989671781,2.01486975979332,FALSE,3.54957497598809
"CAN","cpi",0.2,2020,3,2019,NA,1.5,2.22428739127016,2.91077706364551,0.71139989671781,1.77269016603738,FALSE,4.46870840875622
"CAN","cpi",0.2,2021,3,2021,NA,0,3.25300088103427,3.32690351771211,3.31148121717802,3.37410895790077,TRUE,0.0739026366778415
"CAN","cpi",0.2,2021,3,2021,NA,0.5,2.87044373540551,3.16511907422752,3.31148121717802,2.68190793980083,FALSE,0.660580696198262
"CAN","cpi",0.2,2021,3,2020,NA,1,1.4088682747026,1.70354361352461,3.31148121717802,1.19247466620579,FALSE,4.31451934795555
"CAN","cpi",0.2,2021,3,2020,NA,1.5,1.84653139949236,2.39855665209039,3.31148121717802,0.994097524483704,FALSE,2.83433666531711
"CAN","cpi",0.2,2022,3,2022,NA,0,6.54258268737863,6.61455440245347,6.50977236228281,6.71215382839029,FALSE,0.153997527814385
"CAN","cpi",0.2,2022,3,2022,NA,0.5,6.19217720524053,6.69978098233145,6.50977236228281,6.42154306210558,TRUE,0.507603777090917
"CAN","cpi",0.2,2022,3,2021,NA,1,3.76775850253297,4.75628416928955,6.50977236228281,4.97199453293936,FALSE,5.37224614923974
"CAN","cpi",0.2,2022,3,2021,NA,1.5,2.9484950803302,4.01886266458185,6.50977236228281,3.45701838810354,FALSE,7.29764182850405
"CAN","cpi",0.2,2023,3,2023,NA,0,3.91131528765007,3.97712755691662,3.78831288758619,4.042121841464,FALSE,0.373318269426254
"CAN","cpi",0.2,2023,3,2023,NA,0.5,3.21391149251529,3.56978247994812,3.78831288758619,3.05997192794191,FALSE,0.902197006528001
"CAN","cpi",0.2,2023,3,2022,NA,1,3.95718418502129,5.06439176189198,3.78831288758619,5.28351765661874,FALSE,1.52938582045844
"CAN","cpi",0.2,2023,3,2022,NA,1.5,4.59549230567835,6.54456861790984,3.78831288758619,7.28752716372712,FALSE,3.96702485746189
"CAN","cpi",0.2,2024,3,2023,NA,1,3.43231448583945,4.31711122876041,NA,4.37793695924716,NA,NA
"CAN","cpi",0.2,2024,3,2023,NA,1.5,2.45489262007894,3.33968936299989,NA,2.36897983740768,NA,NA
"CAN","cpi",0.3,1950,3,1950,NA,0,2.42545523840043,2.42545523840043,2.59031220731124,2.28904261800392,FALSE,0.471019911173743
"CAN","cpi",0.3,1950,3,1950,NA,0.5,0.683942621145299,0.683942621145291,2.59031220731124,-0.0597026374682003,FALSE,5.44677024618841
"CAN","cpi",0.3,1950,3,1949,NA,1,-25.685196572393,-25.685196572393,2.59031220731124,1.71904267353831,FALSE,80.787167942012
"CAN","cpi",0.3,1950,3,1949,NA,1.5,14.2269133930234,14.2269133930234,2.59031220731124,1.07189937513012,FALSE,33.2474319591775
"CAN","cpi",0.3,1951,3,1951,NA,0,9.85883493935785,9.90949843486808,9.87945438999359,10.0174160826209,TRUE,0.050663495510225
"CAN","cpi",0.3,1951,3,1951,NA,0.5,8.39549387367149,9.12321458877557,9.87945438999359,9.64288482270982,FALSE,2.88840586144129
"CAN","cpi",0.3,1951,3,1950,NA,1,3.06412638916156,7.15057500068502,9.87945438999359,6.5630832774632,FALSE,11.8832468666908
"CAN","cpi",0.3,1951,3,1950,NA,1.5,2.46581029846084,15.8639563260731,9.87945438999359,-1.15455738512665,TRUE,13.3981460276123
"CAN","cpi",0.3,1952,3,1952,NA,0,2.5947214992287,2.7569781567023,2.55562336095485,2.46502621244774,FALSE,0.273965623970338
"CAN","cpi",0.3,1952,3,1952,NA,0.5,4.62399184038353,5.08205022840879,2.55562336095485,4.32129924776399,FALSE,6.36768261496435
"CAN","cpi",0.3,1952,3,1951,NA,1,9.83501807408839,10.2930764621136,2.55562336095485,9.65785623271456,FALSE,21.2563289969782
"CAN","cpi",0.3,1952,3,1951,NA,1.5,5.2866031418836,5.74466152990886,2.55562336095485,10.2729097180516,FALSE,8.26085776210742
"CAN","cpi",0.3,1953,3,1953,NA,0,-0.614797274434408,-0.788796197837293,-1.01492775838436,-1.00749856253296,FALSE,0.969231030739841
"CAN","cpi",0.3,1953,3,1953,NA,0.5,0.250082256831734,0.0760833334288494,-1.01492775838436,-2.06778904141071,FALSE,3.44031540578596
"CAN","cpi",0.3,1953,3,1952,NA,1,0.977774565056715,0.80377564165383,-1.01492775838436,-1.55171650633025,FALSE,5.51943628642876
"CAN","cpi",0.3,1953,3,1952,NA,1.5,2.58696329696574,8.69002626998302,-1.01492775838436,1.96017794195978,FALSE,16.3941802740176
"CAN","cpi",0.3,1954,3,1954,NA,0,0.991566350289168,1.02883159991325,0.644425455961438,0.844896913757956,FALSE,1.02909637627474
"CAN","cpi",0.3,1954,3,1954,NA,0.5,0.518027677606749,0.609758436148465,0.644425455961438,-0.153040348587994,FALSE,0.190779386578781
"CAN","cpi",0.3,1954,3,1953,NA,1,0.61774418678967,3.56542595602425,0.644425455961438,2.75483618067449,TRUE,2.94768176923458
"CAN","cpi",0.3,1954,3,1953,NA,1.5,2.60387473500021,10.4029706197939,0.644425455961438,-2.52548049332379,FALSE,13.397522396333
"CAN","cpi",0.3,1955,3,1955,NA,0,0.105546999219571,0.290376542743902,0.173649026558865,0.10765252516202,TRUE,0.184829543524332
"CAN","cpi",0.3,1955,3,1955,NA,0.5,0.0644435799250253,0.249273123449357,0.173649026558865,-0.685764272176465,TRUE,0.184829543524332
"CAN","cpi",0.3,1955,3,1954,NA,1,0.731912486224281,3.84892948050646,0.173649026558865,3.05598167297881,FALSE,4.71205545046908
"CAN","cpi",0.3,1955,3,1954,NA,1.5,0.816527911848004,9.96286814834932,0.173649026558865,-1.37299158518014,FALSE,10.9831370516131
"CAN","cpi",0.3,1956,3,1956,NA,0,1.48858698869313,1.60063909271018,1.32752769429961,1.5132196707054,FALSE,0.572221516569962
"CAN","cpi",0.3,1956,3,1956,NA,0.5,0.262964759240012,0.375016863257064,1.32752769429961,-0.533297708724126,FALSE,2.83351162128146
"CAN","cpi",0.3,1956,3,1955,NA,1,-0.125324078062451,1.27931070370917,1.32752769429961,0.79482048855347,FALSE,1.54239761203001
"CAN","cpi",0.3,1956,3,1955,NA,1.5,0.695823146029711,2.43667674649746,1.32752769429961,-1.67555014996128,TRUE,1.74085360046775
"CAN","cpi",0.3,1957,3,1957,NA,0,3.34357328705333,3.441131424148,3.24684755852518,3.4081189986054,FALSE,0.373917361460833
"CAN","cpi",0.3,1957,3,1957,NA,0.5,2.57062919172601,2.66818732882068,3.24684755852518,2.36364513914165,FALSE,1.75087307910751
"CAN","cpi",0.3,1957,3,1956,NA,1,2.79793383350349,6.01974468745839,3.24684755852518,6.42400073504334,TRUE,3.2218108539549
"CAN","cpi",0.3,1957,3,1956,NA,1.5,0.0170998706923167,3.23891072464722,3.24684755852518,-1.44175113719435,FALSE,3.24448752217764
"CAN","cpi",0.3,1958,3,1958,NA,0,2.07778786882586,2.24637726553173,2.33186388641149,2.22393716079583,FALSE,0.412836884933748
"CAN","cpi",0.3,1958,3,1958,NA,0.5,2.49234976611206,3.14610350708504,2.33186388641149,2.22874439106395,FALSE,1.11228482583175
"CAN","cpi",0.3,1958,3,1957,NA,1,1.59103345194326,4.40485490051651,2.33186388641149,4.33819969505612,TRUE,2.81382144857326
"CAN","cpi",0.3,1958,3,1957,NA,1.5,0.831750569426405,3.64557201799966,2.33186388641149,1.22685206136826,TRUE,2.81382144857326
"CAN","cpi",0.3,1959,3,1959,NA,0,1.14635628774621,1.32577480191185,1.19382698397654,1.19679708996586,TRUE,0.179418514165637
"CAN","cpi",0.3,1959,3,1959,NA,0.5,1.24046321311903,1.9709606134091,1.19382698397654,0.655175994826909,FALSE,0.863743769268622
"CAN","cpi",0.3,1959,3,1958,NA,1,0.40010990998105,2.06262767063197,1.19382698397654,1.75938857815981,TRUE,1.66251776065092
"CAN","cpi",0.3,1959,3,1958,NA,1.5,1.12686275056927,2.78938051122019,1.19382698397654,1.7749666101295,TRUE,1.66251776065092
"CAN","cpi",0.3,1960,3,1960,NA,0,1.00673080723541,1.14264865098577,1.34209404870695,1.03130246511349,FALSE,0.70576183723945
"CAN","cpi",0.3,1960,3,1960,NA,0.5,1.24340952099201,1.37932736474237,1.34209404870695,0.745602653132245,TRUE,0.135917843750363
"CAN","cpi",0.3,1960,3,1959,NA,1,1.2030809463585,3.4232511751875,1.34209404870695,3.33587387303437,TRUE,2.220170228829
"CAN","cpi",0.3,1960,3,1959,NA,1.5,0.632483993204835,2.85265422203383,1.34209404870695,-0.32541909428789,TRUE,2.220170228829
"CAN","cpi",0.3,1961,3,1961,NA,0,0.997141617616772,1.10915936790408,1.00921348094007,1.00921348094007,TRUE,0.112017750287308
"CAN","cpi",0.3,1961,3,1961,NA,0.5,1.72783680193761,1.83985455222492,1.00921348094007,1.31141131508129,FALSE,2.16522723885171
"CAN","cpi",0.3,1961,3,1960,NA,1,-0.336069388370701,0.115992431968867,1.00921348094007,0.143625905669962,FALSE,3.0041219602573
"CAN","cpi",0.3,1961,3,1960,NA,1.5,0.970769059934836,2.21547916738569,1.00921348094007,-0.34011142415222,TRUE,1.24471010745086
"CAN","cpi",0.3,1962,3,1962,NA,0,1.11864421467424,1.23320330008087,1.04957947883042,1.11132998230876,FALSE,0.311886902103269
"CAN","cpi",0.3,1962,3,1962,NA,0.5,0.660856629810546,0.775415715217173,1.04957947883042,1.64134322488006e-44,FALSE,0.897884124301604
"CAN","cpi",0.3,1962,3,1961,NA,1,0.32501190831245,0.553576492042694,1.04957947883042,-9.44308782563385e-19,FALSE,1.6457159745523
"CAN","cpi",0.3,1962,3,1961,NA,1.5,1.16869106036251,2.29677179005103,1.04957947883042,0.754384248690751,FALSE,1.46839953406593
"CAN","cpi",0.3,1963,3,1963,NA,0,1.81339922325454,1.94431583166182,1.60677118395228,1.85599510888664,FALSE,0.721282434985155
"CAN","cpi",0.3,1963,3,1963,NA,0.5,1.39445449359741,1.52537110200468,1.60677118395228,0.932300293637426,FALSE,0.363488271114713
"CAN","cpi",0.3,1963,3,1962,NA,1,1.13830751953304,2.24291584039129,1.60677118395228,2.66748522343727,TRUE,1.10460832085825
"CAN","cpi",0.3,1963,3,1962,NA,1.5,1.02155827877943,2.24074061917011,1.60677118395228,4.10321927477868e-44,TRUE,1.21918234039068
"CAN","cpi",0.3,1964,3,1964,NA,0,1.92304392147929,2.01621822205376,1.88764670034376,1.98894154569002,FALSE,0.194309218104564
"CAN","cpi",0.3,1964,3,1964,NA,0.5,1.82011665251274,1.96147371531475,1.88764670034376,1.38377582747094,TRUE,0.141357062802013
"CAN","cpi",0.3,1964,3,1963,NA,1,1.99782695487482,2.61636193715472,1.88764670034376,4.71286552905431,FALSE,0.933335709511502
"CAN","cpi",0.3,1964,3,1963,NA,1.5,1.03639007259454,1.65492505487445,1.88764670034376,0.238779673172327,FALSE,1.28345396933509
"CAN","cpi",0.3,1965,3,1965,NA,0,2.27023679244647,2.37468886460885,2.29538304394236,2.35494510510554,TRUE,0.104452072162372
"CAN","cpi",0.3,1965,3,1965,NA,0.5,1.96067280830018,2.10027727002876,2.29538304394236,1.56044896459738,FALSE,0.697049530053138
"CAN","cpi",0.3,1965,3,1964,NA,1,1.24380964330419,1.8227948299498,2.29538304394236,2.42710731898607,FALSE,1.92923722662435
"CAN","cpi",0.3,1965,3,1964,NA,1.5,1.17800643966549,1.94451979852964,2.29538304394236,0.818315757903116,FALSE,1.76897977432905
"CAN","cpi",0.3,1966,3,1966,NA,0,3.73439552983493,3.83568371733937,3.72486065470629,3.84664136390011,FALSE,0.128530687871984
"CAN","cpi",0.3,1966,3,1966,NA,0.5,3.77971978550015,3.89664246807078,3.72486065470629,3.84691400230302,FALSE,0.273663056267374
"CAN","cpi",0.3,1966,3,1965,NA,1,1.4935334874728,2.1386717054657,3.72486065470629,3.31367997089714,FALSE,5.17710664439458
"CAN","cpi",0.3,1966,3,1965,NA,1.5,1.27463873354182,2.34491274737959,3.72486065470629,1.48150382413513,FALSE,5.01298232048548
"CAN","cpi",0.3,1967,3,1967,NA,0,3.6578239943355,3.75927764443646,3.49360316391996,3.76862969063141,FALSE,0.570656022716784
"CAN","cpi",0.3,1967,3,1967,NA,0.5,2.59816066181656,2.7298162586227,3.49360316391996,2.36174420726938,FALSE,2.31390389765545
"CAN","cpi",0.3,1967,3,1966,NA,1,1.74280725225291,2.79763632125626,3.49360316391996,3.4823384545504,FALSE,3.04330576232821
"CAN","cpi",0.3,1967,3,1966,NA,1.5,1.59213161012342,2.64696067912677,3.49360316391996,4.29257700443622,FALSE,3.47380759698388
"CAN","cpi",0.3,1968,3,1968,NA,0,3.98696270254318,4.06586198127278,3.95128347779386,4.1134030125927,FALSE,0.180839920870514
"CAN","cpi",0.3,1968,3,1968,NA,0.5,3.81578331927187,4.06389075295599,3.95128347779386,3.89224433743933,TRUE,0.248107433684114
"CAN","cpi",0.3,1968,3,1967,NA,1,2.80662759764445,4.88018189782015,3.95128347779386,5.85596711509228,TRUE,2.0735543001757
"CAN","cpi",0.3,1968,3,1967,NA,1.5,0.852781173669715,2.92633547384542,3.95128347779386,2.14187095150408,FALSE,5.00197716859982
"CAN","cpi",0.3,1969,3,1969,NA,0,4.50694617317946,4.58698443600473,4.42679496126681,4.64263065146317,FALSE,0.30904172543283
"CAN","cpi",0.3,1969,3,1969,NA,0.5,3.15526034942867,3.30034205532978,4.42679496126681,3.06199492877772,FALSE,3.36351858000692
"CAN","cpi",0.3,1969,3,1968,NA,1,2.67301220303999,3.99935748809396,4.42679496126681,6.05582378748629,FALSE,2.54759520840499
"CAN","cpi",0.3,1969,3,1968,NA,1.5,1.54190282953599,2.86824811458996,4.42679496126681,3.87227485119322,FALSE,5.77933627555928
"CAN","cpi",0.3,1970,3,1970,NA,0,3.4623760876896,3.53102330134473,3.28128405769805,3.58996474924422,FALSE,0.586053013631005
"CAN","cpi",0.3,1970,3,1970,NA,0.5,4.04711459896813,4.28039204129236,3.28128405769805,4.17180269652751,FALSE,2.42136470309588
"CAN","cpi",0.3,1970,3,1969,NA,1,2.39863573087406,3.83510996979618,3.28128405769805,5.43865496465038,TRUE,1.43647423892211
"CAN","cpi",0.3,1970,3,1969,NA,1.5,1.45262425380727,2.88909849272939,3.28128405769805,2.31672730979866,FALSE,2.55700442454685
"CAN","cpi",0.3,1971,3,1971,NA,0,2.77808459486516,2.85157736928416,2.64123406634756,2.89424739818036,FALSE,0.464494284469285
"CAN","cpi",0.3,1971,3,1971,NA,0.5,1.57473377537505,1.88236617528264,2.64123406634756,1.07533993963556,FALSE,2.47582637437878
"CAN","cpi",0.3,1971,3,1970,NA,1,1.70628136467279,2.59762058355493,2.64123406634756,2.98160965133743,FALSE,1.01594916971822
"CAN","cpi",0.3,1971,3,1970,NA,1.5,1.8949567223922,2.78629594127434,2.64123406634756,4.15708260691123,TRUE,0.891339218882143
"CAN","cpi",0.3,1972,3,1972,NA,0,4.92759007797897,5.00793097815221,4.83230569625923,5.10321489701878,FALSE,0.352581990801071
"CAN","cpi",0.3,1972,3,1972,NA,0.5,4.35917752203963,4.59285175336377,4.83230569625923,4.57526784474473,FALSE,0.917828353882586
"CAN","cpi",0.3,1972,3,1971,NA,1,2.86256125262801,4.41222864489683,4.83230569625923,6.5673313651466,FALSE,2.74988753901854
"CAN","cpi",0.3,1972,3,1971,NA,1.5,1.35953863738969,2.90920602965851,4.83230569625923,1.20127092516847,FALSE,7.04423786827088
"CAN","cpi",0.3,1973,3,1973,NA,0,7.15091572373397,7.21481653544948,7.12388603531779,7.36268749116872,FALSE,0.141128492904601
"CAN","cpi",0.3,1973,3,1973,NA,0.5,5.41616765878795,5.92287588896475,7.12388603531779,5.89432993074317,FALSE,3.93816579118549
"CAN","cpi",0.3,1973,3,1972,NA,1,3.74655969401012,5.18010335257618,7.12388603531779,7.371399360381,FALSE,6.98720846639923
"CAN","cpi",0.3,1973,3,1972,NA,1.5,1.96737587158758,3.40091953015365,7.12388603531779,4.50324671282129,FALSE,12.0705908161779
"CAN","cpi",0.3,1974,3,1974,NA,0,10.0254631825495,10.105535338248,10.2717243737774,10.3222881332229,FALSE,0.554897971496882
"CAN","cpi",0.3,1974,3,1974,NA,0.5,7.76303252147352,8.36418226581037,10.2717243737774,8.8471290293637,FALSE,6.05127005281413
"CAN","cpi",0.3,1974,3,1973,NA,1,5.55316655267103,7.2125558272553,10.2717243737774,10.9884402825372,FALSE,10.399870836076
"CAN","cpi",0.3,1974,3,1973,NA,1.5,1.96379915324831,3.62318842783257,10.2717243737774,6.19554852079723,FALSE,20.6552062629981
"CAN","cpi",0.3,1975,3,1975,NA,0,10.0158634196141,10.1229481103873,10.0232981493341,10.2646941702359,TRUE,0.107084690773149
"CAN","cpi",0.3,1975,3,1975,NA,0.5,8.05823849614086,9.49089959588153,10.0232981493341,9.21855388205318,FALSE,2.95379982389093
"CAN","cpi",0.3,1975,3,1974,NA,1,6.10233916550447,10.7200920549423,10.0232981493341,11.9905143933903,TRUE,4.61775288943781
"CAN","cpi",0.3,1975,3,1974,NA,1.5,2.17114551031828,6.78889839975609,10.0232981493341,8.68009129130424,FALSE,13.8588950310893
"CAN","cpi",0.3,1976,3,1976,NA,0,7.04344902077762,7.10849325453805,7.22784311401172,7.25383067322222,FALSE,0.406043832256613
"CAN","cpi",0.3,1976,3,1976,NA,0.5,6.62516492411518,8.10526819909303,7.22784311401172,7.41547675604771,TRUE,1.48010327497784
"CAN","cpi",0.3,1976,3,1975,NA,1,7.26167324861006,9.96476294197162,7.22784311401172,11.9151510581142,FALSE,2.79974722078539
"CAN","cpi",0.3,1976,3,1975,NA,1.5,2.48497759897048,6.74016846586619,7.22784311401172,8.01331538119686,FALSE,5.64854700445436
"CAN","cpi",0.3,1977,3,1977,NA,0,7.40363058470633,7.51742022117173,7.58101410153764,7.61867129691007,FALSE,0.295486437510877
"CAN","cpi",0.3,1977,3,1977,NA,0.5,6.46632309380679,7.44207563226362,7.58101410153764,7.02287871989832,FALSE,1.37271959352546
"CAN","cpi",0.3,1977,3,1976,NA,1,3.5457271797328,5.27148784405391,7.58101410153764,5.87261903876238,FALSE,8.32440711427464
"CAN","cpi",0.3,1977,3,1976,NA,1.5,3.09083324322299,6.09508805965984,7.58101410153764,6.15322645024094,FALSE,7.24975779323058
"CAN","cpi",0.3,1978,3,1978,NA,0,8.45264404715767,8.56374112949765,8.50208927062595,8.68125407245005,TRUE,0.111097082339988
"CAN","cpi",0.3,1978,3,1978,NA,0.5,7.4440977626428,8.62323918122702,8.50208927062595,8.12508742330222,TRUE,1.17914141858422
"CAN","cpi",0.3,1978,3,1977,NA,1,5.23902324376835,7.42340705863397,8.50208927062595,8.64318766852961,FALSE,5.26633299198555
"CAN","cpi",0.3,1978,3,1977,NA,1.5,3.51298421094211,7.74415354664026,8.50208927062595,7.66028936796504,FALSE,6.39669997565726
"CAN","cpi",0.3,1979,3,1979,NA,0,8.3872766761737,8.49432537729365,8.65147652410481,8.61075946409788,FALSE,0.556051977723273
"CAN","cpi",0.3,1979,3,1979,NA,0.5,7.53614682232556,8.58357092112353,8.65147652410481,8.10062835274572,FALSE,1.24144010731592
"CAN","cpi",0.3,1979,3,1978,NA,1,5.81005386607848,9.03822732115027,8.65147652410481,9.5826348846829,TRUE,3.22817345507179
"CAN","cpi",0.3,1979,3,1978,NA,1.5,5.01858214149714,8.6913493131496,8.65147652410481,7.94183844676527,TRUE,3.67276717165246
"CAN","cpi",0.3,1980,3,1980,NA,0,9.29505041289768,9.40057154804854,9.5171912664748,9.53109046750286,FALSE,0.438720330654454
"CAN","cpi",0.3,1980,3,1980,NA,0.5,8.23329399903831,9.15328212016105,9.5171912664748,8.68563614915422,FALSE,1.959728539162
"CAN","cpi",0.3,1980,3,1979,NA,1,5.04591328267868,7.58854328861141,9.5171912664748,8.32548734166583,FALSE,8.05305279982812
"CAN","cpi",0.3,1980,3,1979,NA,1.5,5.03472619267833,8.68102879018662,9.5171912664748,7.98047102096121,FALSE,6.03533824404593
"CAN","cpi",0.3,1981,3,1981,NA,0,11.4489466284336,11.6492055324626,11.5813425032741,11.708955977523,TRUE,0.200258904028981
"CAN","cpi",0.3,1981,3,1981,NA,0.5,11.3298986648033,12.478492954267,11.5813425032741,12.1263962907449,TRUE,1.14859428946369
"CAN","cpi",0.3,1981,3,1980,NA,1,6.77501489938683,10.268653262869,11.5813425032741,10.9849401653028,FALSE,7.24417905035404
"CAN","cpi",0.3,1981,3,1980,NA,1.5,5.65989738166163,9.24811584878618,11.5813425032741,8.62735225265647,FALSE,10.2545803370902
"CAN","cpi",0.3,1982,3,1982,NA,0,10.0689824970453,10.2579784568015,10.1124203763629,10.3109749747662,TRUE,0.188995959756248
"CAN","cpi",0.3,1982,3,1982,NA,0.5,9.59648876519211,10.5347227923822,10.1124203763629,10.0996836619997,TRUE,0.93823402719007
"CAN","cpi",0.3,1982,3,1981,NA,1,8.11046804507581,10.5457229276441,10.1124203763629,11.6194795199153,TRUE,2.43525488256829
"CAN","cpi",0.3,1982,3,1981,NA,1.5,10.2493338793486,12.6845887619168,10.1124203763629,12.7194356761443,FALSE,2.82643631967004
"CAN","cpi",0.3,1983,3,1983,NA,0,5.64343506453706,5.77017900253425,5.67091787896303,5.82764740362034,TRUE,0.126743937997185
"CAN","cpi",0.3,1983,3,1983,NA,0.5,5.147659042101,5.67642128867505,5.67091787896303,4.97543944794331,TRUE,0.528762246574045
"CAN","cpi",0.3,1983,3,1982,NA,1,6.82114629291872,8.73564448043438,5.67091787896303,9.23778396682256,FALSE,5.20086508453191
"CAN","cpi",0.3,1983,3,1982,NA,1.5,8.15260093871319,10.1440217668967,5.67091787896303,9.78870144173853,FALSE,9.08194385604107
"CAN","cpi",0.3,1984,3,1984,NA,0,4.05016483880936,4.17483512586219,4.19799576814029,4.21357537293321,FALSE,0.190843550704532
"CAN","cpi",0.3,1984,3,1984,NA,0.5,4.89247619785114,5.36679357474568,4.19799576814029,4.64258933063566,FALSE,2.45854717606841
"CAN","cpi",0.3,1984,3,1983,NA,1,4.11026995908361,6.0099867184521,4.19799576814029,6.13137654871218,TRUE,1.89971675936848
"CAN","cpi",0.3,1984,3,1983,NA,1.5,3.33986264083746,5.26825893674457,4.19799576814029,3.46832438596907,TRUE,1.92839629590711
"CAN","cpi",0.3,1985,3,1985,NA,0,3.75947794414425,3.88438776183302,3.86444262005169,3.91909325760218,TRUE,0.124909817688768
"CAN","cpi",0.3,1985,3,1985,NA,0.5,4.17244532670949,4.6596912806118,3.86444262005169,3.89150188195039,FALSE,1.3672536872103
"CAN","cpi",0.3,1985,3,1984,NA,1,2.2267727791699,3.346388238032,3.86444262005169,3.29397074977035,FALSE,2.59977083606121
"CAN","cpi",0.3,1985,3,1984,NA,1.5,4.59365060715796,6.0197104665245,3.86444262005169,4.4666103475984,FALSE,3.50951125109873
"CAN","cpi",0.3,1986,3,1986,NA,0,3.97402290345227,4.06895517865058,4.08685396749431,4.1058885406559,FALSE,0.146071671894683
"CAN","cpi",0.3,1986,3,1986,NA,0.5,4.5757092098657,5.14342145481035,4.08685396749431,4.41001406158749,FALSE,1.96444150886291
"CAN","cpi",0.3,1986,3,1985,NA,1,2.69732392290637,4.13374316228258,4.08685396749431,3.99303879319441,TRUE,1.43641923937621
"CAN","cpi",0.3,1986,3,1985,NA,1.5,3.74932643826476,5.80692561653649,4.08685396749431,4.22326323880904,TRUE,2.05759917827173
"CAN","cpi",0.3,1987,3,1987,NA,0,4.22423529086571,4.31980586808139,4.23980729277887,4.35976718480882,TRUE,0.0955705772156747
"CAN","cpi",0.3,1987,3,1987,NA,0.5,4.13391597463028,4.6369401377936,4.23980729277887,3.90936321394769,TRUE,0.503024163163319
"CAN","cpi",0.3,1987,3,1986,NA,1,2.92892262437798,4.43027776712655,4.23980729277887,4.33099659151455,TRUE,1.50135514274856
"CAN","cpi",0.3,1987,3,1986,NA,1.5,3.9996700832361,6.21174707637908,4.23980729277887,4.75247122036215,TRUE,2.21207699314298
"CAN","cpi",0.3,1988,3,1988,NA,0,3.88217576180691,3.97687373119643,3.92899537638065,4.01269560152408,TRUE,0.0946979693895145
"CAN","cpi",0.3,1988,3,1988,NA,0.5,3.7468723512923,4.22220245728077,3.92899537638065,3.47075595914335,TRUE,0.475330105988462
"CAN","cpi",0.3,1988,3,1987,NA,1,3.0969468850607,4.60724234170896,3.92899537638065,4.58162438495066,TRUE,1.51029545664826
"CAN","cpi",0.3,1988,3,1987,NA,1.5,3.73174844018357,5.49358730619032,3.92899537638065,3.81364776332008,TRUE,1.76183886600675
"CAN","cpi",0.3,1989,3,1989,NA,0,4.87882981687131,4.97607029145229,4.82821664544208,5.02395320873108,FALSE,0.241849535807357
"CAN","cpi",0.3,1989,3,1989,NA,0.5,4.53854482711237,4.99402839172267,4.82821664544208,4.36789847845152,TRUE,0.455483564610297
"CAN","cpi",0.3,1989,3,1988,NA,1,3.06508173912705,4.5011473846989,4.82821664544208,4.46162561835953,FALSE,2.37054924769522
"CAN","cpi",0.3,1989,3,1988,NA,1.5,3.4420808266884,5.08413154004009,4.82821664544208,3.27838152614011,TRUE,1.64205071335169
"CAN","cpi",0.3,1990,3,1990,NA,0,4.38179079677664,4.47726211278323,4.64347549432717,4.51963128519567,FALSE,0.570366691846415
"CAN","cpi",0.3,1990,3,1990,NA,0.5,5.15567067013171,5.56959948941889,4.64347549432717,4.98434426998405,FALSE,1.87734360730015
"CAN","cpi",0.3,1990,3,1989,NA,1,4.0530512749378,5.8225436569264,4.64347549432717,5.9177493923911,TRUE,1.7694923819886
"CAN","cpi",0.3,1990,3,1989,NA,1.5,4.14047584151463,6.06593656623403,4.64347549432717,4.56185858388509,TRUE,1.9254607247194
"CAN","cpi",0.3,1991,3,1991,NA,0,5.47027799502003,5.56902727805445,5.4258100696218,5.62406762795447,FALSE,0.225800498457949
"CAN","cpi",0.3,1991,3,1991,NA,0.5,8.08931779946879,8.75104301397606,5.4258100696218,8.39172083833767,FALSE,8.27174729978439
"CAN","cpi",0.3,1991,3,1990,NA,1,2.66310903505284,3.97998902887651,5.4258100696218,3.86917616551897,FALSE,5.44779725309592
"CAN","cpi",0.3,1991,3,1990,NA,1.5,4.58339376622566,6.1578515105178,5.4258100696218,5.12288497855213,TRUE,1.57445774429215
"CAN","cpi",0.3,1992,3,1992,NA,0,1.38765954772846,1.47498373589436,1.47496888572843,1.48060592990191,TRUE,0.0873241881658942
"CAN","cpi",0.3,1992,3,1992,NA,0.5,1.70659572874351,2.01002847586083,1.47496888572843,1.17198715241532,FALSE,0.965223727160391
"CAN","cpi",0.3,1992,3,1991,NA,1,1.89777281425912,2.84146867000676,1.47496888572843,2.52024528073196,FALSE,2.15170708012104
"CAN","cpi",0.3,1992,3,1991,NA,1.5,7.56008286010307,9.78412031963368,1.47496888572843,10.1533377092026,FALSE,19.6100773863153
"CAN","cpi",0.3,1993,3,1993,NA,0,1.70438655764009,1.79314425843823,1.84351085411351,1.80262144325658,FALSE,0.23266225987038
"CAN","cpi",0.3,1993,3,1993,NA,0.5,2.70715331287575,3.08786159799094,1.84351085411351,2.34241315558581,FALSE,2.84825816729302
"CAN","cpi",0.3,1993,3,1992,NA,1,1.27679684771324,2.21999337660814,1.84351085411351,1.81805946412584,TRUE,0.943196528894904
"CAN","cpi",0.3,1993,3,1992,NA,1.5,2.30379544122928,3.24699197012419,1.84351085411351,1.14026360102641,FALSE,2.25829534922568
"CAN","cpi",0.3,1994,3,1994,NA,0,0.105565072032913,0.173701875943144,0.161630694655448,0.163616628358327,TRUE,0.068136803910231
"CAN","cpi",0.3,1994,3,1994,NA,0.5,0.387143263368218,0.550432256202403,0.161630694655448,-0.385140098029379,FALSE,0.807610617727814
"CAN","cpi",0.3,1994,3,1993,NA,1,0.970656929832364,1.77193412888329,0.161630694655448,1.37474728133383,FALSE,3.11278072812783
"CAN","cpi",0.3,1994,3,1993,NA,1.5,2.9902064580245,4.27364434595394,0.161630694655448,2.59685615311524,FALSE,9.36508292612673
"CAN","cpi",0.3,1995,3,1995,NA,0,2.10014745215612,2.17942517311622,2.11688403676572,2.19356448193293,TRUE,0.0792777209601079
"CAN","cpi",0.3,1995,3,1995,NA,0.5,2.91652628632358,3.34356498113703,2.11688403676572,2.67750903542847,FALSE,2.71173083640735
"CAN","cpi",0.3,1995,3,1994,NA,1,1.04725112531925,1.60106526762231,2.11688403676572,1.34092618105198,FALSE,2.02758205414136
"CAN","cpi",0.3,1995,3,1994,NA,1.5,0.988946112112533,1.5427602544156,2.11688403676572,-1.3139842175605,FALSE,2.19416780616055
"CAN","cpi",0.3,1996,3,1996,NA,0,1.40158713403866,1.47641067848505,1.55309584667184,1.48206512402721,FALSE,0.293924024980083
"CAN","cpi",0.3,1996,3,1996,NA,0.5,1.68858346763059,1.99092728552759,1.55309584667184,1.23598680875262,FALSE,0.689451306350569
"CAN","cpi",0.3,1996,3,1995,NA,1,0.940184006945564,1.79696560326102,1.55309584667184,1.32983461361347,TRUE,0.856781596315455
"CAN","cpi",0.3,1996,3,1995,NA,1.5,3.37779643472308,4.44075527051815,1.55309584667184,3.42580605950136,FALSE,6.27638908737003
"CAN","cpi",0.3,1997,3,1997,NA,0,1.60638153785935,1.68237476593815,1.60528783555959,1.69050032419864,FALSE,0.0791180917923855
"CAN","cpi",0.3,1997,3,1997,NA,0.5,2.38093611895177,2.81002303778241,1.60528783555959,2.11979188984917,FALSE,2.64522487137973
"CAN","cpi",0.3,1997,3,1996,NA,1,0.848863102926568,1.61322643720934,1.60528783555959,1.19524084873691,TRUE,0.764363334282772
"CAN","cpi",0.3,1997,3,1996,NA,1.5,2.38976639596737,3.17736683242885,1.60528783555959,1.35560903862103,FALSE,3.02896775191228
"CAN","cpi",0.3,1998,3,1998,NA,0,0.907812011841461,0.980419817034409,0.988908029337191,0.980088020931525,FALSE,0.0968598403437541
"CAN","cpi",0.3,1998,3,1998,NA,0.5,1.6299991124636,2.04979987847984,0.988908029337191,1.31078347146242,FALSE,2.25148957494883
"CAN","cpi",0.3,1998,3,1997,NA,1,0.760975943794557,1.49870201090643,0.988908029337191,1.06570792570078,TRUE,0.73772606711187
"CAN","cpi",0.3,1998,3,1997,NA,1.5,2.79359940644851,3.6320773957717,0.988908029337191,2.25360669266494,FALSE,5.99473906678411
"CAN","cpi",0.3,1999,3,1999,NA,0,1.73078258863473,1.80747731420355,1.7107350135213,1.81711295343144,FALSE,0.133973511607195
"CAN","cpi",0.3,1999,3,1999,NA,0.5,1.17769709639595,1.55890577053137,1.7107350135213,0.788387565724544,FALSE,0.815006511249487
"CAN","cpi",0.3,1999,3,1998,NA,1,0.506588452663988,1.05673352465834,1.7107350135213,0.575366492854125,FALSE,2.41872075445993
"CAN","cpi",0.3,1999,3,1998,NA,1.5,2.40483730602054,3.27796868974325,1.7107350135213,1.68716976710558,FALSE,2.85628079086341
