isdrw/probabilistic-benchmark-forecasts/results/linear_quantile_regression/ldr_prediction_ar1_2026-02-25_19-36-43.csv
"country","target","tau","target_year","target_quarter","forecast_year","forecast_quarter","horizon","lower_bound","upper_bound","truth_value","prediction","covered","IS"
"CAN","cpi",0.1,1950,3,1950,NA,0,2.37145922729289,2.3714592272927,2.59031220731124,2.24825037311262,FALSE,0.48633995559657
"CAN","cpi",0.1,1950,3,1950,NA,0.5,0.445796407174683,0.445796407174493,2.59031220731124,-0.218816875802678,FALSE,4.76559066697036
"CAN","cpi",0.1,1950,3,1949,NA,1,182.677140522599,182.677140522599,2.59031220731124,1.29650217702121,FALSE,400.192951811751
"CAN","cpi",0.1,1950,3,1949,NA,1.5,13.3859983407784,13.3859983407784,2.59031220731124,0,FALSE,23.9904136299271
"CAN","cpi",0.1,1951,3,1951,NA,0,9.79897287161977,9.83321428824975,9.87945438999359,9.85678648981217,FALSE,0.136997198282966
"CAN","cpi",0.1,1951,3,1951,NA,0.5,9.4197284094261,9.45396982605607,9.87945438999359,8.53589570050804,FALSE,0.979762669824467
"CAN","cpi",0.1,1951,3,1950,NA,1,3.08143260915237,9.26268675989882,9.87945438999359,4.61037950756317,FALSE,7.55184888429039
"CAN","cpi",0.1,1951,3,1950,NA,1.5,2.46788029376656,14.870642480412,9.87945438999359,-0.898542404092984,TRUE,12.4027621866455
"CAN","cpi",0.1,1952,3,1952,NA,0,2.83809396265776,2.83809396265776,2.55562336095485,2.50792675283471,FALSE,0.627712448228697
"CAN","cpi",0.1,1952,3,1952,NA,0.5,5.7405615191725,5.7405615191725,2.55562336095485,3.80942800622696,FALSE,7.07764035159479
"CAN","cpi",0.1,1952,3,1951,NA,1,12.804539966637,12.804539966637,2.55562336095485,6.36946346746546,FALSE,22.7753702348493
"CAN","cpi",0.1,1952,3,1951,NA,1.5,4.55977050124808,4.55977050124808,2.55562336095485,4.80604275648344,FALSE,4.45366031176274
"CAN","cpi",0.1,1953,3,1953,NA,0,-0.793352578673128,-0.793352578673128,-1.01492775838436,-1.00118391953201,FALSE,0.492389288247187
"CAN","cpi",0.1,1953,3,1953,NA,0.5,-0.39849356612391,0.56045698588351,-1.01492775838436,-1.88711612688489,FALSE,2.3288043125862
"CAN","cpi",0.1,1953,3,1952,NA,1,1.7892227576468,2.74817330965422,-1.01492775838436,-0.873617238258229,FALSE,7.19039614318778
"CAN","cpi",0.1,1953,3,1952,NA,1.5,7.92518504049987,8.88413559250729,-1.01492775838436,0.432272395627528,FALSE,20.8258678828613
"CAN","cpi",0.1,1954,3,1954,NA,0,0.923089179022082,0.944242995027155,0.644425455961438,0.831821956393317,FALSE,0.640406533917615
"CAN","cpi",0.1,1954,3,1954,NA,0.5,0.603996507962974,0.625150323968048,0.644425455961438,-0.141712452464762,FALSE,0.063987442657052
"CAN","cpi",0.1,1954,3,1953,NA,1,0.703764580988925,3.96324268596859,0.644425455961438,2.12291681679911,FALSE,3.39134282726297
"CAN","cpi",0.1,1954,3,1953,NA,1.5,2.5996044508753,10.2420883002206,0.644425455961438,-1.28741438714058,FALSE,11.987326060265
"CAN","cpi",0.1,1955,3,1955,NA,0,0.158845569516852,0.158845569516852,0.173649026558865,0.10295813188439,FALSE,0.032896571204473
"CAN","cpi",0.1,1955,3,1955,NA,0.5,0.234473161412225,0.265229889919505,0.173649026558865,-0.548848324097393,FALSE,0.165921472625858
"CAN","cpi",0.1,1955,3,1954,NA,1,1.57621204667656,3.24298868555618,0.173649026558865,2.19101630104756,FALSE,4.78358335025228
"CAN","cpi",0.1,1955,3,1954,NA,1.5,1.64583495054069,3.3126115894203,0.173649026558865,-0.815294949881493,FALSE,4.93830091439477
"CAN","cpi",0.1,1956,3,1956,NA,0,1.52412337805927,1.52622792532084,1.32752769429961,1.46434436590257,FALSE,0.438983844505265
"CAN","cpi",0.1,1956,3,1956,NA,0.5,0.292340336558235,0.294444883819809,1.32752769429961,-0.485738076612692,FALSE,2.29784412610557
"CAN","cpi",0.1,1956,3,1955,NA,1,-0.194863850336305,-0.19275930307473,1.32752769429961,0.557995939500226,FALSE,3.38052009698233
"CAN","cpi",0.1,1956,3,1955,NA,1.5,0.831032860302301,2.48215807832585,1.32752769429961,-0.793756041684752,TRUE,1.65112521802355
"CAN","cpi",0.1,1957,3,1957,NA,0,3.39483172465014,3.40004722373502,3.24684755852518,3.35523637829212,FALSE,0.334069201584803
"CAN","cpi",0.1,1957,3,1957,NA,0.5,2.74177198461042,2.75004155486828,3.24684755852518,2.12793087018929,FALSE,1.11228291171763
"CAN","cpi",0.1,1957,3,1956,NA,1,2.02223155982956,2.03050113008741,3.24684755852518,4.42886834530761,FALSE,2.71126163345288
"CAN","cpi",0.1,1957,3,1956,NA,1.5,1.32604656659009,1.33431613684795,3.24684755852518,-0.785064469253982,FALSE,4.25833939620725
"CAN","cpi",0.1,1958,3,1958,NA,0,2.17036124652635,2.23106099632655,2.33186388641149,2.20013349321115,FALSE,0.284706172211174
"CAN","cpi",0.1,1958,3,1958,NA,0.5,2.60801547286969,2.66871522266989,2.33186388641149,2.0126030377883,FALSE,0.674369941929536
"CAN","cpi",0.1,1958,3,1957,NA,1,1.21064322930487,2.36194056263154,2.33186388641149,2.83859761398538,TRUE,1.15129733332667
"CAN","cpi",0.1,1958,3,1957,NA,1.5,1.58531984721445,2.73661718054112,2.33186388641149,0.366312073207214,TRUE,1.15129733332667
"CAN","cpi",0.1,1959,3,1959,NA,0,1.24084896982503,1.24173273391235,1.19382698397654,1.18954599151176,FALSE,0.105377065972852
"CAN","cpi",0.1,1959,3,1959,NA,0.5,1.25597298651171,1.28429841131675,1.19382698397654,0.545308327160925,FALSE,0.166427652660967
"CAN","cpi",0.1,1959,3,1958,NA,1,0.287121805111563,1.19933520469426,1.19382698397654,1.13295114249046,TRUE,0.912213399582698
"CAN","cpi",0.1,1959,3,1958,NA,1.5,1.63774927890486,2.54996267848756,1.19382698397654,0.717422088079289,FALSE,1.89870738831229
"CAN","cpi",0.1,1960,3,1960,NA,0,1.04559607458985,1.06098049657606,1.34209404870695,1.02361304259477,FALSE,0.640081204499306
"CAN","cpi",0.1,1960,3,1960,NA,0.5,1.34472370258537,1.36010812457158,1.34209404870695,0.648611007713657,FALSE,0.0212280972715825
"CAN","cpi",0.1,1960,3,1959,NA,1,1.96084410054596,1.97622852253216,1.34209404870695,2.37666873185636,FALSE,1.390384537184
"CAN","cpi",0.1,1960,3,1959,NA,1.5,1.46328972887396,2.19547686744549,1.34209404870695,-0.349092179567277,FALSE,1.001510872276
"CAN","cpi",0.1,1961,3,1961,NA,0,1.02836364372668,1.06309199417287,1.00921348094007,1.00921348094007,FALSE,0.0772842677497675
"CAN","cpi",0.1,1961,3,1961,NA,0.5,1.66669487343451,1.7014232238807,1.00921348094007,1.00921348094007,FALSE,1.49579811154495
"CAN","cpi",0.1,1961,3,1960,NA,1,0.299228876641074,0.488270717758071,1.00921348094007,0.0537704626035329,FALSE,1.34669242596589
"CAN","cpi",0.1,1961,3,1960,NA,1.5,1.31270643729484,1.50174827841184,1.00921348094007,-0.332316386156399,FALSE,0.86347063301648
"CAN","cpi",0.1,1962,3,1962,NA,0,1.08638415851361,1.10300093375912,1.04957947883042,1.0653801125483,FALSE,0.0984049523192739
"CAN","cpi",0.1,1962,3,1962,NA,0.5,0.709360999891856,0.725977775137362,1.04957947883042,0,FALSE,0.735731672341181
"CAN","cpi",0.1,1962,3,1961,NA,1,0.717908329495543,0.734525104741049,1.04957947883042,0,FALSE,0.716737606555208
"CAN","cpi",0.1,1962,3,1961,NA,1.5,1.42427106208033,1.56987240533965,1.04957947883042,0,FALSE,0.978249306036906
"CAN","cpi",0.1,1963,3,1963,NA,0,1.83194803637506,1.86754153696064,1.60677118395228,1.83024954277348,FALSE,0.535986505969533
"CAN","cpi",0.1,1963,3,1963,NA,0.5,1.50525427766111,1.54084777824669,1.60677118395228,0.836828714617504,FALSE,0.182089957709116
"CAN","cpi",0.1,1963,3,1962,NA,1,1.55967895762026,1.74803464501364,1.60677118395228,1.60935100695326,TRUE,0.188355687393382
"CAN","cpi",0.1,1963,3,1962,NA,1.5,1.10922543584189,1.56987240533965,1.60677118395228,0,FALSE,0.542644255303609
"CAN","cpi",0.1,1964,3,1964,NA,0,1.93929977739546,1.9578448529802,1.88764670034376,1.95194648443024,FALSE,0.13332969125518
"CAN","cpi",0.1,1964,3,1964,NA,0.5,1.92560361890479,1.96212396327105,1.88764670034376,1.27307816843398,FALSE,0.120869052279661
"CAN","cpi",0.1,1964,3,1963,NA,1,2.18205498537564,2.44543878935783,1.88764670034376,3.20172332637508,FALSE,0.917624437386365
"CAN","cpi",0.1,1964,3,1963,NA,1.5,1.36537983171889,1.62876363570109,1.88764670034376,0,FALSE,0.838679503188136
"CAN","cpi",0.1,1965,3,1965,NA,0,2.27411458155189,2.29769879504887,2.29538304394236,2.29800189469823,TRUE,0.0235842134969797
"CAN","cpi",0.1,1965,3,1965,NA,0.5,2.03206265942134,2.05564687291832,2.29538304394236,1.39443218256826,FALSE,0.556331260217066
"CAN","cpi",0.1,1965,3,1964,NA,1,1.51418348330571,1.55738357967815,2.29538304394236,1.48078368039448,FALSE,1.68319890584845
"CAN","cpi",0.1,1965,3,1964,NA,1.5,1.49330445398608,1.69451402496369,2.29538304394236,0.293257399533461,FALSE,1.53647405759687
"CAN","cpi",0.1,1966,3,1966,NA,0,3.74152439364102,3.77868296284392,3.72486065470629,3.77511268244847,FALSE,0.0741891001689643
"CAN","cpi",0.1,1966,3,1966,NA,0.5,3.88842573434458,3.92558430354749,3.72486065470629,3.37743719728421,FALSE,0.400636523954668
"CAN","cpi",0.1,1966,3,1965,NA,1,1.74267774241085,1.87627096572705,3.72486065470629,1.98486973144544,FALSE,4.24157030993673
"CAN","cpi",0.1,1966,3,1965,NA,1.5,1.6964236054433,1.8300168287595,3.72486065470629,0.578640834001038,FALSE,4.34435728097573
"CAN","cpi",0.1,1967,3,1967,NA,0,3.64433331170615,3.67003588633591,3.49360316391996,3.68375770714608,FALSE,0.360658458599076
"CAN","cpi",0.1,1967,3,1967,NA,0.5,2.69985748938782,2.72556006401757,3.49360316391996,2.11054708048259,FALSE,1.73246501885728
"CAN","cpi",0.1,1967,3,1966,NA,1,1.7076617772208,1.94043079600704,3.49360316391996,2.02003307533501,FALSE,3.68426316970384
"CAN","cpi",0.1,1967,3,1966,NA,1.5,2.0910075553338,2.32377657412004,3.49360316391996,1.71558536379673,FALSE,2.83238366278606
"CAN","cpi",0.1,1968,3,1968,NA,0,4.01842802291103,4.03489434084738,3.95128347779386,4.07085717819357,FALSE,0.165676418196732
"CAN","cpi",0.1,1968,3,1968,NA,0.5,4.01330803964968,4.04303979407717,3.95128347779386,3.50732233276501,FALSE,0.167564114107104
"CAN","cpi",0.1,1968,3,1967,NA,1,2.38085159260381,2.78833401512263,3.95128347779386,3.66303679301692,FALSE,2.99181456178821
"CAN","cpi",0.1,1968,3,1967,NA,1.5,1.75794259415503,2.16542501667385,3.95128347779386,0.834881519045053,FALSE,4.37605678056328
"CAN","cpi",0.1,1969,3,1969,NA,0,4.46690843606526,4.47729299580021,4.42679496126681,4.52532640008253,FALSE,0.0995256148426095
"CAN","cpi",0.1,1969,3,1969,NA,0.5,3.24957410660912,3.25995866634406,4.42679496126681,2.69090620784681,FALSE,2.60335410400772
"CAN","cpi",0.1,1969,3,1968,NA,1,2.63300973849795,2.99478342526694,4.42679496126681,4.0779393276339,FALSE,3.54402154454649
"CAN","cpi",0.1,1969,3,1968,NA,1.5,2.01118846195144,2.37296214872043,4.42679496126681,1.61221871335458,FALSE,4.92584660353874
"CAN","cpi",0.1,1970,3,1970,NA,0,3.511138115427,3.52458369029638,3.28128405769805,3.55878605435979,FALSE,0.524232369822607
"CAN","cpi",0.1,1970,3,1970,NA,0.5,4.2397818735195,4.26877720282152,3.28128405769805,3.74969277403504,FALSE,2.15899047557192
"CAN","cpi",0.1,1970,3,1969,NA,1,2.46165242676501,2.59345106835801,3.28128405769805,3.11186608282608,FALSE,1.66031639568196
"CAN","cpi",0.1,1970,3,1969,NA,1.5,1.83564241584761,2.38715897423792,3.28128405769805,0.764941977259638,FALSE,2.53846118830171
"CAN","cpi",0.1,1971,3,1971,NA,0,2.76105371164523,2.79091906208397,2.64123406634756,2.81514553288871,FALSE,0.296131228877995
"CAN","cpi",0.1,1971,3,1971,NA,0.5,1.77951685212219,1.81651222693113,2.64123406634756,1.11673730766521,FALSE,1.86971057351213
"CAN","cpi",0.1,1971,3,1970,NA,1,1.90748979902844,2.38438079029057,2.64123406634756,1.92043450460395,FALSE,1.04767604916656
"CAN","cpi",0.1,1971,3,1970,NA,1.5,2.10428676491498,2.58117775617712,2.64123406634756,1.70194075200601,FALSE,0.610349458307565
"CAN","cpi",0.1,1972,3,1972,NA,0,4.97058599964418,4.98394627021287,4.83230569625923,5.04828762155974,FALSE,0.320649833646357
"CAN","cpi",0.1,1972,3,1972,NA,0.5,4.56339776894681,4.5913407962132,4.83230569625923,4.09602385359717,FALSE,0.563420582924238
"CAN","cpi",0.1,1972,3,1971,NA,1,3.2687640872544,3.91077379949901,4.83230569625923,4.16812111633716,FALSE,2.68985837171176
"CAN","cpi",0.1,1972,3,1971,NA,1.5,1.90722523052442,2.54923494276902,4.83230569625923,0.692030005351089,FALSE,5.71550027555617
"CAN","cpi",0.1,1973,3,1973,NA,0,7.14997202543059,7.15977542032944,7.12388603531779,7.25096132226983,FALSE,0.0677722618161801
"CAN","cpi",0.1,1973,3,1973,NA,0.5,5.69909616494719,5.71684637322473,7.12388603531779,5.30446017290082,FALSE,3.14450501292879
"CAN","cpi",0.1,1973,3,1972,NA,1,3.80330989372658,4.67427659201151,7.12388603531779,4.92276035792265,FALSE,6.31454323896555
"CAN","cpi",0.1,1973,3,1972,NA,1.5,2.03653427860816,2.90750097689309,7.12388603531779,1.79187879074203,FALSE,10.240711272562
"CAN","cpi",0.1,1974,3,1974,NA,0,9.98362525235055,10.0208187093486,10.2717243737774,10.148911210151,FALSE,0.594761600173217
"CAN","cpi",0.1,1974,3,1974,NA,0.5,8.12485870095419,8.16205215795222,10.2717243737774,7.90446289245049,FALSE,4.72535393660958
"CAN","cpi",0.1,1974,3,1973,NA,1,6.59373954167038,7.06240233905292,10.2717243737774,7.30476096756609,FALSE,7.60048954121476
"CAN","cpi",0.1,1974,3,1973,NA,1.5,2.43125938012555,2.89992217750808,10.2717243737774,2.5663290958369,FALSE,16.8504454557588
"CAN","cpi",0.1,1975,3,1975,NA,0,10.0427571629669,10.0478393763256,10.0232981493341,10.1746571103793,FALSE,0.0483244658760419
"CAN","cpi",0.1,1975,3,1975,NA,0.5,8.4291570009096,8.57075866159848,10.0232981493341,8.07152306914465,FALSE,3.3694671889903
"CAN","cpi",0.1,1975,3,1974,NA,1,8.3337447861243,8.47534644681319,10.0232981493341,7.8187778356914,FALSE,3.58149433295763
"CAN","cpi",0.1,1975,3,1974,NA,1.5,3.50341849947697,5.12250129283405,10.0232981493341,3.64914274700436,FALSE,12.5097424744683
"CAN","cpi",0.1,1976,3,1976,NA,0,7.07019348659756,7.09950907173217,7.22784311401172,7.18995143043805,FALSE,0.314502345755828
"CAN","cpi",0.1,1976,3,1976,NA,0.5,7.06643981034491,7.83773734196299,7.22784311401172,6.61333364285308,TRUE,0.771297531618078
"CAN","cpi",0.1,1976,3,1975,NA,1,9.74969576885579,10.6070836724115,7.22784311401172,8.584971075903,FALSE,6.46150491432029
"CAN","cpi",0.1,1976,3,1975,NA,1.5,4.35439739235604,5.21178529591173,7.22784311401172,3.14738569995591,FALSE,5.33751638822233
"CAN","cpi",0.1,1977,3,1977,NA,0,7.38332342197266,7.407526880036,7.58101410153764,7.50176944503946,FALSE,0.409730616955881
"CAN","cpi",0.1,1977,3,1977,NA,0.5,7.02550088263984,7.08953375756627,7.58101410153764,6.40571638826874,FALSE,1.15621141708504
"CAN","cpi",0.1,1977,3,1976,NA,1,3.9982793153234,4.69375380414268,7.58101410153764,4.04909286077014,FALSE,7.11160848303031
"CAN","cpi",0.1,1977,3,1976,NA,1.5,4.25213754747158,5.70788746876754,7.58101410153764,2.59432747727492,FALSE,5.61825354967397
"CAN","cpi",0.1,1978,3,1978,NA,0,8.47589116203701,8.48353058531204,8.50208927062595,8.59104847384149,FALSE,0.0488809461948247
"CAN","cpi",0.1,1978,3,1978,NA,0.5,7.93715688437195,8.56764728122034,8.50208927062595,7.34113908733495,TRUE,0.630490396848398
"CAN","cpi",0.1,1978,3,1977,NA,1,5.82379395914812,6.49328721821457,8.50208927062595,5.87902868518151,FALSE,5.13349781998062
"CAN","cpi",0.1,1978,3,1977,NA,1.5,5.9303784897401,7.4018303876068,8.50208927062595,3.89293485842214,FALSE,3.91647163790924
"CAN","cpi",0.1,1979,3,1979,NA,0,8.37246197488251,8.39857109834973,8.65147652410481,8.48651410143776,FALSE,0.588121180700731
"CAN","cpi",0.1,1979,3,1979,NA,0.5,8.16338723230578,8.62809608758383,8.65147652410481,7.46186747064873,FALSE,0.516665380880226
"CAN","cpi",0.1,1979,3,1978,NA,1,7.82177682789716,8.66303874262098,8.65147652410481,6.93686058379669,TRUE,0.84126191472382
"CAN","cpi",0.1,1979,3,1978,NA,1.5,7.79672775596197,8.63798967068579,8.65147652410481,3.9179710204728,FALSE,0.87123270009943
"CAN","cpi",0.1,1980,3,1980,NA,0,9.31300900634952,9.33992732782336,9.5171912664748,9.43711128155219,FALSE,0.420838185143692
"CAN","cpi",0.1,1980,3,1980,NA,0.5,8.90293079297006,9.10148676483084,9.5171912664748,7.89144076485851,FALSE,1.1223437532918
"CAN","cpi",0.1,1980,3,1979,NA,1,6.45076611375705,6.91222785926943,9.5171912664748,5.69387794711803,FALSE,6.25026931707986
"CAN","cpi",0.1,1980,3,1979,NA,1.5,8.87091575332387,9.33237749883626,9.5171912664748,4.27199048256738,FALSE,0.872159006931368
"CAN","cpi",0.1,1981,3,1981,NA,0,11.5245915929163,11.6263676769266,11.5813425032741,11.617538759154,TRUE,0.101776084010297
"CAN","cpi",0.1,1981,3,1981,NA,0.5,12.6652421404067,12.767018224417,11.5813425032741,11.3038259100907,FALSE,2.51044194430484
"CAN","cpi",0.1,1981,3,1980,NA,1,9.80778593515879,10.2582029829715,11.5813425032741,8.22922472590444,FALSE,3.39072709292971
"CAN","cpi",0.1,1981,3,1980,NA,1.5,9.32030458321378,9.77072163102647,11.5813425032741,4.54818367546621,FALSE,4.47401898614084
"CAN","cpi",0.1,1982,3,1982,NA,0,10.0849284355674,10.1529671224336,10.1124203763629,10.1863972123348,TRUE,0.0680386868662239
"CAN","cpi",0.1,1982,3,1982,NA,0.5,10.2835194765034,10.4392903286181,10.1124203763629,9.38011590167964,FALSE,0.535991074649031
"CAN","cpi",0.1,1982,3,1981,NA,1,11.1675685623922,11.323339414507,10.1124203763629,8.92774959502704,FALSE,2.5005445988464
"CAN","cpi",0.1,1982,3,1981,NA,1.5,14.581321783035,14.7370926351498,10.1124203763629,7.65688060941457,FALSE,10.0866628669416
"CAN","cpi",0.1,1983,3,1983,NA,0,5.72664375057833,5.76737746323867,5.67091787896303,5.79231449937116,FALSE,0.164568982916553
"CAN","cpi",0.1,1983,3,1983,NA,0.5,5.24320590074576,5.52562058672524,5.67091787896303,4.48935486750539,FALSE,0.605297557619015
"CAN","cpi",0.1,1983,3,1982,NA,1,8.04014253310365,8.34872450946976,5.67091787896303,6.68360843662591,FALSE,5.57352565223415
"CAN","cpi",0.1,1983,3,1982,NA,1.5,11.4109217365501,11.7195037129162,5.67091787896303,5.80492936344428,FALSE,13.0641461043374
"CAN","cpi",0.1,1984,3,1984,NA,0,4.13192354662067,4.16451128337216,4.19799576814029,4.1863442377944,FALSE,0.10699770290289
"CAN","cpi",0.1,1984,3,1984,NA,0.5,5.12804979608409,5.40489782535539,4.19799576814029,4.37368919035215,FALSE,2.3436347580353
"CAN","cpi",0.1,1984,3,1983,NA,1,5.45490119158805,6.19152975989827,4.19799576814029,4.8252398586334,FALSE,3.52975173152747
"CAN","cpi",0.1,1984,3,1983,NA,1.5,3.73955835829847,4.96591151758184,4.19799576814029,1.63651850095104,TRUE,1.22635315928337
"CAN","cpi",0.1,1985,3,1985,NA,0,3.82387494944255,3.85365867126987,3.86444262005169,3.87488963413478,FALSE,0.0537480524535957
"CAN","cpi",0.1,1985,3,1985,NA,0.5,4.42700736115034,4.66996693453298,3.86444262005169,3.66954460168274,FALSE,1.49310344249075
"CAN","cpi",0.1,1985,3,1984,NA,1,2.83508185575188,3.35671642476511,3.86444262005169,2.51760914226531,FALSE,1.64991500298341
"CAN","cpi",0.1,1985,3,1984,NA,1.5,5.54479911636734,6.62496294711089,3.86444262005169,2.74468923002786,FALSE,4.81428937811166
"CAN","cpi",0.1,1986,3,1986,NA,0,4.03743418690208,4.07893110511558,4.08685396749431,4.09009381020777,FALSE,0.0591032790551241
"CAN","cpi",0.1,1986,3,1986,NA,0.5,4.9240023626641,5.21179706843102,4.08685396749431,4.18867743652029,FALSE,2.1481244728109
"CAN","cpi",0.1,1986,3,1985,NA,1,3.34125589397092,4.02264304556956,4.08685396749431,2.96346536694636,FALSE,0.824078089209192
"CAN","cpi",0.1,1986,3,1985,NA,1.5,4.8192135987525,6.49286697938604,4.08685396749431,2.65645514502224,FALSE,3.30111922787396
"CAN","cpi",0.1,1987,3,1987,NA,0,4.26152191450839,4.29195398343244,4.23980729277887,4.30382748919395,FALSE,0.0786867838785415
"CAN","cpi",0.1,1987,3,1987,NA,0.5,4.34877822135969,4.6051579227871,4.23980729277887,3.60745044359556,FALSE,0.498537320495898
"CAN","cpi",0.1,1987,3,1986,NA,1,3.93850519183803,4.63550182028757,4.23980729277887,3.48954394276064,TRUE,0.696996628449543
"CAN","cpi",0.1,1987,3,1986,NA,1.5,5.23645323335764,6.30308427291867,4.23980729277887,3.05061614822702,FALSE,3.28139979640274
"CAN","cpi",0.1,1988,3,1988,NA,0,3.91479699758326,3.95576029189112,3.92899537638065,3.96651200874969,TRUE,0.0409632943078551
"CAN","cpi",0.1,1988,3,1988,NA,0.5,3.97518986396193,4.23320796095796,3.92899537638065,3.27588434563216,FALSE,0.3606725138433
"CAN","cpi",0.1,1988,3,1987,NA,1,3.94200156896889,4.49108748181344,3.92899537638065,3.36557853238272,FALSE,0.577988563040637
"CAN","cpi",0.1,1988,3,1987,NA,1.5,4.35021965078228,5.23122145331075,3.92899537638065,2.22890665988493,FALSE,1.81705574564318
"CAN","cpi",0.1,1989,3,1989,NA,0,4.91639080352884,4.94817807149896,4.82821664544208,4.96224122245117,FALSE,0.22772984149626
"CAN","cpi",0.1,1989,3,1989,NA,0.5,4.80407511152377,4.91432181035742,4.82821664544208,4.15246181762677,TRUE,0.110246698833651
"CAN","cpi",0.1,1989,3,1988,NA,1,3.91236360345069,4.47365883843317,4.82821664544208,3.35061776773985,FALSE,1.34920147278006
"CAN","cpi",0.1,1989,3,1988,NA,1.5,4.14217799011358,4.87065143569128,4.82821664544208,2.03293210635829,TRUE,0.728473445577706
"CAN","cpi",0.1,1990,3,1990,NA,0,4.435442048359,4.46874519625789,4.64347549432717,4.49116732458404,FALSE,0.421592699163959
"CAN","cpi",0.1,1990,3,1990,NA,0.5,5.44810560625475,5.56451444528181,4.64347549432717,4.80635133900141,FALSE,1.90447575442167
"CAN","cpi",0.1,1990,3,1989,NA,1,5.14870264866221,5.75827005968887,4.64347549432717,4.45332930526201,FALSE,1.73229442066008
"CAN","cpi",0.1,1990,3,1989,NA,1.5,5.10503629571753,5.95149497044889,4.64347549432717,2.93994143296931,FALSE,1.87214934448771
"CAN","cpi",0.1,1991,3,1991,NA,0,5.54737555820343,5.58046859890448,5.4258100696218,5.5966415351231,FALSE,0.303238570882463
"CAN","cpi",0.1,1991,3,1991,NA,0.5,8.6354222358873,8.78232759964926,5.4258100696218,8.0424604401558,FALSE,7.27937684435196
"CAN","cpi",0.1,1991,3,1990,NA,1,3.53110423893218,4.0741323701749,5.4258100696218,3.00766385389873,FALSE,3.54675635223581
"CAN","cpi",0.1,1991,3,1990,NA,1.5,5.61955169172623,6.55173281318771,5.4258100696218,3.42461322750937,FALSE,1.36271805947134
"CAN","cpi",0.1,1992,3,1992,NA,0,1.42861777732335,1.44461735256292,1.47496888572843,1.46118300949616,FALSE,0.0834474267184873
"CAN","cpi",0.1,1992,3,1992,NA,0.5,1.92805002639579,2.01630580207827,1.47496888572843,1.2379681755847,FALSE,1.09510275494328
"CAN","cpi",0.1,1992,3,1991,NA,1,2.28546701852276,2.75152516824733,1.47496888572843,1.8723365291461,FALSE,2.26716511148975
"CAN","cpi",0.1,1992,3,1991,NA,1.5,8.99806748147209,10.4140640041251,1.47496888572843,6.89933696838937,FALSE,18.1339934020834
"CAN","cpi",0.1,1993,3,1993,NA,0,1.76703379623974,1.79865165630961,1.84351085411351,1.80220567555903,FALSE,0.131304966300762
"CAN","cpi",0.1,1993,3,1993,NA,0.5,2.89048424728684,2.98204179880208,1.84351085411351,2.21818498229346,FALSE,2.41816509190042
"CAN","cpi",0.1,1993,3,1992,NA,1,1.69056260269124,2.1454057130912,1.84351085411351,1.3520429918812,TRUE,0.454843110399957
"CAN","cpi",0.1,1993,3,1992,NA,1.5,2.90564780477946,3.44834063704599,1.84351085411351,0.933485487336859,FALSE,2.90299716707975
"CAN","cpi",0.1,1994,3,1994,NA,0,0.179168301633588,0.204863545188517,0.161630694655448,0.202109657487191,FALSE,0.0646677035063515
"CAN","cpi",0.1,1994,3,1994,NA,0.5,0.150289254152936,0.203512264580985,0.161630694655448,-0.572639707462777,TRUE,0.0532230104280493
"CAN","cpi",0.1,1994,3,1993,NA,1,1.4742724888676,1.70751009330154,0.161630694655448,1.14110533076836,FALSE,3.15021936934983
"CAN","cpi",0.1,1994,3,1993,NA,1.5,3.43453604983199,3.86818783522154,0.161630694655448,1.65023462295923,FALSE,7.70677479689298
"CAN","cpi",0.1,1995,3,1995,NA,0,2.11069357860409,2.14380678503911,2.11688403676572,2.14851249512314,TRUE,0.0331132064350221
"CAN","cpi",0.1,1995,3,1995,NA,0.5,3.26608386542233,3.33813179665375,2.11688403676572,2.60072443309243,FALSE,2.62582532824613
"CAN","cpi",0.1,1995,3,1994,NA,1,1.81665204853927,2.02285121928208,2.11688403676572,1.43373972642191,FALSE,0.415160987373102
"CAN","cpi",0.1,1995,3,1994,NA,1.5,0.6655554178158,0.871754588558611,2.11688403676572,-1.26611333424577,FALSE,2.97315350009193
"CAN","cpi",0.1,1996,3,1996,NA,0,1.40427497237165,1.43431438155337,1.55309584667184,1.43665270425039,FALSE,0.293998220556105
"CAN","cpi",0.1,1996,3,1996,NA,0.5,1.91662162123145,1.97120033981067,1.55309584667184,1.23276330365037,FALSE,0.862413773156122
"CAN","cpi",0.1,1996,3,1995,NA,1,0.998767646053422,1.21466406199733,1.55309584667184,0.729753259393914,FALSE,0.967967048553942
"CAN","cpi",0.1,1996,3,1995,NA,1.5,4.0857947406298,4.56345582823873,1.55309584667184,2.31904839186543,FALSE,6.10588085195995
"CAN","cpi",0.1,1997,3,1997,NA,0,1.65052950721143,1.67634885987905,1.60528783555959,1.67949478723595,FALSE,0.126356400782815
"CAN","cpi",0.1,1997,3,1997,NA,0.5,2.60159346188676,2.6666954100745,1.60528783555959,1.93291992098407,FALSE,2.27911445113701
"CAN","cpi",0.1,1997,3,1996,NA,1,0.890225277927055,1.14424588249892,1.60528783555959,0.614630451620954,FALSE,1.27855827804003
"CAN","cpi",0.1,1997,3,1996,NA,1.5,2.84324414662078,3.15289877142746,1.60528783555959,0.962161564198873,FALSE,3.0606686493871
"CAN","cpi",0.1,1998,3,1998,NA,0,0.938275307841693,0.966287040407547,0.988908029337191,0.967063680387792,FALSE,0.0782805968539504
"CAN","cpi",0.1,1998,3,1998,NA,0.5,2.03031256219995,2.08286543210412,0.988908029337191,1.34897459866337,FALSE,2.36678516515475
"CAN","cpi",0.1,1998,3,1997,NA,1,1.23297511663728,1.49378363613258,0.988908029337191,0.792689959246129,FALSE,0.803179824606611
"CAN","cpi",0.1,1998,3,1997,NA,1.5,3.08944708624141,3.48730086282416,0.988908029337191,1.28384000376946,FALSE,5.06571834748101
"CAN","cpi",0.1,1999,3,1999,NA,0,1.73917483820348,1.76520392587418,1.7107350135213,1.76864633894604,FALSE,0.0892286980755429
"CAN","cpi",0.1,1999,3,1999,NA,0.5,1.42355982938297,1.45586229053578,1.7107350135213,0.732099710600531,FALSE,0.598686290009518
"CAN","cpi",0.1,1999,3,1998,NA,1,0.6177923825206,0.852638373036171,1.7107350135213,0.369052571959629,FALSE,2.14172741381585
"CAN","cpi",0.1,1999,3,1998,NA,1.5,3.07505931829278,3.34996022073051,1.7107350135213,1.26847007023129,FALSE,3.30673269081881
"CAN","cpi",0.1,2000,3,2000,NA,0,2.66052412408284,2.69602977545853,2.6718361971244,2.70257810674034,TRUE,0.0355056513756891
"CAN","cpi",0.1,2000,3,2000,NA,0.5,2.62758050672631,2.69325330099035,2.6718361971244,1.95948305880876,TRUE,0.0656727942640396
"CAN","cpi",0.1,2000,3,1999,NA,1,2.77589972804361,3.03962949745587,2.6718361971244,2.16154661985999,FALSE,0.494982060343838
"CAN","cpi",0.1,2000,3,1999,NA,1.5,2.2993094218888,2.56303919130106,2.6718361971244,0.50278387806376,FALSE,0.505500893464129
"CAN","cpi",0.1,2001,3,2001,NA,0,2.69660645506376,2.71252443096686,2.47906219852806,2.73154549386087,FALSE,0.499349657093535
"CAN","cpi",0.1,2001,3,2001,NA,0.5,2.33324079126955,2.39244795341941,2.47906219852806,1.65861828263926,FALSE,0.251683262391312
"CAN","cpi",0.1,2001,3,2000,NA,1,3.41938280991099,3.78831513950233,2.47906219852806,2.84133895788986,FALSE,2.45853368822007
"CAN","cpi",0.1,2001,3,2000,NA,1.5,2.93347053142898,3.33655995792802,2.47906219852806,1.14191354447969,FALSE,1.41288572183441
"CAN","cpi",0.1,2002,3,2002,NA,0,2.27375041393774,2.29461353046414,2.20880570551249,2.31282527465204,FALSE,0.165184690804741
"CAN","cpi",0.1,2002,3,2002,NA,0.5,1.93086211400639,1.98123039930358,2.20880570551249,1.24731948634093,FALSE,0.556091187983647
"CAN","cpi",0.1,2002,3,2001,NA,1,1.0641445681086,1.23577927816042,2.20880570551249,0.695491540886875,FALSE,2.33391565972308
"CAN","cpi",0.1,2002,3,2001,NA,1.5,2.31916489131144,2.49079960136326,2.20880570551249,0.47606161882134,FALSE,0.416877345160604
"CAN","cpi",0.1,2003,3,2003,NA,0,2.71215232425057,2.73553834156041,2.71189071546809,2.75460397277825,FALSE,0.0239673701597951
"CAN","cpi",0.1,2003,3,2003,NA,0.5,4.78132200525741,4.89430509937998,2.71189071546809,4.16096970792426,FALSE,4.7117192936544
"CAN","cpi",0.1,2003,3,2002,NA,1,3.92843563344557,4.33436165644707,2.71189071546809,3.27791908188471,FALSE,3.10935917406256
"CAN","cpi",0.1,2003,3,2002,NA,1.5,3.22357858639595,3.62950460939745,2.71189071546809,1.51830012756901,FALSE,1.54301018061897
"CAN","cpi",0.1,2004,3,2004,NA,0,1.72647762465086,1.73510797724937,1.83151661303942,1.76153103901938,FALSE,0.222871765465302
"CAN","cpi",0.1,2004,3,2004,NA,0.5,2.07588916540944,2.12333888211066,1.83151661303942,1.38945604480572,FALSE,0.59049983307903
"CAN","cpi",0.1,2004,3,2003,NA,1,1.44138825053818,1.67985566490346,1.83151661303942,1.01874619159597,FALSE,0.575491743556306
"CAN","cpi",0.1,2004,3,2003,NA,1.5,4.62700918596193,4.98719722060633,1.83151661303942,2.99105359104411,FALSE,6.57239375224998
"CAN","cpi",0.1,2005,3,2005,NA,0,2.31126102547173,2.33234000682217,2.18071628336509,2.35062481142317,FALSE,0.311178408254079
"CAN","cpi",0.1,2005,3,2005,NA,0.5,2.12182548729376,2.17200105153457,2.18071628336509,1.4552837212303,FALSE,0.0695427460864105
"CAN","cpi",0.1,2005,3,2004,NA,1,1.26404058422338,1.56692086022406,2.18071628336509,0.79648671202377,FALSE,1.66687010520298
"CAN","cpi",0.1,2005,3,2004,NA,1.5,2.8186209194385,3.12150119543918,2.18071628336509,1.13680951350797,FALSE,1.72044613394159
"CAN","cpi",0.1,2006,3,2006,NA,0,2.0270902774794,2.03666700349847,1.97519342012289,2.06448042324351,FALSE,0.124903075700213
"CAN","cpi",0.1,2006,3,2006,NA,0.5,2.44292413801419,2.49479095148126,1.97519342012289,1.77073314120205,FALSE,1.09126840878108
"CAN","cpi",0.1,2006,3,2005,NA,1,3.1618256417797,3.45183934997839,1.97519342012289,2.58808204718941,FALSE,2.9269742007694
"CAN","cpi",0.1,2006,3,2005,NA,1.5,2.44869260229861,2.7387063104973,1.97519342012289,0.762075268916728,FALSE,1.34223411303363
"CAN","cpi",0.1,2007,3,2007,NA,0,2.07034701473294,2.08005991940587,2.10062087284572,2.10807340507977,FALSE,0.0554039123170483
"CAN","cpi",0.1,2007,3,2007,NA,0.5,2.74269229493992,2.80876033196407,2.10062087284572,2.09760271424675,FALSE,1.49289341945569
"CAN","cpi",0.1,2007,3,2006,NA,1,0.874911844434059,1.2010952831263,2.10062087284572,0.438862458623872,FALSE,2.32512919362429
"CAN","cpi",0.1,2007,3,2006,NA,1.5,2.72917794555278,3.05536138424503,2.10062087284572,1.08089197775225,FALSE,1.72297693359682
"CAN","cpi",0.1,2008,3,2008,NA,0,2.87071966251044,2.8939562441256,2.31447335265955,2.9146675338117,FALSE,1.25933949239492
"CAN","cpi",0.1,2008,3,2008,NA,0.5,1.7270731446309,1.75647884585679,2.31447335265955,1.04562745221765,FALSE,1.26939349412092
"CAN","cpi",0.1,2008,3,2007,NA,1,1.10499694309017,1.13440264431606,2.31447335265955,0.365030180386173,FALSE,2.65178505310032
"CAN","cpi",0.1,2008,3,2007,NA,1.5,3.54971501172736,4.02190622606711,2.31447335265955,2.04107389452134,FALSE,3.21717267893488
"CAN","cpi",0.1,2009,3,2009,NA,0,0.251671655196926,0.250244098462586,0.284533874408197,0.272618836216429,FALSE,0.074771945367018
"CAN","cpi",0.1,2009,3,2009,NA,0.5,-0.0669112400922744,-0.0683387968266136,0.284533874408197,-0.807426338518035,FALSE,0.782733934898574
"CAN","cpi",0.1,2009,3,2008,NA,1,3.87296906528508,4.16736437131167,0.284533874408197,3.28355694764985,FALSE,8.26869573019744
"CAN","cpi",0.1,2009,3,2008,NA,1.5,2.27349156457148,2.56788687059807,0.284533874408197,0.703376955238912,FALSE,4.71430128416722
"CAN","cpi",0.1,2010,3,2010,NA,0,1.69229267710984,1.70705923522353,1.75525687020327,1.72708036400674,FALSE,0.121872413624231
"CAN","cpi",0.1,2010,3,2010,NA,0.5,2.09024698865919,2.13819841017836,1.75525687020327,1.42243266198166,FALSE,0.79237390697677
"CAN","cpi",0.1,2010,3,2009,NA,1,1.24559019388638,1.29354161540555,1.75525687020327,0.515829437079458,FALSE,1.07398532106966
"CAN","cpi",0.1,2010,3,2009,NA,1.5,1.15912565292868,1.26298007481529,1.75525687020327,-0.666399632006793,FALSE,1.19780285608212
"CAN","cpi",0.1,2011,3,2011,NA,0,2.78542632077459,2.80166357265083,2.85717434028225,2.82871118728348,FALSE,0.13959451327939
"CAN","cpi",0.1,2011,3,2011,NA,0.5,3.20557820092076,3.29483598142428,2.85717434028225,2.59305645945043,FALSE,0.863488581922436
"CAN","cpi",0.1,2011,3,2010,NA,1,2.27630814442169,2.42120204119229,2.85717434028225,1.58194849312145,FALSE,1.11372122808161
"CAN","cpi",0.1,2011,3,2010,NA,1.5,2.54742554154809,2.90881731430154,2.85717434028225,1.00866231757724,TRUE,0.361391772753449
"CAN","cpi",0.1,2012,3,2012,NA,0,1.43403730604445,1.46130327016969,1.50118536134935,1.46681751445377,FALSE,0.115892833413365
"CAN","cpi",0.1,2012,3,2012,NA,0.5,2.29088031502638,2.35338522480086,1.50118536134935,1.63866597060755,FALSE,1.81738258461234
"CAN","cpi",0.1,2012,3,2011,NA,1,1.59347643016584,1.65598133994031,1.50118536134935,0.848240548987433,FALSE,0.267596173811121
"CAN","cpi",0.1,2012,3,2011,NA,1.5,3.16159418124527,3.48167030675998,1.50118536134935,1.68384299188515,FALSE,4.00987350306121
"CAN","cpi",0.1,2013,3,2013,NA,0,1.01438526263422,1.01893505070151,0.931270594714462,1.03083115414128,FALSE,0.189249050111195
"CAN","cpi",0.1,2013,3,2013,NA,0.5,1.69587347796006,1.70042326602734,0.931270594714462,1.00184063196526,FALSE,1.70366730639082
"CAN","cpi",0.1,2013,3,2012,NA,1,0.516456932320393,0.521006720387677,0.931270594714462,-0.272545990872386,FALSE,0.91624728657125
"CAN","cpi",0.1,2013,3,2012,NA,1.5,2.50594093427572,2.81087826214866,0.931270594714462,0.958608804136071,FALSE,3.80420474912018
"CAN","cpi",0.1,2014,3,2014,NA,0,1.949346956088,1.97904883589538,1.87639912240215,1.98613278510701,FALSE,0.191808176887041
"CAN","cpi",0.1,2014,3,2014,NA,0.5,2.590111981084,2.64596799104041,1.87639912240215,1.95223885123801,FALSE,1.64188458480497
"CAN","cpi",0.1,2014,3,2013,NA,1,1.43932480109916,1.49518081105556,1.87639912240215,0.688658687283847,FALSE,0.903007812948823
"CAN","cpi",0.1,2014,3,2013,NA,1.5,2.450398888418,2.72340517533783,1.87639912240215,0.891594199884501,FALSE,1.5485613225106
"CAN","cpi",0.1,2015,3,2015,NA,0,1.2153384519328,1.23026811170987,1.11090953952792,1.24641866377254,FALSE,0.246993909565704
"CAN","cpi",0.1,2015,3,2015,NA,0.5,0.881717492531501,0.899733563617025,1.11090953952792,0.198117162089698,FALSE,0.487296017554172
"CAN","cpi",0.1,2015,3,2014,NA,1,1.35183021378776,1.36984628487328,1.11090953952792,0.532106072596766,FALSE,0.5533953472185
"CAN","cpi",0.1,2015,3,2014,NA,1.5,3.11829147620987,3.58463289243177,1.11090953952792,1.81035920235268,FALSE,4.92719016440401
"CAN","cpi",0.1,2016,3,2016,NA,0,1.40926195008536,1.42532128542795,1.41168586698797,1.44184957394589,TRUE,0.0160593353425851
"CAN","cpi",0.1,2016,3,2016,NA,0.5,1.51333997256695,1.55983795326374,1.41168586698797,0.843100047406122,FALSE,0.27239599309453
"CAN","cpi",0.1,2016,3,2015,NA,1,1.95469006673354,2.05778061115101,1.41168586698797,1.23484853770273,FALSE,1.30976654385209
"CAN","cpi",0.1,2016,3,2015,NA,1.5,1.75836714914511,1.98837964128257,1.41168586698797,0.107462752177283,FALSE,1.00041534137556
"CAN","cpi",0.1,2017,3,2017,NA,0,1.48422889718799,1.49423902236536,1.57888581671161,1.51739925639673,FALSE,0.198114112613494
"CAN","cpi",0.1,2017,3,2017,NA,0.5,2.50918959466731,2.5605254296089,1.57888581671161,1.88170269277887,FALSE,2.11867756373203
"CAN","cpi",0.1,2017,3,2016,NA,1,1.17659344461734,1.22792927955892,1.57888581671161,0.418338346755244,FALSE,0.831239250836449
"CAN","cpi",0.1,2017,3,2016,NA,1.5,2.0552078603631,2.3759881380449,1.57888581671161,0.52557608733729,FALSE,1.37927370801844
"CAN","cpi",0.1,2018,3,2018,NA,0,2.36608852859437,2.38772173000514,2.23316270166586,2.40611378585155,FALSE,0.31702392791857
"CAN","cpi",0.1,2018,3,2018,NA,0.5,3.2223543116516,3.29339584412945,2.23316270166586,2.62207020824204,FALSE,2.26924511022393
"CAN","cpi",0.1,2018,3,2017,NA,1,1.16544304034502,1.23648457282287,2.23316270166586,0.40411310060617,FALSE,2.2858818187956
"CAN","cpi",0.1,2018,3,2017,NA,1.5,2.78100325564372,3.32670404763229,2.23316270166586,1.53787524714926,FALSE,1.76312424527271
"CAN","cpi",0.1,2019,3,2019,NA,0,1.97444745794943,1.98959362497797,1.91921619871868,2.01142839895124,FALSE,0.137882298652437
"CAN","cpi",0.1,2019,3,2019,NA,0.5,2.12514765190503,2.21825107616342,1.91921619871868,1.51883708040586,FALSE,0.550728875783614
"CAN","cpi",0.1,2019,3,2018,NA,1,2.14503516592635,2.27317005029087,1.91921619871868,1.41942984101848,FALSE,0.629954811492673
"CAN","cpi",0.1,2019,3,2018,NA,1.5,3.17995207685028,3.81205175657597,1.91921619871868,2.06105171090012,FALSE,3.43373496446257
"CAN","cpi",0.1,2020,3,2020,NA,0,0.698891273757821,0.706031495732671,0.71139989671781,0.726179852791075,FALSE,0.0190700019418271
"CAN","cpi",0.1,2020,3,2020,NA,0.5,1.69357586798787,1.77031453035651,0.71139989671781,1.07225945048052,FALSE,2.25935193185766
"CAN","cpi",0.1,2020,3,2019,NA,1,1.75469910151572,1.8552369885716,0.71139989671781,1.01913964327806,FALSE,2.41898056438456
"CAN","cpi",0.1,2020,3,2019,NA,1.5,2.51442065925393,2.99369747567636,0.71139989671781,1.22761645350518,FALSE,4.48598962205825
"CAN","cpi",0.1,2021,3,2021,NA,0,3.26233938174318,3.2789401425346,3.31148121717802,3.30988753190892,FALSE,0.0889142599990262
"CAN","cpi",0.1,2021,3,2021,NA,0.5,3.01911179960011,3.16014045622285,3.31148121717802,2.4899040786607,FALSE,0.477341458745357
"CAN","cpi",0.1,2021,3,2020,NA,1,1.88451717694526,2.025545833568,3.31148121717802,1.1979067045331,FALSE,2.99866284242279
"CAN","cpi",0.1,2021,3,2020,NA,1.5,2.09009310009072,2.47341750086125,3.31148121717802,0.670626810990653,FALSE,2.24568821480781
"CAN","cpi",0.1,2022,3,2022,NA,0,6.4736039708459,6.51916495756523,6.50977236228281,6.54555789178856,TRUE,0.0455609867193338
"CAN","cpi",0.1,2022,3,2022,NA,0.5,6.3907677960714,6.58897938928183,6.50977236228281,5.96468998606203,TRUE,0.198211593210427
"CAN","cpi",0.1,2022,3,2021,NA,1,3.8529541225422,4.36301475032877,6.50977236228281,3.42105264822981,FALSE,5.28063309879555
"CAN","cpi",0.1,2022,3,2021,NA,1.5,3.01591327765937,3.6523694184725,6.50977236228281,1.93276265883962,FALSE,6.9862404603916
"CAN","cpi",0.1,2023,3,2023,NA,0,3.92013075802226,3.9453912222438,3.78831288758619,3.97188685244318,FALSE,0.318189065190585
"CAN","cpi",0.1,2023,3,2023,NA,0.5,3.40114400087183,3.51061411576955,3.78831288758619,2.8392001035463,FALSE,0.72657849671248
"CAN","cpi",0.1,2023,3,2022,NA,1,3.46873342418438,3.7864735801127,3.78831288758619,2.86884991489758,FALSE,0.321827505869411
"CAN","cpi",0.1,2023,3,2022,NA,1.5,4.62157849113193,5.6701997927625,3.78831288758619,4.03317247515909,FALSE,2.90032264284333
"CAN","cpi",0.1,2024,3,2023,NA,1,3.49710329906321,3.82027069738073,NA,2.89946754179362,NA,NA
"CAN","cpi",0.1,2024,3,2023,NA,1.5,2.46559268157703,2.96827563148677,NA,1.17991651782151,NA,NA
"CAN","cpi",0.2,1950,3,1950,NA,0,2.37145922729289,2.3714592272927,2.59031220731124,2.24825037311262,FALSE,0.547132450046165
"CAN","cpi",0.2,1950,3,1950,NA,0.5,0.445796407174683,0.445796407174493,2.59031220731124,-0.218816875802678,FALSE,5.36128950034167
"CAN","cpi",0.2,1950,3,1949,NA,1,182.677140522599,182.677140522599,2.59031220731124,1.29650217702121,FALSE,450.21707078822
"CAN","cpi",0.2,1950,3,1949,NA,1.5,13.3859983407784,13.3859983407784,2.59031220731124,0,FALSE,26.989215333668
"CAN","cpi",0.2,1951,3,1951,NA,0,9.78185216330478,9.85033499656473,9.87945438999359,9.85678648981217,FALSE,0.141281316832096
"CAN","cpi",0.2,1951,3,1951,NA,0.5,8.68187436100852,9.43684911774108,9.87945438999359,8.53589570050804,FALSE,1.86148793736383
"CAN","cpi",0.2,1951,3,1950,NA,1,3.08143260915237,9.26268675989882,9.87945438999359,4.61037950756317,FALSE,7.72317322598339
"CAN","cpi",0.2,1951,3,1950,NA,1.5,2.46788029376656,14.870642480412,9.87945438999359,-0.898542404092984,TRUE,12.4027621866455
"CAN","cpi",0.2,1952,3,1952,NA,0,2.70451839680251,2.75794862314461,2.55562336095485,2.50792675283471,FALSE,0.425667815961267
"CAN","cpi",0.2,1952,3,1952,NA,0.5,5.71384640600145,5.76727663234355,2.55562336095485,3.80942800622696,FALSE,7.94898783895862
"CAN","cpi",0.2,1952,3,1951,NA,1,12.777824853466,12.8312550798081,2.55562336095485,6.36946346746546,FALSE,25.6089339576199
"CAN","cpi",0.2,1952,3,1951,NA,1.5,4.53305538807703,4.58648561441913,2.55562336095485,4.80604275648344,FALSE,4.99701029414756
"CAN","cpi",0.2,1953,3,1953,NA,0,-0.425905448647858,-0.877727028073599,-1.01492775838436,-1.00118391953201,FALSE,1.02073419491552
"CAN","cpi",0.2,1953,3,1953,NA,0.5,0.306892499592671,-0.14492907983307,-1.01492775838436,-1.88711612688489,FALSE,2.85272906551684
"CAN","cpi",0.2,1953,3,1952,NA,1,0.47068664620818,0.018865066782439,-1.01492775838436,-0.873617238258229,FALSE,3.26221443205561
"CAN","cpi",0.2,1953,3,1952,NA,1.5,8.17088795619664,8.63843267681052,-1.01492775838436,0.432272395627528,FALSE,23.4320840070664
"CAN","cpi",0.2,1954,3,1954,NA,0,0.923089179022082,0.944242995027156,0.644425455961438,0.831821956393317,FALSE,0.717813123656683
"CAN","cpi",0.2,1954,3,1954,NA,0.5,0.603996507962974,0.625150323968048,0.644425455961438,-0.141712452464762,FALSE,0.0693416459885493
"CAN","cpi",0.2,1954,3,1953,NA,1,0.703764580988925,4.70977832151992,0.644425455961438,2.12291681679911,FALSE,4.15436155309972
"CAN","cpi",0.2,1954,3,1953,NA,1.5,2.5996044508753,10.2420883002206,0.644425455961438,-1.28741438714058,FALSE,12.53043133663
"CAN","cpi",0.2,1955,3,1955,NA,0,0.0901778085274889,0.146208558689491,0.173649026558865,0.10295813188439,FALSE,0.124631919835436
"CAN","cpi",0.2,1955,3,1955,NA,0.5,0.221836150584864,0.277866900746866,0.173649026558865,-0.548848324097393,FALSE,0.176498560226999
"CAN","cpi",0.2,1955,3,1954,NA,1,1.15453236938949,3.66466836284325,0.173649026558865,2.19101630104756,FALSE,4.96234435053032
"CAN","cpi",0.2,1955,3,1954,NA,1.5,0.380795918679469,2.89093191213323,0.173649026558865,-0.815294949881493,FALSE,3.02800322375527
"CAN","cpi",0.2,1956,3,1956,NA,0,1.51074413473151,1.52833247258242,1.32752769429961,1.46434436590257,FALSE,0.475629438930662
"CAN","cpi",0.2,1956,3,1956,NA,0.5,0.232845804403039,0.293392610189022,1.32752769429961,-0.485738076612692,FALSE,2.64588451606245
"CAN","cpi",0.2,1956,3,1955,NA,1,-0.193811576705518,1.3634247910336,1.32752769429961,0.557995939500226,TRUE,1.55723636773911
"CAN","cpi",0.2,1956,3,1955,NA,1.5,0.799260186620849,2.48215807832585,1.32752769429961,-0.793756041684752,TRUE,1.682897891705
"CAN","cpi",0.2,1957,3,1957,NA,0,3.31785234284754,3.3874968006475,3.24684755852518,3.35523637829212,FALSE,0.247156418605879
"CAN","cpi",0.2,1957,3,1957,NA,0.5,2.71108454083937,2.78072899863933,3.24684755852518,2.12793087018929,FALSE,1.23494085751458
"CAN","cpi",0.2,1957,3,1956,NA,1,3.04797119577557,6.77253697876625,3.24684755852518,4.42886834530761,TRUE,3.72456578299068
"CAN","cpi",0.2,1957,3,1956,NA,1.5,-0.219618573796444,3.50494720919423,3.24684755852518,-0.785064469253982,TRUE,3.72456578299068
"CAN","cpi",0.2,1958,3,1958,NA,0,2.15254386085272,2.24887838200018,2.33186388641149,2.20013349321115,FALSE,0.303798282175732
"CAN","cpi",0.2,1958,3,1958,NA,0.5,2.62583285854332,3.1444807276344,2.33186388641149,2.0126030377883,FALSE,1.25357029942066
"CAN","cpi",0.2,1958,3,1957,NA,1,1.18570084540449,2.38688294653192,2.33186388641149,2.83859761398538,TRUE,1.20118210112743
"CAN","cpi",0.2,1958,3,1957,NA,1.5,1.51049269551331,2.71167479664074,2.33186388641149,0.366312073207214,TRUE,1.20118210112743
"CAN","cpi",0.2,1959,3,1959,NA,0,1.17112097565229,1.23640684586413,1.19382698397654,1.18954599151176,TRUE,0.0652858702118375
"CAN","cpi",0.2,1959,3,1959,NA,0.5,1.23749276380831,1.30277863402015,1.19382698397654,0.545308327160925,FALSE,0.174450319791259
"CAN","cpi",0.2,1959,3,1958,NA,1,0.214805626896104,1.27165138290972,1.19382698397654,1.13295114249046,TRUE,1.05684575601362
"CAN","cpi",0.2,1959,3,1958,NA,1.5,1.71006545712032,2.76691121313393,1.19382698397654,0.717422088079289,FALSE,2.34744193887306
"CAN","cpi",0.2,1960,3,1960,NA,0,0.992874878339156,1.08535833568056,1.34209404870695,1.02361304259477,FALSE,0.734322739907382
"CAN","cpi",0.2,1960,3,1960,NA,0.5,1.29244108940711,1.38492454674851,1.34209404870695,0.648611007713657,TRUE,0.0924834573414044
"CAN","cpi",0.2,1960,3,1959,NA,1,1.67688016028498,2.02365692620677,1.34209404870695,2.37666873185636,FALSE,1.18374204486686
"CAN","cpi",0.2,1960,3,1959,NA,1.5,0.938727917610709,2.19547686744549,1.34209404870695,-0.349092179567277,TRUE,1.25674894983478
"CAN","cpi",0.2,1961,3,1961,NA,0,1.01737615259144,1.07407948530811,1.00921348094007,1.00921348094007,FALSE,0.0771100118450943
"CAN","cpi",0.2,1961,3,1961,NA,0.5,1.63373240002879,1.69043573274546,1.00921348094007,1.00921348094007,FALSE,1.61800063043846
"CAN","cpi",0.2,1961,3,1960,NA,1,0.265892209133854,0.521607385265291,1.00921348094007,0.0537704626035329,FALSE,1.47473041531839
"CAN","cpi",0.2,1961,3,1960,NA,1.5,1.34604310480206,2.1986750598594,1.00921348094007,-0.332316386156399,FALSE,1.69470601471231
"CAN","cpi",0.2,1962,3,1962,NA,0,1.06670003593688,1.12925912516816,1.04957947883042,1.0653801125483,FALSE,0.105360481997436
"CAN","cpi",0.2,1962,3,1962,NA,0.5,0.68638984289897,0.748948932130248,1.04957947883042,0,FALSE,0.814135455981696
"CAN","cpi",0.2,1962,3,1961,NA,1,0.753794895774497,0.981712697479928,1.04957947883042,0,FALSE,0.39758475508165
"CAN","cpi",0.2,1962,3,1961,NA,1.5,1.10922543584189,2.26202894835761,1.04957947883042,0,FALSE,1.30191840504442
"CAN","cpi",0.2,1963,3,1963,NA,0,1.81923539295528,1.88025418038042,1.60677118395228,1.83024954277348,FALSE,0.592179309932636
"CAN","cpi",0.2,1963,3,1963,NA,0.5,1.47340016197413,1.55581277798525,1.60677118395228,0.836828714617504,FALSE,0.209808630928703
"CAN","cpi",0.2,1963,3,1962,NA,1,1.37885811137178,1.80481168920552,1.60677118395228,1.60935100695326,TRUE,0.425953577833742
"CAN","cpi",0.2,1963,3,1962,NA,1.5,1.10922543584189,1.56987240533965,1.60677118395228,0,FALSE,0.55289391602934
"CAN","cpi",0.2,1964,3,1964,NA,0,1.93525985454942,1.99161783112639,1.88764670034376,1.95194648443024,FALSE,0.175390862091108
"CAN","cpi",0.2,1964,3,1964,NA,0.5,1.91568480279944,1.97204277937641,1.88764670034376,1.27307816843398,FALSE,0.126453232716159
"CAN","cpi",0.2,1964,3,1963,NA,1,2.02841547772547,2.58813838792561,1.88764670034376,3.20172332637508,FALSE,0.911644853654416
"CAN","cpi",0.2,1964,3,1963,NA,1.5,1.07813685479702,1.63785976499715,1.88764670034376,0,FALSE,1.18419024856664
"CAN","cpi",0.2,1965,3,1965,NA,0,2.26717898247267,2.3046343941281,2.29538304394236,2.29800189469823,TRUE,0.037455411655424
"CAN","cpi",0.2,1965,3,1965,NA,0.5,2.0014245696529,2.0751498774372,2.29538304394236,1.39443218256826,FALSE,0.624308224047196
"CAN","cpi",0.2,1965,3,1964,NA,1,1.32892325799774,1.68697174331112,2.29538304394236,1.48078368039448,FALSE,1.87907673689147
"CAN","cpi",0.2,1965,3,1964,NA,1.5,1.19748243139962,1.69451402496369,2.29538304394236,0.293257399533461,FALSE,1.99920414101073
"CAN","cpi",0.2,1966,3,1966,NA,0,3.72628784135745,3.78487876283146,3.72486065470629,3.77511268244847,FALSE,0.0621588881019166
"CAN","cpi",0.2,1966,3,1966,NA,0.5,3.86063035706157,3.92206821947341,3.72486065470629,3.37743719728421,FALSE,0.400862118300035
"CAN","cpi",0.2,1966,3,1965,NA,1,1.5247075503282,1.9968699053238,3.72486065470629,1.98486973144544,FALSE,4.79213922845183
"CAN","cpi",0.2,1966,3,1965,NA,1.5,1.56048429840383,2.03385056507212,3.72486065470629,0.578640834001038,FALSE,4.70089149075372
"CAN","cpi",0.2,1967,3,1967,NA,0,3.63460538900031,3.69332998472636,3.49360316391996,3.68375770714608,FALSE,0.41123015842693
"CAN","cpi",0.2,1967,3,1967,NA,0.5,2.67283233351203,2.74212032387997,3.49360316391996,2.11054708048259,FALSE,1.94799509046791
"CAN","cpi",0.2,1967,3,1966,NA,1,1.7050049591294,2.05176645985999,3.49360316391996,2.02003307533501,FALSE,3.95135326088052
"CAN","cpi",0.2,1967,3,1966,NA,1.5,1.82812336710374,2.32111975602865,3.49360316391996,1.71558536379673,FALSE,3.42420490865318
"CAN","cpi",0.2,1968,3,1968,NA,0,4.01704504812552,4.07870125403797,3.95128347779386,4.07085717819357,FALSE,0.22606013174161
"CAN","cpi",0.2,1968,3,1968,NA,0.5,3.98240674884686,4.08307278410981,3.95128347779386,3.50732233276501,FALSE,0.178474212895462
"CAN","cpi",0.2,1968,3,1967,NA,1,2.28640643520608,2.86690011076365,3.95128347779386,3.66303679301692,FALSE,3.29145209313308
"CAN","cpi",0.2,1968,3,1967,NA,1.5,1.7260505093614,2.40076714973253,3.95128347779386,0.834881519045053,FALSE,4.55100746052445
"CAN","cpi",0.2,1969,3,1969,NA,0,4.45315376365381,4.48301590334274,4.42679496126681,4.52532640008253,FALSE,0.0957591456564151
"CAN","cpi",0.2,1969,3,1969,NA,0.5,3.21695957492779,3.28265144172521,4.42679496126681,2.69090620784681,FALSE,2.92605066565143
"CAN","cpi",0.2,1969,3,1968,NA,1,2.58985336685483,3.39301725248207,4.42679496126681,4.0779393276339,FALSE,3.3876081575891
"CAN","cpi",0.2,1969,3,1968,NA,1.5,1.90547764873467,2.70864153436191,4.42679496126681,1.61221871335458,FALSE,5.09854745288951
"CAN","cpi",0.2,1970,3,1970,NA,0,3.49683212502534,3.52997541329629,3.28128405769805,3.55878605435979,FALSE,0.572013456589189
"CAN","cpi",0.2,1970,3,1970,NA,0.5,4.20964597606111,4.30781861666648,3.28128405769805,3.74969277403504,FALSE,2.41907743651303
"CAN","cpi",0.2,1970,3,1969,NA,1,2.36234832444473,3.32359635083965,3.28128405769805,3.11186608282608,TRUE,0.961248026394926
"CAN","cpi",0.2,1970,3,1969,NA,1.5,1.62501587955557,2.58626390595049,3.28128405769805,0.764941977259638,FALSE,2.69879840576381
"CAN","cpi",0.2,1971,3,1971,NA,0,2.76105371164523,2.79091906208397,2.64123406634756,2.81514553288871,FALSE,0.329414463682902
"CAN","cpi",0.2,1971,3,1971,NA,0.5,1.74324406286513,1.86632548213582,2.64123406634756,1.11673730766521,FALSE,2.06035287980005
"CAN","cpi",0.2,1971,3,1970,NA,1,1.74422738721252,2.51285535565104,2.64123406634756,1.92043450460395,FALSE,1.08957474517983
"CAN","cpi",0.2,1971,3,1970,NA,1.5,2.0715412946336,2.84016926307212,2.64123406634756,1.70194075200601,TRUE,0.768627968438514
"CAN","cpi",0.2,1972,3,1972,NA,0,4.95651707730332,4.99410368277847,4.83230569625923,5.04828762155974,FALSE,0.348115058085369
"CAN","cpi",0.2,1972,3,1972,NA,0.5,4.49503161809337,4.62896531429421,4.83230569625923,4.09602385359717,FALSE,0.642284651113387
"CAN","cpi",0.2,1972,3,1971,NA,1,3.15133209744079,4.17498710676942,4.83230569625923,4.16812111633716,FALSE,2.66695148305315
"CAN","cpi",0.2,1972,3,1971,NA,1.5,1.62581452216724,2.64946953149587,4.83230569625923,0.692030005351089,FALSE,6.48074542123702
"CAN","cpi",0.2,1973,3,1973,NA,0,7.11617289978576,7.16722864711996,7.12388603531779,7.25096132226983,TRUE,0.0510557473341997
"CAN","cpi",0.2,1973,3,1973,NA,0.5,5.66734907040231,5.86470533864187,7.12388603531779,5.30446017290082,FALSE,3.34530800992936
"CAN","cpi",0.2,1973,3,1972,NA,1,3.60447766590716,4.86152787613293,7.12388603531779,4.92276035792265,FALSE,6.91294560818792
"CAN","cpi",0.2,1973,3,1972,NA,1.5,1.86015958898662,3.1172097992124,7.12388603531779,1.79187879074203,FALSE,11.2737408004893
"CAN","cpi",0.2,1974,3,1974,NA,0,9.98750496413242,10.026302710035,10.2717243737774,10.148911210151,FALSE,0.652351905258684
"CAN","cpi",0.2,1974,3,1974,NA,0.5,8.12204867402016,8.40861049881112,10.2717243737774,7.90446289245049,FALSE,4.9443465122067
"CAN","cpi",0.2,1974,3,1973,NA,1,5.18874901868346,6.69618562333457,10.2717243737774,7.30476096756609,FALSE,10.4462834807582
"CAN","cpi",0.2,1974,3,1973,NA,1.5,1.90358625923098,3.41102286388209,10.2717243737774,2.5663290958369,FALSE,18.6591903793894
"CAN","cpi",0.2,1975,3,1975,NA,0,10.0169638092929,10.0517032305467,10.0232981493341,10.1746571103793,TRUE,0.0347394212537822
"CAN","cpi",0.2,1975,3,1975,NA,0.5,8.27815169757634,9.03099806636282,10.0232981493341,8.07152306914465,FALSE,3.23359657621473
"CAN","cpi",0.2,1975,3,1974,NA,1,6.98911275324004,8.37643248853548,10.0232981493341,7.8187778356914,FALSE,5.50448388729203
"CAN","cpi",0.2,1975,3,1974,NA,1.5,2.69859751940949,4.51166086899981,10.0232981493341,3.64914274700436,FALSE,15.5921565504261
"CAN","cpi",0.2,1976,3,1976,NA,0,7.06650278545353,7.10703719934962,7.22784311401172,7.18995143043805,FALSE,0.342549200551336
"CAN","cpi",0.2,1976,3,1976,NA,0.5,6.91560208900933,7.86994637955282,7.22784311401172,6.61333364285308,TRUE,0.95434429054349
"CAN","cpi",0.2,1976,3,1975,NA,1,9.33925557592829,10.9575174259063,7.22784311401172,8.584971075903,FALSE,6.89679300476946
"CAN","cpi",0.2,1976,3,1975,NA,1.5,3.40209982671027,6.40432726119503,7.22784311401172,3.14738569995591,FALSE,5.06101706652647
"CAN","cpi",0.2,1977,3,1977,NA,0,7.37871008139387,7.41467219387616,7.58101410153764,7.50176944503946,FALSE,0.451816881635994
"CAN","cpi",0.2,1977,3,1977,NA,0.5,6.72160204768062,7.65293984156786,7.58101410153764,6.40571638826874,TRUE,0.931337793887234
"CAN","cpi",0.2,1977,3,1976,NA,1,3.57275618822819,4.71675080791366,7.58101410153764,4.04909286077014,FALSE,8.30465285374543
"CAN","cpi",0.2,1977,3,1976,NA,1.5,3.71835040729127,6.40683355380136,7.58101410153764,2.59432747727492,FALSE,5.62393451585079
"CAN","cpi",0.2,1978,3,1978,NA,0,8.45645620577549,8.60948204222539,8.50208927062595,8.59104847384149,TRUE,0.153025836449903
"CAN","cpi",0.2,1978,3,1978,NA,0.5,7.94467506368444,8.55062721273111,8.50208927062595,7.34113908733495,TRUE,0.605952149046665
"CAN","cpi",0.2,1978,3,1977,NA,1,5.23881071494269,7.65816236763443,8.50208927062595,5.87902868518151,FALSE,4.52916891017053
"CAN","cpi",0.2,1978,3,1977,NA,1.5,5.53181622410807,8.33460359890307,8.50208927062595,3.89293485842214,FALSE,3.2215015541022
"CAN","cpi",0.2,1979,3,1979,NA,0,8.36423958786542,8.39878142115319,8.65147652410481,8.48651410143776,FALSE,0.666279590666821
"CAN","cpi",0.2,1979,3,1979,NA,0.5,8.06358316343529,8.6757683104093,8.65147652410481,7.46186747064873,TRUE,0.612185146974006
"CAN","cpi",0.2,1979,3,1978,NA,1,7.31607689555634,8.96708270415813,8.65147652410481,6.93686058379669,TRUE,1.65100580860179
"CAN","cpi",0.2,1979,3,1978,NA,1.5,5.67112531933343,8.54010896886063,8.65147652410481,3.9179710204728,FALSE,3.14740253763765
"CAN","cpi",0.2,1980,3,1980,NA,0,9.30640306316612,9.45837522289177,9.5171912664748,9.43711128155219,FALSE,0.299012268683224
"CAN","cpi",0.2,1980,3,1980,NA,0.5,8.48667956144995,9.12104283571231,9.5171912664748,7.89144076485851,FALSE,1.62473435116858
"CAN","cpi",0.2,1980,3,1979,NA,1,6.3530965467918,7.24394150187171,9.5171912664748,5.69387794711803,FALSE,6.57396936658763
"CAN","cpi",0.2,1980,3,1979,NA,1.5,8.37534149899424,9.26618645407415,9.5171912664748,4.27199048256738,FALSE,1.51835698608153
"CAN","cpi",0.2,1981,3,1981,NA,0,11.4674857729751,11.6460969851592,11.5813425032741,11.617538759154,TRUE,0.178611212184109
"CAN","cpi",0.2,1981,3,1981,NA,0.5,12.0614981992551,12.6581532570885,11.5813425032741,11.3038259100907,FALSE,1.79704429778582
"CAN","cpi",0.2,1981,3,1980,NA,1,9.22657006056199,10.2773196728058,11.5813425032741,8.22922472590444,FALSE,4.31080668841465
"CAN","cpi",0.2,1981,3,1980,NA,1.5,8.81322030660466,9.86396991884848,11.5813425032741,4.54818367546621,FALSE,5.34418107330796
"CAN","cpi",0.2,1982,3,1982,NA,0,10.0490413239435,10.2099095907646,10.1124203763629,10.1863972123348,TRUE,0.160868266821083
"CAN","cpi",0.2,1982,3,1982,NA,0.5,9.92432851495729,10.6641301826523,10.1124203763629,9.38011590167964,TRUE,0.739801667694977
"CAN","cpi",0.2,1982,3,1981,NA,1,10.4502345317029,11.7297876174628,10.1124203763629,8.92774959502704,FALSE,2.12408847410981
"CAN","cpi",0.2,1982,3,1981,NA,1.5,14.1856066970458,15.4651597828058,10.1124203763629,7.65688060941457,FALSE,11.4625188874672
"CAN","cpi",0.2,1983,3,1983,NA,0,5.71375055054654,5.78259511674496,5.67091787896303,5.79231449937116,FALSE,0.175926245157181
"CAN","cpi",0.2,1983,3,1983,NA,0.5,5.15782920475947,5.57803990321288,5.67091787896303,4.48935486750539,FALSE,0.652405637828803
"CAN","cpi",0.2,1983,3,1982,NA,1,7.54473596107372,8.6637789318472,5.67091787896303,6.68360843662591,FALSE,5.8035881760502
"CAN","cpi",0.2,1983,3,1982,NA,1.5,8.14643547803919,11.5706314938408,5.67091787896303,5.80492936344428,FALSE,9.61299001349198
"CAN","cpi",0.2,1984,3,1984,NA,0,4.11374529656451,4.17550367297169,4.19799576814029,4.1863442377944,FALSE,0.117988614328676
"CAN","cpi",0.2,1984,3,1984,NA,0.5,5.10976203263927,5.47471476181829,4.19799576814029,4.37368919035215,FALSE,2.64436839042648
"CAN","cpi",0.2,1984,3,1983,NA,1,5.24807251789605,6.43813067438489,4.19799576814029,4.8252398586334,FALSE,3.81525003087825
"CAN","cpi",0.2,1984,3,1983,NA,1.5,3.68743894422467,5.07551498862205,4.19799576814029,1.63651850095104,TRUE,1.38807604439738
"CAN","cpi",0.2,1985,3,1985,NA,0,3.80344751947926,3.86906650748361,3.86444262005169,3.87488963413478,TRUE,0.0656189880043474
"CAN","cpi",0.2,1985,3,1985,NA,0.5,4.32843908535729,4.73039508902503,3.86444262005169,3.66954460168274,FALSE,1.56194716693173
"CAN","cpi",0.2,1985,3,1984,NA,1,2.71200404514043,3.55958413850316,3.86444262005169,2.51760914226531,FALSE,1.60972629723407
"CAN","cpi",0.2,1985,3,1984,NA,1.5,4.8977614642755,6.7583734326106,3.86444262005169,2.74468923002786,FALSE,4.44390907889461
"CAN","cpi",0.2,1986,3,1986,NA,0,4.0178523690794,4.07958165774177,4.08685396749431,4.09009381020777,FALSE,0.0799100630437173
"CAN","cpi",0.2,1986,3,1986,NA,0.5,4.83974468901439,5.26715374364265,4.08685396749431,4.18867743652029,FALSE,2.30963585842847
"CAN","cpi",0.2,1986,3,1985,NA,1,3.20199661924478,4.20840337363211,4.08685396749431,2.96346536694636,TRUE,1.00640675438733
"CAN","cpi",0.2,1986,3,1985,NA,1.5,4.77592396922051,6.6243819174918,4.08685396749431,2.65645514502224,FALSE,3.57113295258678
"CAN","cpi",0.2,1987,3,1987,NA,0,4.24848557914246,4.30036288490961,4.23980729277887,4.30382748919395,FALSE,0.0735730216761219
"CAN","cpi",0.2,1987,3,1987,NA,0.5,4.26728115263997,4.66619268355607,4.23980729277887,3.60745044359556,FALSE,0.467596180568855
"CAN","cpi",0.2,1987,3,1986,NA,1,3.78015294246038,4.83845377343715,4.23980729277887,3.48954394276064,TRUE,1.05830083097676
"CAN","cpi",0.2,1987,3,1986,NA,1.5,5.19657593022191,7.20122350796344,4.23980729277887,3.05061614822702,FALSE,4.39656917134913
"CAN","cpi",0.2,1988,3,1988,NA,0,3.90445399555092,3.96050270310866,3.92899537638065,3.96651200874969,TRUE,0.0560487075577329
"CAN","cpi",0.2,1988,3,1988,NA,0.5,3.91543209614676,4.26634528071823,3.92899537638065,3.27588434563216,TRUE,0.350913184571479
"CAN","cpi",0.2,1988,3,1987,NA,1,3.65141895176654,4.59351305958327,3.92899537638065,3.36557853238272,TRUE,0.942094107816727
"CAN","cpi",0.2,1988,3,1987,NA,1.5,4.04004156169745,5.8643698993913,3.92899537638065,2.22890665988493,FALSE,2.10194380098585
"CAN","cpi",0.2,1989,3,1989,NA,0,4.90173650703616,4.94875324957332,4.82821664544208,4.96224122245117,FALSE,0.230816396522368
"CAN","cpi",0.2,1989,3,1989,NA,0.5,4.77299863141092,5.17399804606632,4.82821664544208,4.15246181762677,TRUE,0.400999414655406
"CAN","cpi",0.2,1989,3,1988,NA,1,3.78078434118734,4.57527140201165,4.82821664544208,3.35061776773985,FALSE,1.42685016940037
"CAN","cpi",0.2,1989,3,1988,NA,1.5,3.79469451909488,5.57344757800646,4.82821664544208,2.03293210635829,TRUE,1.77875305891158
"CAN","cpi",0.2,1990,3,1990,NA,0,4.42605736175722,4.47928668471101,4.64347549432717,4.49116732458404,FALSE,0.463701346994193
"CAN","cpi",0.2,1990,3,1990,NA,0.5,5.43169742992794,5.85647663949186,4.64347549432717,4.80635133900141,FALSE,2.39533404856584
"CAN","cpi",0.2,1990,3,1989,NA,1,5.03267659039304,5.99271737755816,4.64347549432717,4.45332930526201,FALSE,1.93304352732979
"CAN","cpi",0.2,1990,3,1989,NA,1.5,4.7266686059675,6.91989411439064,4.64347549432717,2.93994143296931,FALSE,2.40120828752395
"CAN","cpi",0.2,1991,3,1991,NA,0,5.52510096632727,5.58098894950521,5.4258100696218,5.5966415351231,FALSE,0.304115224941615
"CAN","cpi",0.2,1991,3,1991,NA,0.5,8.57863218632511,9.23407348931515,5.4258100696218,8.0424604401558,FALSE,8.53749659474832
"CAN","cpi",0.2,1991,3,1990,NA,1,3.25743998197578,4.15710775807533,5.4258100696218,3.00766385389873,FALSE,4.07142355496571
"CAN","cpi",0.2,1991,3,1990,NA,1.5,5.09866226548194,6.76143915517858,5.4258100696218,3.42461322750937,TRUE,1.66277688969663
"CAN","cpi",0.2,1992,3,1992,NA,0,1.41369863669838,1.45964086177006,1.47496888572843,1.46118300949616,FALSE,0.0842622849676197
"CAN","cpi",0.2,1992,3,1992,NA,0.5,1.90844343964842,2.13207818598504,1.47496888572843,1.2379681755847,FALSE,1.30732113113658
"CAN","cpi",0.2,1992,3,1991,NA,1,2.10251331402444,2.90162869756631,1.47496888572843,1.8723365291461,FALSE,2.36797645428188
"CAN","cpi",0.2,1992,3,1991,NA,1.5,8.41182851868055,11.2374202640025,1.47496888572843,6.89933696838937,FALSE,20.1677408277022
"CAN","cpi",0.2,1993,3,1993,NA,0,1.7618937095508,1.80137313143525,1.84351085411351,1.80220567555903,FALSE,0.144823728580105
"CAN","cpi",0.2,1993,3,1993,NA,0.5,2.85039379120767,3.12252896781002,1.84351085411351,2.21818498229346,FALSE,2.78934251933774
"CAN","cpi",0.2,1993,3,1992,NA,1,1.43499502290171,2.13840954616643,1.84351085411351,1.3520429918812,TRUE,0.703414523264718
"CAN","cpi",0.2,1993,3,1992,NA,1.5,2.76148083514047,3.50736696735988,1.84351085411351,0.933485487336859,FALSE,3.0408110847868
"CAN","cpi",0.2,1994,3,1994,NA,0,0.17893045873948,0.207042107162729,0.161630694655448,0.202109657487191,FALSE,0.0713610586333307
"CAN","cpi",0.2,1994,3,1994,NA,0.5,0.150750834686142,0.215934528627305,0.161630694655448,-0.572639707462777,TRUE,0.0651836939411634
"CAN","cpi",0.2,1994,3,1993,NA,1,1.20280280668047,1.88121329484966,0.161630694655448,1.14110533076836,FALSE,3.28134076823175
"CAN","cpi",0.2,1994,3,1993,NA,1.5,3.39901742005886,4.21242218891343,0.161630694655448,1.65023462295923,FALSE,8.9068715823631
"CAN","cpi",0.2,1995,3,1995,NA,0,2.09702988785655,2.14643224045893,2.11688403676572,2.14851249512314,TRUE,0.0494023526023781
"CAN","cpi",0.2,1995,3,1995,NA,0.5,3.21295127401907,3.37135746274097,2.11688403676572,2.60072443309243,FALSE,2.89857428185528
"CAN","cpi",0.2,1995,3,1994,NA,1,1.59895463944326,2.16399142500701,2.11688403676572,1.43373972642191,TRUE,0.565036785563754
"CAN","cpi",0.2,1995,3,1994,NA,1.5,0.654043305878322,1.21908009144208,2.11688403676572,-1.26611333424577,FALSE,2.80954664887285
"CAN","cpi",0.2,1996,3,1996,NA,0,1.40379310981621,1.43519425542889,1.55309584667184,1.43665270425039,FALSE,0.326155123720058
"CAN","cpi",0.2,1996,3,1996,NA,0.5,1.88837423897338,2.00096145799046,1.55309584667184,1.23276330365037,FALSE,0.950783199770914
"CAN","cpi",0.2,1996,3,1995,NA,1,0.75000197161036,1.35576151358017,1.55309584667184,0.729753259393914,FALSE,1.099095374699
"CAN","cpi",0.2,1996,3,1995,NA,1.5,4.01155186407295,4.86854191242492,1.55309584667184,2.31904839186543,FALSE,7.00313009185474
"CAN","cpi",0.2,1997,3,1997,NA,0,1.64473100042972,1.67910435877417,1.60528783555959,1.67949478723595,FALSE,0.132981270519779
"CAN","cpi",0.2,1997,3,1997,NA,0.5,2.56224512400946,2.69803349084966,1.60528783555959,1.93291992098407,FALSE,2.52818158796487
"CAN","cpi",0.2,1997,3,1996,NA,1,0.623279129736637,1.23928257174032,1.60528783555959,0.614630451620954,FALSE,1.53101660155186
"CAN","cpi",0.2,1997,3,1996,NA,1.5,2.68419420016664,3.53550517544892,1.60528783555959,0.962161564198873,FALSE,3.54857688679991
"CAN","cpi",0.2,1998,3,1998,NA,0,0.922453627657253,0.969240073458614,0.988908029337191,0.967063680387792,FALSE,0.0959563354978022
"CAN","cpi",0.2,1998,3,1998,NA,0.5,1.96977922862531,2.11666077675774,0.988908029337191,1.34897459866337,FALSE,2.59905954635273
"CAN","cpi",0.2,1998,3,1997,NA,1,0.876806384561827,1.45639049656938,0.988908029337191,0.792689959246129,TRUE,0.579584112007552
"CAN","cpi",0.2,1998,3,1997,NA,1.5,2.95050306795043,3.85152318975679,0.988908029337191,1.28384000376946,FALSE,5.80500771833946
"CAN","cpi",0.2,1999,3,1999,NA,0,1.73318349000595,1.7679347059209,1.7107350135213,1.76864633894604,FALSE,0.0908724071265825
"CAN","cpi",0.2,1999,3,1999,NA,0.5,1.3741769605782,1.47091359926927,1.7107350135213,0.732099710600531,FALSE,0.696290174321128
"CAN","cpi",0.2,1999,3,1998,NA,1,0.513796462045148,0.939849508331963,1.7107350135213,0.369052571959629,FALSE,2.35326680926015
"CAN","cpi",0.2,1999,3,1998,NA,1.5,2.93777871625336,3.7803699066809,1.7107350135213,1.26847007023129,FALSE,3.9102004472577
"CAN","cpi",0.2,2000,3,2000,NA,0,2.64787246849273,2.6985016063638,2.6718361971244,2.70257810674034,TRUE,0.0506291378710761
"CAN","cpi",0.2,2000,3,2000,NA,0.5,2.55923461181722,2.7244796030825,2.6718361971244,1.95948305880876,TRUE,0.165244991265281
"CAN","cpi",0.2,2000,3,1999,NA,1,2.52408800386237,3.16865833177993,2.6718361971244,2.16154661985999,TRUE,0.644570327917554
"CAN","cpi",0.2,2000,3,1999,NA,1.5,2.12815091029883,3.02143877928918,2.6718361971244,0.50278387806376,TRUE,0.893287868990356
"CAN","cpi",0.2,2001,3,2001,NA,0,2.68853228460716,2.72736462674306,2.47906219852806,2.73154549386087,FALSE,0.562507557333636
"CAN","cpi",0.2,2001,3,2001,NA,0.5,2.26874500601601,2.42494030580518,2.47906219852806,1.65861828263926,FALSE,0.291500031596376
"CAN","cpi",0.2,2001,3,2000,NA,1,3.34620206520944,3.94655557503311,2.47906219852806,2.84133895788986,FALSE,2.76820317652712
"CAN","cpi",0.2,2001,3,2000,NA,1.5,2.76811277958289,3.65492989254724,2.47906219852806,1.14191354447969,FALSE,1.60944356560142
"CAN","cpi",0.2,2002,3,2002,NA,0,2.26038685065924,2.3083772713324,2.20880570551249,2.31282527465204,FALSE,0.176943283540045
"CAN","cpi",0.2,2002,3,2002,NA,0.5,1.90238394404449,2.01545351249309,2.20880570551249,1.24731948634093,FALSE,0.59645005099709
"CAN","cpi",0.2,2002,3,2001,NA,1,0.900356536827626,1.46825064343553,2.20880570551249,0.695491540886875,FALSE,2.41928176180029
"CAN","cpi",0.2,2002,3,2001,NA,1.5,2.09284045683813,2.66073456344604,2.20880570551249,0.47606161882134,TRUE,0.567894106607909
"CAN","cpi",0.2,2003,3,2003,NA,0,2.6993739740059,2.74864859347039,2.71189071546809,2.75460397277825,TRUE,0.0492746194644953
"CAN","cpi",0.2,2003,3,2003,NA,0.5,4.70664802567375,4.92278159970922,2.71189071546809,4.16096970792426,FALSE,5.20302684954961
"CAN","cpi",0.2,2003,3,2002,NA,1,3.68907181828638,4.42998906724808,2.71189071546809,3.27791908188471,FALSE,3.18387000600743
"CAN","cpi",0.2,2003,3,2002,NA,1.5,3.01055956128538,3.75147681024708,2.71189071546809,1.51830012756901,FALSE,1.48758936350493
"CAN","cpi",0.2,2004,3,2004,NA,0,1.71229952475686,1.75896408541257,1.83151661303942,1.76153103901938,FALSE,0.228045879722841
"CAN","cpi",0.2,2004,3,2004,NA,0.5,2.03918431995667,2.16693720635713,1.83151661303942,1.38945604480572,FALSE,0.64692215369358
"CAN","cpi",0.2,2004,3,2003,NA,1,1.22546716988674,1.85654209699372,1.83151661303942,1.01874619159597,TRUE,0.631074927106977
"CAN","cpi",0.2,2004,3,2003,NA,1.5,4.19044154154593,5.26204148519101,1.83151661303942,2.99105359104411,FALSE,6.96891226491135
"CAN","cpi",0.2,2005,3,2005,NA,0,2.29796650538838,2.34604783376789,2.18071628336509,2.35062481142317,FALSE,0.341206883437723
"CAN","cpi",0.2,2005,3,2005,NA,0.5,2.07242233461039,2.22250154772897,2.18071628336509,1.4552837212303,TRUE,0.150079213118582
"CAN","cpi",0.2,2005,3,2004,NA,1,1.31701991989806,1.59743645221528,2.18071628336509,0.79648671202377,FALSE,1.73861611019174
"CAN","cpi",0.2,2005,3,2004,NA,1.5,2.5803981666945,3.33125153486294,2.18071628336509,1.13680951350797,FALSE,1.75005807649196
"CAN","cpi",0.2,2006,3,2006,NA,0,2.01323869477667,2.06087978777435,1.97519342012289,2.06448042324351,FALSE,0.142754279632134
"CAN","cpi",0.2,2006,3,2006,NA,0.5,2.40614726514888,2.53656123523338,1.97519342012289,1.77073314120205,FALSE,1.20779858264948
"CAN","cpi",0.2,2006,3,2005,NA,1,3.01488336946516,3.65838868632711,1.97519342012289,2.58808204718941,FALSE,3.24273019021763
"CAN","cpi",0.2,2006,3,2005,NA,1.5,2.28113733063405,2.941510971319,1.97519342012289,0.762075268916728,FALSE,1.42523341696286
"CAN","cpi",0.2,2007,3,2007,NA,0,2.05657974984546,2.1035021807371,2.10062087284572,2.10807340507977,TRUE,0.0469224308916374
"CAN","cpi",0.2,2007,3,2007,NA,0.5,2.69259128045887,2.83538878056263,2.10062087284572,2.09760271424675,FALSE,1.62272351913664
"CAN","cpi",0.2,2007,3,2006,NA,1,0.978105692668134,1.18659895814033,2.10062087284572,0.438862458623872,FALSE,2.49354805223567
"CAN","cpi",0.2,2007,3,2006,NA,1.5,2.5357427108822,3.27309476853592,2.10062087284572,1.08089197775225,FALSE,1.82515665274492
"CAN","cpi",0.2,2008,3,2008,NA,0,2.85880288600498,2.90712350101949,2.31447335265955,2.9146675338117,FALSE,1.40914444837808
"CAN","cpi",0.2,2008,3,2008,NA,0.5,1.70186174323422,1.75018235824873,2.31447335265955,1.04562745221765,FALSE,1.45904810104156
"CAN","cpi",0.2,2008,3,2007,NA,1,1.09196512485369,1.1402857398682,2.31447335265955,0.365030180386173,FALSE,2.98378964699289
"CAN","cpi",0.2,2008,3,2007,NA,1.5,3.15811116271844,4.16780098813346,2.31447335265955,2.04107389452134,FALSE,3.11878435056223
"CAN","cpi",0.2,2009,3,2009,NA,0,0.231732396109086,0.27071422880544,0.284533874408197,0.272618836216429,FALSE,0.0735309467032474
"CAN","cpi",0.2,2009,3,2009,NA,0.5,-0.112259307644827,-0.0302399990498375,0.284533874408197,-0.807426338518035,FALSE,0.868953992240077
"CAN","cpi",0.2,2009,3,2008,NA,1,3.69142442257077,4.41928446380364,0.284533874408197,3.28355694764985,FALSE,9.2450864116393
"CAN","cpi",0.2,2009,3,2008,NA,1.5,2.0782337474494,2.80609378868226,0.284533874408197,0.703376955238912,FALSE,5.21210972383586
"CAN","cpi",0.2,2010,3,2010,NA,0,1.67778849312443,1.72377618428652,1.75525687020327,1.72708036400674,FALSE,0.124689405953964
"CAN","cpi",0.2,2010,3,2010,NA,0.5,2.06278862171596,2.15516020058409,1.75525687020327,1.42243266198166,FALSE,0.861200957649848
"CAN","cpi",0.2,2010,3,2009,NA,1,1.22137729486575,1.31374887373388,1.75525687020327,0.515829437079458,FALSE,1.19614157004162
"CAN","cpi",0.2,2010,3,2009,NA,1.5,1.10863566099857,1.29305411554772,1.75525687020327,-0.666399632006793,FALSE,1.33992534118803
"CAN","cpi",0.2,2011,3,2011,NA,0,2.77327182577674,2.82250294961878,2.85717434028225,2.82871118728348,FALSE,0.135909600500709
"CAN","cpi",0.2,2011,3,2011,NA,0.5,3.12943100367497,3.35526175584235,2.85717434028225,2.59305645945043,FALSE,0.906472410649193
"CAN","cpi",0.2,2011,3,2010,NA,1,2.19917920617191,2.52765708177567,2.85717434028225,1.58194849312145,FALSE,1.15227102187019
"CAN","cpi",0.2,2011,3,2010,NA,1.5,2.36074898783697,3.0425989985008,2.85717434028225,1.00866231757724,TRUE,0.681850010663831
"CAN","cpi",0.2,2012,3,2012,NA,0,1.42968407037714,1.4652561414515,1.50118536134935,1.46681751445377,FALSE,0.125395120818975
"CAN","cpi",0.2,2012,3,2012,NA,0.5,2.21991124563048,2.40507589495216,1.50118536134935,1.63866597060755,FALSE,1.98197936002451
"CAN","cpi",0.2,2012,3,2011,NA,1,1.57460179141241,1.86564862458186,1.50118536134935,0.848240548987433,FALSE,0.474587908327107
"CAN","cpi",0.2,2012,3,2011,NA,1.5,2.86544836360311,3.6855561698857,1.50118536134935,1.68384299188515,FALSE,4.23076531191699
"CAN","cpi",0.2,2013,3,2013,NA,0,1.01826350691372,1.01234390778027,0.931270594714462,1.03083115414128,FALSE,0.211562681364696
"CAN","cpi",0.2,2013,3,2013,NA,0.5,1.68432016092952,1.67840056179607,0.931270594714462,1.00184063196526,FALSE,1.8767043164042
"CAN","cpi",0.2,2013,3,2012,NA,1,0.495281698385385,0.489362099251936,0.931270594714462,-0.272545990872386,FALSE,1.09885163952287
"CAN","cpi",0.2,2013,3,2012,NA,1.5,2.30451024969944,2.96053709636064,0.931270594714462,0.958608804136071,FALSE,4.08912598412364
"CAN","cpi",0.2,2014,3,2014,NA,0,1.93559474979201,1.98463756909724,1.87639912240215,1.98613278510701,FALSE,0.19703188777988
"CAN","cpi",0.2,2014,3,2014,NA,0.5,2.48833788310285,2.69013433381098,1.87639912240215,1.95223885123801,FALSE,1.73164335245989
"CAN","cpi",0.2,2014,3,2013,NA,1,1.43875587694167,1.68779304430012,1.87639912240215,0.688658687283847,FALSE,0.720552362613526
"CAN","cpi",0.2,2014,3,2013,NA,1.5,2.25573257609561,2.86326826712645,1.87639912240215,0.891594199884501,FALSE,1.55586932526449
"CAN","cpi",0.2,2015,3,2015,NA,0,1.19990456911209,1.24560930515384,1.11090953952792,1.24641866377254,FALSE,0.26819231000218
"CAN","cpi",0.2,2015,3,2015,NA,0.5,0.715646533717351,0.929314039693778,1.11090953952792,0.198117162089698,FALSE,0.667656255561775
"CAN","cpi",0.2,2015,3,2014,NA,1,1.30256736416346,1.51623487013989,1.11090953952792,0.532106072596766,FALSE,0.692812067565292
"CAN","cpi",0.2,2015,3,2014,NA,1.5,2.86108200430647,3.79274163460528,1.11090953952792,1.81035920235268,FALSE,5.3070907922452
"CAN","cpi",0.2,2016,3,2016,NA,0,1.39420607094058,1.44037339308655,1.41168586698797,1.44184957394589,TRUE,0.0461673221459682
"CAN","cpi",0.2,2016,3,2016,NA,0.5,1.44491497607448,1.58183038545136,1.41168586698797,0.843100047406122,FALSE,0.219988182093164
"CAN","cpi",0.2,2016,3,2015,NA,1,1.90370633504955,2.2965270931025,1.41168586698797,1.23484853770273,FALSE,1.62287192820692
"CAN","cpi",0.2,2016,3,2015,NA,1.5,1.66324109938654,2.06999763177514,1.41168586698797,0.107462752177283,FALSE,1.03564461338503
"CAN","cpi",0.2,2017,3,2017,NA,0,1.46931914670657,1.5147923999638,1.57888581671161,1.51739925639673,FALSE,0.205706795126767
"CAN","cpi",0.2,2017,3,2017,NA,0.5,2.40170566047903,2.61548829860059,1.57888581671161,1.88170269277887,FALSE,2.27083224754012
"CAN","cpi",0.2,2017,3,2016,NA,1,1.17213993169975,1.38651832226452,1.57888581671161,0.418338346755244,FALSE,0.695297126682489
"CAN","cpi",0.2,2017,3,2016,NA,1.5,1.929329741965,2.48410159292424,1.57888581671161,0.52557608733729,FALSE,1.43088166409272
"CAN","cpi",0.2,2018,3,2018,NA,0,2.35289773525589,2.4013474764154,2.23316270166586,2.40611378585155,FALSE,0.347787325134593
"CAN","cpi",0.2,2018,3,2018,NA,0.5,3.12621625825782,3.33693422178171,2.23316270166586,2.62207020824204,FALSE,2.44335185500379
"CAN","cpi",0.2,2018,3,2017,NA,1,1.17872153018174,1.38943949370563,2.23316270166586,0.40411310060617,FALSE,2.32002598342446
"CAN","cpi",0.2,2018,3,2017,NA,1.5,2.64676733883644,3.51130092683686,2.23316270166586,1.53787524714926,FALSE,1.89854518092687
"CAN","cpi",0.2,2019,3,2019,NA,0,1.95375303340576,2.00800878023975,1.91921619871868,2.01142839895124,FALSE,0.14059783355169
"CAN","cpi",0.2,2019,3,2019,NA,0.5,2.05581386035021,2.25269436159977,1.91921619871868,1.51883708040586,FALSE,0.538374655328382
"CAN","cpi",0.2,2019,3,2018,NA,1,2.05543830412192,2.52549875593263,1.91921619871868,1.41942984101848,FALSE,0.810615715318812
"CAN","cpi",0.2,2019,3,2018,NA,1.5,3.01755344613977,4.04217809874269,1.91921619871868,2.06105171090012,FALSE,3.77046777115564
"CAN","cpi",0.2,2020,3,2020,NA,0,0.677946997933298,0.726204305023789,0.71139989671781,0.726179852791075,TRUE,0.0482573070904908
"CAN","cpi",0.2,2020,3,2020,NA,0.5,1.52942004579889,1.8062049423418,0.71139989671781,1.07225945048052,FALSE,2.32183526924562
"CAN","cpi",0.2,2020,3,2019,NA,1,1.71719356888503,2.08105840561474,0.71139989671781,1.01913964327806,FALSE,2.87834901714776
"CAN","cpi",0.2,2020,3,2019,NA,1.5,2.31637163195099,3.06763336404243,0.71139989671781,1.22761645350518,FALSE,4.76369107017439
"CAN","cpi",0.2,2021,3,2021,NA,0,3.23987115333685,3.3013195098234,3.31148121717802,3.30988753190892,FALSE,0.0868526248731101
"CAN","cpi",0.2,2021,3,2021,NA,0.5,2.91370104605168,3.21623379804189,3.31148121717802,2.4899040786607,FALSE,0.540651299830546
"CAN","cpi",0.2,2021,3,2020,NA,1,1.84280893484786,2.2553550507105,3.31148121717802,1.1979067045331,FALSE,3.05286153203146
"CAN","cpi",0.2,2021,3,2020,NA,1.5,1.90817416944749,2.53225413536817,3.31148121717802,0.670626810990653,FALSE,2.57214767044532
"CAN","cpi",0.2,2022,3,2022,NA,0,6.46841971591528,6.52622920405412,6.50977236228281,6.54555789178856,TRUE,0.0578094881388385
"CAN","cpi",0.2,2022,3,2022,NA,0.5,6.3308176216224,6.6976690959693,6.50977236228281,5.96468998606203,TRUE,0.366851474346905
"CAN","cpi",0.2,2022,3,2021,NA,1,3.76771777683117,4.72525785536828,6.50977236228281,3.42105264822981,FALSE,5.41882634582344
"CAN","cpi",0.2,2022,3,2021,NA,1.5,2.81051423242709,3.7680543109642,6.50977236228281,1.93276265883962,FALSE,7.81183520683364
"CAN","cpi",0.2,2023,3,2023,NA,0,3.90962209421994,3.96111726080458,3.78831288758619,3.97188685244318,FALSE,0.354768183169016
"CAN","cpi",0.2,2023,3,2023,NA,0.5,3.25719997468356,3.56583271031764,3.78831288758619,2.8392001035463,FALSE,0.864833178805455
"CAN","cpi",0.2,2023,3,2022,NA,1,3.28033497862754,4.13478314268234,3.78831288758619,2.86884991489758,TRUE,0.854448164054802
"CAN","cpi",0.2,2023,3,2022,NA,1.5,4.37246165865323,6.04332678666449,3.78831288758619,4.03317247515909,FALSE,3.13123705567885
"CAN","cpi",0.2,2024,3,2023,NA,1,3.35198469178877,4.13752566890644,NA,2.89946754179362,NA,NA
"CAN","cpi",0.2,2024,3,2023,NA,1.5,2.26128387390785,3.04682485102551,NA,1.17991651782151,NA,NA
"CAN","cpi",0.3,1950,3,1950,NA,0,2.37145922729289,2.3714592272927,2.59031220731124,2.24825037311262,FALSE,0.625294228624215
"CAN","cpi",0.3,1950,3,1950,NA,0.5,0.445796407174683,0.445796407174493,2.59031220731124,-0.218816875802678,FALSE,6.12718800039051
"CAN","cpi",0.3,1950,3,1949,NA,1,182.677140522599,182.677140522599,2.59031220731124,1.29650217702121,FALSE,514.533795186537
"CAN","cpi",0.3,1950,3,1949,NA,1.5,13.3859983407784,13.3859983407784,2.59031220731124,0,FALSE,30.844817524192
"CAN","cpi",0.3,1951,3,1951,NA,0,9.78185216330478,9.85033499656473,9.87945438999359,9.85678648981217,FALSE,0.151681100199545
"CAN","cpi",0.3,1951,3,1951,NA,0.5,8.68187436100852,9.43684911774108,9.87945438999359,8.53589570050804,FALSE,2.01956124888258
"CAN","cpi",0.3,1951,3,1950,NA,1,3.08143260915237,9.26268675989882,9.87945438999359,4.61037950756317,FALSE,7.94344737958866
"CAN","cpi",0.3,1951,3,1950,NA,1.5,2.46788029376656,14.870642480412,9.87945438999359,-0.898542404092984,TRUE,12.4027621866455
"CAN","cpi",0.3,1952,3,1952,NA,0,2.62437305728937,2.83908779623485,2.55562336095485,2.50792675283471,FALSE,0.411142442758401
"CAN","cpi",0.3,1952,3,1952,NA,0.5,4.23540555497252,5.7405615191725,2.55562336095485,3.80942800622696,FALSE,6.30453366139333
"CAN","cpi",0.3,1952,3,1951,NA,1,5.70773313613047,10.4389376898015,2.55562336095485,6.36946346746546,FALSE,13.7372324827443
"CAN","cpi",0.3,1952,3,1951,NA,1.5,2.19416822441256,6.9253727780836,2.55562336095485,4.80604275648344,TRUE,4.73120455367103
"CAN","cpi",0.3,1953,3,1953,NA,0,-0.430050860859329,-0.88601785249654,-1.01492775838436,-1.00118391953201,FALSE,1.21510985843431
"CAN","cpi",0.3,1953,3,1953,NA,0.5,0.308965205698406,-0.147001785938805,-1.01492775838436,-1.88711612688489,FALSE,3.32658433431356
"CAN","cpi",0.3,1953,3,1952,NA,1,0.472759352313915,0.0167923606767038,-1.01492775838436,-0.873617238258229,FALSE,3.79456761035787
"CAN","cpi",0.3,1953,3,1952,NA,1.5,8.17088795619664,8.63843267681052,-1.01492775838436,0.432272395627528,FALSE,26.7127324765596
"CAN","cpi",0.3,1954,3,1954,NA,0,0.912512271019545,0.954819903029692,0.644425455961438,0.831821956393317,FALSE,0.808269960747596
"CAN","cpi",0.3,1954,3,1954,NA,0.5,0.518333116479566,0.614573415965511,0.644425455961438,-0.141712452464762,FALSE,0.181531842331451
"CAN","cpi",0.3,1954,3,1953,NA,1,0.703764580988925,4.70977832151992,0.644425455961438,2.12291681679911,FALSE,4.17555409775239
"CAN","cpi",0.3,1954,3,1953,NA,1.5,2.5996044508753,10.2420883002206,0.644425455961438,-1.28741438714058,FALSE,13.2287095490992
"CAN","cpi",0.3,1955,3,1955,NA,0,0.108981120785359,0.202618495463103,0.173649026558865,0.10295813188439,TRUE,0.0936373746777433
"CAN","cpi",0.3,1955,3,1955,NA,0.5,0.203032838326993,0.296670213004736,0.173649026558865,-0.548848324097393,FALSE,0.177591122586681
"CAN","cpi",0.3,1955,3,1954,NA,1,0.742823727236754,4.83987847201129,0.173649026558865,2.19101630104756,FALSE,5.72326817528279
"CAN","cpi",0.3,1955,3,1954,NA,1.5,0.792504560832207,9.80182382992966,0.173649026558865,-0.815294949881493,FALSE,10.7774779384499
"CAN","cpi",0.3,1956,3,1956,NA,0,1.42769266840404,1.5251736372794,1.32752769429961,1.46434436590257,FALSE,0.383666609173739
"CAN","cpi",0.3,1956,3,1956,NA,0.5,0.229686969100017,0.327167937975368,1.32752769429961,-0.485738076612692,FALSE,2.95565170123032
"CAN","cpi",0.3,1956,3,1955,NA,1,-0.157323655204072,1.65524936727106,1.32752769429961,0.557995939500226,TRUE,1.81257302247513
"CAN","cpi",0.3,1956,3,1955,NA,1.5,0.734422621235786,2.54699564371091,1.32752769429961,-0.793756041684752,TRUE,1.81257302247513
"CAN","cpi",0.3,1957,3,1957,NA,0,3.30558699114351,3.39976215235154,3.24684755852518,3.35523637829212,FALSE,0.262002111546121
"CAN","cpi",0.3,1957,3,1957,NA,0.5,2.67428848572726,2.76846364693529,3.24684755852518,2.12793087018929,FALSE,1.46098633717913
"CAN","cpi",0.3,1957,3,1956,NA,1,3.00728328470247,6.86047910512903,3.24684755852518,4.42886834530761,TRUE,3.85319582042656
"CAN","cpi",0.3,1957,3,1956,NA,1.5,-0.283933592514385,3.56926222791218,3.24684755852518,-0.785064469253982,TRUE,3.85319582042656
"CAN","cpi",0.3,1958,3,1958,NA,0,2.09832590688831,2.26049894057077,2.33186388641149,2.20013349321115,FALSE,0.366072878941662
"CAN","cpi",0.3,1958,3,1958,NA,0.5,2.62583285854332,3.1444807276344,2.33186388641149,2.0126030377883,FALSE,1.35855921803917
"CAN","cpi",0.3,1958,3,1957,NA,1,1.59580532217232,4.67065518230649,2.33186388641149,2.83859761398538,TRUE,3.07484986013417
"CAN","cpi",0.3,1958,3,1957,NA,1.5,0.681557909416065,3.75640776955023,2.33186388641149,0.366312073207214,TRUE,3.07484986013417
"CAN","cpi",0.3,1959,3,1959,NA,0,1.1526407529489,1.25488706856753,1.19382698397654,1.18954599151176,TRUE,0.102246315618633
"CAN","cpi",0.3,1959,3,1959,NA,0.5,1.19995696849754,1.84208644532904,1.19382698397654,0.545308327160925,FALSE,0.659643718320075
"CAN","cpi",0.3,1959,3,1958,NA,1,0.151415738889792,1.5971555173529,1.19382698397654,1.13295114249046,TRUE,1.44573977846311
"CAN","cpi",0.3,1959,3,1958,NA,1.5,1.25778154666451,2.70352132512762,1.19382698397654,0.717422088079289,FALSE,1.62846710042874
"CAN","cpi",0.3,1960,3,1960,NA,0,0.992874878339156,1.08535833568056,1.34209404870695,1.02361304259477,FALSE,0.826014065988236
"CAN","cpi",0.3,1960,3,1960,NA,0.5,1.29244108940711,1.38492454674851,1.34209404870695,0.648611007713657,TRUE,0.0924834573414044
"CAN","cpi",0.3,1960,3,1959,NA,1,0.849306551978424,2.02365692620677,1.34209404870695,2.37666873185636,TRUE,1.17435037422835
"CAN","cpi",0.3,1960,3,1959,NA,1.5,0.938727917610709,2.54274625677488,1.34209404870695,-0.349092179567277,TRUE,1.60401833916418
"CAN","cpi",0.3,1961,3,1961,NA,0,0.979203695872331,1.07045352986925,1.00921348094007,1.00921348094007,TRUE,0.0912498339969146
"CAN","cpi",0.3,1961,3,1961,NA,0.5,1.63010644458992,1.72135627858684,1.00921348094007,1.00921348094007,FALSE,1.86522973013934
"CAN","cpi",0.3,1961,3,1960,NA,1,-0.483015186121065,0.473778920892431,1.00921348094007,0.0537704626035329,FALSE,2.48660713572104
"CAN","cpi",0.3,1961,3,1960,NA,1.5,0.94398960411572,2.54503206151729,1.00921348094007,-0.332316386156399,TRUE,1.60104245740157
"CAN","cpi",0.3,1962,3,1962,NA,0,1.064626640534,1.13133252057103,1.04957947883042,1.0653801125483,FALSE,0.10969777061871
"CAN","cpi",0.3,1962,3,1962,NA,0.5,0.682071022327225,0.776412680305192,1.04957947883042,0,FALSE,0.87481822519289
"CAN","cpi",0.3,1962,3,1961,NA,1,0.240980282712198,0.981712697479927,1.04957947883042,0,FALSE,0.934637504340552
"CAN","cpi",0.3,1962,3,1961,NA,1.5,1.10922543584189,2.26202894835761,1.04957947883042,0,FALSE,1.32322053254852
"CAN","cpi",0.3,1963,3,1963,NA,0,1.80635131115636,1.89121205208465,1.60677118395228,1.83024954277348,FALSE,0.655089675797087
"CAN","cpi",0.3,1963,3,1963,NA,0.5,1.47217609951555,1.55703684044383,1.60677118395228,0.836828714617504,FALSE,0.226958865238143
"CAN","cpi",0.3,1963,3,1962,NA,1,0.986594732181404,1.84801721075117,1.60677118395228,1.60935100695326,TRUE,0.861422478569764
"CAN","cpi",0.3,1963,3,1962,NA,1.5,1.04957947883042,2.26202894835761,1.60677118395228,0,TRUE,1.2124494695272
"CAN","cpi",0.3,1964,3,1964,NA,0,1.90698079876846,2.01353388105107,1.88764670034376,1.95194648443024,FALSE,0.161793363496041
"CAN","cpi",0.3,1964,3,1964,NA,0.5,1.88259776508093,2.01129760304291,1.88764670034376,1.27307816843398,TRUE,0.128699837961983
"CAN","cpi",0.3,1964,3,1963,NA,1,1.9973268966806,2.61922696897048,1.88764670034376,3.20172332637508,FALSE,0.935272061823711
"CAN","cpi",0.3,1964,3,1963,NA,1.5,1.04957947883041,2.26202894835761,1.88764670034376,0,TRUE,1.2124494695272
"CAN","cpi",0.3,1965,3,1965,NA,0,2.24937755278731,2.3464134637989,2.29538304394236,2.29800189469823,TRUE,0.0970359110115906
"CAN","cpi",0.3,1965,3,1965,NA,0.5,1.99642661065703,2.12382703855406,2.29538304394236,1.39443218256826,FALSE,0.617560443292169
"CAN","cpi",0.3,1965,3,1964,NA,1,1.16744928165833,1.73905621609731,2.29538304394236,1.48078368039448,FALSE,2.16111215685339
"CAN","cpi",0.3,1965,3,1964,NA,1.5,1.19748243139962,1.96174338113885,2.29538304394236,0.293257399533461,FALSE,1.71751712917782
"CAN","cpi",0.3,1966,3,1966,NA,0,3.71227655723718,3.81708860709052,3.72486065470629,3.77511268244847,TRUE,0.10481204985334
"CAN","cpi",0.3,1966,3,1966,NA,0.5,3.85922544877466,3.964037498628,3.72486065470629,3.37743719728421,FALSE,0.488711461477264
"CAN","cpi",0.3,1966,3,1965,NA,1,1.5247075503282,2.03432107944227,3.72486065470629,1.98486973144544,FALSE,5.33972660129699
"CAN","cpi",0.3,1966,3,1965,NA,1.5,1.2833697254564,2.3509102573091,3.72486065470629,0.578640834001038,FALSE,4.99311309584468
"CAN","cpi",0.3,1967,3,1967,NA,0,3.62048252027639,3.72744967637066,3.49360316391996,3.68375770714608,FALSE,0.469479602826919
"CAN","cpi",0.3,1967,3,1967,NA,0.5,2.66813518750922,2.78786774456856,3.49360316391996,2.11054708048259,FALSE,2.13611946949192
"CAN","cpi",0.3,1967,3,1966,NA,1,1.53836480266644,2.05176645985999,3.49360316391996,2.02003307533501,FALSE,4.6329350973649
"CAN","cpi",0.3,1967,3,1966,NA,1.5,1.62553776102923,2.57212618601182,3.49360316391996,1.71558536379673,FALSE,3.57937979043442
"CAN","cpi",0.3,1968,3,1968,NA,0,4.00348939847094,4.08125065858376,3.95128347779386,4.07085717819357,FALSE,0.226921033475906
"CAN","cpi",0.3,1968,3,1968,NA,0.5,3.97829633570702,4.22416358924655,3.95128347779386,3.50732233276501,FALSE,0.323046847577132
"CAN","cpi",0.3,1968,3,1967,NA,1,2.49783942349846,3.94091079899423,3.95128347779386,3.66303679301692,FALSE,1.47270760063755
"CAN","cpi",0.3,1968,3,1967,NA,1.5,1.29946300534084,2.74253438083662,3.95128347779386,0.834881519045053,FALSE,4.89664022394503
"CAN","cpi",0.3,1969,3,1969,NA,0,4.45315376365381,4.53668400321104,4.42679496126681,4.52532640008253,FALSE,0.158841103520073
"CAN","cpi",0.3,1969,3,1969,NA,0.5,3.19124927773485,3.32602452052632,4.42679496126681,2.69090620784681,FALSE,3.27983364490716
"CAN","cpi",0.3,1969,3,1968,NA,1,2.61764297784191,4.0094900514682,4.42679496126681,4.0779393276339,FALSE,2.58414681590804
"CAN","cpi",0.3,1969,3,1968,NA,1.5,1.6981383529776,3.08998542660389,4.42679496126681,1.61221871335458,FALSE,5.21130288694893
"CAN","cpi",0.3,1970,3,1970,NA,0,3.48023037839893,3.54831915749605,3.28128405769805,3.55878605435979,FALSE,0.636506838242506
"CAN","cpi",0.3,1970,3,1970,NA,0.5,4.17691574891916,4.44541474697232,3.28128405769805,3.74969277403504,FALSE,2.82744668725634
"CAN","cpi",0.3,1970,3,1969,NA,1,2.22231807670772,3.47539214380968,3.28128405769805,3.11186608282608,TRUE,1.25307406710196
"CAN","cpi",0.3,1970,3,1969,NA,1.5,1.57241782948902,2.82549189659098,3.28128405769805,0.764941977259638,FALSE,2.55533738455072
"CAN","cpi",0.3,1971,3,1971,NA,0,2.74318744082228,2.79672146260762,2.64123406634756,2.81514553288871,FALSE,0.344829377427398
"CAN","cpi",0.3,1971,3,1971,NA,0.5,1.7257929200139,2.04188549595398,2.64123406634756,1.11673730766521,FALSE,2.02851706277889
"CAN","cpi",0.3,1971,3,1970,NA,1,1.66976051298788,2.5945039282097,2.64123406634756,1.92043450460395,FALSE,1.05825809561572
"CAN","cpi",0.3,1971,3,1970,NA,1.5,2.00723327098494,3.30465545241077,2.64123406634756,1.70194075200601,TRUE,1.29742218142584
"CAN","cpi",0.3,1972,3,1972,NA,0,4.94579423749351,4.99867282444026,4.83230569625923,5.04828762155974,FALSE,0.377131561901836
"CAN","cpi",0.3,1972,3,1972,NA,0.5,4.49503161809337,4.76156778901828,4.83230569625923,4.09602385359717,FALSE,0.468644477327625
"CAN","cpi",0.3,1972,3,1971,NA,1,2.74836200829057,4.21825663861202,4.83230569625923,4.16812111633716,FALSE,3.22432050931348
"CAN","cpi",0.3,1972,3,1971,NA,1.5,1.497934829226,2.96782945954745,4.83230569625923,0.692030005351089,FALSE,6.79696959235511
"CAN","cpi",0.3,1973,3,1973,NA,0,7.12037649241453,7.17058135617095,7.12388603531779,7.25096132226983,TRUE,0.0502048637564219
"CAN","cpi",0.3,1973,3,1973,NA,0.5,5.62431047840611,5.94831085406821,7.12388603531779,5.30446017290082,FALSE,3.68278660780376
"CAN","cpi",0.3,1973,3,1972,NA,1,3.14458798332416,4.86454920492811,7.12388603531779,4.92276035792265,FALSE,8.17520930843161
"CAN","cpi",0.3,1973,3,1972,NA,1.5,1.8519476762712,3.57190889787514,7.12388603531779,1.79187879074203,FALSE,11.8684673285829
"CAN","cpi",0.3,1974,3,1974,NA,0,10.0018152236119,10.0280550182881,10.2717243737774,10.148911210151,FALSE,0.722437953217132
"CAN","cpi",0.3,1974,3,1974,NA,0.5,8.10503332616171,8.40861049881112,10.2717243737774,7.90446289245049,FALSE,5.62675967255312
"CAN","cpi",0.3,1974,3,1973,NA,1,5.39493128193051,7.31816797087496,10.2717243737774,7.30476096756609,FALSE,10.3619692686658
"CAN","cpi",0.3,1974,3,1973,NA,1.5,1.87819363225468,3.80143032119913,10.2717243737774,2.5663290958369,FALSE,20.4097911248824
"CAN","cpi",0.3,1975,3,1975,NA,0,10.027414435799,10.198139410113,10.0232981493341,10.1746571103793,FALSE,0.182485792785029
"CAN","cpi",0.3,1975,3,1975,NA,0.5,8.26166391713365,9.39408096923004,10.0232981493341,8.07152306914465,FALSE,2.93018042382233
"CAN","cpi",0.3,1975,3,1974,NA,1,6.34196388322283,9.82990702684103,10.0232981493341,7.8187778356914,FALSE,4.04048920788419
"CAN","cpi",0.3,1975,3,1974,NA,1.5,1.56075592504903,5.04869906866723,10.0232981493341,3.64914274700436,FALSE,17.701083374095
"CAN","cpi",0.3,1976,3,1976,NA,0,7.05971420627722,7.11042360128121,7.22784311401172,7.18995143043805,FALSE,0.386193717091156
"CAN","cpi",0.3,1976,3,1976,NA,0.5,6.8945094216178,8.00788244475841,7.22784311401172,6.61333364285308,TRUE,1.11337302314061
"CAN","cpi",0.3,1976,3,1975,NA,1,7.65325033640828,10.94091840516,7.22784311401172,8.584971075903,FALSE,4.50311727559908
"CAN","cpi",0.3,1976,3,1975,NA,1.5,2.53081284286807,7.34748767164234,7.22784311401172,3.14738569995591,TRUE,4.81667482877427
"CAN","cpi",0.3,1977,3,1977,NA,0,7.37312018255502,7.51840368025502,7.58101410153764,7.50176944503946,FALSE,0.324170415650341
"CAN","cpi",0.3,1977,3,1977,NA,0.5,6.69985373571455,7.65293984156786,7.58101410153764,6.40571638826874,TRUE,0.953086105853302
"CAN","cpi",0.3,1977,3,1976,NA,1,3.55507216619524,5.50858944462788,7.58101410153764,4.04909286077014,FALSE,7.87473058388911
"CAN","cpi",0.3,1977,3,1976,NA,1.5,3.11097627633096,6.41293676143985,7.58101410153764,2.59432747727492,FALSE,6.63932431395973
"CAN","cpi",0.3,1978,3,1978,NA,0,8.45556331417655,8.61047349340773,8.50208927062595,8.59104847384149,TRUE,0.15491017923118
"CAN","cpi",0.3,1978,3,1978,NA,0.5,7.57687788990029,8.63066609983724,8.50208927062595,7.34113908733495,TRUE,1.05378820993695
"CAN","cpi",0.3,1978,3,1977,NA,1,5.03679958776576,7.70018562587015,8.50208927062595,5.87902868518151,FALSE,4.95453930883525
"CAN","cpi",0.3,1978,3,1977,NA,1.5,3.97295027089984,8.71619311505819,8.50208927062595,3.89293485842214,TRUE,4.74324284415835
"CAN","cpi",0.3,1979,3,1979,NA,0,8.35168495937959,8.50567129900165,8.65147652410481,8.48651410143776,FALSE,0.570572697059654
"CAN","cpi",0.3,1979,3,1979,NA,0.5,7.6900691865918,8.75685430395302,8.65147652410481,7.46186747064873,TRUE,1.06678511736121
"CAN","cpi",0.3,1979,3,1978,NA,1,6.13160350055206,9.55216274420353,8.65147652410481,6.93686058379669,TRUE,3.42055924365147
"CAN","cpi",0.3,1979,3,1978,NA,1.5,5.3513409397217,8.77190018337317,8.65147652410481,3.9179710204728,TRUE,3.42055924365147
"CAN","cpi",0.3,1980,3,1980,NA,0,9.29631655637755,9.45870395401636,9.5171912664748,9.43711128155219,FALSE,0.329494004662908
"CAN","cpi",0.3,1980,3,1980,NA,0.5,8.48667956144994,9.20585462222566,9.5171912664748,7.89144076485851,FALSE,1.60870833005896
"CAN","cpi",0.3,1980,3,1979,NA,1,5.14724597289382,7.47844252150493,9.5171912664748,5.69387794711803,FALSE,8.15619296281073
"CAN","cpi",0.3,1980,3,1979,NA,1.5,5.9190620653531,9.19603791392275,9.5171912664748,4.27199048256738,FALSE,4.19455685586121
"CAN","cpi",0.3,1981,3,1981,NA,0,11.4652768410645,11.6825742464976,11.5813425032741,11.617538759154,TRUE,0.21729740543315
"CAN","cpi",0.3,1981,3,1981,NA,0.5,11.8476144311148,12.7725614844308,11.5813425032741,11.3038259100907,FALSE,1.68572399000368
"CAN","cpi",0.3,1981,3,1980,NA,1,9.18976749634365,11.1012631923684,11.5813425032741,8.22922472590444,FALSE,3.28315087004118
"CAN","cpi",0.3,1981,3,1980,NA,1.5,8.21782374255246,10.1293194385772,11.5813425032741,4.54818367546621,FALSE,6.06013302373028
"CAN","cpi",0.3,1982,3,1982,NA,0,10.0449775980746,10.2410731973403,10.1124203763629,10.1863972123348,TRUE,0.196095599265668
"CAN","cpi",0.3,1982,3,1982,NA,0.5,9.73273176091696,10.7618536083052,10.1124203763629,9.38011590167964,TRUE,1.02912184738821
"CAN","cpi",0.3,1982,3,1981,NA,1,10.197828542161,11.9591288066564,10.1124203763629,8.92774959502704,FALSE,2.00532359534699
"CAN","cpi",0.3,1982,3,1981,NA,1.5,13.7114949363964,15.4727952008919,10.1124203763629,7.65688060941457,FALSE,12.0443704360196
"CAN","cpi",0.3,1983,3,1983,NA,0,5.68418438043105,5.80635992375769,5.67091787896303,5.79231449937116,FALSE,0.160079833235245
"CAN","cpi",0.3,1983,3,1983,NA,0.5,5.08977710156874,5.62704217589008,5.67091787896303,4.48935486750539,FALSE,0.662624225958353
"CAN","cpi",0.3,1983,3,1982,NA,1,7.29040534349828,9.4508649067358,5.67091787896303,6.68360843662591,FALSE,6.78756660476679
"CAN","cpi",0.3,1983,3,1982,NA,1.5,8.12311420402967,11.6953697455195,5.67091787896303,5.80492936344428,FALSE,10.5785307559659
"CAN","cpi",0.3,1984,3,1984,NA,0,4.07396887637803,4.19448419694337,4.19799576814029,4.1863442377944,FALSE,0.130548381127961
"CAN","cpi",0.3,1984,3,1984,NA,0.5,5.0219669260383,5.5518517210893,4.19799576814029,4.37368919035215,FALSE,2.88408810333103
"CAN","cpi",0.3,1984,3,1983,NA,1,5.2922638913371,6.92627859539997,4.19799576814029,4.8252398586334,FALSE,4.76049505605375
"CAN","cpi",0.3,1984,3,1983,NA,1.5,3.57680888516354,5.21082358922641,4.19799576814029,1.63651850095104,TRUE,1.63401470406287
"CAN","cpi",0.3,1985,3,1985,NA,0,3.78128589310959,3.88486738391858,3.86444262005169,3.87488963413478,TRUE,0.103581490808992
"CAN","cpi",0.3,1985,3,1985,NA,0.5,4.24509412114073,4.79114235927456,3.86444262005169,3.66954460168274,FALSE,1.63362395553108
"CAN","cpi",0.3,1985,3,1984,NA,1,2.64069583184353,3.92538990356895,3.86444262005169,2.51760914226531,TRUE,1.28469407172543
"CAN","cpi",0.3,1985,3,1984,NA,1.5,4.83590316136653,6.84670579575971,3.86444262005169,2.74468923002786,FALSE,4.78640418100701
"CAN","cpi",0.3,1986,3,1986,NA,0,3.99485968603318,4.10052809968566,4.08685396749431,4.09009381020777,TRUE,0.105668413652472
"CAN","cpi",0.3,1986,3,1986,NA,0.5,4.733315532813,5.28294068746736,4.08685396749431,4.18867743652029,FALSE,2.39665819842205
"CAN","cpi",0.3,1986,3,1985,NA,1,3.12131326928584,4.51646218009375,4.08685396749431,2.96346536694636,TRUE,1.39514891080791
"CAN","cpi",0.3,1986,3,1985,NA,1.5,4.45291356704047,6.71098196951669,4.08685396749431,2.65645514502224,FALSE,3.3039529726081
"CAN","cpi",0.3,1987,3,1987,NA,0,4.2069741223307,4.31226844598521,4.23980729277887,4.30382748919395,TRUE,0.105294323654512
"CAN","cpi",0.3,1987,3,1987,NA,0.5,4.17390933935219,4.68046940525244,4.23980729277887,3.60745044359556,TRUE,0.506560065900249
"CAN","cpi",0.3,1987,3,1986,NA,1,3.68840759926191,5.1227092508109,4.23980729277887,3.48954394276064,TRUE,1.43430165154899
"CAN","cpi",0.3,1987,3,1986,NA,1.5,4.76024993911531,7.22444235228654,4.23980729277887,3.05061614822702,FALSE,3.95117140270392
"CAN","cpi",0.3,1988,3,1988,NA,0,3.88433898527702,3.97408874733866,3.92899537638065,3.96651200874969,TRUE,0.0897497620616345
"CAN","cpi",0.3,1988,3,1988,NA,0.5,3.85479111015738,4.33678431386701,3.92899537638065,3.27588434563216,TRUE,0.481993203709632
"CAN","cpi",0.3,1988,3,1987,NA,1,3.62566011174661,4.96222365119309,3.92899537638065,3.36557853238272,TRUE,1.33656353944648
"CAN","cpi",0.3,1988,3,1987,NA,1.5,3.71366588830037,5.97805593958615,3.92899537638065,2.22890665988493,TRUE,2.26439005128578
"CAN","cpi",0.3,1989,3,1989,NA,0,4.87123408244794,4.9723690663434,4.82821664544208,4.96224122245117,FALSE,0.224041946769362
"CAN","cpi",0.3,1989,3,1989,NA,0.5,4.69845954409317,5.24540136011922,4.82821664544208,4.15246181762677,TRUE,0.546941816026049
"CAN","cpi",0.3,1989,3,1988,NA,1,3.60928277352355,4.67207084864354,4.82821664544208,3.35061776773985,FALSE,1.5089189231158
"CAN","cpi",0.3,1989,3,1988,NA,1.5,3.54260840653193,5.68079757246729,4.82821664544208,2.03293210635829,TRUE,2.13818916593537
"CAN","cpi",0.3,1990,3,1990,NA,0,4.39289467433882,4.50008825488718,4.64347549432717,4.49116732458404,FALSE,0.516871407519765
"CAN","cpi",0.3,1990,3,1990,NA,0.5,5.32780032239297,5.90579917432888,4.64347549432717,4.80635133900141,FALSE,2.53321264640962
"CAN","cpi",0.3,1990,3,1989,NA,1,4.81640555391478,6.21051984763918,4.64347549432717,4.45332930526201,FALSE,1.88820017826042
"CAN","cpi",0.3,1990,3,1989,NA,1.5,4.59316778749216,7.05656859241916,4.64347549432717,2.93994143296931,TRUE,2.463400804927
"CAN","cpi",0.3,1991,3,1991,NA,0,5.50000599112002,5.6083947425979,5.4258100696218,5.5966415351231,FALSE,0.320377098615654
"CAN","cpi",0.3,1991,3,1991,NA,0.5,8.44241732390432,9.2517820341398,5.4258100696218,8.0424604401558,FALSE,9.42824257961412
"CAN","cpi",0.3,1991,3,1990,NA,1,3.17136640765743,4.26133705246899,5.4258100696218,3.00766385389873,FALSE,4.41703640810529
"CAN","cpi",0.3,1991,3,1990,NA,1.5,5.0458961863875,7.76650844565583,5.4258100696218,3.42461322750937,TRUE,2.72061225926832
"CAN","cpi",0.3,1992,3,1992,NA,0,1.38586546848899,1.46234097678821,1.47496888572843,1.46118300949616,FALSE,0.112555248128425
"CAN","cpi",0.3,1992,3,1992,NA,0.5,1.89338370624121,2.21626074134742,1.47496888572843,1.2379681755847,FALSE,1.518347950857
"CAN","cpi",0.3,1992,3,1991,NA,1,1.99965861083984,3.10943499855049,1.47496888572843,1.8723365291461,FALSE,2.60888988802895
"CAN","cpi",0.3,1992,3,1991,NA,1.5,8.29161036561904,12.7975783326562,1.47496888572843,6.89933696838937,FALSE,23.9820864810103
"CAN","cpi",0.3,1993,3,1993,NA,0,1.73923439297351,1.80778638009185,1.84351085411351,1.80220567555903,FALSE,0.170621912894514
"CAN","cpi",0.3,1993,3,1993,NA,0.5,2.77676647936552,3.22975828782264,1.84351085411351,2.21818498229346,FALSE,3.11943645203429
"CAN","cpi",0.3,1993,3,1992,NA,1,1.38425623235637,2.32290476786118,1.84351085411351,1.3520429918812,TRUE,0.938648535504803
"CAN","cpi",0.3,1993,3,1992,NA,1.5,2.66045405279526,3.96576098009485,1.84351085411351,0.933485487336859,FALSE,3.63943035210458
"CAN","cpi",0.3,1994,3,1994,NA,0,0.153334437936912,0.204295877024724,0.161630694655448,0.202109657487191,TRUE,0.0509614390878117
"CAN","cpi",0.3,1994,3,1994,NA,0.5,0.151332948080047,0.24230769590334,0.161630694655448,-0.572639707462777,TRUE,0.0909747478232927
"CAN","cpi",0.3,1994,3,1993,NA,1,1.20271396351971,2.05848402454018,0.161630694655448,1.14110533076836,FALSE,3.83029368634694
"CAN","cpi",0.3,1994,3,1993,NA,1.5,3.20856877428722,5.00533688069873,0.161630694655448,1.65023462295923,FALSE,10.502305476788
"CAN","cpi",0.3,1995,3,1995,NA,0,2.08246877601846,2.15482786388204,2.11688403676572,2.14851249512314,TRUE,0.0723590878635818
"CAN","cpi",0.3,1995,3,1995,NA,0.5,3.12791661767592,3.55906463998503,2.11688403676572,2.60072443309243,FALSE,3.31981253919541
"CAN","cpi",0.3,1995,3,1994,NA,1,1.69632609738764,2.20131200811071,2.11688403676572,1.43373972642191,TRUE,0.504985910723071
"CAN","cpi",0.3,1995,3,1994,NA,1.5,0.438076238580136,0.943062149303207,2.11688403676572,-1.26611333424577,FALSE,3.85876273204452
"CAN","cpi",0.3,1996,3,1996,NA,0,1.38444020939189,1.43774782374111,1.55309584667184,1.43665270425039,FALSE,0.382873394151319
"CAN","cpi",0.3,1996,3,1996,NA,0.5,1.8389834304508,2.12664574891335,1.55309584667184,1.23276330365037,FALSE,1.10448398640242
"CAN","cpi",0.3,1996,3,1995,NA,1,0.713449635927997,1.54283395093254,1.55309584667184,0.729753259393914,FALSE,0.858704017116846
"CAN","cpi",0.3,1996,3,1995,NA,1.5,3.67573604828291,5.2319465848131,1.55309584667184,2.31904839186543,FALSE,7.62089682684752
"CAN","cpi",0.3,1997,3,1997,NA,0,1.62497423567127,1.68481516972281,1.60528783555959,1.67949478723595,FALSE,0.116087791513479
"CAN","cpi",0.3,1997,3,1997,NA,0.5,2.49605999642629,2.82297512287315,1.60528783555959,1.93291992098407,FALSE,2.87197844320885
"CAN","cpi",0.3,1997,3,1996,NA,1,0.628926442123105,1.39852184353583,1.60528783555959,0.614630451620954,FALSE,1.36035537862347
"CAN","cpi",0.3,1997,3,1996,NA,1.5,2.62951601621283,3.80654602228912,1.60528783555959,0.962161564198873,FALSE,4.10339623651411
"CAN","cpi",0.3,1998,3,1998,NA,0,0.911501783409711,0.970872693134917,0.988908029337191,0.967063680387792,FALSE,0.110900441731703
"CAN","cpi",0.3,1998,3,1998,NA,0.5,1.92081672348509,2.20978027268308,0.988908029337191,1.34897459866337,FALSE,2.95155981819198
"CAN","cpi",0.3,1998,3,1997,NA,1,0.834902707142404,1.63174367224068,0.988908029337191,0.792689959246129,TRUE,0.796840965098276
"CAN","cpi",0.3,1998,3,1997,NA,1.5,2.69781595830847,4.00359661228449,0.988908029337191,1.28384000376946,FALSE,6.1883747367511
"CAN","cpi",0.3,1999,3,1999,NA,0,1.7132784596272,1.77415584983592,1.7107350135213,1.76864633894604,FALSE,0.0681443790827288
"CAN","cpi",0.3,1999,3,1999,NA,0.5,1.34038010309198,1.56200643134394,1.7107350135213,0.732099710600531,FALSE,0.646565134472981
"CAN","cpi",0.3,1999,3,1998,NA,1,0.388029098398958,1.10235208644125,1.7107350135213,0.369052571959629,FALSE,2.45255992255671
"CAN","cpi",0.3,1999,3,1998,NA,1.5,2.68554160861341,3.98667699043816,1.7107350135213,1.26847007023129,FALSE,4.08629708208793
"CAN","cpi",0.3,2000,3,2000,NA,0,2.63599596911569,2.71006888458958,2.6718361971244,2.70257810674034,TRUE,0.0740729154738915
"CAN","cpi",0.3,2000,3,2000,NA,0.5,2.49515287514575,2.85086879492836,2.6718361971244,1.95948305880876,TRUE,0.355715919782607
"CAN","cpi",0.3,2000,3,1999,NA,1,2.35549417543183,3.26385016670982,2.6718361971244,2.16154661985999,TRUE,0.90835599127799
