isdrw/probabilistic-benchmark-forecasts/results/linear_quantile_regression/ldr_prediction_rw_2026-01-30_11-50-01.csv
"country","target","tau","target_year","target_quarter","forecast_year","forecast_quarter","horizon","lower_bound","upper_bound","truth_value","prediction","covered","IS"
"CAN","cpi",0.1,1950,3,1950,NA,0,-1.30639874197945,-1.30639874197945,2.59031220731124,1.68831415137957,FALSE,8.65935766509041
"CAN","cpi",0.1,1950,3,1950,NA,0.5,323.15016213087,323.150162130871,2.59031220731124,1.999247189508,FALSE,712.355222052353
"CAN","cpi",0.1,1951,3,1951,NA,0,8.75919968341155,8.75919968341155,9.87945438999359,8.63763655575849,FALSE,2.48945490351564
"CAN","cpi",0.1,1951,3,1951,NA,0.5,3.69813186723793,4.58803961662065,9.87945438999359,4.395311027755,FALSE,12.648607245767
"CAN","cpi",0.1,1951,3,1950,NA,1,1.74703476678576,2.63694251616848,9.87945438999359,1.68831415137957,FALSE,16.9843785801052
"CAN","cpi",0.1,1951,3,1950,NA,1.5,29.1329938409012,30.0229015902839,9.87945438999359,1.999247189508,FALSE,43.6755509736218
"CAN","cpi",0.1,1952,3,1952,NA,0,5.82825479192311,5.82825479192311,2.55562336095485,5.33589356249898,FALSE,7.27251429104059
"CAN","cpi",0.1,1952,3,1952,NA,0.5,11.971406662106,11.971406662106,2.55562336095485,9.78336808811006,FALSE,20.923962891447
"CAN","cpi",0.1,1952,3,1951,NA,1,6.10407721642434,6.10407721642434,2.55562336095485,8.63763655575849,FALSE,7.88545301215443
"CAN","cpi",0.1,1952,3,1951,NA,1.5,7.94815798154693,8.11221322925616,2.55562336095485,4.395311027755,FALSE,12.1474655156916
"CAN","cpi",0.1,1953,3,1953,NA,0,-3.79409842955807,-1.34570739983044,-1.01492775838436,-1.36658675161344,FALSE,3.18345689960781
"CAN","cpi",0.1,1953,3,1953,NA,0.5,1.19430077201277,3.6426918017404,-1.01492775838436,0.110034650547486,FALSE,7.35778776394348
"CAN","cpi",0.1,1953,3,1952,NA,1,3.89901411139525,6.56488741064734,-1.01492775838436,5.33589356249898,FALSE,13.5857441209846
"CAN","cpi",0.1,1953,3,1952,NA,1.5,2.27229228175728,4.93816558100938,-1.01492775838436,9.78336808811006,FALSE,9.97080672178908
"CAN","cpi",0.1,1954,3,1954,NA,0,0.888989019532292,0.888989019532292,0.644425455961438,0.642985131580263,FALSE,0.543474585713009
"CAN","cpi",0.1,1954,3,1954,NA,0.5,2.37517222586802,2.37517222586802,0.644425455961438,-0.366337731528715,FALSE,3.84610393312574
"CAN","cpi",0.1,1954,3,1953,NA,1,1.87868380391111,1.87868380391111,0.644425455961438,-1.36658675161344,FALSE,2.74279632877705
"CAN","cpi",0.1,1954,3,1953,NA,1.5,2.5332604140114,11.4022140648595,0.644425455961438,0.110034650547486,FALSE,13.0663646687369
"CAN","cpi",0.1,1955,3,1955,NA,0,0.196745734946938,0.437189301459405,0.173649026558865,0.17297271419658,FALSE,0.291769585152629
"CAN","cpi",0.1,1955,3,1955,NA,0.5,1.03144684805366,1.27189041456613,0.173649026558865,0.586026480650511,FALSE,2.14666094761201
"CAN","cpi",0.1,1955,3,1954,NA,1,0.974132462943724,1.21457602945619,0.173649026558865,0.642985131580263,FALSE,2.01929564736771
"CAN","cpi",0.1,1955,3,1954,NA,1.5,2.41055265567026,2.65099622218273,0.173649026558865,-0.366337731528715,FALSE,5.21134052009334
"CAN","cpi",0.1,1956,3,1956,NA,0,0.751672494162782,0.751672494162782,1.32752769429961,0.753971131965347,FALSE,1.27967822252628
"CAN","cpi",0.1,1956,3,1956,NA,0.5,0.281276811950503,0.540479738171852,1.32752769429961,0.174369006303267,FALSE,2.00819838428303
"CAN","cpi",0.1,1956,3,1955,NA,1,0.804346986545015,1.06354991276636,1.32752769429961,0.17297271419658,FALSE,0.845820218517447
"CAN","cpi",0.1,1956,3,1955,NA,1.5,0.619009201238744,0.878212127460093,1.32752769429961,0.586026480650511,FALSE,1.25768196364249
"CAN","cpi",0.1,1957,3,1957,NA,0,3.16841007029196,3.26650453020353,3.24684755852518,3.20420645854679,TRUE,0.098094459911569
"CAN","cpi",0.1,1957,3,1957,NA,0.5,1.18794877202847,1.28604323194004,3.24684755852518,2.07576432581215,FALSE,4.45543740787854
"CAN","cpi",0.1,1957,3,1956,NA,1,1.03688212917574,1.1915699080841,3.24684755852518,0.753971131965347,FALSE,4.72197144655519
"CAN","cpi",0.1,1957,3,1956,NA,1.5,0.655876403209905,1.24321283417881,3.24684755852518,0.174369006303267,FALSE,5.0398580406275
"CAN","cpi",0.1,1958,3,1958,NA,0,2.53414519878384,2.60779048030711,2.33186388641149,2.45716899110006,FALSE,0.523159309017382
"CAN","cpi",0.1,1958,3,1958,NA,0.5,2.13401318743693,2.92006265492353,2.33186388641149,3.16832340224646,TRUE,0.786049467486603
"CAN","cpi",0.1,1958,3,1957,NA,1,1.31402281872897,2.10007228621557,2.33186388641149,3.20420645854679,FALSE,1.30114191236641
"CAN","cpi",0.1,1958,3,1957,NA,1.5,1.17702000757462,1.96306947506122,2.33186388641149,2.07576432581215,FALSE,1.60559260382053
"CAN","cpi",0.1,1959,3,1959,NA,0,1.40249712645481,1.53905838221015,1.19382698397654,1.42085685959275,FALSE,0.600272683484827
"CAN","cpi",0.1,1959,3,1959,NA,0.5,1.73723770300503,1.87379895876038,1.19382698397654,1.98727093968503,FALSE,1.34414063137421
"CAN","cpi",0.1,1959,3,1958,NA,1,1.61420915600859,1.75077041176394,1.19382698397654,2.45716899110006,FALSE,1.07074386027102
"CAN","cpi",0.1,1959,3,1958,NA,1.5,1.63938013210484,2.43725967113346,1.19382698397654,3.16832340224646,FALSE,1.7879976459804
"CAN","cpi",0.1,1960,3,1960,NA,0,1.32347340012059,1.4737676733294,1.34209404870695,1.34570677924433,TRUE,0.15029427320881
"CAN","cpi",0.1,1960,3,1960,NA,0.5,1.0425982110905,1.32582559294422,1.34209404870695,1.13297483079829,FALSE,0.319379505770905
"CAN","cpi",0.1,1960,3,1959,NA,1,1.27258835928318,1.5558157411369,1.34209404870695,1.42085685959275,TRUE,0.28322738185372
"CAN","cpi",0.1,1960,3,1959,NA,1.5,1.49674971398932,2.32931324768768,1.34209404870695,1.98727093968503,FALSE,1.1762427898814
"CAN","cpi",0.1,1961,3,1961,NA,0,1.30595592137922,1.32460413516804,1.00921348094007,1.32757858722203,FALSE,0.678075859209142
"CAN","cpi",0.1,1961,3,1961,NA,0.5,1.39614839292123,1.48369003046968,1.00921348094007,1.39166174207428,FALSE,0.947396997506578
"CAN","cpi",0.1,1961,3,1960,NA,1,1.33211206832688,1.50696580653103,1.00921348094007,1.34570677924433,FALSE,0.892406154619276
"CAN","cpi",0.1,1961,3,1960,NA,1.5,1.22153018812676,1.39638392633092,1.00921348094007,1.13297483079829,FALSE,0.646668643063467
"CAN","cpi",0.1,1962,3,1962,NA,0,0.581607772827245,0.601395808371482,1.04957947883042,0.577977430468435,FALSE,1.0157517476752
"CAN","cpi",0.1,1962,3,1962,NA,0.5,0.937903207680478,1.07336892129503,1.04957947883042,0.636962012224359,TRUE,0.135465713614551
"CAN","cpi",0.1,1962,3,1961,NA,1,1.24078771008229,1.37625342369684,1.04957947883042,1.32757858722203,FALSE,0.560372894174268
"CAN","cpi",0.1,1962,3,1961,NA,1.5,1.25999251856251,1.42482065784525,1.04957947883042,1.39166174207428,FALSE,0.632412672020734
"CAN","cpi",0.1,1963,3,1963,NA,0,1.63470959152483,1.65284048420756,1.60677118395228,1.66779362321099,FALSE,0.0802162428439416
"CAN","cpi",0.1,1963,3,1963,NA,0.5,1.18008135783347,1.46786883482358,1.60677118395228,1.52118152719239,FALSE,0.596459363942788
"CAN","cpi",0.1,1963,3,1962,NA,1,0.957606638312481,1.24539411530258,1.60677118395228,0.577977430468435,FALSE,1.09084762954499
"CAN","cpi",0.1,1963,3,1962,NA,1.5,0.899123435065767,1.18691091205587,1.60677118395228,0.636962012224359,FALSE,1.22081030342658
"CAN","cpi",0.1,1964,3,1964,NA,0,1.83761403353986,1.86987366474255,1.88764670034376,1.89274723222648,FALSE,0.0717552658720486
"CAN","cpi",0.1,1964,3,1964,NA,0.5,1.31549004292552,1.53375477457886,1.88764670034376,1.59688015421336,FALSE,1.00469123335312
"CAN","cpi",0.1,1964,3,1963,NA,1,1.18592374555628,1.40418847720963,1.88764670034376,1.66779362321099,FALSE,1.29261633861808
"CAN","cpi",0.1,1964,3,1963,NA,1.5,1.25002178816173,1.46828651981508,1.88764670034376,1.52118152719239,FALSE,1.15017624393931
"CAN","cpi",0.1,1965,3,1965,NA,0,1.96309929893672,1.98071344323884,2.29538304394236,2.00763200760394,FALSE,0.716879923643265
"CAN","cpi",0.1,1965,3,1965,NA,0.5,1.39916272073821,1.65003334261602,2.29538304394236,1.88069823981647,FALSE,1.68498106926966
"CAN","cpi",0.1,1965,3,1964,NA,1,1.36625629783424,1.61712691971205,2.29538304394236,1.89274723222648,FALSE,1.75810645350072
"CAN","cpi",0.1,1965,3,1964,NA,1.5,1.24350705984337,1.49437768172118,2.29538304394236,1.59688015421336,FALSE,2.03088253792487
"CAN","cpi",0.1,1966,3,1966,NA,0,3.41340933358401,3.44405963938481,3.72486065470629,3.50850431851723,FALSE,0.654652562070749
"CAN","cpi",0.1,1966,3,1966,NA,0.5,1.78789165755232,2.10678323733082,3.72486065470629,2.72414080931513,FALSE,3.91461917394621
"CAN","cpi",0.1,1966,3,1965,NA,1,1.36783299098709,1.68672457076558,3.72486065470629,2.00763200760394,FALSE,4.84808287742452
"CAN","cpi",0.1,1966,3,1965,NA,1.5,1.44465891004926,1.76355048982775,3.72486065470629,1.88069823981647,FALSE,4.67735861284191
"CAN","cpi",0.1,1967,3,1967,NA,0,3.35873050510839,3.37415909287078,3.49360316391996,3.43593854851327,FALSE,0.280859856760559
"CAN","cpi",0.1,1967,3,1967,NA,0.5,2.00943080582167,2.51567752054996,3.49360316391996,3.60120034208141,FALSE,2.67941481110606
"CAN","cpi",0.1,1967,3,1966,NA,1,1.60224653105221,2.10849324578051,3.49360316391996,3.50850431851723,FALSE,3.58426875503819
"CAN","cpi",0.1,1967,3,1966,NA,1.5,1.52918431533844,2.03543103006673,3.49360316391996,2.72414080931513,FALSE,3.74662923440213
"CAN","cpi",0.1,1968,3,1968,NA,0,3.76536236491409,3.87002882347783,3.95128347779386,3.85741006811451,FALSE,0.285232357043803
"CAN","cpi",0.1,1968,3,1968,NA,0.5,2.87271065191414,3.45171604323163,3.95128347779386,3.82980583992124,FALSE,1.68915524590021
"CAN","cpi",0.1,1968,3,1967,NA,1,1.62948812997789,2.20849352129539,3.95128347779386,3.43593854851327,FALSE,4.45187196131409
"CAN","cpi",0.1,1968,3,1967,NA,1.5,1.67170162748908,2.25070701880657,3.95128347779386,3.60120034208141,FALSE,4.35806418906701
"CAN","cpi",0.1,1969,3,1969,NA,0,4.31753141692426,4.41604398770744,4.42679496126681,4.42973002734916,FALSE,0.122403623137337
"CAN","cpi",0.1,1969,3,1969,NA,0.5,2.85492622251717,3.40139063165551,4.42679496126681,3.77653863724463,FALSE,2.82514069716347
"CAN","cpi",0.1,1969,3,1968,NA,1,1.76066629359164,2.30713070272997,4.42679496126681,3.85741006811451,FALSE,5.2568294281091
"CAN","cpi",0.1,1969,3,1968,NA,1.5,1.81527881831098,2.36174322744932,4.42679496126681,3.82980583992124,FALSE,5.13546826206611
"CAN","cpi",0.1,1970,3,1970,NA,0,3.76983209525754,3.87124431718865,3.28128405769805,3.84669808502433,FALSE,1.18707452761887
"CAN","cpi",0.1,1970,3,1970,NA,0.5,3.61002020691135,4.39147386149485,3.28128405769805,4.72247431437482,FALSE,1.51197843061306
"CAN","cpi",0.1,1970,3,1969,NA,1,1.72424215359436,2.50569580817786,3.28128405769805,4.42973002734916,FALSE,2.5049830979617
"CAN","cpi",0.1,1970,3,1969,NA,1.5,1.79722800519913,2.57868165978263,3.28128405769805,3.77653863724463,FALSE,2.34279231661777
"CAN","cpi",0.1,1971,3,1971,NA,0,2.06872980847764,2.19230512533241,2.64123406634756,2.09886045002039,FALSE,1.12119518577732
"CAN","cpi",0.1,1971,3,1971,NA,0.5,2.17598592239034,2.52101929191581,2.64123406634756,2.39042152113403,FALSE,0.612177312707133
"CAN","cpi",0.1,1971,3,1970,NA,1,1.99757070914895,2.34260407867442,2.64123406634756,3.84669808502433,FALSE,1.00865556435468
"CAN","cpi",0.1,1971,3,1970,NA,1.5,2.29487249471952,2.639905864245,2.64123406634756,4.72247431437482,FALSE,0.347984929753396
"CAN","cpi",0.1,1972,3,1972,NA,0,4.50897480162068,4.60240164844282,4.83230569625923,4.61402341086119,FALSE,0.604324730858611
"CAN","cpi",0.1,1972,3,1972,NA,0.5,2.81829023173185,3.32192195822063,4.83230569625923,3.53817935863684,FALSE,3.86004003324122
"CAN","cpi",0.1,1972,3,1971,NA,1,1.76271374420012,2.2663454706889,4.83230569625923,2.09886045002039,FALSE,6.2057655610895
"CAN","cpi",0.1,1972,3,1971,NA,1.5,1.93548250054108,2.43911422702986,4.83230569625923,2.39042152113403,FALSE,5.82183499144294
"CAN","cpi",0.1,1973,3,1973,NA,0,6.05926964131361,6.14592890522889,7.12388603531779,6.22342912205835,FALSE,2.2598973307795
"CAN","cpi",0.1,1973,3,1973,NA,0.5,3.84543262286545,4.57894386738372,7.12388603531779,4.99248222648134,FALSE,6.38893828437176
"CAN","cpi",0.1,1973,3,1972,NA,1,1.96270811030602,2.69621935482429,7.12388603531779,4.61402341086119,FALSE,10.5727705345038
"CAN","cpi",0.1,1973,3,1972,NA,1.5,2.00029277746215,2.73380402198042,7.12388603531779,3.53817935863684,FALSE,10.4892490519347
"CAN","cpi",0.1,1974,3,1974,NA,0,9.30658002707252,9.35359010605473,10.2717243737774,9.59455553431256,FALSE,2.0873084516993
"CAN","cpi",0.1,1974,3,1974,NA,0.5,7.20809134212228,7.59031398372988,10.2717243737774,8.02283957227414,FALSE,6.34091239726879
"CAN","cpi",0.1,1974,3,1973,NA,1,2.37260846723374,2.75483110884134,10.2717243737774,6.22342912205835,FALSE,17.0864298970211
"CAN","cpi",0.1,1974,3,1973,NA,1.5,2.38631664925049,2.76853929085809,10.2717243737774,4.99248222648134,FALSE,17.0559672703172
"CAN","cpi",0.1,1975,3,1975,NA,0,10.518037941578,10.7906243892686,10.0232981493341,10.5280192696423,FALSE,1.37200820823245
"CAN","cpi",0.1,1975,3,1975,NA,0.5,10.9062260692532,11.7931009934199,10.0232981493341,10.7014589339012,FALSE,2.84893696843127
"CAN","cpi",0.1,1975,3,1974,NA,1,3.04297054270685,3.92984546687352,10.0232981493341,9.59455553431256,FALSE,14.4278808851902
"CAN","cpi",0.1,1975,3,1974,NA,1.5,2.61411191393721,3.50098683810388,10.0232981493341,8.02283957227414,FALSE,15.3809000602339
"CAN","cpi",0.1,1976,3,1976,NA,0,7.90096025250629,7.96513274338229,7.22784311401172,8.13534117389669,FALSE,1.55998835419728
"CAN","cpi",0.1,1976,3,1976,NA,0.5,8.99143452520899,9.14458239062773,7.22784311401172,9.54416967067372,FALSE,4.07223989030157
"CAN","cpi",0.1,1976,3,1975,NA,1,4.81993438635618,5.56189298864462,7.22784311401172,10.5280192696423,FALSE,4.44406999199309
"CAN","cpi",0.1,1976,3,1975,NA,1.5,3.03338820190524,3.77534680419369,7.22784311401172,10.7014589339012,FALSE,8.41417262410628
"CAN","cpi",0.1,1977,3,1977,NA,0,6.66641213070013,6.72260228256463,7.58101410153764,6.84168016809657,FALSE,1.96377197180453
"CAN","cpi",0.1,1977,3,1977,NA,0.5,6.32947432163496,6.38566447349946,7.58101410153764,6.57165012633641,FALSE,2.71252265861602
"CAN","cpi",0.1,1977,3,1976,NA,1,4.3110783527829,5.87614872929943,7.58101410153764,8.13534117389669,FALSE,5.35366009260145
"CAN","cpi",0.1,1977,3,1976,NA,1.5,3.77626573785678,6.35748622442499,7.58101410153764,9.54416967067372,FALSE,5.30017132459634
"CAN","cpi",0.1,1978,3,1978,NA,0,8.32508725032013,8.36486061274405,8.50208927062595,8.56560161197079,FALSE,0.344725935494804
"CAN","cpi",0.1,1978,3,1978,NA,0.5,7.73295668518655,7.77273004761047,8.50208927062595,8.14356532128036,FALSE,1.66057163579165
"CAN","cpi",0.1,1978,3,1977,NA,1,4.49663357370672,5.03700312629316,8.50208927062595,6.84168016809657,FALSE,8.24056098443708
"CAN","cpi",0.1,1978,3,1977,NA,1.5,4.48927302971498,5.02964258230142,8.50208927062595,6.57165012633641,FALSE,8.25691774886316
"CAN","cpi",0.1,1979,3,1979,NA,0,8.31410893089607,8.45325704360731,8.65147652410481,8.51558792202395,FALSE,0.579635847150127
"CAN","cpi",0.1,1979,3,1979,NA,0.5,8.14729710363806,8.73479951064876,8.65147652410481,8.48180361143764,TRUE,0.587502407010696
"CAN","cpi",0.1,1979,3,1978,NA,1,5.35563485145939,5.94313725847008,8.65147652410481,8.56560161197079,FALSE,6.60603410842121
"CAN","cpi",0.1,1979,3,1978,NA,1.5,5.49091325328592,6.07841566029661,8.65147652410481,8.14356532128036,FALSE,6.30541543769558
"CAN","cpi",0.1,1980,3,1980,NA,0,9.10708842567081,9.10157723635691,9.5171912664748,9.17959378630866,FALSE,0.918075544281404
"CAN","cpi",0.1,1980,3,1980,NA,0.5,8.3076944009377,8.93784037986482,9.5171912664748,8.77731920113821,FALSE,1.91759239361596
"CAN","cpi",0.1,1980,3,1979,NA,1,6.10225650206731,7.0556988186325,9.5171912664748,8.51558792202395,FALSE,6.42342553399252
"CAN","cpi",0.1,1980,3,1979,NA,1.5,5.93893401896845,6.89237633553365,9.5171912664748,8.48180361143764,FALSE,6.7863643853233
"CAN","cpi",0.1,1981,3,1981,NA,0,11.1760998160456,11.4578092989327,11.5813425032741,11.279360028481,FALSE,0.556227714757026
"CAN","cpi",0.1,1981,3,1981,NA,0.5,9.99462806564728,10.4778636788709,11.5813425032741,10.1336807488653,FALSE,2.93541077856413
"CAN","cpi",0.1,1981,3,1980,NA,1,6.70965274899723,8.1491202822016,11.5813425032741,9.17959378630866,FALSE,9.06662802447669
"CAN","cpi",0.1,1981,3,1980,NA,1.5,5.87923369839937,7.31870123160374,11.5813425032741,8.77731920113821,FALSE,10.9120036924719
"CAN","cpi",0.1,1982,3,1982,NA,0,10.6995394084238,10.8944334381092,10.1124203763629,10.7097306947659,FALSE,1.49960298982066
"CAN","cpi",0.1,1982,3,1982,NA,0.5,11.5106573435562,11.8100578642967,10.1124203763629,11.3795840186269,FALSE,3.40659378117005
"CAN","cpi",0.1,1982,3,1981,NA,1,7.94317205395221,10.0994263430159,10.1124203763629,11.279360028481,FALSE,2.1851299187238
"CAN","cpi",0.1,1982,3,1981,NA,1.5,7.47810365964039,9.63435794870408,10.1124203763629,10.1336807488653,FALSE,3.21861523941673
"CAN","cpi",0.1,1983,3,1983,NA,0,6.77410200510849,6.92158177896922,5.67091787896303,6.81192865303165,FALSE,2.59900005418397
"CAN","cpi",0.1,1983,3,1983,NA,0.5,9.09132121009663,9.46278019947466,5.67091787896303,9.28631267190301,FALSE,7.97235528078603
"CAN","cpi",0.1,1983,3,1982,NA,1,9.46421954498946,9.83567853436749,5.67091787896303,10.7097306947659,FALSE,8.80101824721453
"CAN","cpi",0.1,1983,3,1982,NA,1.5,8.87103053403254,11.2532778046614,5.67091787896303,11.3795840186269,FALSE,9.49360872633892
"CAN","cpi",0.1,1984,3,1984,NA,0,4.40698313954962,4.50737116258003,4.19799576814029,4.43433180473976,FALSE,0.564804403940041
"CAN","cpi",0.1,1984,3,1984,NA,0.5,5.01653249730338,5.36094141339392,4.19799576814029,5.08610822560979,FALSE,2.16337942534185
"CAN","cpi",0.1,1984,3,1983,NA,1,5.10521530289337,6.57878661344443,4.19799576814029,6.81192865303165,FALSE,3.48961472111346
"CAN","cpi",0.1,1984,3,1983,NA,1.5,6.42134165882619,8.64812783950212,4.19799576814029,9.28631267190301,FALSE,7.1675548266446
"CAN","cpi",0.1,1985,3,1985,NA,0,3.73134331712369,3.81526841159643,3.86444262005169,3.75272544104399,FALSE,0.193201113262209
"CAN","cpi",0.1,1985,3,1985,NA,0.5,3.9007550216456,4.14829268435854,3.86444262005169,3.83470516948927,FALSE,0.328231888477168
"CAN","cpi",0.1,1985,3,1984,NA,1,3.83335251987435,4.56907574369011,3.86444262005169,4.43433180473976,TRUE,0.73572322381576
"CAN","cpi",0.1,1985,3,1984,NA,1.5,3.94139812843688,4.67712135225264,3.86444262005169,5.08610822560979,FALSE,0.906735464671721
"CAN","cpi",0.1,1986,3,1986,NA,0,4.00290150265219,4.09344349988763,4.08685396749431,4.02668174324255,TRUE,0.0905419972354444
"CAN","cpi",0.1,1986,3,1986,NA,0.5,4.05850762491978,4.33393754174468,4.08685396749431,4.02628294162027,TRUE,0.275429916824908
"CAN","cpi",0.1,1986,3,1985,NA,1,3.43818653005724,4.03608567855602,4.08685396749431,3.75272544104399,FALSE,0.71071756836165
"CAN","cpi",0.1,1986,3,1985,NA,1.5,3.23404804960985,3.83194719810862,4.08685396749431,3.83470516948927,FALSE,1.16435863602252
"CAN","cpi",0.1,1987,3,1987,NA,0,4.28293638646287,4.35445327926617,4.23980729277887,4.2837330645361,FALSE,0.167359323212181
"CAN","cpi",0.1,1987,3,1987,NA,0.5,4.06626254453188,4.32816948923447,4.23980729277887,4.02033055131438,TRUE,0.261906944702581
"CAN","cpi",0.1,1987,3,1986,NA,1,3.60390837420527,4.25250537562704,4.23980729277887,4.02668174324255,TRUE,0.648597001421772
"CAN","cpi",0.1,1987,3,1986,NA,1.5,3.34308143743182,3.9916784388536,4.23980729277887,4.02628294162027,FALSE,1.19999445458905
"CAN","cpi",0.1,1988,3,1988,NA,0,3.93450145635451,4.01755697271049,3.92899537638065,3.95767765957829,FALSE,0.0952912496312186
"CAN","cpi",0.1,1988,3,1988,NA,0.5,4.28127190801912,4.50537588348787,3.92899537638065,4.26147484794381,FALSE,1.00694071244311
"CAN","cpi",0.1,1988,3,1987,NA,1,3.76854830176772,4.43753760181521,3.92899537638065,4.2837330645361,TRUE,0.66898930004749
"CAN","cpi",0.1,1988,3,1987,NA,1.5,3.33690212642272,4.00589142647021,3.92899537638065,4.02033055131438,TRUE,0.66898930004749
"CAN","cpi",0.1,1989,3,1989,NA,0,4.53295142933732,4.62385458361686,4.82821664544208,4.56141251415513,FALSE,0.545041069446697
"CAN","cpi",0.1,1989,3,1989,NA,0.5,4.06137378618178,4.2344855849595,4.82821664544208,4.0148475519947,FALSE,1.49251415540567
"CAN","cpi",0.1,1989,3,1988,NA,1,3.61830521845721,4.21262861068759,4.82821664544208,3.95767765957829,FALSE,1.96229680279591
"CAN","cpi",0.1,1989,3,1988,NA,1.5,3.53485292681258,4.12917631904296,4.82821664544208,4.26147484794381,FALSE,2.14774633978397
"CAN","cpi",0.1,1990,3,1990,NA,0,4.67407433610853,4.78097041734004,4.64347549432717,4.70378167021394,FALSE,0.174893507412306
"CAN","cpi",0.1,1990,3,1990,NA,0.5,4.98495723251353,5.28071495711272,4.64347549432717,5.05069490734707,FALSE,1.05460603167999
"CAN","cpi",0.1,1990,3,1989,NA,1,3.99464836897261,4.70120324657959,4.64347549432717,4.56141251415513,TRUE,0.706554877606973
"CAN","cpi",0.1,1990,3,1989,NA,1.5,3.3779445968833,4.08449947449027,4.64347549432717,4.0148475519947,FALSE,1.94872381057786
"CAN","cpi",0.1,1991,3,1991,NA,0,5.58727277412705,5.70211129944312,5.4258100696218,5.63511155207928,FALSE,0.473644535327748
"CAN","cpi",0.1,1991,3,1991,NA,0.5,4.8310445121997,5.04858589222805,5.4258100696218,4.87807370573786,FALSE,1.05581732979223
"CAN","cpi",0.1,1991,3,1990,NA,1,4.19482037697546,4.84510953078463,5.4258100696218,4.70378167021394,FALSE,1.94073479566954
"CAN","cpi",0.1,1991,3,1990,NA,1.5,4.07186310823107,5.02994259766571,5.4258100696218,5.05069490734707,FALSE,1.83778498267039
"CAN","cpi",0.1,1992,3,1992,NA,0,2.01333127719898,2.11160745733303,1.47496888572843,2.02050638420239,FALSE,1.2946370500686
"CAN","cpi",0.1,1992,3,1992,NA,0.5,4.29070724495135,4.57210036850045,1.47496888572843,4.27205707399704,FALSE,6.5385894773778
"CAN","cpi",0.1,1992,3,1991,NA,1,4.78420637434428,5.6045339931839,1.47496888572843,5.63511155207928,FALSE,8.17418870465261
"CAN","cpi",0.1,1992,3,1991,NA,1.5,3.97545330270877,4.90153153955486,1.47496888572843,4.87807370573786,FALSE,6.48271027458017
"CAN","cpi",0.1,1993,3,1993,NA,0,1.85588763014296,1.89318980315034,1.84351085411351,1.84186847486189,FALSE,0.0648061197394905
"CAN","cpi",0.1,1993,3,1993,NA,0.5,1.87765192281009,1.91495409581747,1.84351085411351,1.60616723541631,FALSE,0.113171214555329
"CAN","cpi",0.1,1993,3,1992,NA,1,2.4967272399943,2.74711835762789,1.84351085411351,2.02050638420239,FALSE,1.70198308625756
"CAN","cpi",0.1,1993,3,1992,NA,1.5,3.63698997917288,4.42605223182483,1.84351085411351,4.27205707399704,FALSE,4.77457141945054
"CAN","cpi",0.1,1994,3,1994,NA,0,0.636470164648122,0.626723523639424,0.161630694655448,0.62038151471279,FALSE,1.04545218119724
"CAN","cpi",0.1,1994,3,1994,NA,0.5,1.76175673113794,1.75201009012925,0.161630694655448,1.4565883399875,FALSE,3.54608899561907
"CAN","cpi",0.1,1994,3,1993,NA,1,2.32107141469435,2.56337104312064,0.161630694655448,1.84186847486189,FALSE,5.04105678406829
"CAN","cpi",0.1,1994,3,1993,NA,1.5,2.06531867418436,2.35846044401571,0.161630694655448,1.60616723541631,FALSE,4.52355950211782
"CAN","cpi",0.1,1995,3,1995,NA,0,1.63231577405331,1.58697438826281,2.11688403676572,1.60030724029718,FALSE,1.13223561088263
"CAN","cpi",0.1,1995,3,1995,NA,0.5,0.759801149672167,0.71445976388167,2.11688403676572,0.400723248632204,FALSE,3.07115699839627
"CAN","cpi",0.1,1995,3,1994,NA,1,1.58478525225133,1.53944386646083,2.11688403676572,0.62038151471279,FALSE,1.2378589926648
"CAN","cpi",0.1,1995,3,1994,NA,1.5,1.98041708675509,2.19474258002188,2.11688403676572,1.4565883399875,TRUE,0.214325493266797
"CAN","cpi",0.1,1996,3,1996,NA,0,1.5704482609275,1.59192752829461,1.55309584667184,1.57188450223428,FALSE,0.060040187935236
"CAN","cpi",0.1,1996,3,1996,NA,0.5,2.33960949478272,2.3785580170466,1.55309584667184,2.10267011992876,FALSE,1.78675662917693
"CAN","cpi",0.1,1996,3,1995,NA,1,2.21159252564884,2.33644998720226,1.55309584667184,1.60030724029718,FALSE,1.58818341483564
"CAN","cpi",0.1,1996,3,1995,NA,1.5,1.34677401871829,1.4716314802717,1.55309584667184,0.400723248632204,FALSE,0.305889386887064
"CAN","cpi",0.1,1997,3,1997,NA,0,1.82550205715002,1.85746848492784,1.60528783555959,1.83379947449567,FALSE,0.521331364645437
"CAN","cpi",0.1,1997,3,1997,NA,0.5,1.96278847625266,2.00178238611864,1.60528783555959,1.71447508965446,FALSE,0.83343977807279
"CAN","cpi",0.1,1997,3,1996,NA,1,2.16034185510553,2.3481189444905,1.60528783555959,1.57188450223428,FALSE,1.42123046615372
"CAN","cpi",0.1,1997,3,1996,NA,1.5,2.4253765018329,2.63632863400049,1.60528783555959,2.10267011992876,FALSE,2.03337139055272
"CAN","cpi",0.1,1998,3,1998,NA,0,0.980155926098029,0.978118138633218,0.988908029337191,0.973278201206617,FALSE,0.021939747432906
"CAN","cpi",0.1,1998,3,1998,NA,0.5,1.62044359997185,1.61840581250704,0.988908029337191,1.34049194776323,FALSE,1.40137459172333
"CAN","cpi",0.1,1998,3,1997,NA,1,2.25899135949558,2.46419439562153,0.988908029337191,1.83379947449567,FALSE,3.02761043647792
"CAN","cpi",0.1,1998,3,1997,NA,1.5,2.12679465132348,2.37465206343567,0.988908029337191,1.71447508965446,FALSE,2.7764943498595
"CAN","cpi",0.1,1999,3,1999,NA,0,1.41001460388718,1.40751724233014,1.7107350135213,1.40211292309609,FALSE,0.671319907756634
"CAN","cpi",0.1,1999,3,1999,NA,0.5,1.21693799055656,1.21444062899953,1.7107350135213,0.923130320518117,FALSE,1.10037904849134
"CAN","cpi",0.1,1999,3,1998,NA,1,1.72774437330349,1.76741614495719,1.7107350135213,0.973278201206617,FALSE,0.0774703489474628
"CAN","cpi",0.1,1999,3,1998,NA,1.5,1.91452030388078,2.0896491848352,1.7107350135213,1.34049194776323,FALSE,0.627985081753265
"CAN","cpi",0.1,2000,3,2000,NA,0,2.48896604765342,2.53815523637216,2.6718361971244,2.50399207866046,FALSE,0.346257990390393
"CAN","cpi",0.1,2000,3,2000,NA,0.5,2.35203174402327,2.44546330569009,2.6718361971244,2.17160318889212,FALSE,0.596482431520838
"CAN","cpi",0.1,2000,3,1999,NA,1,1.97758572092868,2.0715537440463,2.6718361971244,1.40211292309609,FALSE,1.42792902995784
"CAN","cpi",0.1,2000,3,1999,NA,1.5,1.65510730023056,1.80318696335916,2.6718361971244,0.923130320518117,FALSE,2.07841129371803
"CAN","cpi",0.1,2001,3,2001,NA,0,2.94558009875886,3.007926024121,2.47906219852806,2.96814309391761,FALSE,1.09905237031947
"CAN","cpi",0.1,2001,3,2001,NA,0.5,2.84493900279071,2.95639460665771,2.47906219852806,2.69801990899347,FALSE,0.9245151688951
"CAN","cpi",0.1,2001,3,2000,NA,1,2.6757851112029,2.99432663284011,2.47906219852806,2.50399207866046,FALSE,0.755703549803517
"CAN","cpi",0.1,2001,3,2000,NA,1.5,2.35408670296124,2.67262822459845,2.47906219852806,2.17160318889212,TRUE,0.318541521637213
"CAN","cpi",0.1,2002,3,2002,NA,0,1.54541712356204,1.56741918417033,2.20880570551249,1.54486874462913,FALSE,1.44730544136864
"CAN","cpi",0.1,2002,3,2002,NA,0.5,2.3597717221605,2.45381639625345,2.20880570551249,2.180209446776,FALSE,0.429524711088537
"CAN","cpi",0.1,2002,3,2001,NA,1,2.96657813254355,3.3319273374081,2.20880570551249,2.96814309391761,FALSE,2.04928793160025
"CAN","cpi",0.1,2002,3,2001,NA,1.5,2.67055885660478,3.03590806146932,2.20880570551249,2.69801990899347,FALSE,1.39146731840297
"CAN","cpi",0.1,2003,3,2003,NA,0,3.18296016977636,3.25020606366625,2.71189071546809,3.2075247865732,FALSE,1.11406690346383
"CAN","cpi",0.1,2003,3,2003,NA,0.5,3.02330067641346,3.16990594431439,2.71189071546809,2.91800239560335,FALSE,0.838627403335082
"CAN","cpi",0.1,2003,3,2002,NA,1,2.04078339418311,2.18776836434351,2.71189071546809,1.54486874462913,FALSE,1.31170130599281
"CAN","cpi",0.1,2003,3,2002,NA,1.5,2.37152522241679,2.66600150013378,2.71189071546809,2.180209446776,FALSE,0.396452311793241
"CAN","cpi",0.1,2004,3,2004,NA,0,1.69393786770369,1.72021935929318,1.83151661303942,1.69584100230101,FALSE,0.273608722136695
"CAN","cpi",0.1,2004,3,2004,NA,0.5,1.9915901191625,2.11007840750168,1.83151661303942,1.84885395921698,FALSE,0.474207190834909
"CAN","cpi",0.1,2004,3,2003,NA,1,3.12048569083684,3.52185545463746,1.83151661303942,3.2075247865732,FALSE,3.26574549223932
"CAN","cpi",0.1,2004,3,2003,NA,1.5,2.79047414189655,3.19184390569716,1.83151661303942,2.91800239560335,FALSE,2.53238649459422
"CAN","cpi",0.1,2005,3,2005,NA,0,2.19454791143874,2.23149978240248,2.18071628336509,2.20100508158421,FALSE,0.0676888222385256
"CAN","cpi",0.1,2005,3,2005,NA,0.5,2.2460128612016,2.3851136016842,2.18071628336509,2.12928049157936,FALSE,0.284204246785951
"CAN","cpi",0.1,2005,3,2004,NA,1,2.12795794551684,2.3106718187339,2.18071628336509,1.69584100230101,TRUE,0.182713873217065
"CAN","cpi",0.1,2005,3,2004,NA,1.5,2.18268348211305,2.4385708431973,2.18071628336509,1.84885395921698,FALSE,0.260258913857487
"CAN","cpi",0.1,2006,3,2006,NA,0,2.17452351080837,2.21465244911051,1.97519342012289,2.18435928951757,FALSE,0.483084695380986
"CAN","cpi",0.1,2006,3,2006,NA,0.5,2.28108474928219,2.47010160123075,1.97519342012289,2.23898625105085,FALSE,0.868775361191448
"CAN","cpi",0.1,2006,3,2005,NA,1,2.42050089562297,2.71074731048934,1.97519342012289,2.20100508158421,FALSE,1.27981858264433
"CAN","cpi",0.1,2006,3,2005,NA,1.5,2.34164986084164,2.63189627570801,1.97519342012289,2.12928049157936,FALSE,1.10459406090805
"CAN","cpi",0.1,2007,3,2007,NA,0,1.84048290465847,1.85575372588281,2.10062087284572,1.84480494136243,FALSE,0.559420036697475
"CAN","cpi",0.1,2007,3,2007,NA,0.5,1.91674229289033,2.07578380259042,2.10062087284572,1.84074896087257,FALSE,0.214234999156316
"CAN","cpi",0.1,2007,3,2006,NA,1,2.42144961012691,2.68661704599757,2.10062087284572,2.18435928951757,FALSE,0.978120185384412
"CAN","cpi",0.1,2007,3,2006,NA,1.5,2.3917310683403,2.65689850421096,2.10062087284572,2.23898625105085,FALSE,0.912078981414155
"CAN","cpi",0.1,2008,3,2008,NA,0,2.42939514594055,2.47686787704361,2.31447335265955,2.44343788755996,FALSE,0.302854493949716
"CAN","cpi",0.1,2008,3,2008,NA,0.5,2.14713419455749,2.32513060776277,2.31447335265955,2.09257425597425,TRUE,0.177996413205271
"CAN","cpi",0.1,2008,3,2007,NA,1,2.08894197300698,2.3040048042033,2.31447335265955,1.84480494136243,FALSE,0.238326272210217
"CAN","cpi",0.1,2008,3,2007,NA,1.5,2.07354008761949,2.37643055783934,2.31447335265955,1.84074896087257,TRUE,0.302890470219847
"CAN","cpi",0.1,2009,3,2009,NA,0,0.568590015765715,0.569810920116903,0.284533874408197,0.55191793044214,FALSE,0.632456774034561
"CAN","cpi",0.1,2009,3,2009,NA,0.5,2.28819662887656,2.40751321088123,0.284533874408197,2.17577573644726,FALSE,4.57190048082326
"CAN","cpi",0.1,2009,3,2008,NA,1,2.56531738460998,2.80358040735848,0.284533874408197,2.44343788755996,FALSE,5.30667082319691
"CAN","cpi",0.1,2009,3,2008,NA,1.5,2.31398699138852,2.55225001413702,0.284533874408197,2.09257425597425,FALSE,4.74815883826033
"CAN","cpi",0.1,2010,3,2010,NA,0,1.39477200113648,1.40004786537849,1.75525687020327,1.39285160668897,FALSE,0.794629208297078
"CAN","cpi",0.1,2010,3,2010,NA,0.5,0.618446705311699,0.623722569553706,1.75525687020327,0.382958497759795,FALSE,2.51979653235215
"CAN","cpi",0.1,2010,3,2009,NA,1,1.2821862043376,1.2874620685796,1.75525687020327,0.55191793044214,FALSE,1.04481986785016
"CAN","cpi",0.1,2010,3,2009,NA,1.5,2.26842622298826,2.54351863422965,1.75525687020327,2.17577573644726,FALSE,1.41546875076358
"CAN","cpi",0.1,2011,3,2011,NA,0,2.73513564938818,2.78985008314876,2.85717434028225,2.75343947842877,FALSE,0.204323894057218
"CAN","cpi",0.1,2011,3,2011,NA,0.5,2.15733374281805,2.21204817657863,2.85717434028225,1.99557590637446,FALSE,1.48832813087973
"CAN","cpi",0.1,2011,3,2010,NA,1,1.91960561733869,1.97432005109926,2.85717434028225,1.39285160668897,FALSE,2.01661285416721
"CAN","cpi",0.1,2011,3,2010,NA,1.5,1.22553876281147,1.31783651215296,2.85717434028225,0.382958497759795,FALSE,3.51304847851769
"CAN","cpi",0.1,2012,3,2012,NA,0,1.92423482420363,1.95715202137229,1.50118536134935,1.92993928708068,FALSE,0.973027114622629
"CAN","cpi",0.1,2012,3,2012,NA,0.5,2.84764761559969,2.98606417797859,1.50118536134935,2.7924065414457,FALSE,3.13055490515744
"CAN","cpi",0.1,2012,3,2011,NA,1,2.78028615192085,3.12030277010204,1.50118536134935,2.75343947842877,FALSE,3.1824628194512
"CAN","cpi",0.1,2012,3,2011,NA,1.5,2.12195477031952,2.46197138850072,1.50118536134935,1.99557590637446,FALSE,1.71950419367048
"CAN","cpi",0.1,2013,3,2013,NA,0,0.935334094521194,0.948433613837063,0.931270594714462,0.933287972916032,FALSE,0.0221295188863851
"CAN","cpi",0.1,2013,3,2013,NA,0.5,1.359115791017,1.45954823580901,0.931270594714462,1.15173631466769,FALSE,1.05119954768655
"CAN","cpi",0.1,2013,3,2012,NA,1,2.26313121018389,2.38483948139359,0.931270594714462,1.92993928708068,FALSE,3.08139852780843
"CAN","cpi",0.1,2013,3,2012,NA,1.5,2.62712231326146,2.96508606302215,0.931270594714462,2.7924065414457,FALSE,4.10652312430958
"CAN","cpi",0.1,2014,3,2014,NA,0,1.62623244531505,1.65742527874103,1.87639912240215,1.63379811457679,FALSE,0.517801374895136
"CAN","cpi",0.1,2014,3,2014,NA,0.5,1.22500221648766,1.30022995702832,1.87639912240215,1.04987664511533,FALSE,1.35560366359361
"CAN","cpi",0.1,2014,3,2013,NA,1,1.51766847826994,1.5928962188106,1.87639912240215,0.933287972916032,FALSE,0.705234192966328
"CAN","cpi",0.1,2014,3,2013,NA,1.5,1.65750532720463,1.84342116501083,1.87639912240215,1.15173631466769,FALSE,0.259200187564692
"CAN","cpi",0.1,2015,3,2015,NA,0,1.25349987722154,1.27493155341529,1.11090953952792,1.25588008397684,FALSE,0.338299093290685
"CAN","cpi",0.1,2015,3,2015,NA,0.5,1.94523593589851,2.06062490102522,1.11090953952792,1.79776205300989,FALSE,1.96944762372803
"CAN","cpi",0.1,2015,3,2014,NA,1,2.09213307951687,2.2492015792865,1.11090953952792,1.63379811457679,FALSE,2.33756525530064
"CAN","cpi",0.1,2015,3,2014,NA,1.5,1.61348715924178,1.77378351693557,1.11090953952792,1.04987664511533,FALSE,1.27713551261349
"CAN","cpi",0.1,2016,3,2016,NA,0,1.39214420099242,1.41720670840279,1.41168586698797,1.39645323019091,TRUE,0.0250625074103681
"CAN","cpi",0.1,2016,3,2016,NA,0.5,1.37663294358105,1.50745444656906,1.41168586698797,1.22661053967644,TRUE,0.130821502988008
"CAN","cpi",0.1,2016,3,2015,NA,1,1.71864595232388,1.84946745531188,1.41168586698797,1.25588008397684,FALSE,0.812955025956696
"CAN","cpi",0.1,2016,3,2015,NA,1.5,2.03433109744113,2.2850848108084,1.41168586698797,1.79776205300989,FALSE,1.63440978104096
"CAN","cpi",0.1,2017,3,2017,NA,0,1.47567436113905,1.4999322867021,1.57888581671161,1.4811454634985,FALSE,0.199710214473076
"CAN","cpi",0.1,2017,3,2017,NA,0.5,1.65312866643092,1.75803277017277,1.57888581671161,1.50199497030019,FALSE,0.269888214229207
"CAN","cpi",0.1,2017,3,2016,NA,1,1.74807082697248,1.91993179242623,1.57888581671161,1.39645323019091,FALSE,0.547827654922338
"CAN","cpi",0.1,2017,3,2016,NA,1.5,1.6772141213295,1.84907508678325,1.57888581671161,1.22661053967644,FALSE,0.390368309049051
"CAN","cpi",0.1,2018,3,2018,NA,0,2.15849035719565,2.20362201328082,2.23316270166586,2.17346080855069,FALSE,0.110777630274152
"CAN","cpi",0.1,2018,3,2018,NA,0.5,1.70996004706484,1.85162718863076,2.23316270166586,1.61472973146397,FALSE,0.989523837199469
"CAN","cpi",0.1,2018,3,2017,NA,1,1.77967953987425,1.99849705727992,2.23316270166586,1.4811454634985,FALSE,0.7402967271522
"CAN","cpi",0.1,2018,3,2017,NA,1.5,1.80139205230173,2.0202095697074,2.23316270166586,1.50199497030019,FALSE,0.692046699535576
"CAN","cpi",0.1,2019,3,2019,NA,0,1.89967700511446,1.93188660084705,1.91921619871868,1.90497611164807,TRUE,0.0322095957325867
"CAN","cpi",0.1,2019,3,2019,NA,0.5,2.17623832099632,2.34432758537291,1.91921619871868,2.12426010345757,FALSE,0.739249536104674
"CAN","cpi",0.1,2019,3,2018,NA,1,2.24931280237621,2.52922484336345,1.91921619871868,2.17346080855069,FALSE,1.01346004911509
"CAN","cpi",0.1,2019,3,2018,NA,1.5,1.87067604999471,2.15058809098194,1.91921619871868,1.61472973146397,TRUE,0.279912040987234
"CAN","cpi",0.1,2020,3,2020,NA,0,1.04200492750453,1.04950182413336,0.71139989671781,1.03314712474633,FALSE,0.742174742821541
"CAN","cpi",0.1,2020,3,2020,NA,0.5,2.03596455790759,2.1961529429068,0.71139989671781,1.96699466082655,FALSE,3.1036654098654
"CAN","cpi",0.1,2020,3,2019,NA,1,2.05404965891461,2.33035550666042,0.71139989671781,1.90497611164807,FALSE,3.25997198596092
"CAN","cpi",0.1,2020,3,2019,NA,1.5,2.1934434304605,2.46974927820631,0.71139989671781,2.12426010345757,FALSE,3.56973592272957
"CAN","cpi",0.1,2021,3,2021,NA,0,2.34488072877886,2.3884480397474,3.31148121717802,2.35752845828485,FALSE,2.09475214970326
"CAN","cpi",0.1,2021,3,2021,NA,0.5,0.78364846373923,0.908857698806912,3.31148121717802,0.620135433592656,FALSE,5.46437260922571
"CAN","cpi",0.1,2021,3,2020,NA,1,1.41132330021737,1.61411603363135,3.31148121717802,1.03314712474633,FALSE,3.9747153635177
"CAN","cpi",0.1,2021,3,2020,NA,1.5,2.10688730129931,2.3096800347133,3.31148121717802,1.96699466082655,FALSE,2.4290175833356
"CAN","cpi",0.1,2022,3,2022,NA,0,5.98924095391824,6.14424859032054,6.50977236228281,6.06204323255885,FALSE,0.967282685207347
"CAN","cpi",0.1,2022,3,2022,NA,0.5,4.18477210094305,4.44238160028143,6.50977236228281,4.36321977466389,FALSE,4.85181119267479
"CAN","cpi",0.1,2022,3,2021,NA,1,2.38705323939311,2.64466273873149,6.50977236228281,2.35752845828485,FALSE,8.8467419961191
"CAN","cpi",0.1,2022,3,2021,NA,1.5,1.24298257133358,1.50059207067196,6.50977236228281,0.620135433592656,FALSE,11.3891212584736
"CAN","cpi",0.1,2023,3,2023,NA,0,4.56315720026251,4.66697747362711,3.78831288758619,4.59798511919386,FALSE,1.82569652375642
"CAN","cpi",0.1,2023,3,2023,NA,0.5,6.03792526529714,6.32139305135737,3.78831288758619,6.34532620809577,FALSE,5.28260640319568
"CAN","cpi",0.1,2023,3,2022,NA,1,4.72507601517653,5.61120277099165,3.78831288758619,6.06204323255885,FALSE,2.96782259490476
"CAN","cpi",0.1,2023,3,2022,NA,1.5,3.34181201756795,4.22793877338308,3.78831288758619,4.36321977466389,TRUE,0.886126755815127
"CAN","cpi",0.1,2024,3,2023,NA,1,3.71769493306717,4.52608455094151,NA,4.59798511919386,NA,NA
"CAN","cpi",0.1,2024,3,2023,NA,1.5,4.62294188561115,5.43133150348548,NA,6.34532620809577,NA,NA
"CAN","cpi",0.2,1950,3,1950,NA,0,-1.30639874197945,-1.30639874197945,2.59031220731124,1.68831415137957,FALSE,9.74177737322672
"CAN","cpi",0.2,1950,3,1950,NA,0.5,323.15016213087,323.150162130871,2.59031220731124,1.999247189508,FALSE,801.399624808897
"CAN","cpi",0.2,1951,3,1951,NA,0,7.41189795676185,8.48476329705137,9.87945438999359,8.63763655575849,FALSE,4.55959307264508
"CAN","cpi",0.2,1951,3,1951,NA,0.5,3.60665307178453,4.67951841207405,9.87945438999359,4.395311027755,FALSE,14.0727052850884
"CAN","cpi",0.2,1951,3,1950,NA,1,1.65555597133236,2.72842131162188,9.87945438999359,1.68831415137957,FALSE,18.9504480362188
"CAN","cpi",0.2,1951,3,1950,NA,1.5,29.0415150454478,30.1143803857373,9.87945438999359,1.999247189508,FALSE,48.978016978925
"CAN","cpi",0.2,1952,3,1952,NA,0,5.82825479192311,5.82825479192311,2.55562336095485,5.33589356249898,FALSE,8.18157857742067
"CAN","cpi",0.2,1952,3,1952,NA,0.5,5.85520798165828,10.0938880120898,2.55562336095485,9.78336808811006,FALSE,12.4876415821901
"CAN","cpi",0.2,1952,3,1951,NA,1,2.38504757076566,6.62372760119722,2.55562336095485,8.63763655575849,TRUE,4.23868003043155
"CAN","cpi",0.2,1952,3,1951,NA,1.5,5.91084559018577,10.1495256206173,2.55562336095485,4.395311027755,FALSE,12.6267356035089
"CAN","cpi",0.2,1953,3,1953,NA,0,-5.01829394442189,-0.121511884966628,-1.01492775838436,-1.36658675161344,TRUE,4.89678205945526
"CAN","cpi",0.2,1953,3,1953,NA,0.5,5.15190009627297,11.3149507816968,-1.01492775838436,0.110034650547486,FALSE,21.5801203220672
"CAN","cpi",0.2,1953,3,1952,NA,1,2.16387980360295,8.32693048902682,-1.01492775838436,5.33589356249898,FALSE,14.1100695903921
"CAN","cpi",0.2,1953,3,1952,NA,1.5,0.279443847997127,6.442494533421,-1.01492775838436,9.78336808811006,FALSE,9.3989797013776
"CAN","cpi",0.2,1954,3,1954,NA,0,0.888989019532292,0.888989019532292,0.644425455961438,0.642985131580263,FALSE,0.611408908927135
"CAN","cpi",0.2,1954,3,1954,NA,0.5,-0.773505550896617,-0.694945347363859,0.644425455961438,-0.366337731528715,FALSE,3.426987211846
"CAN","cpi",0.2,1954,3,1953,NA,1,2.23447790288671,2.31303810641947,0.644425455961438,-1.36658675161344,FALSE,4.05369132084594
"CAN","cpi",0.2,1954,3,1953,NA,1.5,2.5332604140114,11.4022140648595,0.644425455961438,0.110034650547486,FALSE,13.591041045973
"CAN","cpi",0.2,1955,3,1955,NA,0,0.190247095561418,0.443687940844925,0.173649026558865,0.17297271419658,FALSE,0.294936017789889
"CAN","cpi",0.2,1955,3,1955,NA,0.5,0.875514480077872,1.42782278254191,0.173649026558865,0.586026480650511,FALSE,2.30697193626156
"CAN","cpi",0.2,1955,3,1954,NA,1,1.0163416870488,2.08478168152945,0.173649026558865,0.642985131580263,FALSE,3.17517164570549
"CAN","cpi",0.2,1955,3,1954,NA,1.5,0.559635378347412,2.53077443892649,0.173649026558865,-0.366337731528715,FALSE,2.93610494005045
"CAN","cpi",0.2,1956,3,1956,NA,0,0.751672494162782,0.994139828027485,1.32752769429961,0.753971131965347,FALSE,1.07593699954501
"CAN","cpi",0.2,1956,3,1956,NA,0.5,0.304601056549521,0.830729666860489,1.32752769429961,0.174369006303267,FALSE,1.76812367890876
"CAN","cpi",0.2,1956,3,1955,NA,1,0.670884144500206,1.19701275481117,1.32752769429961,0.17297271419658,FALSE,0.852415959032055
"CAN","cpi",0.2,1956,3,1955,NA,1.5,0.729147798684535,2.04318254963981,1.32752769429961,0.586026480650511,TRUE,1.31403475095527
"CAN","cpi",0.2,1957,3,1957,NA,0,3.11936284033617,3.31555176015931,3.24684755852518,3.20420645854679,TRUE,0.196188919823138
"CAN","cpi",0.2,1957,3,1957,NA,0.5,1.54770382813055,2.34254597352182,3.24684755852518,2.07576432581215,FALSE,3.05559610789967
"CAN","cpi",0.2,1957,3,1956,NA,1,0.829927160240631,1.6247693056319,3.24684755852518,0.753971131965347,FALSE,4.85003777762446
"CAN","cpi",0.2,1957,3,1956,NA,1.5,0.552123545998724,1.34696569138999,3.24684755852518,0.174369006303267,FALSE,5.54454681322923
"CAN","cpi",0.2,1958,3,1958,NA,0,2.39749201400571,2.60779048030711,2.33186388641149,2.45716899110006,FALSE,0.374368785286955
"CAN","cpi",0.2,1958,3,1958,NA,0.5,2.2977162215798,3.61551814053892,2.33186388641149,3.16832340224646,TRUE,1.31780191895911
"CAN","cpi",0.2,1958,3,1957,NA,1,0.985564908750655,2.30336682770977,2.33186388641149,3.20420645854679,FALSE,1.38904456571342
"CAN","cpi",0.2,1958,3,1957,NA,1.5,1.21661151492594,2.53441343388505,2.33186388641149,2.07576432581215,TRUE,1.31780191895911
"CAN","cpi",0.2,1959,3,1959,NA,0,1.39609178000632,1.62596342010776,1.19382698397654,1.42085685959275,FALSE,0.735533630175888
"CAN","cpi",0.2,1959,3,1959,NA,0.5,1.40954486478297,2.38643918096968,1.19382698397654,1.98727093968503,FALSE,1.51618901820279
"CAN","cpi",0.2,1959,3,1958,NA,1,1.38174768699367,2.35864200318038,1.19382698397654,2.45716899110006,FALSE,1.44669607372954
"CAN","cpi",0.2,1959,3,1958,NA,1.5,1.5498727435258,2.5267670597125,1.19382698397654,3.16832340224646,FALSE,1.86700871505985
"CAN","cpi",0.2,1960,3,1960,NA,0,1.30832594279173,1.4737676733294,1.34209404870695,1.34570677924433,TRUE,0.165441730537674
"CAN","cpi",0.2,1960,3,1960,NA,0.5,1.13531992592665,1.75064279517339,1.34209404870695,1.13297483079829,TRUE,0.615322869246741
"CAN","cpi",0.2,1960,3,1959,NA,1,1.03321458672631,1.64853745597306,1.34209404870695,1.42085685959275,TRUE,0.615322869246741
"CAN","cpi",0.2,1960,3,1959,NA,1.5,0.984367994749422,2.32332720397962,1.34209404870695,1.98727093968503,TRUE,1.3389592092302
"CAN","cpi",0.2,1961,3,1961,NA,0,1.30595592137922,1.45647268372695,1.00921348094007,1.32757858722203,FALSE,0.892372863445597
"CAN","cpi",0.2,1961,3,1961,NA,0.5,1.27192695863371,1.88959666368176,1.00921348094007,1.39166174207428,FALSE,1.27445339928215
"CAN","cpi",0.2,1961,3,1960,NA,1,1.09302673284525,1.7106964378933,1.00921348094007,1.34570677924433,FALSE,0.827202834810999
"CAN","cpi",0.2,1961,3,1960,NA,1.5,1.22433391669858,2.11676031807147,1.00921348094007,1.13297483079829,FALSE,1.43022749076917
"CAN","cpi",0.2,1962,3,1962,NA,0,0.565510673811694,0.601395808371482,1.04957947883042,0.577977430468435,FALSE,1.15634431070712
"CAN","cpi",0.2,1962,3,1962,NA,0.5,0.887873871719981,1.12339825725552,1.04957947883042,0.636962012224359,TRUE,0.235524385535543
"CAN","cpi",0.2,1962,3,1961,NA,1,1.14304102036387,1.50695243002929,1.04957947883042,1.32757858722203,FALSE,0.597565263499063
"CAN","cpi",0.2,1962,3,1961,NA,1.5,1.05048776061105,1.49253629637355,1.04957947883042,1.39166174207428,FALSE,0.444319240214089
"CAN","cpi",0.2,1963,3,1963,NA,0,1.619960539043,1.78105086023736,1.60677118395228,1.66779362321099,FALSE,0.194063708921154
"CAN","cpi",0.2,1963,3,1963,NA,0.5,1.1646065081479,1.48334368450915,1.60677118395228,1.52118152719239,FALSE,0.627305924969086
"CAN","cpi",0.2,1963,3,1962,NA,1,0.942131788626906,1.26086896498816,1.60677118395228,0.577977430468435,FALSE,1.18349272377157
"CAN","cpi",0.2,1963,3,1962,NA,1.5,0.930073134436916,1.33796020794858,1.60677118395228,0.636962012224359,FALSE,1.07991451352093
"CAN","cpi",0.2,1964,3,1964,NA,0,1.83761403353986,1.86987366474255,1.88764670034376,1.89274723222648,FALSE,0.0766922202057191
"CAN","cpi",0.2,1964,3,1964,NA,0.5,1.16348432139673,1.60267740810992,1.88764670034376,1.59688015421336,FALSE,1.15161631729779
"CAN","cpi",0.2,1964,3,1963,NA,1,1.16331694181959,1.60251002853278,1.88764670034376,1.66779362321099,FALSE,1.15203476624064
"CAN","cpi",0.2,1964,3,1963,NA,1.5,1.0711530343488,1.51906427957712,1.88764670034376,1.52118152719239,FALSE,1.36936729714491
"CAN","cpi",0.2,1965,3,1965,NA,0,1.9487706090437,1.99831194353746,2.29538304394236,2.00763200760394,FALSE,0.792219085505996
"CAN","cpi",0.2,1965,3,1965,NA,0.5,1.35976307544415,1.76234779374473,2.29538304394236,1.88069823981647,FALSE,1.73517284379465
"CAN","cpi",0.2,1965,3,1964,NA,1,1.21991627115968,1.62250098946027,2.29538304394236,1.89274723222648,FALSE,2.0847898545058
"CAN","cpi",0.2,1965,3,1964,NA,1.5,1.08323097940973,1.77790710875006,2.29538304394236,1.59688015421336,FALSE,1.98836596732108
"CAN","cpi",0.2,1966,3,1966,NA,0,3.41340933358401,3.53715937328116,3.72486065470629,3.50850431851723,FALSE,0.593003243259974
"CAN","cpi",0.2,1966,3,1966,NA,0.5,1.71351966034466,2.41156591768306,3.72486065470629,2.72414080931513,FALSE,3.98128309989648
"CAN","cpi",0.2,1966,3,1965,NA,1,1.25780530033791,1.95585155767631,3.72486065470629,2.00763200760394,FALSE,5.12056899991336
"CAN","cpi",0.2,1966,3,1965,NA,1.5,1.2881536766824,1.9861999340208,3.72486065470629,1.88069823981647,FALSE,5.04469805905213
"CAN","cpi",0.2,1967,3,1967,NA,0,3.34328820226365,3.46792884901437,3.49360316391996,3.43593854851327,FALSE,0.188826434014693
"CAN","cpi",0.2,1967,3,1967,NA,0.5,2.31006545511371,3.43145955682986,3.49360316391996,3.60120034208141,FALSE,1.2767531194414
"CAN","cpi",0.2,1967,3,1966,NA,1,1.34948360407265,2.47087770578881,3.49360316391996,3.50850431851723,FALSE,3.67820774704404
"CAN","cpi",0.2,1967,3,1966,NA,1.5,1.2041759321943,2.32557003391046,3.49360316391996,2.72414080931513,FALSE,4.04147692673991
"CAN","cpi",0.2,1968,3,1968,NA,0,3.75056093942525,3.89463761809042,3.95128347779386,3.85741006811451,FALSE,0.285691327923751
"CAN","cpi",0.2,1968,3,1968,NA,0.5,2.29199802597212,3.27138660970591,3.95128347779386,3.82980583992124,FALSE,2.67913075395367
"CAN","cpi",0.2,1968,3,1967,NA,1,1.40967256481896,2.38906114855275,3.95128347779386,3.43593854851327,FALSE,4.88494440683655
"CAN","cpi",0.2,1968,3,1967,NA,1.5,1.58053222239874,2.55992080613253,3.95128347779386,3.60120034208141,FALSE,4.45779526288711
"CAN","cpi",0.2,1969,3,1969,NA,0,4.30360024454899,4.43920590275099,4.42679496126681,4.42973002734916,TRUE,0.135605658202
"CAN","cpi",0.2,1969,3,1969,NA,0.5,2.33108561393971,3.46942794876692,4.42679496126681,3.77653863724463,FALSE,3.53175986607695
"CAN","cpi",0.2,1969,3,1968,NA,1,1.50906600475309,2.64740833958031,4.42679496126681,3.85741006811451,FALSE,5.58680888904348
"CAN","cpi",0.2,1969,3,1968,NA,1.5,1.53023565959139,2.66857799441861,4.42679496126681,3.82980583992124,FALSE,5.53388475194773
"CAN","cpi",0.2,1970,3,1970,NA,0,3.75502754179179,3.88444505680961,3.28128405769805,3.84669808502433,FALSE,1.31377622525218
"CAN","cpi",0.2,1970,3,1970,NA,0.5,3.40227666076911,4.38120150501455,3.28128405769805,4.72247431437482,FALSE,1.2814063519231
"CAN","cpi",0.2,1970,3,1969,NA,1,1.73474500217323,2.71366984641868,3.28128405769805,4.42973002734916,FALSE,2.39796037244386
"CAN","cpi",0.2,1970,3,1969,NA,1.5,1.63864559643577,2.61757044068122,3.28128405769805,3.77653863724463,FALSE,2.63820888678752
"CAN","cpi",0.2,1971,3,1971,NA,0,2.05125438349638,2.22135970149172,2.64123406634756,2.09886045002039,FALSE,1.21979123013494
"CAN","cpi",0.2,1971,3,1971,NA,0.5,2.0237468158802,2.66517653908221,2.64123406634756,2.39042152113403,TRUE,0.641429723202008
"CAN","cpi",0.2,1971,3,1970,NA,1,1.83517002926622,2.47659975246823,2.64123406634756,3.84669808502433,FALSE,1.05301550790034
"CAN","cpi",0.2,1971,3,1970,NA,1.5,1.82706797954453,2.66102787286761,2.64123406634756,4.72247431437482,TRUE,0.83395989332308
"CAN","cpi",0.2,1972,3,1972,NA,0,4.49533598449809,4.6145629388181,4.83230569625923,4.61402341086119,FALSE,0.663583847922836
"CAN","cpi",0.2,1972,3,1972,NA,0.5,2.81477963917194,3.5238783172987,4.83230569625923,3.53817935863684,FALSE,3.98016712552808
"CAN","cpi",0.2,1972,3,1971,NA,1,1.57590188229876,2.28500056042552,4.83230569625923,2.09886045002039,FALSE,7.07736151771103
"CAN","cpi",0.2,1972,3,1971,NA,1.5,1.79063966794967,2.49973834607643,4.83230569625923,2.39042152113403,FALSE,6.54051705358376
"CAN","cpi",0.2,1973,3,1973,NA,0,6.04807586629407,6.17603599234827,7.12388603531779,6.22342912205835,FALSE,2.49758523347799
"CAN","cpi",0.2,1973,3,1973,NA,0.5,3.77043743970733,4.59113744366533,7.12388603531779,4.99248222648134,FALSE,7.15257148308916
"CAN","cpi",0.2,1973,3,1972,NA,1,1.8761306302315,2.6968306341895,7.12388603531779,4.61402341086119,FALSE,11.8883385067787
"CAN","cpi",0.2,1973,3,1972,NA,1.5,1.91761856101422,2.73831856497222,7.12388603531779,3.53817935863684,FALSE,11.7846186798219
"CAN","cpi",0.2,1974,3,1974,NA,0,9.30050773630979,9.40532130764565,10.2717243737774,9.59455553431256,FALSE,2.27082123666528
"CAN","cpi",0.2,1974,3,1974,NA,0.5,6.20907551250963,7.79304788131158,10.2717243737774,8.02283957227414,FALSE,7.78066359996654
"CAN","cpi",0.2,1974,3,1973,NA,1,1.8178335894384,3.40180595824035,10.2717243737774,6.22342912205835,FALSE,18.7587684076446
"CAN","cpi",0.2,1974,3,1973,NA,1.5,1.75422415252169,3.33819652132364,10.2717243737774,4.99248222648134,FALSE,18.9177919999364
"CAN","cpi",0.2,1975,3,1975,NA,0,10.2011049940258,11.0360800131755,10.0232981493341,10.5280192696423,FALSE,1.27949213087894
"CAN","cpi",0.2,1975,3,1975,NA,0.5,10.1188757290284,12.3056433508775,10.0232981493341,10.7014589339012,FALSE,2.4257115710848
"CAN","cpi",0.2,1975,3,1974,NA,1,2.97984860789207,5.16661622974124,10.0232981493341,9.59455553431256,FALSE,14.3284724208314
"CAN","cpi",0.2,1975,3,1974,NA,1.5,2.06724782548184,4.254015447331,10.0232981493341,8.02283957227414,FALSE,16.609974376857
"CAN","cpi",0.2,1976,3,1976,NA,0,7.89267109341522,8.01811396377377,7.22784311401172,8.13534117389669,FALSE,1.78751281886732
"CAN","cpi",0.2,1976,3,1976,NA,0.5,9.01765806811269,10.6024977285511,7.22784311401172,9.54416967067372,FALSE,6.05937704569081
"CAN","cpi",0.2,1976,3,1975,NA,1,4.32543920714371,5.91027886758208,7.22784311401172,10.5280192696423,FALSE,4.87875027651246
"CAN","cpi",0.2,1976,3,1975,NA,1.5,2.61432476773984,4.19916442817821,7.22784311401172,10.7014589339012,FALSE,9.15653637502213
"CAN","cpi",0.2,1977,3,1977,NA,0,6.64455880994634,6.76178191632388,7.58101410153764,6.84168016809657,FALSE,2.16530356941195
"CAN","cpi",0.2,1977,3,1977,NA,0.5,5.16602867004017,6.40515080658146,7.58101410153764,6.57165012633641,FALSE,4.17878037393175
"CAN","cpi",0.2,1977,3,1976,NA,1,3.96569271008305,5.90354542837061,7.58101410153764,8.13534117389669,FALSE,6.13152440120514
"CAN","cpi",0.2,1977,3,1976,NA,1.5,3.75226999833919,6.60087472606998,7.58101410153764,9.54416967067372,FALSE,5.29895316639995
"CAN","cpi",0.2,1978,3,1978,NA,0,8.30778242122313,8.42714258606873,8.50208927062595,8.56560161197079,FALSE,0.306726876238639
"CAN","cpi",0.2,1978,3,1978,NA,0.5,7.29687759259227,9.06628744711519,8.50208927062595,8.14356532128036,TRUE,1.76940985452293
"CAN","cpi",0.2,1978,3,1977,NA,1,3.73030100782835,5.49971086235128,8.50208927062595,6.84168016809657,FALSE,9.27535587520959
"CAN","cpi",0.2,1978,3,1977,NA,1.5,3.10945043654195,4.99049446414563,8.50208927062595,6.57165012633641,FALSE,10.6600310438045
"CAN","cpi",0.2,1979,3,1979,NA,0,8.25952967148082,8.45416618243192,8.65147652410481,8.51558792202395,FALSE,0.687912365133335
"CAN","cpi",0.2,1979,3,1979,NA,0.5,8.03986294849348,8.83729448483773,8.65147652410481,8.48180361143764,TRUE,0.797431536344249
"CAN","cpi",0.2,1979,3,1978,NA,1,4.72954568763998,7.90314600683739,8.65147652410481,8.56560161197079,FALSE,5.04442661236597
"CAN","cpi",0.2,1979,3,1978,NA,1.5,3.49167754384088,6.66527786303829,8.65147652410481,8.14356532128036,FALSE,8.1390969718637
"CAN","cpi",0.2,1980,3,1980,NA,0,8.90015644448658,9.09041620976022,9.5171912664748,9.17959378630866,FALSE,1.25719740706008
"CAN","cpi",0.2,1980,3,1980,NA,0.5,8.30392918304684,9.13016010481953,9.5171912664748,8.77731920113821,FALSE,1.79380882591085
"CAN","cpi",0.2,1980,3,1979,NA,1,5.60291747193438,7.4333363024993,9.5171912664748,8.51558792202395,FALSE,7.04005624050366
"CAN","cpi",0.2,1980,3,1979,NA,1.5,5.49034652988736,7.32076536045229,9.5171912664748,8.48180361143764,FALSE,7.32148359562119
"CAN","cpi",0.2,1981,3,1981,NA,0,11.1920924048341,11.3708326597875,11.5813425032741,11.279360028481,FALSE,0.705014863669939
"CAN","cpi",0.2,1981,3,1981,NA,0.5,9.51594404481498,10.9280805878282,11.5813425032741,10.1336807488653,FALSE,3.04529133162801
"CAN","cpi",0.2,1981,3,1980,NA,1,6.46961612170839,8.51527526661832,11.5813425032741,9.17959378630866,FALSE,9.71082723654947
"CAN","cpi",0.2,1981,3,1980,NA,1.5,6.05407483160267,8.0997339765126,11.5813425032741,8.77731920113821,FALSE,10.7496804618138
"CAN","cpi",0.2,1982,3,1982,NA,0,10.6284296597412,11.0045600299875,10.1124203763629,10.7097306947659,FALSE,1.66615357869189
"CAN","cpi",0.2,1982,3,1982,NA,0.5,10.9286764160761,12.2240710423584,10.1124203763629,11.3795840186269,FALSE,3.33603472556523
"CAN","cpi",0.2,1982,3,1981,NA,1,7.68068792698883,11.0448826201184,10.1124203763629,11.279360028481,TRUE,3.3641946931296
"CAN","cpi",0.2,1982,3,1981,NA,1.5,6.89756474733928,10.5800810426392,10.1124203763629,10.1336807488653,TRUE,3.6825162952999
"CAN","cpi",0.2,1983,3,1983,NA,0,6.62615453533512,6.97519638674359,5.67091787896303,6.81192865303165,FALSE,2.73713349233868
"CAN","cpi",0.2,1983,3,1983,NA,0.5,8.75875455917438,10.0466470400804,5.67091787896303,9.28631267190301,FALSE,9.00748418143435
"CAN","cpi",0.2,1983,3,1982,NA,1,7.33736342867306,10.1908156192275,5.67091787896303,10.7097306947659,FALSE,7.01956606482948
"CAN","cpi",0.2,1983,3,1982,NA,1.5,7.93711909796945,11.2361322833454,5.67091787896303,11.3795840186269,FALSE,8.96451623289197
"CAN","cpi",0.2,1984,3,1984,NA,0,4.32197116958067,4.6358093719905,4.19799576814029,4.43433180473976,FALSE,0.623776706010787
"CAN","cpi",0.2,1984,3,1984,NA,0.5,4.93395611685554,5.4720492351793,4.19799576814029,5.08610822560979,FALSE,2.37799399011189
"CAN","cpi",0.2,1984,3,1983,NA,1,4.98809724572424,6.60317936981952,4.19799576814029,6.81192865303165,FALSE,3.59033581805515
"CAN","cpi",0.2,1984,3,1983,NA,1.5,6.40464805591733,9.34815751520081,4.19799576814029,9.28631267190301,FALSE,8.46014017872608
"CAN","cpi",0.2,1985,3,1985,NA,0,3.66436359603161,3.84565463071161,3.86444262005169,3.75272544104399,FALSE,0.228261008030207
"CAN","cpi",0.2,1985,3,1985,NA,0.5,3.7473042473453,4.2318678550727,3.86444262005169,3.83470516948927,TRUE,0.484563607727404
"CAN","cpi",0.2,1985,3,1984,NA,1,3.28360605500115,4.69816309812793,3.86444262005169,4.43433180473976,TRUE,1.41455704312677
"CAN","cpi",0.2,1985,3,1984,NA,1.5,3.25572681715083,5.55988609589296,3.86444262005169,5.08610822560979,TRUE,2.30415927874213
"CAN","cpi",0.2,1986,3,1986,NA,0,3.92867412589585,4.13978924450088,4.08685396749431,4.02668174324255,TRUE,0.211115118605028
"CAN","cpi",0.2,1986,3,1986,NA,0.5,3.90892576463337,4.42172769653395,4.08685396749431,4.02628294162027,TRUE,0.512801931900587
"CAN","cpi",0.2,1986,3,1985,NA,1,3.14426767825514,4.15902840139558,4.08685396749431,3.75272544104399,TRUE,1.01476072314043
"CAN","cpi",0.2,1986,3,1985,NA,1.5,3.17052415705853,4.43112220889318,4.08685396749431,3.83470516948927,TRUE,1.26059805183464
"CAN","cpi",0.2,1987,3,1987,NA,0,4.1766748850978,4.38145176378609,4.23980729277887,4.2837330645361,TRUE,0.204776878688286
"CAN","cpi",0.2,1987,3,1987,NA,0.5,4.00346705203074,4.41582868295206,4.23980729277887,4.02033055131438,TRUE,0.412361630921316
"CAN","cpi",0.2,1987,3,1986,NA,1,3.51428462829587,4.37572143093669,4.23980729277887,4.02668174324255,TRUE,0.861436802640813
"CAN","cpi",0.2,1987,3,1986,NA,1.5,3.27675639976451,4.28749510102223,4.23980729277887,4.02628294162027,TRUE,1.01073870125772
"CAN","cpi",0.2,1988,3,1988,NA,0,3.87673556934446,4.05245544909866,3.92899537638065,3.95767765957829,TRUE,0.175719879754201
"CAN","cpi",0.2,1988,3,1988,NA,0.5,4.24143213141435,4.64797362416919,3.92899537638065,4.26147484794381,FALSE,1.18763338033907
"CAN","cpi",0.2,1988,3,1987,NA,1,3.66111212518831,4.57904301584505,3.92899537638065,4.2837330645361,TRUE,0.917930890656737
"CAN","cpi",0.2,1988,3,1987,NA,1.5,3.27345572576344,4.28278716235572,3.92899537638065,4.02033055131438,TRUE,1.00933143659227
"CAN","cpi",0.2,1989,3,1989,NA,0,4.45829621814881,4.66163578834141,4.82821664544208,4.56141251415513,FALSE,0.619791712944265
"CAN","cpi",0.2,1989,3,1989,NA,0.5,3.89927848143602,4.32285629128134,4.82821664544208,4.0148475519947,FALSE,1.68697869524717
"CAN","cpi",0.2,1989,3,1988,NA,1,3.47486955418229,4.29301702751806,4.82821664544208,3.95767765957829,FALSE,2.15614651814582
"CAN","cpi",0.2,1989,3,1988,NA,1.5,3.48168399524957,4.42251904972188,4.82821664544208,4.26147484794381,FALSE,1.9550790437728
"CAN","cpi",0.2,1990,3,1990,NA,0,4.5954363851271,4.80528906614727,4.64347549432717,4.70378167021394,TRUE,0.209852681020172
"CAN","cpi",0.2,1990,3,1990,NA,0.5,4.93859432351169,5.43150646564605,4.64347549432717,5.05069490734707,FALSE,1.23070921509566
"CAN","cpi",0.2,1990,3,1989,NA,1,3.84912389677764,4.76927946266507,4.64347549432717,4.56141251415513,TRUE,0.920155565887431
"CAN","cpi",0.2,1990,3,1989,NA,1.5,3.38769641964402,4.30785198553145,4.64347549432717,4.0148475519947,FALSE,1.75921433787672
"CAN","cpi",0.2,1991,3,1991,NA,0,5.55651507522224,5.74501922928205,5.4258100696218,5.63511155207928,FALSE,0.515266668060923
"CAN","cpi",0.2,1991,3,1991,NA,0.5,4.6275253922275,5.15934945236719,5.4258100696218,4.87807370573786,FALSE,1.19797560327621
"CAN","cpi",0.2,1991,3,1990,NA,1,3.90918696582649,4.91129164158712,5.4258100696218,4.70378167021394,FALSE,2.28840074584732
"CAN","cpi",0.2,1991,3,1990,NA,1.5,4.00743436001409,5.50512399500717,5.4258100696218,5.05069490734707,TRUE,1.49768963499308
"CAN","cpi",0.2,1992,3,1992,NA,0,2.01071346508419,2.0978115424918,1.47496888572843,2.02050638420239,FALSE,1.42645952579699
"CAN","cpi",0.2,1992,3,1992,NA,0.5,4.11626917270751,4.66529790454548,1.47496888572843,4.27205707399704,FALSE,7.15227944928566
"CAN","cpi",0.2,1992,3,1991,NA,1,4.43985962223467,5.64795180229149,1.47496888572843,5.63511155207928,FALSE,8.62031902132242
"CAN","cpi",0.2,1992,3,1991,NA,1.5,3.90905636614006,5.27644736528482,1.47496888572843,4.87807370573786,FALSE,7.45260970017384
"CAN","cpi",0.2,1993,3,1993,NA,0,1.83863663753391,1.87498523134563,1.84351085411351,1.84186847486189,TRUE,0.0363485938117227
"CAN","cpi",0.2,1993,3,1993,NA,0.5,1.86723393317229,2.01180048861569,1.84351085411351,1.60616723541631,FALSE,0.203874253090354
"CAN","cpi",0.2,1993,3,1992,NA,1,2.38025414446122,2.78888362924211,1.84351085411351,2.02050638420239,FALSE,1.75048771065016
"CAN","cpi",0.2,1993,3,1992,NA,1.5,3.56368337644253,4.75208371733093,1.84351085411351,4.27205707399704,FALSE,5.48883164671094
"CAN","cpi",0.2,1994,3,1994,NA,0,0.662012919911616,0.634688000512959,0.161630694655448,0.62038151471279,FALSE,1.22363064374176
"CAN","cpi",0.2,1994,3,1994,NA,0.5,1.71695794225329,1.86329947731484,0.161630694655448,1.4565883399875,FALSE,4.03465965405615
"CAN","cpi",0.2,1994,3,1993,NA,1,2.26632114085138,2.61133426190791,0.161630694655448,1.84186847486189,FALSE,5.60673923654636
"CAN","cpi",0.2,1994,3,1993,NA,1.5,1.93708315571043,2.30380055676959,0.161630694655448,1.60616723541631,FALSE,4.80534855369661
"CAN","cpi",0.2,1995,3,1995,NA,0,1.59897399427672,1.61287321255379,2.11688403676572,1.60030724029718,FALSE,1.27392627880687
"CAN","cpi",0.2,1995,3,1995,NA,0.5,0.812387616748252,0.826286835025323,2.11688403676572,0.400723248632204,FALSE,3.24039222262805
"CAN","cpi",0.2,1995,3,1994,NA,1,1.27284637082834,1.62398339298592,2.11688403676572,0.62038151471279,FALSE,1.58338863160707
"CAN","cpi",0.2,1995,3,1994,NA,1.5,1.83358132777645,2.18471834993402,2.11688403676572,1.4565883399875,TRUE,0.351137022157572
"CAN","cpi",0.2,1996,3,1996,NA,0,1.57856874001599,1.60084364445685,1.55309584667184,1.57188450223428,FALSE,0.0859571378012303
"CAN","cpi",0.2,1996,3,1996,NA,0.5,2.29337589420916,2.47493233791703,1.55309584667184,2.10267011992876,FALSE,2.03225656255116
"CAN","cpi",0.2,1996,3,1995,NA,1,2.20165052797299,2.38320697168086,1.55309584667184,1.60030724029718,FALSE,1.80294314696073
"CAN","cpi",0.2,1996,3,1995,NA,1.5,1.13277044133931,1.31432688504719,1.55309584667184,0.400723248632204,FALSE,0.778478847769513
"CAN","cpi",0.2,1997,3,1997,NA,0,1.8130014082728,1.86139350791924,1.60528783555959,1.83379947449567,FALSE,0.56767603142946
"CAN","cpi",0.2,1997,3,1997,NA,0.5,1.88814242873283,2.09372337593369,1.60528783555959,1.71447508965446,FALSE,0.912717430133957
"CAN","cpi",0.2,1997,3,1996,NA,1,1.86644574248448,2.36014123164912,1.60528783555959,1.57188450223428,FALSE,1.14659025647686
"CAN","cpi",0.2,1997,3,1996,NA,1.5,2.3089567716286,2.80265226079324,1.60528783555959,2.10267011992876,FALSE,2.25286782933716
"CAN","cpi",0.2,1998,3,1998,NA,0,0.982778369499149,0.986925402753799,0.988908029337191,0.973278201206617,FALSE,0.00910359971312868
"CAN","cpi",0.2,1998,3,1998,NA,0.5,1.56991101207269,1.73132200614561,0.988908029337191,1.34049194776323,FALSE,1.61391845091166
"CAN","cpi",0.2,1998,3,1997,NA,1,2.04257959273375,2.55004230448757,0.988908029337191,1.83379947449567,FALSE,3.14164162024522
"CAN","cpi",0.2,1998,3,1997,NA,1.5,1.93995179755929,2.4474145093131,0.988908029337191,1.71447508965446,FALSE,2.88507213230906
"CAN","cpi",0.2,1999,3,1999,NA,0,1.39651417939718,1.42458033013693,1.7107350135213,1.40211292309609,FALSE,0.74345285920067
"CAN","cpi",0.2,1999,3,1999,NA,0.5,1.16248294034045,1.22574693526792,1.7107350135213,0.923130320518117,FALSE,1.27573419056092
"CAN","cpi",0.2,1999,3,1998,NA,1,1.31352033861676,1.77769305647258,1.7107350135213,0.973278201206617,TRUE,0.464172717855825
"CAN","cpi",0.2,1999,3,1998,NA,1.5,1.70342164960868,2.16759436746451,1.7107350135213,1.34049194776323,TRUE,0.464172717855825
"CAN","cpi",0.2,2000,3,2000,NA,0,2.45959709122046,2.54402845876054,2.6718361971244,2.50399207866046,FALSE,0.40395071344973
"CAN","cpi",0.2,2000,3,2000,NA,0.5,2.23108175836417,2.53669481174383,2.6718361971244,2.17160318889212,FALSE,0.64346651683108
"CAN","cpi",0.2,2000,3,1999,NA,1,1.81114112163113,2.1214095939979,2.6718361971244,1.40211292309609,FALSE,1.68633498018302
"CAN","cpi",0.2,2000,3,1999,NA,1.5,1.43394519295377,1.74421366532054,2.6718361971244,0.923130320518117,FALSE,2.62932480187643
"CAN","cpi",0.2,2001,3,2001,NA,0,2.91256633742356,3.01860390002255,2.47906219852806,2.96814309391761,FALSE,1.18979790983773
"CAN","cpi",0.2,2001,3,2001,NA,0.5,2.72506480877429,3.0468090898349,2.47906219852806,2.69801990899347,FALSE,0.936750806676179
"CAN","cpi",0.2,2001,3,2000,NA,1,2.4409266329332,3.08831181660419,2.47906219852806,2.50399207866046,TRUE,0.647385183670989
"CAN","cpi",0.2,2001,3,2000,NA,1.5,2.1721043336498,2.81948951732079,2.47906219852806,2.17160318889212,TRUE,0.647385183670989
"CAN","cpi",0.2,2002,3,2002,NA,0,1.53424368781804,1.56961232975166,2.20880570551249,1.54486874462913,FALSE,1.63335208133569
"CAN","cpi",0.2,2002,3,2002,NA,0.5,2.23844806742486,2.54503454500051,2.20880570551249,2.180209446776,FALSE,0.380692382356582
"CAN","cpi",0.2,2002,3,2001,NA,1,2.70200458836391,3.42812720782239,2.20880570551249,2.96814309391761,FALSE,1.95911982658703
"CAN","cpi",0.2,2002,3,2001,NA,1.5,2.509601182091,3.23572380154948,2.20880570551249,2.69801990899347,FALSE,1.47811131090477
"CAN","cpi",0.2,2003,3,2003,NA,0,3.14340331468618,3.26167194757381,2.71189071546809,3.2075247865732,FALSE,1.19705013093285
"CAN","cpi",0.2,2003,3,2003,NA,0.5,2.86994330695693,3.25997900459002,2.71189071546809,2.91800239560335,FALSE,0.785167176355203
"CAN","cpi",0.2,2003,3,2002,NA,1,1.81355795566063,2.31931935544891,2.71189071546809,1.54486874462913,FALSE,1.48718979983624
"CAN","cpi",0.2,2003,3,2002,NA,1.5,2.22624615995274,2.77730965151708,2.71189071546809,2.180209446776,TRUE,0.551063491564332
"CAN","cpi",0.2,2004,3,2004,NA,0,1.67990033853139,1.72670901084415,1.83151661303942,1.69584100230101,FALSE,0.308827677800939
"CAN","cpi",0.2,2004,3,2004,NA,0.5,1.92412264664978,2.13518873151939,1.83151661303942,1.84885395921698,FALSE,0.442581168895505
"CAN","cpi",0.2,2004,3,2003,NA,1,2.86042127034027,3.6407249307785,1.83151661303942,3.2075247865732,FALSE,3.35256530369034
"CAN","cpi",0.2,2004,3,2003,NA,1.5,2.61744659394644,3.39775025438467,1.83151661303942,2.91800239560335,FALSE,2.74512861270578
"CAN","cpi",0.2,2005,3,2005,NA,0,2.17281127117016,2.23965235702167,2.18071628336509,2.20100508158421,TRUE,0.0668410858515092
"CAN","cpi",0.2,2005,3,2005,NA,0.5,2.16505024862578,2.41068305687407,2.18071628336509,2.12928049157936,TRUE,0.245632808248283
"CAN","cpi",0.2,2005,3,2004,NA,1,1.9395547123089,2.41194323246084,2.18071628336509,1.69584100230101,TRUE,0.472388520151937
"CAN","cpi",0.2,2005,3,2004,NA,1.5,2.00444153884766,2.4768300589996,2.18071628336509,1.84885395921698,TRUE,0.472388520151937
"CAN","cpi",0.2,2006,3,2006,NA,0,2.15675964966904,2.22275022832212,1.97519342012289,2.18435928951757,FALSE,0.519906152518471
"CAN","cpi",0.2,2006,3,2006,NA,0.5,2.2593036180547,2.51845928595807,1.97519342012289,2.23898625105085,FALSE,0.969431162732899
"CAN","cpi",0.2,2006,3,2005,NA,1,2.25559621005072,2.79802504790258,1.97519342012289,2.20100508158421,FALSE,1.24343581267145
"CAN","cpi",0.2,2006,3,2005,NA,1.5,2.17827045891278,2.72069929676464,1.97519342012289,2.12928049157936,FALSE,1.0501214348266
"CAN","cpi",0.2,2007,3,2007,NA,0,1.82361938185331,1.87433087574104,2.10062087284572,1.84480494136243,FALSE,0.616436486649437
"CAN","cpi",0.2,2007,3,2007,NA,0.5,1.88248811542918,2.09888336324417,2.10062087284572,1.84074896087257,FALSE,0.220739021818873
"CAN","cpi",0.2,2007,3,2006,NA,1,2.22023203457309,2.7683388577425,2.10062087284572,2.18435928951757,FALSE,0.847134727487834
"CAN","cpi",0.2,2007,3,2006,NA,1.5,2.23813836569778,2.78624518886719,2.10062087284572,2.23898625105085,FALSE,0.891900555299562
"CAN","cpi",0.2,2008,3,2008,NA,0,2.40659045244302,2.4858185034683,2.31447335265955,2.44343788755996,FALSE,0.309520800483946
"CAN","cpi",0.2,2008,3,2008,NA,0.5,2.13351419799818,2.34902586939344,2.31447335265955,2.09257425597425,TRUE,0.215511671395269
"CAN","cpi",0.2,2008,3,2007,NA,1,1.9385217985384,2.42654687341187,2.31447335265955,1.84480494136243,TRUE,0.488025074873468
"CAN","cpi",0.2,2008,3,2007,NA,1.5,1.98831694551794,2.47634202039141,2.31447335265955,1.84074896087257,TRUE,0.488025074873468
"CAN","cpi",0.2,2009,3,2009,NA,0,0.576253841551696,0.565170112271727,0.284533874408197,0.55191793044214,FALSE,0.718216188578778
"CAN","cpi",0.2,2009,3,2009,NA,0.5,2.20499649677478,2.4294474488972,0.284533874408197,2.17577573644726,FALSE,5.02560750803887
"CAN","cpi",0.2,2009,3,2008,NA,1,2.31877171551735,2.89888295818713,0.284533874408197,2.44343788755996,FALSE,5.66570584544266
"CAN","cpi",0.2,2009,3,2008,NA,1.5,2.11789623776989,2.69800748043967,0.284533874408197,2.09257425597425,FALSE,5.163517151074
"CAN","cpi",0.2,2010,3,2010,NA,0,1.39552498930726,1.40722530304853,1.75525687020327,1.39285160668897,FALSE,0.881779231628128
"CAN","cpi",0.2,2010,3,2010,NA,0.5,0.656756978366555,0.668457292107819,1.75525687020327,0.382958497759795,FALSE,2.7286992589799
"CAN","cpi",0.2,2010,3,2009,NA,1,1.09747720884352,1.36633867400444,1.75525687020327,0.55191793044214,FALSE,1.241156955658
"CAN","cpi",0.2,2010,3,2009,NA,1.5,2.22374666182206,2.70820609501942,1.75525687020327,2.17577573644726,FALSE,1.65568391224432
"CAN","cpi",0.2,2011,3,2011,NA,0,2.70026165661612,2.80059395932857,2.85717434028225,2.75343947842877,FALSE,0.24178325509663
"CAN","cpi",0.2,2011,3,2011,NA,0.5,2.05017836109345,2.25334495422667,2.85717434028225,1.99557590637446,FALSE,1.71274005827216
"CAN","cpi",0.2,2011,3,2010,NA,1,1.75479877129717,1.96658817709226,2.85717434028225,1.39285160668897,FALSE,2.43825481377005
"CAN","cpi",0.2,2011,3,2010,NA,1.5,1.0838221485246,1.29561155431969,2.85717434028225,0.382958497759795,FALSE,4.11569637070148
"CAN","cpi",0.2,2012,3,2012,NA,0,1.90575621844314,2.00642756071473,1.50118536134935,1.92993928708068,FALSE,1.11209848500607
"CAN","cpi",0.2,2012,3,2012,NA,0.5,2.7493159610426,3.03935301221015,1.50118536134935,2.7924065414457,FALSE,3.41036355040068
"CAN","cpi",0.2,2012,3,2011,NA,1,2.49751132315502,3.18571503997619,1.50118536134935,2.75343947842877,FALSE,3.17901862133535
"CAN","cpi",0.2,2012,3,2011,NA,1.5,1.93293544133117,2.62113915815234,1.50118536134935,1.99557590637446,FALSE,1.76757891677572
"CAN","cpi",0.2,2013,3,2013,NA,0,0.944196163709207,0.952413057169943,0.931270594714462,0.933287972916032,FALSE,0.0405308159475997
"CAN","cpi",0.2,2013,3,2013,NA,0.5,1.32519614357774,1.4209664166373,0.931270594714462,1.15173631466769,FALSE,1.08058414521776
"CAN","cpi",0.2,2013,3,2012,NA,1,1.96684148162707,2.54204038561797,0.931270594714462,1.92993928708068,FALSE,3.16412612127242
"CAN","cpi",0.2,2013,3,2012,NA,1.5,2.3407679107275,3.21858023359382,0.931270594714462,2.7924065414457,FALSE,4.40155561289892
"CAN","cpi",0.2,2014,3,2014,NA,0,1.61286668378694,1.66371069457247,1.87639912240215,1.63379811457679,FALSE,0.58256508035974
"CAN","cpi",0.2,2014,3,2014,NA,0.5,1.20013795984716,1.32049020810833,1.87639912240215,1.04987664511533,FALSE,1.51012453399571
"CAN","cpi",0.2,2014,3,2013,NA,1,1.45974683441783,1.71806981133025,1.87639912240215,0.933287972916032,FALSE,0.654146254592165
"CAN","cpi",0.2,2014,3,2013,NA,1.5,1.61930982213397,1.87763279904639,1.87639912240215,1.15173631466769,TRUE,0.258322976912418
"CAN","cpi",0.2,2015,3,2015,NA,0,1.2480280611447,1.27997292075486,1.11090953952792,1.25588008397684,FALSE,0.374741163652122
"CAN","cpi",0.2,2015,3,2015,NA,0.5,1.8802271908983,2.05821781442813,1.11090953952792,1.79776205300989,FALSE,2.10128475195578
"CAN","cpi",0.2,2015,3,2014,NA,1,1.89872017566811,2.25870179912203,1.11090953952792,1.63379811457679,FALSE,2.3295082138044
"CAN","cpi",0.2,2015,3,2014,NA,1.5,1.50849823957856,1.86847986303248,1.11090953952792,1.04987664511533,FALSE,1.35395337358053
"CAN","cpi",0.2,2016,3,2016,NA,0,1.3837360954076,1.42271082109025,1.41168586698797,1.39645323019091,TRUE,0.038974725682646
"CAN","cpi",0.2,2016,3,2016,NA,0.5,1.35262072861739,1.49482369772299,1.41168586698797,1.22661053967644,TRUE,0.142202969105596
"CAN","cpi",0.2,2016,3,2015,NA,1,1.61240696793774,1.99624354484059,1.41168586698797,1.25588008397684,FALSE,0.885639329277285
"CAN","cpi",0.2,2016,3,2015,NA,1.5,1.84979278536522,2.39535526088488,1.41168586698797,1.79776205300989,FALSE,1.6408297714628
"CAN","cpi",0.2,2017,3,2017,NA,0,1.46549720561285,1.50487300924522,1.57888581671161,1.4811454634985,FALSE,0.224407822298347
"CAN","cpi",0.2,2017,3,2017,NA,0.5,1.62611980177078,1.76464171057986,1.57888581671161,1.50199497030019,FALSE,0.256606871457009
"CAN","cpi",0.2,2017,3,2016,NA,1,1.57255319936022,2.03965381390135,1.57888581671161,1.39645323019091,TRUE,0.467100614541126
"CAN","cpi",0.2,2017,3,2016,NA,1.5,1.52595093467795,1.99305154921907,1.57888581671161,1.22661053967644,TRUE,0.467100614541126
"CAN","cpi",0.2,2018,3,2018,NA,0,2.14070355076051,2.21168391635604,2.23316270166586,2.17346080855069,FALSE,0.124677328870075
"CAN","cpi",0.2,2018,3,2018,NA,0.5,1.68748286201628,1.87587479987995,2.23316270166586,1.61472973146397,FALSE,1.08161169232844
"CAN","cpi",0.2,2018,3,2017,NA,1,1.60122959307479,2.08799994868179,2.23316270166586,1.4811454634985,FALSE,0.849677238067166
"CAN","cpi",0.2,2018,3,2017,NA,1.5,1.66404454127013,2.15081489687713,2.23316270166586,1.50199497030019,FALSE,0.692639867578829
"CAN","cpi",0.2,2019,3,2019,NA,0,1.88167197554477,1.96145275161099,1.91921619871868,1.90497611164807,TRUE,0.0797807760662206
"CAN","cpi",0.2,2019,3,2019,NA,0.5,2.12709633902958,2.38028135876565,1.91921619871868,2.12426010345757,FALSE,0.772885370513317
"CAN","cpi",0.2,2019,3,2018,NA,1,2.07488197036819,2.67931585777659,1.91921619871868,2.17346080855069,FALSE,0.993598316532172
"CAN","cpi",0.2,2019,3,2018,NA,1.5,1.6993412148295,2.3037751022379,1.91921619871868,1.61472973146397,TRUE,0.604433887408401
"CAN","cpi",0.2,2020,3,2020,NA,0,1.04053935829989,1.05380998855699,0.71139989671781,1.03314712474633,FALSE,0.836119284212303
"CAN","cpi",0.2,2020,3,2020,NA,0.5,1.99141059417682,2.22344742025523,0.71139989671781,1.96699466082655,FALSE,3.43206356972593
"CAN","cpi",0.2,2020,3,2019,NA,1,1.80736524040705,2.47527199508254,0.71139989671781,1.90497611164807,FALSE,3.40782011389859
"CAN","cpi",0.2,2020,3,2019,NA,1.5,1.96743401030399,2.63534076497948,0.71139989671781,2.12426010345757,FALSE,3.80799203864094
"CAN","cpi",0.2,2021,3,2021,NA,0,2.31898752533443,2.39788892030571,3.31148121717802,2.35752845828485,FALSE,2.36288213715206
"CAN","cpi",0.2,2021,3,2021,NA,0.5,0.816324691607122,0.895226086578405,3.31148121717802,0.620135433592656,FALSE,6.11953922147033
"CAN","cpi",0.2,2021,3,2020,NA,1,1.28934290380605,1.77118616745715,3.31148121717802,1.03314712474633,FALSE,4.33258088795329
"CAN","cpi",0.2,2021,3,2020,NA,1.5,1.90376854573477,2.49655840549898,3.31148121717802,1.96699466082655,FALSE,2.63009688896181
"CAN","cpi",0.2,2022,3,2022,NA,0,5.8923722390225,6.16014850886647,6.50977236228281,6.06204323255885,FALSE,1.14183590338483
"CAN","cpi",0.2,2022,3,2022,NA,0.5,4.09617934809019,4.55148182071354,6.50977236228281,4.36321977466389,FALSE,5.35102882654654
"CAN","cpi",0.2,2022,3,2021,NA,1,2.2499420441376,2.70524451676095,6.50977236228281,2.35752845828485,FALSE,9.966622086428
"CAN","cpi",0.2,2022,3,2021,NA,1.5,1.12147092449806,1.57677339712141,6.50977236228281,0.620135433592656,FALSE,12.7877998855269
"CAN","cpi",0.2,2023,3,2023,NA,0,4.53937054476978,4.68681233962118,3.78831288758619,4.59798511919386,FALSE,2.02508593781037
"CAN","cpi",0.2,2023,3,2023,NA,0.5,5.76895489930059,6.54401681960161,3.78831288758619,6.34532620809577,FALSE,5.72666694958703
"CAN","cpi",0.2,2023,3,2022,NA,1,4.23904104814347,5.88669391450993,3.78831288758619,6.06204323255885,FALSE,2.77447326775965
"CAN","cpi",0.2,2023,3,2022,NA,1.5,2.87168997085482,4.51934283722128,3.78831288758619,4.36321977466389,TRUE,1.64765286636646
"CAN","cpi",0.2,2024,3,2023,NA,1,3.1307130840667,4.70240104757646,NA,4.59798511919386,NA,NA
"CAN","cpi",0.2,2024,3,2023,NA,1.5,4.0211657441912,6.13671106317638,NA,6.34532620809577,NA,NA
"CAN","cpi",0.3,1950,3,1950,NA,0,-1.30639874197945,-1.30639874197945,2.59031220731124,1.68831415137957,FALSE,11.1334598551162
"CAN","cpi",0.3,1950,3,1950,NA,0.5,323.15016213087,323.150162130871,2.59031220731124,1.999247189508,FALSE,915.885285495882
"CAN","cpi",0.3,1951,3,1951,NA,0,7.41189795676185,8.48476329705137,9.87945438999359,8.63763655575849,FALSE,5.05769703441016
"CAN","cpi",0.3,1951,3,1951,NA,0.5,3.60665307178453,4.67951841207405,9.87945438999359,4.395311027755,FALSE,15.9298252772025
"CAN","cpi",0.3,1951,3,1950,NA,1,1.65555597133236,2.72842131162188,9.87945438999359,1.68831415137957,FALSE,21.5043884213516
"CAN","cpi",0.3,1951,3,1950,NA,1.5,29.0415150454478,30.1143803857373,9.87945438999359,1.999247189508,FALSE,55.8216100701586
"CAN","cpi",0.3,1952,3,1952,NA,0,5.82825479192311,5.82825479192311,2.55562336095485,5.33589356249898,FALSE,9.35037551705219
"CAN","cpi",0.3,1952,3,1952,NA,0.5,5.85520798165828,10.0938880120898,2.55562336095485,9.78336808811006,FALSE,13.6660646610128
"CAN","cpi",0.3,1952,3,1951,NA,1,2.38504757076566,6.62372760119722,2.55562336095485,8.63763655575849,TRUE,4.23868003043155
"CAN","cpi",0.3,1952,3,1951,NA,1.5,5.91084559018577,10.1495256206173,2.55562336095485,4.395311027755,FALSE,13.8250292568056
"CAN","cpi",0.3,1953,3,1953,NA,0,-4.6965107697792,-0.443295059609313,-1.01492775838436,-1.36658675161344,TRUE,4.25321571016989
"CAN","cpi",0.3,1953,3,1953,NA,0.5,2.9202819463763,7.17349765654619,-1.01492775838436,0.110034650547486,FALSE,15.4966720094861
"CAN","cpi",0.3,1953,3,1952,NA,1,3.11879729122994,7.37201300139983,-1.01492775838436,5.33589356249898,FALSE,16.0638587090679
"CAN","cpi",0.3,1953,3,1952,NA,1.5,1.23436133562412,5.48757704579401,-1.01492775838436,9.78336808811006,FALSE,10.6797559787656
"CAN","cpi",0.3,1954,3,1954,NA,0,0.888989019532292,1.6623775507495,0.644425455961438,0.642985131580263,FALSE,1.47214156999108
"CAN","cpi",0.3,1954,3,1954,NA,0.5,-1.20785985340498,-0.260591044855499,0.644425455961438,-0.366337731528715,FALSE,3.53303023945501
"CAN","cpi",0.3,1954,3,1953,NA,1,1.28603512073816,11.0777286998644,0.644425455961438,-1.36658675161344,FALSE,11.6248640499168
"CAN","cpi",0.3,1954,3,1953,NA,1.5,2.07189044987232,11.8635840289985,0.644425455961438,0.110034650547486,FALSE,13.8701649903002
"CAN","cpi",0.3,1955,3,1955,NA,0,0.190247095561418,0.443687940844925,0.173649026558865,0.17297271419658,FALSE,0.300863899576515
"CAN","cpi",0.3,1955,3,1955,NA,0.5,0.875514480077872,1.71475757422928,0.173649026558865,0.586026480650511,FALSE,2.84457296134857
"CAN","cpi",0.3,1955,3,1954,NA,1,1.0163416870488,2.08478168152945,0.173649026558865,0.642985131580263,FALSE,3.47613331016618
"CAN","cpi",0.3,1955,3,1954,NA,1.5,0.559635378347412,2.53077443892649,0.173649026558865,-0.366337731528715,FALSE,3.07395720854636
"CAN","cpi",0.3,1956,3,1956,NA,0,0.735793090296963,0.994139828027485,1.32752769429961,0.753971131965347,FALSE,1.21088349850802
"CAN","cpi",0.3,1956,3,1956,NA,0.5,0.307202400598637,0.991036140219553,1.32752769429961,0.174369006303267,FALSE,1.64523817984964
"CAN","cpi",0.3,1956,3,1955,NA,1,0.66828280045109,1.35211654007201,1.32752769429961,0.17297271419658,TRUE,0.683833739620916
"CAN","cpi",0.3,1956,3,1955,NA,1.5,0.729147798684535,2.04318254963981,1.32752769429961,0.586026480650511,TRUE,1.31403475095527
"CAN","cpi",0.3,1957,3,1957,NA,0,3.11936284033617,3.31555176015931,3.24684755852518,3.20420645854679,TRUE,0.196188919823138
"CAN","cpi",0.3,1957,3,1957,NA,0.5,1.39171445558513,2.63243787734839,3.24684755852518,2.07576432581215,FALSE,2.99617965369694
"CAN","cpi",0.3,1957,3,1956,NA,1,0.606986522054637,1.84770994381789,3.24684755852518,0.753971131965347,FALSE,5.23825946378407
"CAN","cpi",0.3,1957,3,1956,NA,1.5,0.329182907812731,1.56990632957598,3.24684755852518,0.174369006303267,FALSE,6.0319840759038
"CAN","cpi",0.3,1958,3,1958,NA,0,2.39749201400571,2.60779048030711,2.33186388641149,2.45716899110006,FALSE,0.397807402284893
"CAN","cpi",0.3,1958,3,1958,NA,0.5,2.18931139190677,3.92971128816031,2.33186388641149,3.16832340224646,TRUE,1.74039989625354
"CAN","cpi",0.3,1958,3,1957,NA,1,1.04870438538171,2.78910428163525,2.33186388641149,3.20420645854679,TRUE,1.74039989625354
"CAN","cpi",0.3,1958,3,1957,NA,1.5,0.748748184589539,2.48914808084308,2.33186388641149,2.07576432581215,TRUE,1.74039989625354
"CAN","cpi",0.3,1959,3,1959,NA,0,1.38103727945861,1.62596342010776,1.19382698397654,1.42085685959275,FALSE,0.779812699169341
"CAN","cpi",0.3,1959,3,1959,NA,0.5,1.57787870379031,2.79018930291916,1.19382698397654,1.98727093968503,FALSE,2.30960122716819
"CAN","cpi",0.3,1959,3,1958,NA,1,1.19695710158781,2.40926770071665,1.19382698397654,2.45716899110006,FALSE,1.2212537923039
"CAN","cpi",0.3,1959,3,1958,NA,1.5,1.43216460205473,2.64447520118357,1.19382698397654,3.16832340224646,FALSE,1.89327522220938
"CAN","cpi",0.3,1960,3,1960,NA,0,1.28170270453462,1.5547644249219,1.34209404870695,1.34570677924433,TRUE,0.273061720387283
"CAN","cpi",0.3,1960,3,1960,NA,0.5,1.0524102223127,2.17424231627601,1.34209404870695,1.13297483079829,TRUE,1.12183209396332
"CAN","cpi",0.3,1960,3,1959,NA,1,1.09238110761993,2.21421320158325,1.34209404870695,1.42085685959275,TRUE,1.12183209396332
"CAN","cpi",0.3,1960,3,1959,NA,1.5,0.984367994749422,2.32332720397962,1.34209404870695,1.98727093968503,TRUE,1.3389592092302
"CAN","cpi",0.3,1961,3,1961,NA,0,1.29078604040994,1.45647268372695,1.00921348094007,1.32757858722203,FALSE,0.970179670373783
"CAN","cpi",0.3,1961,3,1961,NA,0.5,1.18469023958398,2.40414456428835,1.00921348094007,1.39166174207428,FALSE,1.72081649225839
"CAN","cpi",0.3,1961,3,1960,NA,1,1.03270586408435,2.25216018878871,1.00921348094007,1.34570677924433,FALSE,1.28657541940229
"CAN","cpi",0.3,1961,3,1960,NA,1.5,0.832859060861762,2.24091590858781,1.00921348094007,1.13297483079829,TRUE,1.40805684772604
"CAN","cpi",0.3,1962,3,1962,NA,0,0.556316315620929,0.741324466182932,1.04957947883042,0.577977430468435,FALSE,1.06573675812624
"CAN","cpi",0.3,1962,3,1962,NA,0.5,0.984626383811623,1.59190606656342,1.04957947883042,0.636962012224359,TRUE,0.607279682751797
"CAN","cpi",0.3,1962,3,1961,NA,1,1.02135688382068,1.62863656657248,1.04957947883042,1.32757858722203,TRUE,0.607279682751797
"CAN","cpi",0.3,1962,3,1961,NA,1.5,1.05048776061105,2.1515599580174,1.04957947883042,1.39166174207428,FALSE,1.10366728820817
"CAN","cpi",0.3,1963,3,1963,NA,0,1.58602533207791,1.85991725438913,1.60677118395228,1.66779362321099,TRUE,0.273891922311218
"CAN","cpi",0.3,1963,3,1963,NA,0.5,1.27283875999733,1.91316033532957,1.60677118395228,1.52118152719239,TRUE,0.640321575332244
"CAN","cpi",0.3,1963,3,1962,NA,1,0.82763996339752,1.46796153872976,1.60677118395228,0.577977430468435,FALSE,1.0369205616823
"CAN","cpi",0.3,1963,3,1962,NA,1.5,0.813366228714147,1.45368780404639,1.60677118395228,0.636962012224359,FALSE,1.07770266077765
"CAN","cpi",0.3,1964,3,1964,NA,0,1.82243982995636,1.99566522024482,1.88764670034376,1.89274723222648,TRUE,0.173225390288461
"CAN","cpi",0.3,1964,3,1964,NA,0.5,1.23610491101138,2.01992950656248,1.88764670034376,1.59688015421336,TRUE,0.7838245955511
"CAN","cpi",0.3,1964,3,1963,NA,1,1.04466259021444,1.82848718576554,1.88764670034376,1.66779362321099,FALSE,0.95285178006031
"CAN","cpi",0.3,1964,3,1963,NA,1.5,1.02542188432857,1.80924647987967,1.88764670034376,1.52118152719239,FALSE,1.0078252254485
"CAN","cpi",0.3,1965,3,1965,NA,0,1.9325827348005,2.10526969669728,2.29538304394236,2.00763200760394,FALSE,0.715867954025567
"CAN","cpi",0.3,1965,3,1965,NA,0.5,1.38543789772522,2.26046013194756,2.29538304394236,1.88069823981647,FALSE,0.974801982778906
"CAN","cpi",0.3,1965,3,1964,NA,1,1.08092378157797,1.95594601580031,2.29538304394236,1.89274723222648,FALSE,1.8448423146282
"CAN","cpi",0.3,1965,3,1964,NA,1.5,1.05417107803537,1.92919331225771,2.29538304394236,1.59688015421336,FALSE,1.9212786104642
"CAN","cpi",0.3,1966,3,1966,NA,0,3.37150652240412,3.60385087796002,3.72486065470629,3.50850431851723,FALSE,0.578086574830956
"CAN","cpi",0.3,1966,3,1966,NA,0.5,1.81949412185125,2.98498957738511,3.72486065470629,2.72414080931513,FALSE,3.27941281930865
"CAN","cpi",0.3,1966,3,1965,NA,1,1.01725930389519,2.18275475942905,3.72486065470629,2.00763200760394,FALSE,5.57151229918312
"CAN","cpi",0.3,1966,3,1965,NA,1.5,0.954984797487352,2.12048025302121,3.72486065470629,1.88069823981647,FALSE,5.74943946034837
"CAN","cpi",0.3,1967,3,1967,NA,0,3.33072625404174,3.53510032060578,3.49360316391996,3.43593854851327,TRUE,0.204374066564045
"CAN","cpi",0.3,1967,3,1967,NA,0.5,2.40529389000177,3.90987553951929,3.49360316391996,3.60120034208141,TRUE,1.50458164951752
"CAN","cpi",0.3,1967,3,1966,NA,1,1.08258621778487,2.58716786730239,3.49360316391996,3.50850431851723,FALSE,4.09439678271056
"CAN","cpi",0.3,1967,3,1966,NA,1.5,1.04465888359148,2.549240533109,3.49360316391996,2.72414080931513,FALSE,4.20276059469168
"CAN","cpi",0.3,1968,3,1968,NA,0,3.73852032977846,3.93441258422461,3.95128347779386,3.85741006811451,FALSE,0.244094807501141
"CAN","cpi",0.3,1968,3,1968,NA,0.5,2.44005974342296,3.99529648889517,3.95128347779386,3.82980583992124,TRUE,1.55523674547221
"CAN","cpi",0.3,1968,3,1967,NA,1,1.16699058925137,2.72222733472358,3.95128347779386,3.43593854851327,FALSE,5.066825725673
"CAN","cpi",0.3,1968,3,1967,NA,1.5,1.26545347135063,2.82069021682284,3.95128347779386,3.60120034208141,FALSE,4.78550320538941
"CAN","cpi",0.3,1969,3,1969,NA,0,4.30360024454899,4.4766422908782,4.42679496126681,4.42973002734916,TRUE,0.173042046329209
"CAN","cpi",0.3,1969,3,1969,NA,0.5,2.29988483182772,3.65709055328106,4.42679496126681,3.77653863724463,FALSE,3.55636117284122
"CAN","cpi",0.3,1969,3,1968,NA,1,1.39288835978058,2.75009408123391,4.42679496126681,3.85741006811451,FALSE,6.14777966440449
"CAN","cpi",0.3,1969,3,1968,NA,1.5,1.39444051973871,2.75164624119204,4.42679496126681,3.82980583992124,FALSE,6.14334492166697
"CAN","cpi",0.3,1970,3,1970,NA,0,3.74020982797248,3.92426379357885,3.28128405769805,3.84669808502433,FALSE,1.49527045210474
"CAN","cpi",0.3,1970,3,1970,NA,0.5,2.8678341840691,4.55392532831499,3.28128405769805,4.72247431437482,TRUE,1.68609114424589
"CAN","cpi",0.3,1970,3,1969,NA,1,1.32053129689666,3.00662244114256,3.28128405769805,4.42973002734916,FALSE,2.47083862011872
"CAN","cpi",0.3,1970,3,1969,NA,1.5,1.23180990801393,2.91790105225982,3.28128405769805,3.77653863724463,FALSE,2.72432830264081
"CAN","cpi",0.3,1971,3,1971,NA,0,2.03703853849078,2.26832034304172,2.64123406634756,2.09886045002039,FALSE,1.29674958542477
"CAN","cpi",0.3,1971,3,1971,NA,0.5,2.000670411255,2.86230657709765,2.64123406634756,2.39042152113403,TRUE,0.861636165842649
"CAN","cpi",0.3,1971,3,1970,NA,1,1.68759462213231,2.54923078797496,2.64123406634756,3.84669808502433,FALSE,1.12450267547866
"CAN","cpi",0.3,1971,3,1970,NA,1.5,1.82083535411249,2.68247151995514,2.64123406634756,4.72247431437482,TRUE,0.861636165842649
"CAN","cpi",0.3,1972,3,1972,NA,0,4.4816850432911,4.65124627885297,4.83230569625923,4.61402341086119,FALSE,0.686873856722621
"CAN","cpi",0.3,1972,3,1972,NA,0.5,2.64406361593295,3.77285302004011,4.83230569625923,3.53817935863684,FALSE,4.1557970504475
"CAN","cpi",0.3,1972,3,1971,NA,1,1.41575502934957,2.54454443345673,4.83230569625923,2.09886045002039,FALSE,7.66525015497146
"CAN","cpi",0.3,1972,3,1971,NA,1.5,1.40436180961154,2.5331512137187,4.83230569625923,2.39042152113403,FALSE,7.69780221136583
"CAN","cpi",0.3,1973,3,1973,NA,0,6.03687214068486,6.1888061719823,7.12388603531779,6.22342912205835,FALSE,2.82359078368455
"CAN","cpi",0.3,1973,3,1973,NA,0.5,3.66722062483036,5.2702671326423,7.12388603531779,4.99248222648134,FALSE,6.8991005154562
"CAN","cpi",0.3,1973,3,1972,NA,1,1.55830096693651,3.16134747474844,7.12388603531779,4.61402341086119,FALSE,12.9245852522958
"CAN","cpi",0.3,1973,3,1972,NA,1.5,1.67890021960605,3.28194672741799,7.12388603531779,3.53817935863684,FALSE,12.5800159589542
"CAN","cpi",0.3,1974,3,1974,NA,0,9.29443004764746,9.64200037971451,10.2717243737774,9.59455553431256,FALSE,2.14678174367536
"CAN","cpi",0.3,1974,3,1974,NA,0.5,5.81995634049813,8.23238447195188,10.2717243737774,8.02283957227414,FALSE,8.239113565241
"CAN","cpi",0.3,1974,3,1973,NA,1,1.58117981916027,3.99360795061402,10.2717243737774,6.22342912205835,FALSE,20.3499036262063
"CAN","cpi",0.3,1974,3,1973,NA,1.5,1.37570058475045,3.7881287162042,10.2717243737774,4.99248222648134,FALSE,20.9369871530915
"CAN","cpi",0.3,1975,3,1975,NA,0,10.1964467032177,10.6144104475544,10.0232981493341,10.5280192696423,FALSE,0.912673898289805
"CAN","cpi",0.3,1975,3,1975,NA,0.5,8.53207903073939,11.05779376788,10.0232981493341,10.7014589339012,TRUE,2.5257147371406
"CAN","cpi",0.3,1975,3,1974,NA,1,1.81066017441358,4.33637491155417,10.0232981493341,9.59455553431256,FALSE,18.7740668450833
"CAN","cpi",0.3,1975,3,1974,NA,1.5,1.88380154174455,4.40951627888515,10.0232981493341,8.02283957227414,FALSE,18.5650915098519
"CAN","cpi",0.3,1976,3,1976,NA,0,7.88437456576254,8.22328486892318,7.22784311401172,8.13534117389669,FALSE,2.21471445102014
"CAN","cpi",0.3,1976,3,1976,NA,0.5,8.67398584104846,11.6953305903884,7.22784311401172,9.54416967067372,FALSE,7.15318111230203
"CAN","cpi",0.3,1976,3,1975,NA,1,4.1950515414059,7.57629392238686,7.22784311401172,10.5280192696423,TRUE,3.38124238098097
"CAN","cpi",0.3,1976,3,1975,NA,1.5,2.14272897982488,5.52397136080585,7.22784311401172,10.7014589339012,FALSE,8.24944739014059
"CAN","cpi",0.3,1977,3,1977,NA,0,6.5257173969446,6.96552796601588,7.58101410153764,6.84168016809657,FALSE,2.19834238484774
"CAN","cpi",0.3,1977,3,1977,NA,0.5,5.14781709360121,7.31499545963597,7.58101410153764,6.57165012633641,FALSE,2.92723162861096
"CAN","cpi",0.3,1977,3,1976,NA,1,3.1897872736628,6.19769222339977,7.58101410153764,8.13534117389669,FALSE,6.96025317298803
"CAN","cpi",0.3,1977,3,1976,NA,1.5,3.19476411097002,6.68610769202358,7.58101410153764,9.54416967067372,FALSE,6.04821903680802
"CAN","cpi",0.3,1978,3,1978,NA,0,8.30014013510061,8.69575769002834,8.50208927062595,8.56560161197079,TRUE,0.395617554927732
"CAN","cpi",0.3,1978,3,1978,NA,0.5,6.2477676434944,9.31098897651094,8.50208927062595,8.14356532128036,TRUE,3.06322133301654
"CAN","cpi",0.3,1978,3,1977,NA,1,2.96433292160295,6.21925258334703,8.50208927062595,6.84168016809657,FALSE,9.77731019682669
"CAN","cpi",0.3,1978,3,1977,NA,1.5,2.58770753466365,5.84262719640774,8.50208927062595,6.57165012633641,FALSE,10.853382730939
"CAN","cpi",0.3,1979,3,1979,NA,0,8.25181133599344,8.59297829720219,8.65147652410481,8.51558792202395,FALSE,0.508304752359089
"CAN","cpi",0.3,1979,3,1979,NA,0.5,6.48445050937044,9.66591491803707,8.65147652410481,8.48180361143764,TRUE,3.18146440866663
"CAN","cpi",0.3,1979,3,1978,NA,1,4.39802782757139,7.81140293684957,8.65147652410481,8.56560161197079,FALSE,5.81358535857886
"CAN","cpi",0.3,1979,3,1978,NA,1.5,3.41507467511141,6.8284497843896,8.65147652410481,8.14356532128036,FALSE,8.62202293703594
"CAN","cpi",0.3,1980,3,1980,NA,0,8.89344777703802,9.29605690451388,9.5171912664748,9.17959378630866,FALSE,1.03442159022133
"CAN","cpi",0.3,1980,3,1980,NA,0.5,8.00553566594541,9.1118577706254,9.5171912664748,8.77731920113821,FALSE,2.26441780710684
"CAN","cpi",0.3,1980,3,1979,NA,1,4.51968424743336,7.77122152454307,9.5171912664748,8.51558792202395,FALSE,8.24002225405749
"CAN","cpi",0.3,1980,3,1979,NA,1.5,3.78293217203446,7.03446944914417,9.5171912664748,8.48180361143764,FALSE,10.3450281837686
"CAN","cpi",0.3,1981,3,1981,NA,0,10.9224758491084,11.35688297672,11.5813425032741,11.279360028481,FALSE,1.07572006062341
"CAN","cpi",0.3,1981,3,1981,NA,0.5,9.5081697073501,10.903330626677,11.5813425032741,10.1336807488653,FALSE,3.33233770960452
"CAN","cpi",0.3,1981,3,1980,NA,1,4.9653193691363,9.18728566347281,11.5813425032741,9.17959378630866,FALSE,11.0621286937689
"CAN","cpi",0.3,1981,3,1980,NA,1.5,3.96836246784838,9.25464430448731,11.5813425032741,8.77731920113821,FALSE,11.9339909760299
"CAN","cpi",0.3,1982,3,1982,NA,0,10.3720365261164,11.0054364914039,10.1124203763629,10.7097306947659,FALSE,1.37516039315456
"CAN","cpi",0.3,1982,3,1982,NA,0.5,10.6385410867551,12.8723967797818,10.1124203763629,11.3795840186269,FALSE,3.7370577227186
"CAN","cpi",0.3,1982,3,1981,NA,1,7.69580515011915,11.0196770034856,10.1124203763629,11.279360028481,TRUE,3.32387185336647
"CAN","cpi",0.3,1982,3,1981,NA,1.5,6.8966590152966,10.5455454100114,10.1124203763629,10.1336807488653,TRUE,3.64888639471484
"CAN","cpi",0.3,1983,3,1983,NA,0,6.60554595054177,7.06468503066949,5.67091787896303,6.81192865303165,FALSE,3.1295049989241
"CAN","cpi",0.3,1983,3,1983,NA,0.5,8.44921639403458,10.0373592741091,5.67091787896303,9.28631267190301,FALSE,9.52613863742182
"CAN","cpi",0.3,1983,3,1982,NA,1,7.34527901802023,10.5225817377588,5.67091787896303,10.7097306947659,FALSE,7.96119168847343
"CAN","cpi",0.3,1983,3,1982,NA,1.5,7.62339238117281,11.7313191522755,5.67091787896303,11.3795840186269,FALSE,9.68642534884495
"CAN","cpi",0.3,1984,3,1984,NA,0,4.30804699453449,4.65640883792351,4.19799576814029,4.43433180473976,FALSE,0.66279391880103
"CAN","cpi",0.3,1984,3,1984,NA,0.5,4.75714765684922,5.74494276196341,4.19799576814029,5.08610822560979,FALSE,2.58537192999685
"CAN","cpi",0.3,1984,3,1983,NA,1,4.04002374557568,7.12110848663688,4.19799576814029,6.81192865303165,TRUE,3.0810847410612
"CAN","cpi",0.3,1984,3,1983,NA,1.5,4.82857334249222,9.42587678879255,4.19799576814029,9.28631267190301,FALSE,6.39895365873442
"CAN","cpi",0.3,1985,3,1985,NA,0,3.58729465660695,3.98919671497825,3.86444262005169,3.75272544104399,TRUE,0.401902058371299
"CAN","cpi",0.3,1985,3,1985,NA,0.5,3.65457189238176,4.46606617151986,3.86444262005169,3.83470516948927,TRUE,0.811494279138103
"CAN","cpi",0.3,1985,3,1984,NA,1,3.13016247251262,4.91208877472334,3.86444262005169,4.43433180473976,TRUE,1.78192630221072
"CAN","cpi",0.3,1985,3,1984,NA,1.5,3.13838670093104,5.59160825728696,3.86444262005169,5.08610822560979,TRUE,2.45322155635591
"CAN","cpi",0.3,1986,3,1986,NA,0,3.91413009000167,4.2347105645476,4.08685396749431,4.02668174324255,TRUE,0.320580474545933
"CAN","cpi",0.3,1986,3,1986,NA,0.5,3.81854804760684,4.66184987752039,4.08685396749431,4.02628294162027,TRUE,0.843301829913546
"CAN","cpi",0.3,1986,3,1985,NA,1,2.82403741595018,4.33873656676342,4.08685396749431,3.75272544104399,TRUE,1.51469915081325
"CAN","cpi",0.3,1986,3,1985,NA,1.5,2.63481484967738,4.47080056687866,4.08685396749431,3.83470516948927,TRUE,1.83598571720128
"CAN","cpi",0.3,1987,3,1987,NA,0,4.16252171397968,4.48763087086079,4.23980729277887,4.2837330645361,TRUE,0.32510915688111
"CAN","cpi",0.3,1987,3,1987,NA,0.5,3.85025132611991,4.65576680733597,4.23980729277887,4.02033055131438,TRUE,0.805515481216062
"CAN","cpi",0.3,1987,3,1986,NA,1,2.94707747686076,4.42630097795576,4.23980729277887,4.02668174324255,TRUE,1.479223501095
"CAN","cpi",0.3,1987,3,1986,NA,1.5,2.71190685684423,4.64238544456097,4.23980729277887,4.02628294162027,TRUE,1.93047858771674
"CAN","cpi",0.3,1988,3,1988,NA,0,3.8474506568199,4.16681543026314,3.92899537638065,3.95767765957829,TRUE,0.319364773443239
"CAN","cpi",0.3,1988,3,1988,NA,0.5,4.05544691527888,4.81980318031659,3.92899537638065,4.26147484794381,FALSE,1.1256463761755
"CAN","cpi",0.3,1988,3,1987,NA,1,3.06252512298274,4.61724004896798,3.92899537638065,4.2837330645361,TRUE,1.55471492598523
"CAN","cpi",0.3,1988,3,1987,NA,1.5,2.70951158044543,4.63705424067864,3.92899537638065,4.02033055131438,TRUE,1.92754266023322
"CAN","cpi",0.3,1989,3,1989,NA,0,4.44457747347492,4.67723376239768,4.82821664544208,4.56141251415513,FALSE,0.664035954763901
"CAN","cpi",0.3,1989,3,1989,NA,0.5,3.80876021468947,4.41039485119805,4.82821664544208,4.0148475519947,FALSE,1.79541119149152
"CAN","cpi",0.3,1989,3,1988,NA,1,2.95782183778587,4.36111815221742,4.82821664544208,3.95767765957829,FALSE,2.73786343793057
"CAN","cpi",0.3,1989,3,1988,NA,1.5,2.93926462225041,4.81612823934951,4.82821664544208,4.26147484794381,FALSE,1.91140192022071
"CAN","cpi",0.3,1990,3,1990,NA,0,4.58193393058958,4.90092896822067,4.64347549432717,4.70378167021394,TRUE,0.318995037631085
"CAN","cpi",0.3,1990,3,1990,NA,0.5,4.72701359684216,5.70875197315672,4.64347549432717,5.05069490734707,FALSE,1.22041866921452
"CAN","cpi",0.3,1990,3,1989,NA,1,3.34172337279604,4.83536183515423,4.64347549432717,4.56141251415513,TRUE,1.4936384623582
"CAN","cpi",0.3,1990,3,1989,NA,1.5,2.84461866501385,4.60628490473171,4.64347549432717,4.0148475519947,FALSE,1.86792506713346
"CAN","cpi",0.3,1991,3,1991,NA,0,5.48047246603754,5.81729165336326,5.4258100696218,5.63511155207928,FALSE,0.492997462799274
"CAN","cpi",0.3,1991,3,1991,NA,0.5,4.54761683780414,5.29774074534444,5.4258100696218,4.87807370573786,FALSE,1.11603626261846
"CAN","cpi",0.3,1991,3,1990,NA,1,3.40706762997088,4.94719515468861,5.4258100696218,4.70378167021394,FALSE,2.90759871024111
"CAN","cpi",0.3,1991,3,1990,NA,1.5,3.24213656391873,5.55989064299986,5.4258100696218,5.05069490734707,TRUE,2.31775407908113
"CAN","cpi",0.3,1992,3,1992,NA,0,1.99313452380205,2.12343258932716,1.47496888572843,2.02050638420239,FALSE,1.61077131716401
"CAN","cpi",0.3,1992,3,1992,NA,0.5,4.02891220850421,4.80048616541793,1.47496888572843,4.27205707399704,FALSE,8.06855487913024
"CAN","cpi",0.3,1992,3,1991,NA,1,3.94793778470059,5.80874758088453,1.47496888572843,5.63511155207928,FALSE,8.92643522181868
"CAN","cpi",0.3,1992,3,1991,NA,1.5,3.63567433019621,5.49648412638015,1.47496888572843,4.87807370573786,FALSE,8.03425392323472
"CAN","cpi",0.3,1993,3,1993,NA,0,1.80292010636564,1.94388809649809,1.84351085411351,1.84186847486189,TRUE,0.140967990132451
"CAN","cpi",0.3,1993,3,1993,NA,0.5,1.74711113564707,2.04966291284477,1.84351085411351,1.60616723541631,TRUE,0.302551777197693
"CAN","cpi",0.3,1993,3,1992,NA,1,2.17550431096357,2.83943817441063,1.84351085411351,2.02050638420239,FALSE,1.61248659730437
"CAN","cpi",0.3,1993,3,1992,NA,1.5,2.94332566874021,4.83773924041498,1.84351085411351,4.27205707399704,FALSE,5.03674161346533
"CAN","cpi",0.3,1994,3,1994,NA,0,0.622583323140512,0.632374942150429,0.161630694655448,0.62038151471279,FALSE,1.32679912896724
"CAN","cpi",0.3,1994,3,1994,NA,0.5,1.61908285813657,1.89531853683753,0.161630694655448,1.4565883399875,FALSE,4.44038471721844
"CAN","cpi",0.3,1994,3,1993,NA,1,2.01211003436799,2.62320698612441,0.161630694655448,1.84186847486189,FALSE,5.89818077950655
"CAN","cpi",0.3,1994,3,1993,NA,1.5,1.87397858322981,2.48507553498623,0.161630694655448,1.60616723541631,FALSE,5.50351949054032
"CAN","cpi",0.3,1995,3,1995,NA,0,1.5694967298908,1.63708769067434,2.11688403676572,1.60030724029718,FALSE,1.43843766390176
"CAN","cpi",0.3,1995,3,1995,NA,0.5,0.715341802005921,0.805814310951459,2.11688403676572,0.400723248632204,FALSE,3.83638601127198
"CAN","cpi",0.3,1995,3,1994,NA,1,1.4172298908239,1.68728979036411,2.11688403676572,0.62038151471279,FALSE,1.49747203211623
"CAN","cpi",0.3,1995,3,1994,NA,1.5,1.67784683807429,2.286329623982,2.11688403676572,1.4565883399875,TRUE,0.608482785907715
"CAN","cpi",0.3,1996,3,1996,NA,0,1.54203151387939,1.67253396110568,1.55309584667184,1.57188450223428,TRUE,0.130502447226287
"CAN","cpi",0.3,1996,3,1996,NA,0.5,2.2232654733434,2.64099330520562,1.55309584667184,2.10267011992876,FALSE,2.33249819378095
"CAN","cpi",0.3,1996,3,1995,NA,1,1.97448700197623,2.39221483383845,1.55309584667184,1.60030724029718,FALSE,1.62170256130333
"CAN","cpi",0.3,1996,3,1995,NA,1.5,1.08462537962967,1.50235321149189,1.55309584667184,0.400723248632204,FALSE,0.562706789519233
"CAN","cpi",0.3,1997,3,1997,NA,0,1.79512293926781,1.87648606368944,1.60528783555959,1.83379947449567,FALSE,0.623749135016533
"CAN","cpi",0.3,1997,3,1997,NA,0.5,1.83981450786558,2.16142138071651,1.60528783555959,1.71447508965446,FALSE,0.991683079439454
"CAN","cpi",0.3,1997,3,1996,NA,1,1.64535943866368,2.46473878324765,1.60528783555959,1.57188450223428,FALSE,0.933869639167083
"CAN","cpi",0.3,1997,3,1996,NA,1.5,2.08849988440794,2.90787922899191,1.60528783555959,2.10267011992876,FALSE,2.1999851984364
"CAN","cpi",0.3,1998,3,1998,NA,0,0.963591416829933,0.994198078920052,0.988908029337191,0.973278201206617,TRUE,0.0306066620901189
"CAN","cpi",0.3,1998,3,1998,NA,0.5,1.45087552269438,1.7542788213543,0.988908029337191,1.34049194776323,FALSE,1.62331042253761
"CAN","cpi",0.3,1998,3,1997,NA,1,1.78979802738195,2.60316865935034,0.988908029337191,1.83379947449567,FALSE,3.10162776923914
"CAN","cpi",0.3,1998,3,1997,NA,1.5,1.74358779277665,2.55695842474503,0.988908029337191,1.71447508965446,FALSE,2.96959852750969
"CAN","cpi",0.3,1999,3,1999,NA,0,1.3779793003555,1.4338800883245,1.7107350135213,1.40211292309609,FALSE,0.84691485995985
"CAN","cpi",0.3,1999,3,1999,NA,0.5,1.07674793353326,1.33622345589348,1.7107350135213,0.923130320518117,FALSE,1.32950854415398
"CAN","cpi",0.3,1999,3,1998,NA,1,1.33434379287796,1.93531179687031,1.7107350135213,0.973278201206617,TRUE,0.600968003992345
"CAN","cpi",0.3,1999,3,1998,NA,1.5,1.60589015083035,2.2068581548227,1.7107350135213,1.34049194776323,TRUE,0.600968003992345
"CAN","cpi",0.3,2000,3,2000,NA,0,2.44273769763132,2.56363105416231,2.6718361971244,2.50399207866046,FALSE,0.430050907851256
"CAN","cpi",0.3,2000,3,2000,NA,0.5,2.16794308643541,2.58367936818414,2.6718361971244,2.17160318889212,FALSE,0.667612935863752
"CAN","cpi",0.3,2000,3,1999,NA,1,1.66208774942109,2.15894810474425,2.6718361971244,1.40211292309609,FALSE,1.96225490498072
"CAN","cpi",0.3,2000,3,1999,NA,1.5,1.32237947985855,1.81923983518172,2.6718361971244,0.923130320518117,FALSE,2.93284996087369
"CAN","cpi",0.3,2001,3,2001,NA,0,2.90103116649088,3.07587853464841,2.47906219852806,2.96814309391761,FALSE,1.38047299090844
"CAN","cpi",0.3,2001,3,2001,NA,0.5,2.62212579545868,3.20749246390483,2.47906219852806,2.69801990899347,FALSE,0.994119802533614
"CAN","cpi",0.3,2001,3,2000,NA,1,2.11223596429056,3.14016725202963,2.47906219852806,2.50399207866046,TRUE,1.02793128773908
"CAN","cpi",0.3,2001,3,2000,NA,1.5,1.93443070533599,2.96236199307507,2.47906219852806,2.17160318889212,TRUE,1.02793128773908
"CAN","cpi",0.3,2002,3,2002,NA,0,1.51592587913388,1.6007736608632,2.20880570551249,1.54486874462913,FALSE,1.822082195013
