isdrw/probabilistic-benchmark-forecasts/results/linear_quantile_regression/ldr_prediction_arima_auto_2026-02-18_16-02-44.csv
"country","target","tau","target_year","target_quarter","forecast_year","forecast_quarter","horizon","lower_bound","upper_bound","truth_value","prediction","covered","IS"
"CAN","cpi",0.1,1950,3,1950,NA,0,2.28668879654602,2.28668879654602,2.59031220731124,2.34506766740468,FALSE,0.674718690589369
"CAN","cpi",0.1,1950,3,1950,NA,0.5,-7.58055977928719,-7.58055977928719,2.59031220731124,-0.480727815155867,FALSE,22.6019377479965
"CAN","cpi",0.1,1950,3,1949,NA,1,43.7612928814295,43.7612928814295,2.59031220731124,5.09987337388258,FALSE,91.4910681647073
"CAN","cpi",0.1,1950,3,1949,NA,1.5,-0.792751085941937,-0.792751085941937,2.59031220731124,12.3211560066576,FALSE,7.5179184294515
"CAN","cpi",0.1,1951,3,1951,NA,0,9.72954712603857,9.75373271018397,9.87945438999359,9.91468181420993,FALSE,0.303567094833453
"CAN","cpi",0.1,1951,3,1951,NA,0.5,9.68744335115158,9.71162893529698,9.87945438999359,8.91293028153729,FALSE,0.397131039026751
"CAN","cpi",0.1,1951,3,1950,NA,1,2.91133318383551,2.93551876798091,9.87945438999359,7.18504019917801,FALSE,15.4551536330625
"CAN","cpi",0.1,1951,3,1950,NA,1.5,25.3711535691282,25.3953391532736,9.87945438999359,-2.18579641022426,FALSE,34.45018376
"CAN","cpi",0.1,1952,3,1952,NA,0,2.74521262258738,2.74521262258738,2.55562336095485,2.50792675283471,FALSE,0.421309470294518
"CAN","cpi",0.1,1952,3,1952,NA,0.5,6.89207113975674,6.89207113975674,2.55562336095485,5.20333179389047,FALSE,9.63655061955975
"CAN","cpi",0.1,1952,3,1951,NA,1,5.05094759350533,8.98490385411087,2.55562336095485,8.18998200969936,FALSE,9.47912122182884
"CAN","cpi",0.1,1952,3,1951,NA,1.5,3.01833078862349,6.95228704922903,2.55562336095485,7.55460015368862,FALSE,4.96219498875808
"CAN","cpi",0.1,1953,3,1953,NA,0,-0.797350151705827,-0.797350151705827,-1.01492775838436,-0.954275034924989,FALSE,0.483505792618968
"CAN","cpi",0.1,1953,3,1953,NA,0.5,1.52594203905357,1.52594203905357,-1.01492775838436,-1.88711612688489,FALSE,5.64637732763985
"CAN","cpi",0.1,1953,3,1952,NA,1,1.63602310902438,1.63602310902438,-1.01492775838436,-0.873617238258229,FALSE,5.89100192757499
"CAN","cpi",0.1,1953,3,1952,NA,1.5,5.67105579743201,5.79880125812044,-1.01492775838436,5.93557635631702,FALSE,14.9854866958359
"CAN","cpi",0.1,1954,3,1954,NA,0,0.876098700275511,0.922470665625207,0.644425455961438,0.879731201855888,FALSE,0.561201397158747
"CAN","cpi",0.1,1954,3,1954,NA,0.5,0.371144117743615,0.41751608309331,0.644425455961438,-0.358875738913824,FALSE,0.550615016167758
"CAN","cpi",0.1,1954,3,1953,NA,1,0.898409887738948,1.3356504539582,0.644425455961438,3.38326531029323,FALSE,1.00165041461371
"CAN","cpi",0.1,1954,3,1953,NA,1.5,9.19530324772872,9.63254381394797,0.644425455961438,-1.28741438714058,FALSE,19.439191214591
"CAN","cpi",0.1,1955,3,1955,NA,0,0.0491912735341757,0.057103870223527,0.173649026558865,0.115254687233858,FALSE,0.266901832990102
"CAN","cpi",0.1,1955,3,1955,NA,0.5,0.0143197652918189,0.271861888765286,0.173649026558865,-0.770970046821609,TRUE,0.257542123473467
"CAN","cpi",0.1,1955,3,1954,NA,1,0.714397781724432,1.60673687594361,0.173649026558865,3.47019599757395,FALSE,2.09400299458711
"CAN","cpi",0.1,1955,3,1954,NA,1.5,2.48684886175423,8.35724736661033,0.173649026558865,-1.89562740163941,FALSE,11.010842583068
"CAN","cpi",0.1,1956,3,1956,NA,0,1.54063220058393,1.58366659956499,1.32752769429961,1.56059797998755,FALSE,0.516599968501769
"CAN","cpi",0.1,1956,3,1956,NA,0.5,0.208451349561248,0.251485748542309,1.32752769429961,-0.709146002056511,FALSE,2.43423872288617
"CAN","cpi",0.1,1956,3,1955,NA,1,-0.224685882305222,-0.0440978893563102,1.32752769429961,0.884549626974225,FALSE,3.22864484551762
"CAN","cpi",0.1,1956,3,1955,NA,1.5,0.423557265274197,0.604145258223108,1.32752769429961,-1.89150615642833,FALSE,1.78810451756336
"CAN","cpi",0.1,1957,3,1957,NA,0,3.33371102892126,3.3323797002673,3.24684755852518,3.4151370317006,FALSE,0.191698605559563
"CAN","cpi",0.1,1957,3,1957,NA,0.5,2.91637823696113,2.99384326909944,3.24684755852518,2.23982631608766,FALSE,0.639696786417729
"CAN","cpi",0.1,1957,3,1956,NA,1,2.31510794279497,3.52918852366604,3.24684755852518,6.98754636690555,TRUE,1.21408058087107
"CAN","cpi",0.1,1957,3,1956,NA,1.5,0.314483420837554,1.52856400170862,3.24684755852518,-1.88668623310337,FALSE,5.03248848490785
"CAN","cpi",0.1,1958,3,1958,NA,0,2.11999381786565,2.1380924058118,2.33186388641149,2.22387249143335,FALSE,0.448701878167677
"CAN","cpi",0.1,1958,3,1958,NA,0.5,2.9744552532381,2.99255384118426,2.33186388641149,2.22839060734872,FALSE,1.4460794031164
"CAN","cpi",0.1,1958,3,1957,NA,1,1.28350340854721,1.66475507651102,2.33186388641149,4.42088197051908,FALSE,1.86371568996485
"CAN","cpi",0.1,1958,3,1957,NA,1.5,1.50151982214937,1.88277149011318,2.33186388641149,0.91301479707402,FALSE,1.37923477084895
"CAN","cpi",0.1,1959,3,1959,NA,0,1.21512073011545,1.2780204577963,1.19382698397654,1.24991216431293,FALSE,0.110219163545102
"CAN","cpi",0.1,1959,3,1959,NA,0.5,1.27483206567569,1.36471484612164,1.19382698397654,0.437839731590327,FALSE,0.269894073110723
"CAN","cpi",0.1,1959,3,1958,NA,1,0.41209205269999,0.573737062673887,1.19382698397654,1.75862762885946,FALSE,1.53962261286868
"CAN","cpi",0.1,1959,3,1958,NA,1.5,1.8040923408115,2.36087347311071,1.19382698397654,1.77407172713766,FALSE,1.91292636971023
"CAN","cpi",0.1,1960,3,1960,NA,0,0.972007053545522,0.970256417998525,1.34209404870695,1.02361304259477,FALSE,0.824555210471728
"CAN","cpi",0.1,1960,3,1960,NA,0.5,1.3753445091515,1.44778217606489,1.34209404870695,0.53898348018166,FALSE,0.146327579012392
"CAN","cpi",0.1,1960,3,1959,NA,1,2.04882887135599,2.12126653826938,1.34209404870695,3.95759373689442,FALSE,1.64295949502236
"CAN","cpi",0.1,1960,3,1959,NA,1.5,1.41797884770666,2.27167578326737,1.34209404870695,-0.873476815404885,FALSE,1.02232982222672
"CAN","cpi",0.1,1961,3,1961,NA,0,0.973362853580083,1.02827610675583,1.00921348094007,1.00921348094007,TRUE,0.0549132531757491
"CAN","cpi",0.1,1961,3,1961,NA,0.5,1.75589047740235,1.8108037305781,1.00921348094007,1.00921348094007,FALSE,1.71419546753637
"CAN","cpi",0.1,1961,3,1960,NA,1,-0.282556132397588,0.294845492435955,1.00921348094007,0.0537704626035329,FALSE,2.16488604373158
"CAN","cpi",0.1,1961,3,1960,NA,1.5,1.11355594812623,1.69095757295977,1.00921348094007,-0.862181798940035,FALSE,0.809273774136111
"CAN","cpi",0.1,1962,3,1962,NA,0,1.11465874498864,1.05614970151531,1.04957947883042,1.10232402731478,FALSE,0.0861115479893918
"CAN","cpi",0.1,1962,3,1962,NA,0.5,0.892273847383559,0.833764803910225,1.04957947883042,0,FALSE,0.421079123015978
"CAN","cpi",0.1,1962,3,1961,NA,1,0.648007476963313,0.589498433489978,1.04957947883042,0,FALSE,0.963893279505414
"CAN","cpi",0.1,1962,3,1961,NA,1.5,1.42472534559952,1.57344388853865,1.04957947883042,0,FALSE,0.982376024648244
"CAN","cpi",0.1,1963,3,1963,NA,0,1.8517839020141,1.88753299164406,1.60677118395228,1.91491729531202,FALSE,0.580221796434003
"CAN","cpi",0.1,1963,3,1963,NA,0.5,1.60827044881293,1.64401953844288,1.60677118395228,0.836828714617504,FALSE,0.0390807893202719
"CAN","cpi",0.1,1963,3,1962,NA,1,1.41340463227861,1.78673797548108,1.60677118395228,2.56411490415144,TRUE,0.373333343202469
"CAN","cpi",0.1,1963,3,1962,NA,1.5,1.10357294739395,1.47690629059642,1.60677118395228,0,FALSE,0.661921995104381
"CAN","cpi",0.1,1964,3,1964,NA,0,1.91845223612814,1.93806757018798,1.88764670034376,1.98877256446048,FALSE,0.0880720802473576
"CAN","cpi",0.1,1964,3,1964,NA,0.5,2.11321556584046,2.13646832995419,1.88764670034376,1.38369006227607,FALSE,0.52451690966195
"CAN","cpi",0.1,1964,3,1963,NA,1,2.3327886904261,2.61216921179339,1.88764670034376,5.39044290347256,FALSE,1.26858494377249
"CAN","cpi",0.1,1964,3,1963,NA,1.5,1.35939435638543,1.63877487775273,1.88764670034376,0,FALSE,0.83242901601403
"CAN","cpi",0.1,1965,3,1965,NA,0,2.26841027557607,2.27641328103486,2.29538304394236,2.34557047418999,FALSE,0.0501580341421183
"CAN","cpi",0.1,1965,3,1965,NA,0.5,2.31314479494897,2.32114780040777,2.29538304394236,1.61079447956654,FALSE,0.04747356325127
"CAN","cpi",0.1,1965,3,1964,NA,1,1.41347405385116,1.68201119666183,2.29538304394236,2.42518862179847,FALSE,1.63158569232295
"CAN","cpi",0.1,1965,3,1964,NA,1.5,1.45669355532204,1.7252306981327,2.29538304394236,0.818102552316399,FALSE,1.53554235572101
"CAN","cpi",0.1,1966,3,1966,NA,0,3.71347928511442,3.72996157902443,3.72486065470629,3.82010987863709,TRUE,0.0164822939100135
"CAN","cpi",0.1,1966,3,1966,NA,0.5,4.47349908944514,4.49360808479997,3.72486065470629,3.99123398895563,FALSE,1.68374996144116
"CAN","cpi",0.1,1966,3,1965,NA,1,1.7990461835074,1.91795320071552,3.72486065470629,3.20722068745854,FALSE,4.13425691496538
"CAN","cpi",0.1,1966,3,1965,NA,1.5,1.73599046105244,1.85489747826056,3.72486065470629,1.60663824631958,FALSE,4.27438074264307
"CAN","cpi",0.1,1967,3,1967,NA,0,3.66209726831088,3.67866924439127,3.49360316391996,3.76768849328632,FALSE,0.391003319171324
"CAN","cpi",0.1,1967,3,1967,NA,0.5,3.00506746699854,3.04779686477343,3.49360316391996,2.4074547441976,FALSE,1.03341006254495
"CAN","cpi",0.1,1967,3,1966,NA,1,1.803971799247,1.93164713228572,3.49360316391996,3.18103323070284,FALSE,3.59868873667035
"CAN","cpi",0.1,1967,3,1966,NA,1.5,2.12072700886289,2.24840234190161,3.49360316391996,4.65128160487248,FALSE,2.89478827085728
"CAN","cpi",0.1,1968,3,1968,NA,0,4.05925443523203,4.07513321320687,3.95128347779386,4.17287945672396,FALSE,0.255814238948563
"CAN","cpi",0.1,1968,3,1968,NA,0.5,4.54645988786033,4.56639991799129,3.95128347779386,4.07097205779852,FALSE,1.34255427472312
"CAN","cpi",0.1,1968,3,1967,NA,1,2.45418061532604,2.75746909906987,3.95128347779386,5.84521682123848,FALSE,2.95620932535269
"CAN","cpi",0.1,1968,3,1967,NA,1.5,1.80032176617694,2.10361024992077,3.95128347779386,2.25565858240226,FALSE,4.40922899012847
"CAN","cpi",0.1,1969,3,1969,NA,0,4.34916766025304,4.36008758717932,4.42679496126681,4.46896837073893,FALSE,0.159158536009605
"CAN","cpi",0.1,1969,3,1969,NA,0.5,3.3676779852806,3.51769265266048,4.42679496126681,2.96612019395715,FALSE,2.1702420198384
"CAN","cpi",0.1,1969,3,1968,NA,1,2.9895633156242,3.13957798300408,4.42679496126681,6.72487630040807,FALSE,3.01049684129707
"CAN","cpi",0.1,1969,3,1968,NA,1.5,2.13465421870667,2.52720416222147,4.42679496126681,4.31664452944541,FALSE,4.61386283028224
"CAN","cpi",0.1,1970,3,1970,NA,0,3.42615659888517,3.44314038580189,3.28128405769805,3.52697515579364,FALSE,0.338922767332548
"CAN","cpi",0.1,1970,3,1970,NA,0.5,5.0069595339891,5.09750223326248,3.28128405769805,4.65371085276917,FALSE,3.92537709103128
"CAN","cpi",0.1,1970,3,1969,NA,1,2.36327618855608,2.45381888782946,3.28128405769805,4.52747875087707,FALSE,1.92935418787024
"CAN","cpi",0.1,1970,3,1969,NA,1.5,1.91380345384188,2.19578239462672,3.28128405769805,2.07973847283129,FALSE,2.69420485872112
"CAN","cpi",0.1,1971,3,1971,NA,0,2.75177849316806,2.76467891388862,2.64123406634756,2.8393232579169,FALSE,0.258554702543892
"CAN","cpi",0.1,1971,3,1971,NA,0.5,2.50085665435875,2.66633142620134,2.64123406634756,2.06692165705507,TRUE,0.165474771842595
"CAN","cpi",0.1,1971,3,1970,NA,1,1.74929332045525,1.91476809229784,2.64123406634756,2.64105994583495,FALSE,1.7798436030642
"CAN","cpi",0.1,1971,3,1970,NA,1.5,2.44522008491993,2.74604371518111,2.64123406634756,4.63977638900468,TRUE,0.300823630261177
"CAN","cpi",0.1,1972,3,1972,NA,0,4.89956617035445,4.91630226903523,4.83230569625923,5.03048103188219,FALSE,0.166203818892382
"CAN","cpi",0.1,1972,3,1972,NA,0.5,5.11584735729119,5.46053515533233,4.83230569625923,5.06705904355972,FALSE,0.974780378112164
"CAN","cpi",0.1,1972,3,1971,NA,1,2.87865746276265,3.22334526080379,4.83230569625923,5.9169160270675,FALSE,3.92015543238656
"CAN","cpi",0.1,1972,3,1971,NA,1.5,2.13296123365074,2.47764903169188,4.83230569625923,3.09276495441271,FALSE,5.57725816374637
"CAN","cpi",0.1,1973,3,1973,NA,0,6.80575320542617,6.82311447430514,7.12388603531779,6.99264756193144,FALSE,0.685742515573751
"CAN","cpi",0.1,1973,3,1973,NA,0.5,5.15270295404197,5.7407677866903,7.12388603531779,5.47469896411854,FALSE,3.66166094070942
"CAN","cpi",0.1,1973,3,1972,NA,1,3.38425780903989,4.14665212917121,7.12388603531779,6.69062283747837,FALSE,7.37846966712372
"CAN","cpi",0.1,1973,3,1972,NA,1.5,2.22772619772051,2.99012051785182,7.12388603531779,4.73174243586486,FALSE,9.94853991450013
"CAN","cpi",0.1,1974,3,1974,NA,0,9.70682804176857,9.75328677980334,10.2717243737774,9.94431520564033,FALSE,1.19854228019939
"CAN","cpi",0.1,1974,3,1974,NA,0.5,7.50470395352853,8.35998429787337,10.2717243737774,8.3378654175141,FALSE,5.10359162413162
"CAN","cpi",0.1,1974,3,1973,NA,1,3.53646124009236,4.39174158443719,10.2717243737774,7.16712422635118,FALSE,13.9219087651009
"CAN","cpi",0.1,1974,3,1973,NA,1.5,2.15468922149378,3.00996956583862,10.2717243737774,4.05174749178054,FALSE,16.9925132508755
"CAN","cpi",0.1,1975,3,1975,NA,0,9.97656764787628,10.0342815858552,10.0232981493341,10.0931823619779,TRUE,0.057713937978928
"CAN","cpi",0.1,1975,3,1975,NA,0.5,9.01660561961056,9.07431955758949,10.0232981493341,8.98267476097328,FALSE,2.16655525296699
"CAN","cpi",0.1,1975,3,1974,NA,1,3.83828345248386,4.64434119370647,10.0232981493341,7.7837982223054,FALSE,12.7592954203952
"CAN","cpi",0.1,1975,3,1974,NA,1.5,2.40647810521134,3.21253584643395,10.0232981493341,5.75931605308519,FALSE,15.9410850810008
"CAN","cpi",0.1,1976,3,1976,NA,0,6.97795032467896,7.00117645843206,7.22784311401172,7.07277954951717,FALSE,0.526929812819009
"CAN","cpi",0.1,1976,3,1976,NA,0.5,8.67577982757747,8.69900596133058,7.22784311401172,8.59089060438327,FALSE,3.24086327501034
"CAN","cpi",0.1,1976,3,1975,NA,1,6.36784530866233,6.43839106177481,7.22784311401172,10.4141477685142,FALSE,1.82488364697227
"CAN","cpi",0.1,1976,3,1975,NA,1.5,2.93208318515938,4.04977553779873,7.22784311401172,6.43051086134862,FALSE,8.18006474422376
"CAN","cpi",0.1,1977,3,1977,NA,0,7.4852499245168,7.51225953521192,7.58101410153764,7.55301151664772,FALSE,0.179797535863397
"CAN","cpi",0.1,1977,3,1977,NA,0.5,7.9707043290574,8.13641408200493,7.58101410153764,7.98165850021887,FALSE,1.03168803632477
"CAN","cpi",0.1,1977,3,1976,NA,1,2.51818615451474,3.08394974204716,7.58101410153764,3.72134649143602,FALSE,10.5592399419557
"CAN","cpi",0.1,1977,3,1976,NA,1.5,3.18743973242181,4.87078161654825,7.58101410153764,8.00272044475614,FALSE,7.70608073965842
"CAN","cpi",0.1,1978,3,1978,NA,0,8.6025823639823,8.63314233742663,8.50208927062595,8.67127840358843,FALSE,0.253877958680668
"CAN","cpi",0.1,1978,3,1978,NA,0.5,7.91722758498896,8.49889545884444,8.50208927062595,8.3788273181893,FALSE,0.588765233369937
"CAN","cpi",0.1,1978,3,1977,NA,1,4.87156906117814,5.45323693503362,8.50208927062595,7.54783828416051,FALSE,7.35689528628287
"CAN","cpi",0.1,1978,3,1977,NA,1.5,5.17353176716668,7.60848151673797,8.50208927062595,9.72562756342223,FALSE,4.42074475821124
"CAN","cpi",0.1,1979,3,1979,NA,0,8.45495995939223,8.52537633195642,8.65147652410481,8.56376390232469,FALSE,0.350639021782836
"CAN","cpi",0.1,1979,3,1979,NA,0.5,8.12482716271118,8.35603393142144,8.65147652410481,8.29599284966764,FALSE,0.887745863562193
"CAN","cpi",0.1,1979,3,1978,NA,1,6.31626493099309,6.54747169970334,8.65147652410481,9.20311500508918,FALSE,4.90677304515795
"CAN","cpi",0.1,1979,3,1978,NA,1.5,6.05070149325381,7.70693939969778,8.65147652410481,8.55646910152924,FALSE,3.75520929401515
"CAN","cpi",0.1,1980,3,1980,NA,0,9.44041494774318,9.46228391867839,9.5171912664748,9.50406722106931,FALSE,0.14388529937166
"CAN","cpi",0.1,1980,3,1980,NA,0.5,8.66466716595582,8.68653613689103,9.5171912664748,8.57798914335092,FALSE,1.86776925889913
"CAN","cpi",0.1,1980,3,1979,NA,1,5.68263425976402,6.39440442197237,9.5171912664748,8.17875203710815,FALSE,7.65129648332485
"CAN","cpi",0.1,1980,3,1979,NA,1.5,6.89649634511877,7.60826650732712,9.5171912664748,8.39204766062112,FALSE,4.95382518253652
"CAN","cpi",0.1,1981,3,1981,NA,0,11.6510130109605,11.6800421526791,11.5813425032741,11.7113878984199,FALSE,0.183852492132642
"CAN","cpi",0.1,1981,3,1981,NA,0.5,11.9879984654554,12.0170276071741,11.5813425032741,12.2156196752767,FALSE,0.932709057677063
"CAN","cpi",0.1,1981,3,1980,NA,1,8.25576383239149,9.74092448866585,11.5813425032741,11.0496853423024,FALSE,5.57497846651501
"CAN","cpi",0.1,1981,3,1980,NA,1.5,6.93342589634684,8.41858655262121,11.5813425032741,8.33809792174894,FALSE,8.51350721328088
"CAN","cpi",0.1,1982,3,1982,NA,0,10.1866459913973,10.2221191855526,10.1124203763629,10.2566668151097,FALSE,0.20041900534278
"CAN","cpi",0.1,1982,3,1982,NA,0.5,9.86537839855066,10.0780121808776,10.1124203763629,10.1085355973545,FALSE,0.289096438961059
"CAN","cpi",0.1,1982,3,1981,NA,1,9.24428046129647,10.5574739174143,10.1124203763629,11.770988683124,TRUE,1.3131934561178
"CAN","cpi",0.1,1982,3,1981,NA,1.5,10.1910935285504,11.5042869846682,10.1124203763629,12.8701250351281,FALSE,1.488022683201
"CAN","cpi",0.1,1983,3,1983,NA,0,5.6421943051989,5.67900619885169,5.67091787896303,5.7310121416489,TRUE,0.036811893652791
"CAN","cpi",0.1,1983,3,1983,NA,0.5,5.30885171057284,5.34566360422563,5.67091787896303,4.91343016009654,FALSE,0.759599170847027
"CAN","cpi",0.1,1983,3,1982,NA,1,7.78648603758846,8.49480867095655,5.67091787896303,9.18500149866057,FALSE,5.40958520809126
"CAN","cpi",0.1,1983,3,1982,NA,1.5,7.90756305071563,8.61588568408372,5.67091787896303,9.68672301569366,FALSE,5.67864523726275
"CAN","cpi",0.1,1984,3,1984,NA,0,NA,NA,4.19799576814029,NA,NA,NA
"CAN","cpi",0.1,1984,3,1984,NA,0.5,6.18133266110914,6.20212584279104,4.19799576814029,5.85770686024457,FALSE,4.42820849939046
"CAN","cpi",0.1,1984,3,1983,NA,1,4.37182781884837,4.93215749444455,4.19799576814029,5.76553357996429,FALSE,0.946623121614147
"CAN","cpi",0.1,1984,3,1983,NA,1.5,3.50139527555198,4.06172495114816,4.19799576814029,2.9197996794717,FALSE,0.863153713356458
"CAN","cpi",0.1,1985,3,1985,NA,0,3.77089698126473,3.79537028340041,3.86444262005169,3.85417990135378,FALSE,0.177967383582978
"CAN","cpi",0.1,1985,3,1985,NA,0.5,4.68103470772413,4.70550800985982,3.86444262005169,4.21990042382899,FALSE,1.83912238585222
"CAN","cpi",0.1,1985,3,1984,NA,1,NA,NA,3.86444262005169,NA,NA,NA
"CAN","cpi",0.1,1985,3,1984,NA,1.5,7.40272667751535,7.76195952372989,3.86444262005169,8.62999660305356,FALSE,8.22208630724489
"CAN","cpi",0.1,1986,3,1986,NA,0,3.95180697951987,3.99080428466052,4.08685396749431,4.03771389199993,FALSE,0.252441044771306
"CAN","cpi",0.1,1986,3,1986,NA,0.5,4.81149031450546,4.85203183504136,4.08685396749431,4.38219332503529,FALSE,1.65084451389401
"CAN","cpi",0.1,1986,3,1985,NA,1,2.50929965834385,2.99851466903826,4.08685396749431,3.37849976080849,FALSE,2.90774678504119
"CAN","cpi",0.1,1986,3,1985,NA,1.5,4.88313500725486,5.37235001794927,4.08685396749431,4.95309858900956,FALSE,2.25872843238451
"CAN","cpi",0.1,1987,3,1987,NA,0,NA,NA,4.23980729277887,NA,NA,NA
"CAN","cpi",0.1,1987,3,1987,NA,0.5,4.46163838207557,4.62483288541027,4.23980729277887,4.13342161080085,FALSE,0.656152479549584
"CAN","cpi",0.1,1987,3,1986,NA,1,2.72691745820103,3.37763588541038,4.23980729277887,3.66140988164798,FALSE,2.56665488802823
"CAN","cpi",0.1,1987,3,1986,NA,1.5,4.62417891948969,5.27489734669904,4.23980729277887,4.80242768143514,FALSE,1.50487759767783
"CAN","cpi",0.1,1988,3,1988,NA,0,3.87908593492091,3.89673539429185,3.92899537638065,3.9438316199536,FALSE,0.0893383084571726
"CAN","cpi",0.1,1988,3,1988,NA,0.5,3.77520591223259,3.91206098061273,3.92899537638065,3.35419215340812,FALSE,0.174487058975529
"CAN","cpi",0.1,1988,3,1987,NA,1,NA,NA,3.92899537638065,NA,NA,NA
"CAN","cpi",0.1,1988,3,1987,NA,1.5,4.16968510824082,4.47300169927707,3.92899537638065,3.89461929526446,FALSE,0.83818266183662
"CAN","cpi",0.1,1989,3,1989,NA,0,4.88944235576936,4.9062658664618,4.82821664544208,4.95130318392835,FALSE,0.152880644753076
"CAN","cpi",0.1,1989,3,1989,NA,0.5,4.54693515405414,4.71326407345819,4.82821664544208,4.23024942747073,FALSE,0.421779079368243
"CAN","cpi",0.1,1989,3,1988,NA,1,3.08128198934632,3.64745753332674,4.82821664544208,4.05841794603162,FALSE,3.1900846820145
"CAN","cpi",0.1,1989,3,1988,NA,1.5,3.14472920537571,3.71090474935613,4.82821664544208,2.597843559383,FALSE,3.04909086861586
"CAN","cpi",0.1,1990,3,1990,NA,0,4.40950573354315,4.42865403901786,4.64347549432717,4.4746950192663,FALSE,0.496529317273178
"CAN","cpi",0.1,1990,3,1990,NA,0.5,5.34590846464304,5.38418201408634,4.64347549432717,4.96487168902479,FALSE,1.59923570570079
"CAN","cpi",0.1,1990,3,1989,NA,1,4.49638543260602,4.92669112437682,4.64347549432717,5.43871373969076,TRUE,0.430305691770798
"CAN","cpi",0.1,1990,3,1989,NA,1.5,3.77620139233771,4.2065070841085,4.64347549432717,3.3732540002381,FALSE,1.40134660336784
"CAN","cpi",0.1,1991,3,1991,NA,0,5.54764420845368,5.56679932123835,5.4258100696218,5.61053369942382,FALSE,0.289897643522197
"CAN","cpi",0.1,1991,3,1991,NA,0.5,7.71094462148378,7.99354197506488,5.4258100696218,7.82199295477594,FALSE,5.36067413549662
"CAN","cpi",0.1,1991,3,1990,NA,1,3.19774617799046,3.48091705194126,5.4258100696218,3.66716818384097,FALSE,4.60515535768532
"CAN","cpi",0.1,1991,3,1990,NA,1.5,4.73638969156722,5.19145460196595,5.4258100696218,4.82481948664164,FALSE,0.975854838522836
"CAN","cpi",0.1,1992,3,1992,NA,0,NA,NA,1.47496888572843,NA,NA,NA
"CAN","cpi",0.1,1992,3,1992,NA,0.5,NA,NA,1.47496888572843,NA,NA,NA
"CAN","cpi",0.1,1992,3,1991,NA,1,2.54431228645256,2.84723515028046,1.47496888572843,2.76780571233213,FALSE,2.67924153210375
"CAN","cpi",0.1,1992,3,1991,NA,1.5,6.15257960906547,6.76176230460682,1.47496888572843,7.14938182660169,FALSE,11.0038731918459
"CAN","cpi",0.1,1993,3,1993,NA,0,NA,NA,NA,NA,NA,NA
"CAN","cpi",0.1,1993,3,1993,NA,0.5,NA,NA,NA,NA,NA,NA
"CAN","cpi",0.1,1993,3,1992,NA,1,NA,NA,NA,NA,NA,NA
"CAN","cpi",0.1,1993,3,1992,NA,1.5,NA,NA,NA,NA,NA,NA
"CAN","cpi",0.1,1994,3,1994,NA,0,NA,NA,NA,NA,NA,NA
"CAN","cpi",0.1,1994,3,1994,NA,0.5,NA,NA,NA,NA,NA,NA
"CAN","cpi",0.1,1994,3,1993,NA,1,NA,NA,NA,NA,NA,NA
"CAN","cpi",0.1,1994,3,1993,NA,1.5,NA,NA,NA,NA,NA,NA
"CAN","cpi",0.1,1995,3,1995,NA,0,NA,NA,2.11688403676572,NA,NA,NA
"CAN","cpi",0.1,1995,3,1995,NA,0.5,3.03980832203888,3.14997023246498,2.11688403676572,2.51937811073084,FALSE,2.16110476658869
"CAN","cpi",0.1,1995,3,1994,NA,1,0.538283800982857,0.887212203571386,2.11688403676572,0.719396410821945,FALSE,3.08153247635371
"CAN","cpi",0.1,1995,3,1994,NA,1.5,1.05774221486227,1.4066706174508,2.11688403676572,-1.04654603924828,FALSE,1.92718044551056
"CAN","cpi",0.1,1996,3,1996,NA,0,1.35510393967327,1.37570992812548,1.55309584667184,1.42780748357026,FALSE,0.414796918555246
"CAN","cpi",0.1,1996,3,1996,NA,0.5,NA,NA,1.55309584667184,NA,NA,NA
"CAN","cpi",0.1,1996,3,1995,NA,1,NA,NA,1.55309584667184,NA,NA,NA
"CAN","cpi",0.1,1996,3,1995,NA,1.5,3.59809260583905,4.1995010317556,1.55309584667184,2.92232271175447,FALSE,5.14584566851034
"CAN","cpi",0.1,1997,3,1997,NA,0,1.67851580766411,1.68396499142772,1.60528783555959,1.73535847807117,FALSE,0.16817801066254
"CAN","cpi",0.1,1997,3,1997,NA,0.5,2.66929441950596,2.77696971614061,1.60528783555959,2.11078363597796,FALSE,2.47213437207102
"CAN","cpi",0.1,1997,3,1996,NA,1,1.24898256691878,1.40855566816242,1.60528783555959,0.984961337307556,FALSE,0.596755695459584
"CAN","cpi",0.1,1997,3,1996,NA,1.5,NA,NA,1.60528783555959,NA,NA,NA
"CAN","cpi",0.1,1998,3,1998,NA,0,0.964367932181455,0.982307167798823,0.988908029337191,1.0350847138471,FALSE,0.0326078168137411
"CAN","cpi",0.1,1998,3,1998,NA,0.5,2.29406766336331,2.38184745103037,0.988908029337191,1.68533655437107,FALSE,2.98813452994733
"CAN","cpi",0.1,1998,3,1997,NA,1,2.27960334338562,2.43067577057313,0.988908029337191,2.25159584334757,FALSE,3.01928423618402
"CAN","cpi",0.1,1998,3,1997,NA,1.5,3.12998667050636,3.47762610054257,0.988908029337191,2.38987816876076,FALSE,5.1055919659677
"CAN","cpi",0.1,1999,3,1999,NA,0,1.71637858133183,1.72487158850788,1.7107350135213,1.77618438459462,FALSE,0.0210342689772331
"CAN","cpi",0.1,1999,3,1999,NA,0.5,1.58976910794986,1.78239605684052,1.7107350135213,1.0290924799153,TRUE,0.192626948890662
"CAN","cpi",0.1,1999,3,1998,NA,1,1.87876836599881,2.10803773330941,1.7107350135213,1.85177544064205,FALSE,0.60267681726063
"CAN","cpi",0.1,1999,3,1998,NA,1.5,3.42552692645097,3.82998307584073,1.7107350135213,2.94645730787123,FALSE,4.21510484478903
"CAN","cpi",0.1,2000,3,2000,NA,0,2.63873173663336,2.66078752915218,2.6718361971244,2.7102541785615,FALSE,0.0466083880126412
"CAN","cpi",0.1,2000,3,2000,NA,0.5,2.87101015517309,2.96631796793809,2.6718361971244,2.34405201403356,FALSE,0.537916608428753
"CAN","cpi",0.1,2000,3,1999,NA,1,2.67569795757701,3.07013996223602,2.6718361971244,3.07542936781209,FALSE,0.403023694553697
"CAN","cpi",0.1,2000,3,1999,NA,1.5,3.03774827650697,3.43219028116597,2.6718361971244,2.27809035801724,FALSE,1.20757995884249
"CAN","cpi",0.1,2001,3,2001,NA,0,2.71700019665911,2.7261280883514,2.47906219852806,2.77546584984351,FALSE,0.537878998650162
"CAN","cpi",0.1,2001,3,2001,NA,0.5,2.84609270629415,3.05014672270248,2.47906219852806,2.43566755503104,FALSE,1.01967736699963
"CAN","cpi",0.1,2001,3,2000,NA,1,3.13879905495361,3.49926273760108,2.47906219852806,3.68958695319843,FALSE,1.82654558581535
"CAN","cpi",0.1,2001,3,2000,NA,1.5,3.36186397247568,3.82201950559034,2.47906219852806,3.01270789712173,FALSE,2.42193725299825
"CAN","cpi",0.1,2002,3,2002,NA,0,2.20328956365485,2.22162943648921,2.20880570551249,2.27196234986351,TRUE,0.0183398728343542
"CAN","cpi",0.1,2002,3,2002,NA,0.5,2.08491339327094,2.24455609973588,2.20880570551249,1.58345411989126,TRUE,0.159642706464936
"CAN","cpi",0.1,2002,3,2001,NA,1,2.02812503489105,2.33358269086119,2.20880570551249,2.26510423845898,TRUE,0.305457655970137
"CAN","cpi",0.1,2002,3,2001,NA,1.5,3.36572582848491,3.82704327647577,2.20880570551249,3.02058043279009,FALSE,3.03225105459624
"CAN","cpi",0.1,2003,3,2003,NA,0,2.64683626531561,2.66372469549226,2.71189071546809,2.71326702620668,FALSE,0.123924030122948
"CAN","cpi",0.1,2003,3,2003,NA,0.5,4.70270763040818,4.93267958017579,2.71189071546809,4.51432649273496,FALSE,4.65400953852337
"CAN","cpi",0.1,2003,3,2002,NA,1,3.15812030495917,3.5301206481976,2.71189071546809,3.85618281746238,FALSE,1.36362165321861
"CAN","cpi",0.1,2003,3,2002,NA,1.5,3.05679134383249,3.42879168707091,2.71189071546809,2.39402389849184,FALSE,1.1384461840482
"CAN","cpi",0.1,2004,3,2004,NA,0,1.71495260621174,1.7233527317132,1.83151661303942,1.77466852383015,FALSE,0.248764306226398
"CAN","cpi",0.1,2004,3,2004,NA,0.5,2.09701367886669,2.15679217136398,1.83151661303942,1.55260435151936,FALSE,0.649771972113433
"CAN","cpi",0.1,2004,3,2003,NA,1,1.81693081044596,1.87670930294325,1.83151661303942,1.79415792598285,TRUE,0.0597784924972919
"CAN","cpi",0.1,2004,3,2003,NA,1.5,3.96645227700293,4.61450827692642,1.83151661303942,4.26699272545716,FALSE,5.39235747539794
"CAN","cpi",0.1,2005,3,2005,NA,0,2.27980224995059,2.29326192044686,2.18071628336509,2.34345353472953,FALSE,0.233650707352934
"CAN","cpi",0.1,2005,3,2005,NA,0.5,2.03976292184474,2.10050410802151,2.18071628336509,1.50321338317329,FALSE,0.238990464718067
"CAN","cpi",0.1,2005,3,2004,NA,1,1.68923616632891,1.74997735250569,2.18071628336509,1.64043962712234,FALSE,1.01793881030878
"CAN","cpi",0.1,2005,3,2004,NA,1.5,2.71170500177427,3.18745048973015,2.18071628336509,2.03393284113233,FALSE,1.65572041775405
"CAN","cpi",0.1,2006,3,2006,NA,0,2.03321051482575,2.04446138162879,1.97519342012289,2.09514376892657,FALSE,0.140177743920509
"CAN","cpi",0.1,2006,3,2006,NA,0.5,2.51831080628102,2.7131487246511,1.97519342012289,2.09436263599022,FALSE,1.40176544316594
"CAN","cpi",0.1,2006,3,2005,NA,1,2.56029279315271,2.79776289854162,1.97519342012289,2.9582912060806,FALSE,1.53769093434407
"CAN","cpi",0.1,2006,3,2005,NA,1.5,2.53030624344216,2.94136584910363,1.97519342012289,1.64885961980806,FALSE,1.64464365748208
"CAN","cpi",0.1,2007,3,2007,NA,0,2.03923704054164,2.05617694332773,2.10062087284572,2.10683622102307,FALSE,0.115704190603852
"CAN","cpi",0.1,2007,3,2007,NA,0.5,2.64914434154069,2.70714050314864,2.10062087284572,2.17629902083353,FALSE,1.27693720315233
"CAN","cpi",0.1,2007,3,2006,NA,1,1.5946392385851,1.65263540019306,2.10062087284572,1.50861692709856,FALSE,1.05351943416944
"CAN","cpi",0.1,2007,3,2006,NA,1.5,2.77070883766051,3.16522050645144,2.10062087284572,2.15918616350405,FALSE,1.88359603504601
"CAN","cpi",0.1,2008,3,2008,NA,0,2.80349464643983,2.82164520286096,2.31447335265955,2.87079455148828,FALSE,1.10486454259953
"CAN","cpi",0.1,2008,3,2008,NA,0.5,1.84043979213214,1.90412465674331,2.31447335265955,1.31005314695267,FALSE,0.975570855536156
"CAN","cpi",0.1,2008,3,2007,NA,1,1.56390707736559,1.62759194197675,2.31447335265955,1.47031049982668,FALSE,1.59008799946183
"CAN","cpi",0.1,2008,3,2007,NA,1.5,2.750501582943,3.36327020661631,2.31447335265955,2.46453195342394,FALSE,1.58172024652542
"CAN","cpi",0.1,2009,3,2009,NA,0,0.132004629734438,0.13266884105574,0.284533874408197,0.187122346349721,FALSE,0.338142063215652
"CAN","cpi",0.1,2009,3,2009,NA,0.5,0.568654568598881,0.725527417142128,0.284533874408197,-0.0727492620466167,FALSE,0.788252168966989
"CAN","cpi",0.1,2009,3,2008,NA,1,3.14559306842397,3.59130220070332,0.284533874408197,3.81780026356951,FALSE,6.8036184523144
"CAN","cpi",0.1,2009,3,2008,NA,1.5,2.40250925543147,2.84821838771082,0.284533874408197,1.68675152630419,FALSE,5.15232109010885
"CAN","cpi",0.1,2010,3,2010,NA,0,1.55037184696969,1.56068083125405,1.75525687020327,1.6089956646354,FALSE,0.442700181949296
"CAN","cpi",0.1,2010,3,2010,NA,0.5,2.36486626567569,2.45677400278088,1.75525687020327,1.91109502526183,FALSE,1.44659528259946
"CAN","cpi",0.1,2010,3,2009,NA,1,1.2648219116973,1.35672964880249,1.75525687020327,0.992295788494754,FALSE,0.977523784662476
"CAN","cpi",0.1,2010,3,2009,NA,1.5,2.01534883920764,2.31370156302314,1.75525687020327,0.885103052815867,FALSE,0.876334877158542
"CAN","cpi",0.1,2011,3,2011,NA,0,2.79913896829319,2.81568373612691,2.85717434028225,2.86665414062098,FALSE,0.108746110401135
"CAN","cpi",0.1,2011,3,2011,NA,0.5,3.11328357823835,3.2400610854708,2.85717434028225,2.76583381894771,FALSE,0.695909147134897
"CAN","cpi",0.1,2011,3,2010,NA,1,1.56021175358564,1.68698926081808,2.85717434028225,1.39294644169719,FALSE,2.72718879493059
"CAN","cpi",0.1,2011,3,2010,NA,1.5,2.36498945189113,2.69229203815159,2.85717434028225,1.64253060592363,FALSE,0.693707702106365
"CAN","cpi",0.1,2012,3,2012,NA,0,1.47033866355695,1.48262333473503,1.50118536134935,1.52822510849394,FALSE,0.0535336192098943
"CAN","cpi",0.1,2012,3,2012,NA,0.5,2.30782657219375,2.52069285810333,1.50118536134935,1.92429021972789,FALSE,2.00540231000826
"CAN","cpi",0.1,2012,3,2011,NA,1,2.01608390921752,2.2289501951271,1.50118536134935,1.99945242447079,FALSE,1.35708528117219
"CAN","cpi",0.1,2012,3,2011,NA,1.5,2.75227549557421,3.35249194561167,1.50118536134935,2.48150957397962,FALSE,3.38041674831494
"CAN","cpi",0.1,2013,3,2013,NA,0,1.00176276329528,1.02493632647514,0.931270594714462,1.05630513423211,FALSE,0.179822826692798
"CAN","cpi",0.1,2013,3,2013,NA,0.5,1.710281676849,1.76626092617561,0.931270594714462,1.16963454554932,FALSE,1.78711498740336
"CAN","cpi",0.1,2013,3,2012,NA,1,1.37667113994504,1.43265038927164,0.931270594714462,1.08868089128742,FALSE,1.04575823872788
"CAN","cpi",0.1,2013,3,2012,NA,1.5,2.59727512916359,3.09060010308502,0.931270594714462,2.14573179530527,FALSE,4.19555727269728
"CAN","cpi",0.1,2014,3,2014,NA,0,1.93740871923765,1.95357512128097,1.87639912240215,1.99862849145116,FALSE,0.151743283899989
"CAN","cpi",0.1,2014,3,2014,NA,0.5,2.12454806624774,2.31440591761052,1.87639912240215,1.79231976082687,FALSE,0.741299948797425
"CAN","cpi",0.1,2014,3,2013,NA,1,1.51508154922131,1.70493940058409,1.87639912240215,1.40664989819898,FALSE,0.570879455402913
"CAN","cpi",0.1,2014,3,2013,NA,1.5,2.24213426064163,2.59608930186741,1.87639912240215,1.51436121777893,FALSE,1.16669979286907
"CAN","cpi",0.1,2015,3,2015,NA,0,1.15450132677147,1.16433409602959,1.11090953952792,1.2103065042478,FALSE,0.106703407577136
"CAN","cpi",0.1,2015,3,2015,NA,0.5,0.906329222117336,1.08431222449221,1.11090953952792,0.458547315718059,FALSE,0.237088146898667
"CAN","cpi",0.1,2015,3,2014,NA,1,1.66240526407079,1.84038826644567,1.11090953952792,1.57054781428135,FALSE,1.4035290569146
"CAN","cpi",0.1,2015,3,2014,NA,1.5,2.29629724966434,2.83645447352582,1.11090953952792,1.88229109541157,FALSE,3.17435213527575
"CAN","cpi",0.1,2016,3,2016,NA,0,1.35319713183209,1.37057442470818,1.41168586698797,1.41630667471992,FALSE,0.108736053497831
"CAN","cpi",0.1,2016,3,2016,NA,0.5,1.54429891930073,1.7668875054108,1.41168586698797,1.17972158292925,FALSE,0.517284257916212
"CAN","cpi",0.1,2016,3,2015,NA,1,1.82890433691448,2.05149292302455,1.41168586698797,1.8638656605167,FALSE,1.14974074150233
"CAN","cpi",0.1,2016,3,2015,NA,1.5,1.87996633670198,2.30594252020062,1.41168586698797,1.07023002715086,FALSE,1.46659944952979
"CAN","cpi",0.1,2017,3,2017,NA,0,1.44703885072066,1.45929799132529,1.57888581671161,1.50492692646759,FALSE,0.278009863685352
"CAN","cpi",0.1,2017,3,2017,NA,0.5,2.43912492214072,2.53790149740955,1.57888581671161,2.09086618282141,FALSE,2.01041903177797
"CAN","cpi",0.1,2017,3,2016,NA,1,1.31063592870036,1.40941250396919,1.57888581671161,1.14652050352824,FALSE,0.475383936918649
"CAN","cpi",0.1,2017,3,2016,NA,1.5,1.96902862247493,2.41487225052498,1.57888581671161,1.26788084523026,FALSE,1.31282764085742
"CAN","cpi",0.1,2018,3,2018,NA,0,2.34886619266467,2.37539175359919,2.23316270166586,2.41317537496083,FALSE,0.283644429820765
"CAN","cpi",0.1,2018,3,2018,NA,0.5,2.74634243234972,2.95189266098781,2.23316270166586,2.52809119314695,FALSE,1.34594963015778
"CAN","cpi",0.1,2018,3,2017,NA,1,1.33488996138115,1.54044019001924,2.23316270166586,1.16800101916097,FALSE,1.7449335878528
"CAN","cpi",0.1,2018,3,2017,NA,1.5,2.30630314661067,2.94617133921098,2.23316270166586,2.07298402260093,FALSE,0.802402514699892
"CAN","cpi",0.1,2019,3,2019,NA,0,NA,NA,1.91921619871868,NA,NA,NA
"CAN","cpi",0.1,2019,3,2019,NA,0.5,1.70514576347209,2.01113236975176,1.91921619871868,1.47328806303322,TRUE,0.305986606279669
"CAN","cpi",0.1,2019,3,2018,NA,1,2.13047770126426,2.43646430754393,1.91921619871868,2.23470281046333,FALSE,0.775456611936518
"CAN","cpi",0.1,2019,3,2018,NA,1.5,2.39374919069869,2.96266265420483,1.91921619871868,2.32030562567512,FALSE,1.62343122346172
"CAN","cpi",0.1,2020,3,2020,NA,0,0.621577930474775,0.626990514447943,0.71139989671781,0.673588636713597,FALSE,0.192988989017318
"CAN","cpi",0.1,2020,3,2020,NA,0.5,NA,NA,0.71139989671781,NA,NA,NA
"CAN","cpi",0.1,2020,3,2019,NA,1,NA,NA,0.71139989671781,NA,NA,NA
"CAN","cpi",0.1,2020,3,2019,NA,1.5,2.15206804363753,2.62920881715851,0.71139989671781,1.77705491937904,FALSE,3.67862554445369
"CAN","cpi",0.1,2021,3,2021,NA,0,3.18232119495292,3.21183534268783,3.31148121717802,3.2525646654712,FALSE,0.250949424379785
"CAN","cpi",0.1,2021,3,2021,NA,0.5,2.3812466938973,2.59416343164072,3.31148121717802,2.16773480502693,FALSE,1.80695626115965
"CAN","cpi",0.1,2021,3,2020,NA,1,1.65091685028741,1.86383358803083,3.31148121717802,1.61070774476322,FALSE,3.42991146918163
"CAN","cpi",0.1,2021,3,2020,NA,1.5,NA,NA,3.31148121717802,NA,NA,NA
"CAN","cpi",0.1,2022,3,2022,NA,0,6.4930966805664,6.5318888745916,6.50977236228281,6.58682891800883,TRUE,0.0387921940252021
"CAN","cpi",0.1,2022,3,2022,NA,0.5,5.44126629193144,5.85658750952705,6.50977236228281,5.58900513180898,FALSE,1.86684311260841
"CAN","cpi",0.1,2022,3,2021,NA,1,2.84600128662673,3.32185929894488,6.50977236228281,3.35597076522593,FALSE,7.56010926418022
"CAN","cpi",0.1,2022,3,2021,NA,1.5,2.15261072643193,2.70134849309544,6.50977236228281,1.89458222166426,FALSE,9.01190192041322
"CAN","cpi",0.1,2023,3,2023,NA,0,3.89547245723222,3.91846174064395,3.78831288758619,3.96221561415741,FALSE,0.261121660402901
"CAN","cpi",0.1,2023,3,2023,NA,0.5,3.71472409894375,4.05623145383303,3.78831288758619,3.6121970566696,TRUE,0.341507354889284
"CAN","cpi",0.1,2023,3,2022,NA,1,4.17950276432741,5.02982523901078,3.78831288758619,5.4861852561408,FALSE,1.71963331188608
"CAN","cpi",0.1,2023,3,2022,NA,1.5,3.06573086677087,3.91605334145425,3.78831288758619,3.85557075258935,TRUE,0.850322474683372
"CAN","cpi",0.1,2024,3,2023,NA,1,3.69455821538272,4.42483881588694,NA,4.72280809903739,NA,NA
"CAN","cpi",0.1,2024,3,2023,NA,1.5,3.30430623928363,4.21898217019658,NA,4.36705509613113,NA,NA
"CAN","cpi",0.2,1950,3,1950,NA,0,2.28668879654602,2.28668879654602,2.59031220731124,2.34506766740468,FALSE,0.75905852691304
"CAN","cpi",0.2,1950,3,1950,NA,0.5,-7.58055977928719,-7.58055977928719,2.59031220731124,-0.480727815155867,FALSE,25.4271799664961
"CAN","cpi",0.2,1950,3,1949,NA,1,43.7612928814295,43.7612928814295,2.59031220731124,5.09987337388258,FALSE,102.927451685296
"CAN","cpi",0.2,1950,3,1949,NA,1.5,-0.792751085941937,-0.792751085941937,2.59031220731124,12.3211560066576,FALSE,8.45765823313294
"CAN","cpi",0.2,1951,3,1951,NA,0,9.71745433396587,9.76582550225667,9.87945438999359,9.91468181420993,FALSE,0.33244338763311
"CAN","cpi",0.2,1951,3,1951,NA,0.5,9.67535055907888,9.72372172736969,9.87945438999359,8.91293028153729,FALSE,0.437702824850569
"CAN","cpi",0.2,1951,3,1950,NA,1,5.22935871279161,5.92666262659859,9.87945438999359,7.18504019917801,FALSE,10.5792833222945
"CAN","cpi",0.2,1951,3,1950,NA,1.5,26.9918751842773,27.6891790980843,9.87945438999359,-2.18579641022426,FALSE,43.4783558995162
"CAN","cpi",0.2,1952,3,1952,NA,0,2.52083332540903,2.67041952352793,2.55562336095485,2.50792675283471,TRUE,0.149586198118902
"CAN","cpi",0.2,1952,3,1952,NA,0.5,6.81727804069728,6.96686423881619,2.55562336095485,5.20333179389047,FALSE,10.803722897475
"CAN","cpi",0.2,1952,3,1951,NA,1,5.23529963087059,9.53795996620665,2.55562336095485,8.18998200969936,FALSE,11.0018510101254
"CAN","cpi",0.2,1952,3,1951,NA,1.5,2.83397875125823,7.13663908659429,2.55562336095485,7.55460015368862,FALSE,4.99854881109451
"CAN","cpi",0.2,1953,3,1953,NA,0,0.478926803838371,-1.82407370530906,-1.01492775838436,-0.954275034924989,FALSE,3.45450076372114
"CAN","cpi",0.2,1953,3,1953,NA,0.5,-1.34801313648053,-3.65101364562796,-1.01492775838436,-1.88711612688489,FALSE,4.28721420896157
"CAN","cpi",0.2,1953,3,1952,NA,1,-4.81720953120134,-7.12021004034877,-1.01492775838436,-0.873617238258229,FALSE,12.9602051957636
"CAN","cpi",0.2,1953,3,1952,NA,1.5,5.67105579743201,5.79880125812044,-1.01492775838436,5.93557635631702,FALSE,16.8427043502294
"CAN","cpi",0.2,1954,3,1954,NA,0,0.876098700275511,0.922470665625207,0.644425455961438,0.879731201855888,FALSE,0.625555076134878
"CAN","cpi",0.2,1954,3,1954,NA,0.5,0.371144117743615,0.41751608309331,0.644425455961438,-0.358875738913824,FALSE,0.613645397520015
"CAN","cpi",0.2,1954,3,1953,NA,1,1.69128192917157,3.72839771454447,0.644425455961438,3.38326531029323,FALSE,4.65425696839823
"CAN","cpi",0.2,1954,3,1953,NA,1.5,8.4024312062961,10.439546991669,0.644425455961438,-1.28741438714058,FALSE,21.4321301612096
"CAN","cpi",0.2,1955,3,1955,NA,0,0.0370099776207671,0.057103870223527,0.173649026558865,0.115254687233858,FALSE,0.311456783441105
"CAN","cpi",0.2,1955,3,1955,NA,0.5,0.0143197652918189,0.271861888765286,0.173649026558865,-0.770970046821609,TRUE,0.257542123473467
"CAN","cpi",0.2,1955,3,1954,NA,1,0.714397781724432,1.60673687594361,0.173649026558865,3.47019599757395,FALSE,2.2442109821331
"CAN","cpi",0.2,1955,3,1954,NA,1.5,0.557457198998078,9.73365649255777,0.173649026558865,-1.89562740163941,FALSE,10.1357197246577
"CAN","cpi",0.2,1956,3,1956,NA,0,1.5191150010934,1.60518379905552,1.32752769429961,1.56059797998755,FALSE,0.565037064946592
"CAN","cpi",0.2,1956,3,1956,NA,0.5,0.229968549051778,0.327755372888181,1.32752769429961,-0.709146002056511,FALSE,2.59721762736497
"CAN","cpi",0.2,1956,3,1955,NA,1,-0.249814289247698,-0.0672057694290107,1.32752769429961,0.884549626974225,FALSE,3.66944217914023
"CAN","cpi",0.2,1956,3,1955,NA,1.5,0.444644618477121,0.627253138295809,1.32752769429961,-1.89150615642833,FALSE,1.93329490982819
"CAN","cpi",0.2,1957,3,1957,NA,0,3.3030960379649,3.42152366084055,3.24684755852518,3.4151370317006,FALSE,0.259048821474968
"CAN","cpi",0.2,1957,3,1957,NA,0.5,2.89589694159246,3.01432456446811,3.24684755852518,2.23982631608766,FALSE,0.699735108018321
"CAN","cpi",0.2,1957,3,1956,NA,1,2.32606859495676,3.51822787150426,3.24684755852518,6.98754636690555,TRUE,1.1921592765475
"CAN","cpi",0.2,1957,3,1956,NA,1.5,0.347365377322908,1.53952465387041,3.24684755852518,-1.88668623310337,FALSE,5.46046653818442
"CAN","cpi",0.2,1958,3,1958,NA,0,2.11094452389257,2.17065427645697,2.33186388641149,2.22387249143335,FALSE,0.462733777450703
"CAN","cpi",0.2,1958,3,1958,NA,0.5,2.90596070996186,3.23676621768441,2.33186388641149,2.22839060734872,FALSE,1.76604756659847
"CAN","cpi",0.2,1958,3,1957,NA,1,1.0928775745653,2.18051379919212,2.33186388641149,4.42088197051908,FALSE,1.46601144267524
"CAN","cpi",0.2,1958,3,1957,NA,1.5,1.57670730511859,3.11747515502272,2.33186388641149,0.91301479707402,TRUE,1.54076784990414
"CAN","cpi",0.2,1959,3,1959,NA,0,1.16664902716862,1.28382141148529,1.19382698397654,1.24991216431293,TRUE,0.117172384316678
"CAN","cpi",0.2,1959,3,1959,NA,0.5,1.26118726374032,1.378359648057,1.19382698397654,0.437839731590327,FALSE,0.285573083726137
"CAN","cpi",0.2,1959,3,1958,NA,1,0.0330013374103926,0.573737062673887,1.19382698397654,1.75862762885946,FALSE,2.09096052852013
"CAN","cpi",0.2,1959,3,1958,NA,1.5,1.65321157600246,2.36087347311071,1.19382698397654,1.77407172713766,FALSE,1.85612337717304
"CAN","cpi",0.2,1960,3,1960,NA,0,0.930427347912217,1.07332910817434,1.34209404870695,1.02361304259477,FALSE,0.814814111593655
"CAN","cpi",0.2,1960,3,1960,NA,0.5,1.28659352270653,1.4561562347836,1.34209404870695,0.53898348018166,TRUE,0.169562712077065
"CAN","cpi",0.2,1960,3,1959,NA,1,0.996126503771889,2.02520279947798,1.34209404870695,3.95759373689442,TRUE,1.0290762957061
"CAN","cpi",0.2,1960,3,1959,NA,1.5,1.33028916763397,2.35936546334006,1.34209404870695,-0.873476815404885,TRUE,1.0290762957061
"CAN","cpi",0.2,1961,3,1961,NA,0,0.957892505772505,1.05906711704686,1.00921348094007,1.00921348094007,TRUE,0.101174611274354
"CAN","cpi",0.2,1961,3,1961,NA,0.5,1.77136082520993,1.88127874466405,1.00921348094007,1.00921348094007,FALSE,2.01528628012876
"CAN","cpi",0.2,1961,3,1960,NA,1,-0.331087709758804,0.249884249404153,1.00921348094007,0.0537704626035329,FALSE,2.47929503800275
"CAN","cpi",0.2,1961,3,1960,NA,1.5,1.11177078096152,1.69274274012448,1.00921348094007,-0.862181798940035,FALSE,0.837365209216579
"CAN","cpi",0.2,1962,3,1962,NA,0,1.05376102390185,1.1466871734038,1.04957947883042,1.10232402731478,FALSE,0.103380012180528
"CAN","cpi",0.2,1962,3,1962,NA,0.5,0.787650306235976,0.880576455737929,1.04957947883042,0,FALSE,0.515433707233169
"CAN","cpi",0.2,1962,3,1961,NA,1,0.10328017953819,0.691952516658305,1.04957947883042,0,FALSE,1.48273974255039
"CAN","cpi",0.2,1962,3,1961,NA,1.5,1.04869393520938,1.63736627232949,1.04957947883042,0,TRUE,0.588672337120115
"CAN","cpi",0.2,1963,3,1963,NA,0,1.84606130912338,1.91133459631302,1.60677118395228,1.91491729531202,FALSE,0.663498600117379
"CAN","cpi",0.2,1963,3,1963,NA,0.5,1.55976978778125,1.72543023562377,1.60677118395228,0.836828714617504,TRUE,0.165660447842522
"CAN","cpi",0.2,1963,3,1962,NA,1,1.40436126067234,1.79578134708735,1.60677118395228,2.56411490415144,TRUE,0.391420086415007
"CAN","cpi",0.2,1963,3,1962,NA,1.5,1.11261631900022,1.57344388853865,1.60677118395228,0,FALSE,0.544145808072515
"CAN","cpi",0.2,1964,3,1964,NA,0,1.91806294792819,1.98489771564975,1.88764670034376,1.98877256446048,FALSE,0.142875386682643
"CAN","cpi",0.2,1964,3,1964,NA,0.5,2.10630605221655,2.21983311995326,1.88764670034376,1.38369006227607,FALSE,0.660175447418688
"CAN","cpi",0.2,1964,3,1963,NA,1,2.16245190633542,2.66199752403087,1.88764670034376,5.39044290347256,FALSE,1.18655863267459
"CAN","cpi",0.2,1964,3,1963,NA,1.5,1.09325729492171,1.59280291261716,1.88764670034376,0,FALSE,1.23665508701195
"CAN","cpi",0.2,1965,3,1965,NA,0,2.26779867342828,2.34028423735842,2.29538304394236,2.34557047418999,TRUE,0.072485563930142
"CAN","cpi",0.2,1965,3,1965,NA,0.5,2.26963199982889,2.34335243768975,2.29538304394236,1.61079447956654,TRUE,0.0737204378608567
"CAN","cpi",0.2,1965,3,1964,NA,1,1.41224840722308,1.70805247363178,2.29538304394236,2.42518862179847,FALSE,1.76413049218515
"CAN","cpi",0.2,1965,3,1964,NA,1.5,1.45791920195013,1.75372326835883,2.29538304394236,0.818102552316399,FALSE,1.64995350536752
"CAN","cpi",0.2,1966,3,1966,NA,0,3.71315217559348,3.73707511486914,3.72486065470629,3.82010987863709,TRUE,0.0239229392756535
"CAN","cpi",0.2,1966,3,1966,NA,0.5,4.47349908944514,4.51184880510544,3.72486065470629,3.99123398895563,FALSE,1.90994580250742
"CAN","cpi",0.2,1966,3,1965,NA,1,1.62069889710576,1.94904027260088,3.72486065470629,3.20722068745854,FALSE,4.76789233075864
"CAN","cpi",0.2,1966,3,1965,NA,1.5,1.52846821104492,1.85680958654005,3.72486065470629,1.60663824631958,FALSE,4.99846904591073
"CAN","cpi",0.2,1967,3,1967,NA,0,3.66176837894717,3.68582148585165,3.49360316391996,3.76768849328632,FALSE,0.444466144472509
"CAN","cpi",0.2,1967,3,1967,NA,0.5,2.73316115708427,3.03795580044708,3.49360316391996,2.4074547441976,FALSE,1.443913052045
"CAN","cpi",0.2,1967,3,1966,NA,1,1.71541214408496,2.02020678744777,3.49360316391996,3.18103323070284,FALSE,3.98828558454329
"CAN","cpi",0.2,1967,3,1966,NA,1.5,1.86473866300507,2.57678425554405,3.49360316391996,4.65128160487248,FALSE,3.00409286347875
"CAN","cpi",0.2,1968,3,1968,NA,0,4.05893930315851,4.08198627971029,3.95128347779386,4.17287945672396,FALSE,0.292186539963402
"CAN","cpi",0.2,1968,3,1968,NA,0.5,4.26001786179068,4.58448737119734,3.95128347779386,4.07097205779852,FALSE,1.09630546939871
"CAN","cpi",0.2,1968,3,1967,NA,1,2.3932611525186,2.85962062301561,3.95128347779386,5.84521682123848,FALSE,3.19551660744262
"CAN","cpi",0.2,1968,3,1967,NA,1.5,1.7740673460026,2.24042681649961,3.95128347779386,2.25565858240226,FALSE,4.74350112373263
"CAN","cpi",0.2,1969,3,1969,NA,0,4.32533092205217,4.36484497029236,4.42679496126681,4.46896837073893,FALSE,0.194389025676337
"CAN","cpi",0.2,1969,3,1969,NA,0.5,3.10283774576562,3.57800632270923,4.42679496126681,2.96612019395715,FALSE,2.59714017333758
"CAN","cpi",0.2,1969,3,1968,NA,1,2.58429995583259,3.16202229567225,4.42679496126681,6.72487630040807,FALSE,3.73965400382608
"CAN","cpi",0.2,1969,3,1968,NA,1.5,2.13243556664667,2.71015790648633,4.42679496126681,4.31664452944541,FALSE,4.86931497679086
"CAN","cpi",0.2,1970,3,1970,NA,0,3.42581953667573,3.45047035926739,3.28128405769805,3.52697515579364,FALSE,0.385989520035865
"CAN","cpi",0.2,1970,3,1970,NA,0.5,4.39878441403802,5.11534184368522,3.28128405769805,4.65371085276917,FALSE,3.51030832049713
"CAN","cpi",0.2,1970,3,1969,NA,1,2.22598080946851,3.13001490709304,3.28128405769805,4.52747875087707,FALSE,1.28220697413705
"CAN","cpi",0.2,1970,3,1969,NA,1.5,1.6919781515435,2.59601224916802,3.28128405769805,2.07973847283129,FALSE,2.61721361894959
"CAN","cpi",0.2,1971,3,1971,NA,0,2.72361860222072,2.77029912033335,2.64123406634756,2.8393232579169,FALSE,0.252641857795526
"CAN","cpi",0.2,1971,3,1971,NA,0.5,2.4302593874782,2.75886819583531,2.64123406634756,2.06692165705507,TRUE,0.328608808357106
"CAN","cpi",0.2,1971,3,1970,NA,1,1.70768581376067,2.31291885821565,2.64123406634756,2.64105994583495,FALSE,1.42602106478476
"CAN","cpi",0.2,1971,3,1970,NA,1.5,2.16635868368588,2.77159172814086,2.64123406634756,4.63977638900468,TRUE,0.605233044454982
"CAN","cpi",0.2,1972,3,1972,NA,0,4.87721902334377,4.91426378330923,4.83230569625923,5.03048103188219,FALSE,0.149328077676813
"CAN","cpi",0.2,1972,3,1972,NA,0.5,4.70728856670311,5.49188745497747,4.83230569625923,5.06705904355972,TRUE,0.784598888274356
"CAN","cpi",0.2,1972,3,1971,NA,1,2.96058329189835,3.81208558619472,4.83230569625923,5.9169160270675,FALSE,3.40205256945765
"CAN","cpi",0.2,1972,3,1971,NA,1.5,1.88773550978935,2.73923780408572,4.83230569625923,3.09276495441271,FALSE,6.08417202473014
"CAN","cpi",0.2,1973,3,1973,NA,0,6.80128117115446,6.83416921106244,7.12388603531779,6.99264756193144,FALSE,0.757180100546365
"CAN","cpi",0.2,1973,3,1973,NA,0.5,5.01667706267822,5.84784372888091,7.12388603531779,5.47469896411854,FALSE,4.02127243229489
"CAN","cpi",0.2,1973,3,1972,NA,1,3.27592153240282,4.12412207286898,7.12388603531779,6.69062283747837,FALSE,8.34761044658818
"CAN","cpi",0.2,1973,3,1972,NA,1.5,2.1803118391274,3.02851237959356,7.12388603531779,4.73174243586486,FALSE,11.0866346797767
"CAN","cpi",0.2,1974,3,1974,NA,0,9.70439878839592,9.77919335742781,10.2717243737774,9.94431520564033,FALSE,1.30612210990591
"CAN","cpi",0.2,1974,3,1974,NA,0.5,7.47705896673531,8.39751520530198,10.2717243737774,8.3378654175141,FALSE,5.60597915975527
"CAN","cpi",0.2,1974,3,1973,NA,1,3.52110280113093,4.44155903969759,10.2717243737774,7.16712422635118,FALSE,15.4958695737662
"CAN","cpi",0.2,1974,3,1973,NA,1.5,2.05883202921429,2.97928826778095,10.2717243737774,4.05174749178054,FALSE,19.1515465035578
"CAN","cpi",0.2,1975,3,1975,NA,0,9.85081732745918,10.058309759519,10.0232981493341,10.0931823619779,TRUE,0.207492432059787
"CAN","cpi",0.2,1975,3,1975,NA,0.5,7.95690630984076,9.05887515868357,10.0232981493341,8.98267476097328,FALSE,3.51302632546918
"CAN","cpi",0.2,1975,3,1974,NA,1,3.58487280014897,4.90818881433928,10.0232981493341,7.7837982223054,FALSE,14.1110893516774
"CAN","cpi",0.2,1975,3,1974,NA,1.5,2.57571816658172,3.89903418077203,10.0232981493341,5.75931605308519,FALSE,16.6339759355955
"CAN","cpi",0.2,1976,3,1976,NA,0,6.90173781660781,7.03190301795271,7.22784311401172,7.07277954951717,FALSE,0.620015441492406
"CAN","cpi",0.2,1976,3,1976,NA,0.5,8.67160312033939,9.55668625734285,7.22784311401172,8.59089060438327,FALSE,4.49448315282266
"CAN","cpi",0.2,1976,3,1975,NA,1,4.82781118549935,7.80889482520841,7.22784311401172,10.4141477685142,TRUE,2.98108363970906
"CAN","cpi",0.2,1976,3,1975,NA,1.5,2.59617104867143,5.57725468838049,7.22784311401172,6.43051086134862,FALSE,7.10755470378712
"CAN","cpi",0.2,1977,3,1977,NA,0,7.43071266525342,7.51308958579843,7.58101410153764,7.55301151664772,FALSE,0.252188209893043
"CAN","cpi",0.2,1977,3,1977,NA,0.5,7.24930179695604,8.05579374136067,7.58101410153764,7.98165850021887,TRUE,0.806491944404629
"CAN","cpi",0.2,1977,3,1976,NA,1,2.380342349205,3.18683429360963,7.58101410153764,3.72134649143602,FALSE,11.7919414642247
"CAN","cpi",0.2,1977,3,1976,NA,1.5,3.02071761623153,6.2669781343128,7.58101410153764,8.00272044475614,FALSE,6.53135043614337
"CAN","cpi",0.2,1978,3,1978,NA,0,8.59591290001717,8.63410173492164,8.50208927062595,8.67127840358843,FALSE,0.27274790838254
"CAN","cpi",0.2,1978,3,1978,NA,0.5,7.92894926976409,8.4971304764645,8.50208927062595,8.3788273181893,FALSE,0.580578192104032
"CAN","cpi",0.2,1978,3,1977,NA,1,4.95087230862011,5.51905351532051,8.50208927062595,7.54783828416051,FALSE,8.02577059496399
"CAN","cpi",0.2,1978,3,1977,NA,1.5,3.66420544274159,8.79201465242171,8.50208927062595,9.72562756342223,TRUE,5.12780920968012
"CAN","cpi",0.2,1979,3,1979,NA,0,8.43414086236566,8.52585113582986,8.65147652410481,8.56376390232469,FALSE,0.405773744151571
"CAN","cpi",0.2,1979,3,1979,NA,0.5,7.84715415195287,8.43333217623724,8.65147652410481,8.29599284966764,FALSE,1.13153889395329
"CAN","cpi",0.2,1979,3,1978,NA,1,6.04009846300568,7.12097010829789,8.65147652410481,9.20311500508918,FALSE,4.90713768480951
"CAN","cpi",0.2,1979,3,1978,NA,1.5,4.84195435709714,7.71228961382265,8.65147652410481,8.55646910152924,FALSE,5.2183025324309
"CAN","cpi",0.2,1980,3,1980,NA,0,9.42705743990803,9.47770383619668,9.5171912664748,9.50406722106931,FALSE,0.149364971983942
"CAN","cpi",0.2,1980,3,1980,NA,0.5,8.08591427457194,8.69022084577281,9.5171912664748,8.57798914335092,FALSE,2.67173262295583
"CAN","cpi",0.2,1980,3,1979,NA,1,5.5258537444972,7.71325370416195,9.5171912664748,8.17875203710815,FALSE,6.69724386544687
"CAN","cpi",0.2,1980,3,1979,NA,1.5,4.95037134355351,7.85466522746234,9.5171912664748,8.39204766062112,FALSE,7.06060898143997
"CAN","cpi",0.2,1981,3,1981,NA,0,11.64774169874,11.6994380458752,11.5813425032741,11.7113878984199,FALSE,0.217694335799854
"CAN","cpi",0.2,1981,3,1981,NA,0.5,11.9961147626693,12.3164214964874,11.5813425032741,12.2156196752767,FALSE,1.35723738230591
"CAN","cpi",0.2,1981,3,1980,NA,1,8.09379897488718,9.85435602467105,11.5813425032741,11.0496853423024,FALSE,6.0780232462916
"CAN","cpi",0.2,1981,3,1980,NA,1.5,6.47909191113913,8.23964896092301,11.5813425032741,8.33809792174894,FALSE,10.1147909056617
"CAN","cpi",0.2,1982,3,1982,NA,0,10.1330359353007,10.2326665651921,10.1124203763629,10.2566668151097,FALSE,0.151169527235884
"CAN","cpi",0.2,1982,3,1982,NA,0.5,9.72298136352343,10.084494639573,10.1124203763629,10.1085355973545,FALSE,0.431327618024477
"CAN","cpi",0.2,1982,3,1981,NA,1,8.89330140970382,11.6237923744082,10.1124203763629,11.770988683124,TRUE,2.73049096470438
"CAN","cpi",0.2,1982,3,1981,NA,1.5,9.98417095088619,12.7146619155906,10.1124203763629,12.8701250351281,TRUE,2.73049096470438
"CAN","cpi",0.2,1983,3,1983,NA,0,5.62733689570339,5.68751588365236,5.67091787896303,5.7310121416489,TRUE,0.0601789879489694
"CAN","cpi",0.2,1983,3,1983,NA,0.5,5.14875716321506,5.36652779927968,5.67091787896303,4.91343016009654,FALSE,0.978745835272997
"CAN","cpi",0.2,1983,3,1982,NA,1,7.24730754904163,8.37425415361344,5.67091787896303,9.18500149866057,FALSE,5.0679207797683
"CAN","cpi",0.2,1983,3,1982,NA,1.5,7.7796887935214,8.9066353980932,5.67091787896303,9.68672301569366,FALSE,6.39887389096772
"CAN","cpi",0.2,1984,3,1984,NA,0,NA,NA,4.19799576814029,NA,NA,NA
"CAN","cpi",0.2,1984,3,1984,NA,0.5,6.00927177217287,6.22915433036133,4.19799576814029,5.85770686024457,FALSE,4.74807256826991
"CAN","cpi",0.2,1984,3,1983,NA,1,4.13025605436806,5.39382629867457,4.19799576814029,5.76553357996429,TRUE,1.26357024430651
"CAN","cpi",0.2,1984,3,1983,NA,1.5,3.33595196639764,4.59952221070414,4.19799576814029,2.9197996794717,TRUE,1.26357024430651
"CAN","cpi",0.2,1985,3,1985,NA,0,3.76718260071214,3.80690546682517,3.86444262005169,3.85417990135378,FALSE,0.183565749179333
"CAN","cpi",0.2,1985,3,1985,NA,0.5,4.52944832546835,4.73296652375032,3.86444262005169,4.21990042382899,FALSE,1.86603246182361
"CAN","cpi",0.2,1985,3,1984,NA,1,NA,NA,3.86444262005169,NA,NA,NA
"CAN","cpi",0.2,1985,3,1984,NA,1.5,7.35334580620374,7.99850767297333,3.86444262005169,8.62999660305356,FALSE,9.36741983214971
"CAN","cpi",0.2,1986,3,1986,NA,0,3.94971104478538,3.99087090664141,4.08685396749431,4.03771389199993,FALSE,0.28111751398828
"CAN","cpi",0.2,1986,3,1986,NA,0.5,4.67258396206648,4.88122620480019,4.08685396749431,4.38219332503529,FALSE,1.67296722916413
"CAN","cpi",0.2,1986,3,1985,NA,1,2.34305852710695,3.29669018822909,4.08685396749431,3.37849976080849,FALSE,2.92904110928519
"CAN","cpi",0.2,1986,3,1985,NA,1.5,4.55021993645646,5.50385159757861,4.08685396749431,4.95309858900956,FALSE,2.11204658352753
"CAN","cpi",0.2,1987,3,1987,NA,0,NA,NA,4.23980729277887,NA,NA,NA
"CAN","cpi",0.2,1987,3,1987,NA,0.5,4.45317758372285,4.6539654020634,4.23980729277887,4.13342161080085,FALSE,0.734213545700492
"CAN","cpi",0.2,1987,3,1986,NA,1,2.52031211947628,3.77237022282693,4.23980729277887,3.66140988164798,FALSE,2.42065077823049
"CAN","cpi",0.2,1987,3,1986,NA,1.5,4.01587651687653,5.38859404494315,4.23980729277887,4.80242768143514,TRUE,1.37271752806662
"CAN","cpi",0.2,1988,3,1988,NA,0,3.85634313520989,3.89680308053292,3.92899537638065,3.9438316199536,FALSE,0.120940684942355
"CAN","cpi",0.2,1988,3,1988,NA,0.5,3.66649977095501,3.93152617946093,3.92899537638065,3.35419215340812,TRUE,0.265026408505922
"CAN","cpi",0.2,1988,3,1987,NA,1,NA,NA,3.92899537638065,NA,NA,NA
"CAN","cpi",0.2,1988,3,1987,NA,1.5,3.77634488160707,4.81448429032632,3.92899537638065,3.89461929526446,TRUE,1.03813940871925
"CAN","cpi",0.2,1989,3,1989,NA,0,4.85829496098854,4.90974499054051,4.82821664544208,4.95130318392835,FALSE,0.126645818418126
"CAN","cpi",0.2,1989,3,1989,NA,0.5,4.538575719294,4.7272715646765,4.82821664544208,4.23024942747073,FALSE,0.441058547296447
"CAN","cpi",0.2,1989,3,1988,NA,1,2.98509448191799,3.93389323621692,4.82821664544208,4.05841794603162,FALSE,3.18460727736182
"CAN","cpi",0.2,1989,3,1988,NA,1.5,2.92628696527676,3.87508571957569,4.82821664544208,2.597843559383,FALSE,3.33162606896489
"CAN","cpi",0.2,1990,3,1990,NA,0,4.38429803855419,4.43252891411099,4.64347549432717,4.4746950192663,FALSE,0.575597326097254
"CAN","cpi",0.2,1990,3,1990,NA,0.5,5.18648221603618,5.39879838204334,4.64347549432717,4.96487168902479,FALSE,1.56983297027969
"CAN","cpi",0.2,1990,3,1989,NA,1,4.03946145632544,5.28002725689863,4.64347549432717,5.43871373969076,TRUE,1.24056580057319
"CAN","cpi",0.2,1990,3,1989,NA,1.5,3.39146472689004,4.63203052746323,4.64347549432717,3.3732540002381,FALSE,1.26917821773305
"CAN","cpi",0.2,1991,3,1991,NA,0,5.51391368237831,5.56981635186607,5.4258100696218,5.61053369942382,FALSE,0.276161701379035
"CAN","cpi",0.2,1991,3,1991,NA,0.5,7.65704651016694,8.00012074612004,5.4258100696218,7.82199295477594,FALSE,5.92116533731597
"CAN","cpi",0.2,1991,3,1990,NA,1,2.70451195629297,3.77744002857961,5.4258100696218,3.66716818384097,FALSE,5.1938531748921
"CAN","cpi",0.2,1991,3,1990,NA,1.5,4.25079154628206,5.47542622546026,5.4258100696218,4.82481948664164,TRUE,1.2246346791782
"CAN","cpi",0.2,1992,3,1992,NA,0,NA,NA,1.47496888572843,NA,NA,NA
"CAN","cpi",0.2,1992,3,1992,NA,0.5,NA,NA,1.47496888572843,NA,NA,NA
"CAN","cpi",0.2,1992,3,1991,NA,1,2.10155855493687,3.13967651719708,1.47496888572843,2.76780571233213,FALSE,2.6045921352813
"CAN","cpi",0.2,1992,3,1991,NA,1.5,5.67244717702199,6.88495775829322,1.47496888572843,7.14938182660169,FALSE,11.7062063095051
"CAN","cpi",0.2,1993,3,1993,NA,0,NA,NA,NA,NA,NA,NA
"CAN","cpi",0.2,1993,3,1993,NA,0.5,NA,NA,NA,NA,NA,NA
"CAN","cpi",0.2,1993,3,1992,NA,1,NA,NA,NA,NA,NA,NA
"CAN","cpi",0.2,1993,3,1992,NA,1.5,NA,NA,NA,NA,NA,NA
"CAN","cpi",0.2,1994,3,1994,NA,0,NA,NA,NA,NA,NA,NA
"CAN","cpi",0.2,1994,3,1994,NA,0.5,NA,NA,NA,NA,NA,NA
"CAN","cpi",0.2,1994,3,1993,NA,1,NA,NA,NA,NA,NA,NA
"CAN","cpi",0.2,1994,3,1993,NA,1.5,NA,NA,NA,NA,NA,NA
"CAN","cpi",0.2,1995,3,1995,NA,0,NA,NA,2.11688403676572,NA,NA,NA
"CAN","cpi",0.2,1995,3,1995,NA,0.5,2.86762854988015,3.16830062313255,2.11688403676572,2.51937811073084,FALSE,2.17753335603848
"CAN","cpi",0.2,1995,3,1994,NA,1,0.514105003210326,1.08268186395735,2.11688403676572,0.719396410821945,FALSE,3.15408229276793
"CAN","cpi",0.2,1995,3,1994,NA,1.5,1.2711660880652,1.83974294881223,2.11688403676572,-1.04654603924828,FALSE,1.26142958063073
"CAN","cpi",0.2,1996,3,1996,NA,0,1.35410379933562,1.38175508580726,1.55309584667184,1.42780748357026,FALSE,0.456003188633096
"CAN","cpi",0.2,1996,3,1996,NA,0.5,NA,NA,1.55309584667184,NA,NA,NA
"CAN","cpi",0.2,1996,3,1995,NA,1,NA,NA,1.55309584667184,NA,NA,NA
"CAN","cpi",0.2,1996,3,1995,NA,1.5,3.31895869022319,4.30047372948728,1.55309584667184,2.92232271175447,FALSE,5.39617214814245
"CAN","cpi",0.2,1997,3,1997,NA,0,1.65996978253467,1.72806443926256,1.60528783555959,1.73535847807117,FALSE,0.204799524165583
"CAN","cpi",0.2,1997,3,1997,NA,0.5,2.51505358915613,2.79598336771854,1.60528783555959,2.11078363597796,FALSE,2.55534416255374
"CAN","cpi",0.2,1997,3,1996,NA,1,0.906298452293053,1.61268205717387,1.60528783555959,0.984961337307556,TRUE,0.706383604880816
"CAN","cpi",0.2,1997,3,1996,NA,1.5,NA,NA,1.60528783555959,NA,NA,NA
"CAN","cpi",0.2,1998,3,1998,NA,0,0.963532680289298,0.988531399795279,0.988908029337191,1.0350847138471,FALSE,0.0259402933607603
"CAN","cpi",0.2,1998,3,1998,NA,0.5,2.11427326407702,2.39576304856086,0.988908029337191,1.68533655437107,FALSE,3.0949028713334
"CAN","cpi",0.2,1998,3,1997,NA,1,1.90770139372871,2.6975461657255,0.988908029337191,2.25159584334757,FALSE,3.08682818297559
"CAN","cpi",0.2,1998,3,1997,NA,1.5,2.94876780300166,3.9716442392009,0.988908029337191,2.38987816876076,FALSE,5.92252587036041
"CAN","cpi",0.2,1999,3,1999,NA,0,1.70057201196023,1.73092153582599,1.7107350135213,1.77618438459462,TRUE,0.0303495238657581
"CAN","cpi",0.2,1999,3,1999,NA,0.5,1.52516060948784,1.78970221142313,1.7107350135213,1.0290924799153,TRUE,0.264541601935293
"CAN","cpi",0.2,1999,3,1998,NA,1,1.48743067484636,2.34848831305026,1.7107350135213,1.85177544064205,TRUE,0.861057638203894
"CAN","cpi",0.2,1999,3,1998,NA,1.5,3.19589247970245,4.24674604344999,1.7107350135213,2.94645730787123,FALSE,4.76374722920043
"CAN","cpi",0.2,2000,3,2000,NA,0,2.62952422156646,2.66614311327932,2.6718361971244,2.7102541785615,FALSE,0.0508516013255591
"CAN","cpi",0.2,2000,3,2000,NA,0.5,2.68619870476677,2.99063225235826,2.6718361971244,2.34405201403356,FALSE,0.340339816697418
"CAN","cpi",0.2,2000,3,1999,NA,1,2.45088312881766,3.39141261144861,2.6718361971244,3.07542936781209,TRUE,0.940529482630953
"CAN","cpi",0.2,2000,3,1999,NA,1.5,2.89290510332528,3.83343458595623,2.6718361971244,2.27809035801724,FALSE,1.49320174813315
"CAN","cpi",0.2,2001,3,2001,NA,0,2.69641092676811,2.73143519581817,2.47906219852806,2.77546584984351,FALSE,0.578396089650184
"CAN","cpi",0.2,2001,3,2001,NA,0.5,2.75161420054976,3.074303158227,2.47906219852806,2.43566755503104,FALSE,1.00406896273148
"CAN","cpi",0.2,2001,3,2000,NA,1,2.84494706971962,3.92421532120056,2.47906219852806,3.68958695319843,FALSE,1.99398042945982
"CAN","cpi",0.2,2001,3,2000,NA,1.5,3.17278245408925,4.25675212559358,2.47906219852806,3.01270789712173,FALSE,2.81827031040731
"CAN","cpi",0.2,2002,3,2002,NA,0,2.19363370744093,2.22731083536244,2.20880570551249,2.27196234986351,TRUE,0.0336771279215053
"CAN","cpi",0.2,2002,3,2002,NA,0.5,2.00951427287935,2.2893780009989,2.20880570551249,1.58345411989126,TRUE,0.279863728119548
"CAN","cpi",0.2,2002,3,2001,NA,1,1.76453586037188,2.5430150856552,2.20880570551249,2.26510423845898,TRUE,0.778479225283324
"CAN","cpi",0.2,2002,3,2001,NA,1.5,2.97240291234559,4.26173081888352,2.20880570551249,3.02058043279009,FALSE,3.1983209236207
"CAN","cpi",0.2,2003,3,2003,NA,0,2.63456702424207,2.66885422684024,2.71189071546809,2.71326702620668,FALSE,0.14187842416779
"CAN","cpi",0.2,2003,3,2003,NA,0.5,4.56169203283423,4.96894589068672,2.71189071546809,4.51432649273496,FALSE,5.03175715126784
"CAN","cpi",0.2,2003,3,2002,NA,1,2.98414134720998,3.91324359058806,2.71189071546809,3.85618281746238,FALSE,1.6097288227328
"CAN","cpi",0.2,2003,3,2002,NA,1.5,2.65089245934753,3.57999470272562,2.71189071546809,2.39402389849184,TRUE,0.929102243378084
"CAN","cpi",0.2,2004,3,2004,NA,0,1.70132438558734,1.72940380588278,1.83151661303942,1.77466852383015,FALSE,0.283361438187046
"CAN","cpi",0.2,2004,3,2004,NA,0.5,1.98265056722364,2.26117341266555,1.83151661303942,1.55260435151936,FALSE,0.65635773090246
"CAN","cpi",0.2,2004,3,2003,NA,1,1.44880256044087,2.12837788111571,1.83151661303942,1.79415792598285,TRUE,0.679575320674838
"CAN","cpi",0.2,2004,3,2003,NA,1.5,3.47185154016425,4.81462682463808,1.83151661303942,4.26699272545716,FALSE,5.4436126022859
"CAN","cpi",0.2,2005,3,2005,NA,0,2.27431593204358,2.29889017463265,2.18071628336509,2.34345353472953,FALSE,0.258573364285287
"CAN","cpi",0.2,2005,3,2005,NA,0.5,1.94898701398115,2.18609010488356,2.18071628336509,1.50321338317329,TRUE,0.237103090902409
"CAN","cpi",0.2,2005,3,2004,NA,1,1.4985098593312,1.73561295023361,2.18071628336509,1.64043962712234,FALSE,1.3498614237311
"CAN","cpi",0.2,2005,3,2004,NA,1.5,2.53389575765489,3.25120639160307,2.18071628336509,2.03393284113233,FALSE,1.60025931967267
"CAN","cpi",0.2,2006,3,2006,NA,0,2.01997092359058,2.05027422283628,1.97519342012289,2.09514376892657,FALSE,0.142247057914936
"CAN","cpi",0.2,2006,3,2006,NA,0.5,2.45303673116774,2.7388450600208,1.97519342012289,2.09436263599022,FALSE,1.48041660646521
"CAN","cpi",0.2,2006,3,2005,NA,1,2.4505369714486,3.12649471981941,1.97519342012289,2.9582912060806,FALSE,1.86431662668509
"CAN","cpi",0.2,2006,3,2005,NA,1.5,2.34922120005936,3.02517894843017,1.97519342012289,1.64885961980806,FALSE,1.61102719821199
"CAN","cpi",0.2,2007,3,2007,NA,0,2.02941227212548,2.06198109267044,2.10062087284572,2.10683622102307,FALSE,0.129168270983167
"CAN","cpi",0.2,2007,3,2007,NA,0.5,2.5244053080112,2.8128230000009,2.10062087284572,2.17629902083353,FALSE,1.34787877990339
"CAN","cpi",0.2,2007,3,2006,NA,1,1.42344681674526,1.87697784161588,2.10062087284572,1.50861692709856,FALSE,1.01263860294522
"CAN","cpi",0.2,2007,3,2006,NA,1.5,2.58523944199548,3.27735412507487,2.10062087284572,2.15918616350405,FALSE,1.90366110595377
"CAN","cpi",0.2,2008,3,2008,NA,0,2.79119566042924,2.8268814454503,2.31447335265955,2.87079455148828,FALSE,1.22749155444528
"CAN","cpi",0.2,2008,3,2008,NA,0.5,1.76988415927336,2.0037118168008,2.31447335265955,1.31005314695267,FALSE,1.01073149717433
"CAN","cpi",0.2,2008,3,2007,NA,1,1.46830746874781,1.84325155583949,2.31447335265955,1.47031049982668,FALSE,1.55299857914184
"CAN","cpi",0.2,2008,3,2007,NA,1.5,2.64078644143707,3.47220713737087,2.31447335265955,2.46453195342394,FALSE,1.6472034178776
"CAN","cpi",0.2,2009,3,2009,NA,0,0.120216131528755,0.139900055763777,0.284533874408197,0.187122346349721,FALSE,0.381268470846074
"CAN","cpi",0.2,2009,3,2009,NA,0.5,0.565429750225179,0.754930693672605,0.284533874408197,-0.0727492620466167,FALSE,0.891740632989881
"CAN","cpi",0.2,2009,3,2008,NA,1,3.06588965212398,3.92843255823331,0.284533874408197,3.81780026356951,FALSE,7.81593235039878
"CAN","cpi",0.2,2009,3,2008,NA,1.5,2.20875009740075,3.07129300351009,0.284533874408197,1.68675152630419,FALSE,5.67308346359073
"CAN","cpi",0.2,2010,3,2010,NA,0,1.53659689467732,1.57008997918055,1.75525687020327,1.6089956646354,FALSE,0.496410312060039
"CAN","cpi",0.2,2010,3,2010,NA,0.5,2.29340620091919,2.55571872222615,1.75525687020327,1.91109502526183,FALSE,1.60768584809675
"CAN","cpi",0.2,2010,3,2009,NA,1,1.16452088069045,1.61157634379162,1.75525687020327,0.992295788494754,FALSE,0.806256779130296
"CAN","cpi",0.2,2010,3,2009,NA,1.5,1.86511515028717,2.45328007760269,1.75525687020327,0.885103052815867,FALSE,0.86281062752526
"CAN","cpi",0.2,2011,3,2011,NA,0,2.78707887571977,2.82830542256656,2.85717434028225,2.86665414062098,FALSE,0.113398841136007
"CAN","cpi",0.2,2011,3,2011,NA,0.5,2.91650666205968,3.33773214273771,2.85717434028225,2.76583381894771,FALSE,0.569556285121606
"CAN","cpi",0.2,2011,3,2010,NA,1,1.41914127636862,1.95509147076238,2.85717434028225,1.39294644169719,FALSE,2.79115736819341
"CAN","cpi",0.2,2011,3,2010,NA,1.5,2.11607993188558,2.93732123363566,2.85717434028225,1.64253060592363,TRUE,0.821241301750078
"CAN","cpi",0.2,2012,3,2012,NA,0,1.4562872343186,1.5216384553706,1.50118536134935,1.52822510849394,TRUE,0.0653512210519978
"CAN","cpi",0.2,2012,3,2012,NA,0.5,2.09500970520565,2.56657458575294,1.50118536134935,1.92429021972789,FALSE,1.95612574018804
"CAN","cpi",0.2,2012,3,2011,NA,1,1.95384831712829,2.48158698883389,1.50118536134935,1.99945242447079,FALSE,1.65939606115296
"CAN","cpi",0.2,2012,3,2011,NA,1.5,2.48683613965891,3.39932064514967,1.50118536134935,2.48150957397962,FALSE,3.37661145126467
"CAN","cpi",0.2,2013,3,2013,NA,0,0.995536224643141,1.02972612139862,0.931270594714462,1.05630513423211,FALSE,0.194853971577178
"CAN","cpi",0.2,2013,3,2013,NA,0.5,1.41153725404325,1.86501104524587,0.931270594714462,1.16963454554932,FALSE,1.65414043952459
"CAN","cpi",0.2,2013,3,2012,NA,1,1.22577527479761,1.69421627101816,0.931270594714462,1.08868089128742,FALSE,1.20470269642841
"CAN","cpi",0.2,2013,3,2012,NA,1.5,2.3384513760166,3.18234180670906,0.931270594714462,2.14573179530527,FALSE,4.36184238394781
"CAN","cpi",0.2,2014,3,2014,NA,0,1.92400638497947,1.97112949063982,1.87639912240215,1.99862849145116,FALSE,0.166141262103645
"CAN","cpi",0.2,2014,3,2014,NA,0.5,1.97409810424306,2.43612248756579,1.87639912240215,1.79231976082687,FALSE,0.706271837925016
"CAN","cpi",0.2,2014,3,2013,NA,1,1.35698732594933,1.96684072054527,1.87639912240215,1.40664989819898,TRUE,0.60985339459594
"CAN","cpi",0.2,2014,3,2013,NA,1.5,2.05944013743249,2.77435157257833,1.87639912240215,1.51436121777893,FALSE,1.1725139727217
"CAN","cpi",0.2,2015,3,2015,NA,0,1.13779446502447,1.18357714025523,1.11090953952792,1.2103065042478,FALSE,0.112994988972144
"CAN","cpi",0.2,2015,3,2015,NA,0.5,0.757229794981717,1.18628249064714,1.11090953952792,0.458547315718059,TRUE,0.429052695665426
"CAN","cpi",0.2,2015,3,2014,NA,1,1.53201000976244,2.10736567165481,1.11090953952792,1.57054781428135,FALSE,1.62810683747867
"CAN","cpi",0.2,2015,3,2014,NA,1.5,2.19888546962723,2.98562417002499,1.11090953952792,1.88229109541157,FALSE,3.50667852564605
"CAN","cpi",0.2,2016,3,2016,NA,0,1.34266600115096,1.37731565490137,1.41168586698797,1.41630667471992,FALSE,0.120575183966906
"CAN","cpi",0.2,2016,3,2016,NA,0.5,1.41914600544986,1.8491952407762,1.41168586698797,1.17972158292925,FALSE,0.448699581481076
"CAN","cpi",0.2,2016,3,2015,NA,1,1.51065289552562,2.25859998448589,1.41168586698797,1.8638656605167,FALSE,0.995364660304402
"CAN","cpi",0.2,2016,3,2015,NA,1.5,1.72608449171319,2.47403158067347,1.41168586698797,1.07023002715086,FALSE,1.53394365077334
"CAN","cpi",0.2,2017,3,2017,NA,0,1.43080072000022,1.47790992528085,1.57888581671161,1.50492692646759,FALSE,0.299548933857536
"CAN","cpi",0.2,2017,3,2017,NA,0.5,2.23166379734572,2.68673118727562,1.57888581671161,2.09086618282141,FALSE,2.08701234151518
"CAN","cpi",0.2,2017,3,2016,NA,1,1.01461145386804,1.65034837258288,1.57888581671161,1.14652050352824,TRUE,0.635736918714845
"CAN","cpi",0.2,2017,3,2016,NA,1.5,1.83134359217385,2.5871128106296,1.57888581671161,1.26788084523026,FALSE,1.38691365711135
"CAN","cpi",0.2,2018,3,2018,NA,0,2.33618776651066,2.38527165304588,2.23316270166586,2.41317537496083,FALSE,0.306646548647221
"CAN","cpi",0.2,2018,3,2018,NA,0.5,2.59850826213164,3.07804189037507,2.23316270166586,2.52809119314695,FALSE,1.39289752940789
"CAN","cpi",0.2,2018,3,2017,NA,1,1.02901248834961,1.59774277857367,2.23316270166586,1.16800101916097,FALSE,2.15728009795453
"CAN","cpi",0.2,2018,3,2017,NA,1.5,2.18359127144229,3.08666215339528,2.23316270166586,2.07298402260093,TRUE,0.903070881952988
"CAN","cpi",0.2,2019,3,2019,NA,0,NA,NA,1.91921619871868,NA,NA,NA
"CAN","cpi",0.2,2019,3,2019,NA,0.5,1.66004722646922,2.10743309832209,1.91921619871868,1.47328806303322,TRUE,0.447385871852873
"CAN","cpi",0.2,2019,3,2018,NA,1,1.95409195713429,2.59597171028409,1.91921619871868,2.23470281046333,FALSE,0.729069149188825
"CAN","cpi",0.2,2019,3,2018,NA,1.5,2.31132207899627,3.24759566204354,1.91921619871868,2.32030562567512,FALSE,1.91653828374125
"CAN","cpi",0.2,2020,3,2020,NA,0,0.604017168936557,0.647383269056097,0.71139989671781,0.673588636713597,FALSE,0.203407669273823
"CAN","cpi",0.2,2020,3,2020,NA,0.5,NA,NA,0.71139989671781,NA,NA,NA
"CAN","cpi",0.2,2020,3,2019,NA,1,NA,NA,0.71139989671781,NA,NA,NA
"CAN","cpi",0.2,2020,3,2019,NA,1.5,2.03329365103506,2.78119689455186,0.71139989671781,1.77705491937904,FALSE,4.05263762930993
"CAN","cpi",0.2,2021,3,2021,NA,0,3.17078730438651,3.24008918274187,3.31148121717802,3.2525646654712,FALSE,0.247781964445751
"CAN","cpi",0.2,2021,3,2021,NA,0.5,2.27789826435299,2.73411026507471,3.31148121717802,2.16773480502693,FALSE,1.89963938098001
"CAN","cpi",0.2,2021,3,2020,NA,1,1.51649307207665,2.03855367911975,3.31148121717802,1.61070774476322,FALSE,3.70437945218878
"CAN","cpi",0.2,2021,3,2020,NA,1.5,NA,NA,3.31148121717802,NA,NA,NA
"CAN","cpi",0.2,2022,3,2022,NA,0,6.48602546120396,6.56358664573491,6.50977236228281,6.58682891800883,TRUE,0.0775611845309498
"CAN","cpi",0.2,2022,3,2022,NA,0.5,5.32181120174333,5.89463381711932,6.50977236228281,5.58900513180898,FALSE,2.11066897828472
"CAN","cpi",0.2,2022,3,2021,NA,1,2.68166659967058,3.53155628788831,6.50977236228281,3.35597076522593,FALSE,8.29542987420397
"CAN","cpi",0.2,2022,3,2021,NA,1.5,2.04776899648081,2.89765868469854,6.50977236228281,1.89458222166426,FALSE,9.88017388217841
"CAN","cpi",0.2,2023,3,2023,NA,0,3.87638881791852,3.94730506844409,3.78831288758619,3.96221561415741,FALSE,0.291106076356397
"CAN","cpi",0.2,2023,3,2023,NA,0.5,3.61793091196197,4.0876509446621,3.78831288758619,3.6121970566696,TRUE,0.469720032700137
"CAN","cpi",0.2,2023,3,2022,NA,1,4.06367802416585,5.42139347496659,3.78831288758619,5.4861852561408,FALSE,2.04612829224988
"CAN","cpi",0.2,2023,3,2022,NA,1.5,2.93209848757911,4.28981393837984,3.78831288758619,3.85557075258935,TRUE,1.35771545080074
"CAN","cpi",0.2,2024,3,2023,NA,1,3.3959359026464,4.55339438116204,NA,4.72280809903739,NA,NA
"CAN","cpi",0.2,2024,3,2023,NA,1.5,3.23434637370196,4.49288445404383,NA,4.36705509613113,NA,NA
"CAN","cpi",0.3,1950,3,1950,NA,0,2.28668879654602,2.28668879654602,2.59031220731124,2.34506766740468,FALSE,0.867495459329189
"CAN","cpi",0.3,1950,3,1950,NA,0.5,-7.58055977928719,-7.58055977928719,2.59031220731124,-0.480727815155867,FALSE,29.0596342474241
"CAN","cpi",0.3,1950,3,1949,NA,1,43.7612928814295,43.7612928814295,2.59031220731124,5.09987337388258,FALSE,117.631373354624
"CAN","cpi",0.3,1950,3,1949,NA,1.5,-0.792751085941937,-0.79275108594193,2.59031220731124,12.3211560066576,FALSE,9.66589512358049
"CAN","cpi",0.3,1951,3,1951,NA,0,9.71745433396587,9.76582550225667,9.87945438999359,9.91468181420993,FALSE,0.37302513325344
"CAN","cpi",0.3,1951,3,1951,NA,0.5,9.67535055907888,9.72372172736969,9.87945438999359,8.91293028153729,FALSE,0.493321632930536
"CAN","cpi",0.3,1951,3,1950,NA,1,5.22935871279161,5.92666262659859,9.87945438999359,7.18504019917801,FALSE,11.9909946663641
"CAN","cpi",0.3,1951,3,1950,NA,1.5,26.9918751842773,27.6891790980843,9.87945438999359,-2.18579641022426,FALSE,49.5899347546175
"CAN","cpi",0.3,1952,3,1952,NA,0,2.52131441514287,2.67186279272946,2.55562336095485,2.50792675283471,TRUE,0.150548377586591
"CAN","cpi",0.3,1952,3,1952,NA,0.5,6.81679695096344,6.96734532855003,2.55562336095485,5.20333179389047,FALSE,12.3253300633254
"CAN","cpi",0.3,1952,3,1951,NA,1,5.19699664065842,9.57626295641882,2.55562336095485,8.18998200969936,FALSE,11.9260471149135
"CAN","cpi",0.3,1952,3,1951,NA,1.5,2.7190697806217,7.09833609638211,2.55562336095485,7.55460015368862,FALSE,4.84625608623714
"CAN","cpi",0.3,1953,3,1953,NA,0,0.465931684789426,-1.85006394340695,-1.01492775838436,-0.954275034924989,FALSE,4.30113473807898
"CAN","cpi",0.3,1953,3,1953,NA,0.5,-1.34151557695606,-3.65751120515243,-1.01492775838436,-1.88711612688489,FALSE,5.23424279114097
"CAN","cpi",0.3,1953,3,1952,NA,1,-4.81071197167687,-7.12670759987324,-1.01492775838436,-0.873617238258229,FALSE,15.1462324903433
"CAN","cpi",0.3,1953,3,1952,NA,1.5,5.67105579743201,5.79880125812044,-1.01492775838436,5.93557635631702,FALSE,19.2305556201638
"CAN","cpi",0.3,1954,3,1954,NA,0,0.852912717600664,0.945656648300054,0.644425455961438,0.879731201855888,FALSE,0.688421821097178
"CAN","cpi",0.3,1954,3,1954,NA,0.5,0.0515726900804103,2.38560983824408,0.644425455961438,-0.358875738913824,TRUE,2.33403714816367
"CAN","cpi",0.3,1954,3,1953,NA,1,1.54282124777619,3.87685839593985,0.644425455961438,3.38326531029323,FALSE,4.90088226763438
"CAN","cpi",0.3,1954,3,1953,NA,1.5,8.25397052490072,10.5880076730644,0.644425455961438,-1.28741438714058,FALSE,24.0755944879902
"CAN","cpi",0.3,1955,3,1955,NA,0,0.0370099776207671,0.189739006584404,0.173649026558865,0.115254687233858,TRUE,0.152729028963636
"CAN","cpi",0.3,1955,3,1955,NA,0.5,-0.452867832122296,0.271861888765286,0.173649026558865,-0.770970046821609,TRUE,0.724729720887582
"CAN","cpi",0.3,1955,3,1954,NA,1,0.714397781724433,4.85741037482623,0.173649026558865,3.47019599757395,FALSE,5.68800903643199
"CAN","cpi",0.3,1955,3,1954,NA,1.5,0.557457198998078,9.73365649255777,0.173649026558865,-1.89562740163941,FALSE,10.2727940719574
"CAN","cpi",0.3,1956,3,1956,NA,0,1.458579775663,1.60518379905552,1.32752769429961,1.56059797998755,FALSE,0.521038541573643
"CAN","cpi",0.3,1956,3,1956,NA,0.5,0.0713304434769846,0.327755372888181,1.32752769429961,-0.709146002056511,FALSE,3.11291727630099
"CAN","cpi",0.3,1956,3,1955,NA,1,-0.363216165794854,0.0461961071181454,1.32752769429961,0.884549626974225,FALSE,4.07035966486004
"CAN","cpi",0.3,1956,3,1955,NA,1.5,0.558046495024278,8.35557561335747,1.32752769429961,-1.89150615642833,TRUE,7.79752911833319
"CAN","cpi",0.3,1957,3,1957,NA,0,3.28261474259623,3.44200495620922,3.24684755852518,3.4151370317006,FALSE,0.261582168101724
"CAN","cpi",0.3,1957,3,1957,NA,0.5,2.91637823696113,3.78584562658162,3.24684755852518,2.23982631608766,TRUE,0.869467389620485
"CAN","cpi",0.3,1957,3,1956,NA,1,3.75830022674342,7.8151209539215,3.24684755852518,6.98754636690555,FALSE,5.51811406494448
"CAN","cpi",0.3,1957,3,1956,NA,1.5,-1.08486625446375,2.97195447271433,3.24684755852518,-1.88668623310337,FALSE,4.8422295437805
"CAN","cpi",0.3,1958,3,1958,NA,0,2.07093318880243,2.26212151870022,2.33186388641149,2.22387249143335,FALSE,0.390452237644265
"CAN","cpi",0.3,1958,3,1958,NA,0.5,2.90596070996185,3.23676621768441,2.33186388641149,2.22839060734872,FALSE,1.97108214643788
"CAN","cpi",0.3,1958,3,1957,NA,1,1.0928775745653,2.18051379919212,2.33186388641149,4.42088197051908,FALSE,1.52006504525359
"CAN","cpi",0.3,1958,3,1957,NA,1.5,0.959064383706411,3.2849833135512,2.33186388641149,0.91301479707402,TRUE,2.32591892984478
"CAN","cpi",0.3,1959,3,1959,NA,0,1.15300422523325,1.29746621342066,1.19382698397654,1.24991216431293,TRUE,0.144461988187406
"CAN","cpi",0.3,1959,3,1959,NA,0.5,0.917394401172142,1.61664278788525,1.19382698397654,0.437839731590327,TRUE,0.699248386713108
"CAN","cpi",0.3,1959,3,1958,NA,1,-0.0086319363914345,0.690616450321673,1.19382698397654,1.75862762885946,FALSE,2.13699276858416
"CAN","cpi",0.3,1959,3,1958,NA,1.5,1.65321157600246,3.29671208594311,1.19382698397654,1.77407172713766,FALSE,2.95602791572899
"CAN","cpi",0.3,1960,3,1960,NA,0,0.930427347912217,1.07332910817434,1.34209404870695,1.02361304259477,FALSE,0.910801590355303
"CAN","cpi",0.3,1960,3,1960,NA,0.5,1.27918749700865,1.4561562347836,1.34209404870695,0.53898348018166,TRUE,0.17696873777495
"CAN","cpi",0.3,1960,3,1959,NA,1,0.908436823699198,2.13382153633306,1.34209404870695,3.95759373689442,TRUE,1.22538471263386
"CAN","cpi",0.3,1960,3,1959,NA,1.5,0.843278688377801,2.27167578326737,1.34209404870695,-0.873476815404885,TRUE,1.42839709488957
"CAN","cpi",0.3,1961,3,1961,NA,0,0.916264635111738,1.07368927870424,1.00921348094007,1.00921348094007,TRUE,0.157424643592503
"CAN","cpi",0.3,1961,3,1961,NA,0.5,1.67603925173259,1.88127874466405,1.00921348094007,1.00921348094007,FALSE,2.11045598091007
"CAN","cpi",0.3,1961,3,1960,NA,1,-0.645723294561282,0.465049744995525,1.00921348094007,0.0537704626035329,FALSE,2.66552657082694
"CAN","cpi",0.3,1961,3,1960,NA,1.5,0.844774203457842,2.12731420230023,1.00921348094007,-0.862181798940035,TRUE,1.28253999884238
"CAN","cpi",0.3,1962,3,1962,NA,0,1.04916009339025,1.15128810391539,1.04957947883042,1.10232402731478,TRUE,0.102128010525135
"CAN","cpi",0.3,1962,3,1962,NA,0.5,0.72840692445892,0.968875522133691,1.04957947883042,0,FALSE,0.471051331093983
"CAN","cpi",0.3,1962,3,1961,NA,1,0.0393577957473448,0.816568995937204,1.04957947883042,0,FALSE,1.44295543702761
"CAN","cpi",0.3,1962,3,1961,NA,1.5,1.11261631900022,2.2266603902186,1.04957947883042,0,FALSE,1.2941493288464
"CAN","cpi",0.3,1963,3,1963,NA,0,1.84566951334439,1.95611801862616,1.60677118395228,1.91491729531202,FALSE,0.793015160687781
"CAN","cpi",0.3,1963,3,1963,NA,0.5,1.3305539735401,1.72543023562377,1.60677118395228,0.836828714617504,TRUE,0.394876262083673
"CAN","cpi",0.3,1963,3,1962,NA,1,0.966972865200945,1.73576393121144,1.60677118395228,2.56411490415144,TRUE,0.768791066010497
"CAN","cpi",0.3,1963,3,1962,NA,1.5,0.966003910261349,1.73479497627185,1.60677118395228,0,TRUE,0.768791066010497
"CAN","cpi",0.3,1964,3,1964,NA,0,1.87971159993454,2.02926768932943,1.88764670034376,1.98877256446048,TRUE,0.149556089394894
"CAN","cpi",0.3,1964,3,1964,NA,0.5,1.99207967485855,2.21983311995326,1.88764670034376,1.38369006227607,FALSE,0.526133372279835
"CAN","cpi",0.3,1964,3,1963,NA,1,2.166640490255,2.70789057120325,1.88764670034376,5.39044290347256,FALSE,1.33837519498036
"CAN","cpi",0.3,1964,3,1963,NA,1.5,1.08906871100213,1.63031879195038,1.88764670034376,0,FALSE,1.27647267635791
"CAN","cpi",0.3,1965,3,1965,NA,0,2.23832894594889,2.34028423735842,2.29538304394236,2.34557047418999,TRUE,0.101955291409526
"CAN","cpi",0.3,1965,3,1965,NA,0.5,2.06830463395406,2.42515221853851,2.29538304394236,1.61079447956654,TRUE,0.356847584584452
"CAN","cpi",0.3,1965,3,1964,NA,1,1.01044423344586,1.69847836201162,2.29538304394236,2.42518862179847,FALSE,2.39347607693929
"CAN","cpi",0.3,1965,3,1964,NA,1.5,1.15695954058008,1.84499366914584,2.29538304394236,0.818102552316399,FALSE,1.97486091369866
"CAN","cpi",0.3,1966,3,1966,NA,0,3.68759413356387,3.80899079583041,3.72486065470629,3.82010987863709,TRUE,0.121396662266546
"CAN","cpi",0.3,1966,3,1966,NA,0.5,4.00213422494109,4.53701662204523,3.72486065470629,3.99123398895563,FALSE,1.327092597775
"CAN","cpi",0.3,1966,3,1965,NA,1,1.53222505337966,2.06710745048379,3.72486065470629,3.20722068745854,FALSE,5.27132012345413
"CAN","cpi",0.3,1966,3,1965,NA,1.5,1.30530300597236,2.12568749150981,3.72486065470629,1.60663824631958,FALSE,5.38945066609881
"CAN","cpi",0.3,1967,3,1967,NA,0,3.63607127249533,3.75677677412529,3.49360316391996,3.76768849328632,FALSE,0.527757240416727
"CAN","cpi",0.3,1967,3,1967,NA,0.5,2.56193380163919,3.05097248942824,3.49360316391996,2.4074547441976,FALSE,1.75369775776539
"CAN","cpi",0.3,1967,3,1966,NA,1,1.54749899046907,2.03653767825812,3.49360316391996,3.18103323070284,FALSE,4.65208293253715
"CAN","cpi",0.3,1967,3,1966,NA,1.5,1.67045193922797,2.74740043700701,3.49360316391996,4.65128160487248,FALSE,3.20895628895888
"CAN","cpi",0.3,1968,3,1968,NA,0,4.03431709480113,4.09721408325888,3.95128347779386,4.17287945672396,FALSE,0.300135894192811
"CAN","cpi",0.3,1968,3,1968,NA,0.5,3.84216639656326,4.58882429879047,3.95128347779386,4.07097205779852,TRUE,0.746657902227212
"CAN","cpi",0.3,1968,3,1967,NA,1,2.20145002136436,2.94810792359157,3.95128347779386,5.84521682123848,FALSE,3.61287377137661
"CAN","cpi",0.3,1968,3,1967,NA,1.5,1.63811165502817,2.46490299597029,3.95128347779386,2.25565858240226,FALSE,5.07359271758088
"CAN","cpi",0.3,1969,3,1969,NA,0,4.31911230778928,4.37147941793182,4.42679496126681,4.46896837073893,FALSE,0.210411519671095
"CAN","cpi",0.3,1969,3,1969,NA,0.5,3.10283774576562,3.65046635944393,4.42679496126681,2.96612019395715,FALSE,2.76571033317227
"CAN","cpi",0.3,1969,3,1968,NA,1,2.74570596833894,4.14432731852148,4.42679496126681,6.72487630040807,FALSE,2.20567175802635
"CAN","cpi",0.3,1969,3,1968,NA,1.5,1.57925635569946,2.97787770588201,4.42679496126681,4.31664452944541,FALSE,5.53838493699628
"CAN","cpi",0.3,1970,3,1970,NA,0,3.39948386142267,3.49628437062274,3.28128405769805,3.52697515579364,FALSE,0.434514234127574
"CAN","cpi",0.3,1970,3,1970,NA,0.5,4.39878441403802,5.17617245086271,3.28128405769805,4.65371085276917,FALSE,3.97024619779604
"CAN","cpi",0.3,1970,3,1969,NA,1,2.08387290933899,3.11553174350333,3.28128405769805,4.52747875087707,FALSE,1.50523687472066
"CAN","cpi",0.3,1970,3,1969,NA,1.5,1.60097985907214,2.63263869323648,3.28128405769805,2.07973847283129,FALSE,2.88493130405452
"CAN","cpi",0.3,1971,3,1971,NA,0,2.71627214827174,2.77813682532674,2.64123406634756,2.8393232579169,FALSE,0.276259196838374
"CAN","cpi",0.3,1971,3,1971,NA,0.5,2.35419954809098,2.83752473880702,2.64123406634756,2.06692165705507,TRUE,0.483325190716037
"CAN","cpi",0.3,1971,3,1970,NA,1,1.61922694429519,2.32356334976708,2.64123406634756,2.64105994583495,FALSE,1.61196702427327
"CAN","cpi",0.3,1971,3,1970,NA,1.5,2.13592808628519,3.32226142426223,2.64123406634756,4.63977638900468,TRUE,1.18633333797704
"CAN","cpi",0.3,1972,3,1972,NA,0,4.87138901900491,4.92048363501396,4.83230569625923,5.03048103188219,FALSE,0.160761252425269
"CAN","cpi",0.3,1972,3,1972,NA,0.5,4.4911559880692,5.54986962041803,4.83230569625923,5.06705904355972,TRUE,1.05871363234883
"CAN","cpi",0.3,1972,3,1971,NA,1,2.62315378845825,3.75613901724272,4.83230569625923,5.9169160270675,FALSE,4.20774716883165
"CAN","cpi",0.3,1972,3,1971,NA,1.5,1.68161147706914,2.81459670585361,4.83230569625923,3.09276495441271,FALSE,6.89786805851482
"CAN","cpi",0.3,1973,3,1973,NA,0,6.77825968247635,6.83894028641191,7.12388603531779,6.99264756193144,FALSE,0.874811315095218
"CAN","cpi",0.3,1973,3,1973,NA,0.5,5.02924346643846,5.86323303358127,7.12388603531779,5.47469896411854,FALSE,4.43585528639002
"CAN","cpi",0.3,1973,3,1972,NA,1,2.76031181609583,4.23797265631933,7.12388603531779,6.69062283747837,FALSE,9.72312763736195
"CAN","cpi",0.3,1973,3,1972,NA,1.5,2.01734703246193,3.49500787268543,7.12388603531779,4.73174243586486,FALSE,11.8458841620302
"CAN","cpi",0.3,1974,3,1974,NA,0,9.69189328740536,9.90914635048112,10.2717243737774,9.94431520564033,FALSE,1.25319027249375
"CAN","cpi",0.3,1974,3,1974,NA,0.5,7.2279466926102,8.50691917656246,10.2717243737774,8.3378654175141,FALSE,6.32127304742357
"CAN","cpi",0.3,1974,3,1973,NA,1,3.3659086750814,4.81475465049974,10.2717243737774,7.16712422635118,FALSE,17.040188041926
"CAN","cpi",0.3,1974,3,1973,NA,1.5,2.04773574218274,3.49658171760108,10.2717243737774,4.05174749178054,FALSE,20.8063964216365
"CAN","cpi",0.3,1975,3,1975,NA,0,9.85081732745918,10.0583077360163,10.0232981493341,10.0931823619779,TRUE,0.207490408557149
"CAN","cpi",0.3,1975,3,1975,NA,0.5,8.03645062965341,9.86937790462007,10.0232981493341,8.98267476097328,FALSE,2.27269940272109
"CAN","cpi",0.3,1975,3,1974,NA,1,3.89506263728258,5.72798991224924,10.0232981493341,7.7837982223054,FALSE,14.1052365237806
"CAN","cpi",0.3,1975,3,1974,NA,1.5,2.18469357502959,4.01762084999625,10.0232981493341,5.75931605308519,FALSE,18.9920052730749
"CAN","cpi",0.3,1976,3,1976,NA,0,6.88009512074006,7.031935234082,7.22784311401172,7.07277954951717,FALSE,0.711576913141134
"CAN","cpi",0.3,1976,3,1976,NA,0.5,7.64426862922554,9.55869209946855,7.22784311401172,8.59089060438327,FALSE,3.10421065656822
"CAN","cpi",0.3,1976,3,1975,NA,1,5.38088237244756,9.58664787831235,7.22784311401172,10.4141477685142,TRUE,4.20576550586479
"CAN","cpi",0.3,1976,3,1975,NA,1.5,2.00565560872983,6.21142111459462,7.22784311401172,6.43051086134862,FALSE,7.1098283613422
"CAN","cpi",0.3,1977,3,1977,NA,0,7.35242807025445,7.51311635796318,7.58101410153764,7.55301151664772,FALSE,0.354681840778625
"CAN","cpi",0.3,1977,3,1977,NA,0.5,7.12103440930695,8.7852478692088,7.58101410153764,7.98165850021887,TRUE,1.66421345990186
"CAN","cpi",0.3,1977,3,1976,NA,1,1.86620398065968,3.53041744056153,7.58101410153764,3.72134649143602,FALSE,13.2373467769765
"CAN","cpi",0.3,1977,3,1976,NA,1.5,3.01082536885265,7.58723424152024,7.58101410153764,8.00272044475614,TRUE,4.57640887266759
"CAN","cpi",0.3,1978,3,1978,NA,0,8.5915962582519,8.64230009255806,8.50208927062595,8.67127840358843,FALSE,0.306438084666035
"CAN","cpi",0.3,1978,3,1978,NA,0.5,7.47504541582055,9.34746997299961,8.50208927062595,8.3788273181893,TRUE,1.87242455717906
"CAN","cpi",0.3,1978,3,1977,NA,1,3.55298270362838,5.9231556602062,8.50208927062595,7.54783828416051,FALSE,9.73855470063424
"CAN","cpi",0.3,1978,3,1977,NA,1.5,3.31310444593111,8.66994976895224,8.50208927062595,9.72562756342223,TRUE,5.35684532302113
"CAN","cpi",0.3,1979,3,1979,NA,0,8.39566983588074,8.52681338782917,8.65147652410481,8.56376390232469,FALSE,0.487323941307403
"CAN","cpi",0.3,1979,3,1979,NA,0.5,7.40894479465453,8.46906329516545,8.65147652410481,8.29599284966764,FALSE,1.58129915462337
"CAN","cpi",0.3,1979,3,1978,NA,1,5.06167330744615,9.580847402006,8.65147652410481,9.20311500508918,TRUE,4.51917409455984
"CAN","cpi",0.3,1979,3,1978,NA,1.5,3.46315475295532,7.98232884751516,8.65147652410481,8.55646910152924,FALSE,6.4310245991017
"CAN","cpi",0.3,1980,3,1980,NA,0,9.32639589137696,9.55240195817176,9.5171912664748,9.50406722106931,TRUE,0.226006066794795
"CAN","cpi",0.3,1980,3,1980,NA,0.5,8.08591427457194,8.91236537544198,9.5171912664748,8.57798914335092,FALSE,2.55452507524952
"CAN","cpi",0.3,1980,3,1979,NA,1,5.41218291224223,8.20752147495797,9.5171912664748,8.17875203710815,FALSE,6.53725225276382
"CAN","cpi",0.3,1980,3,1979,NA,1.5,3.47782295118346,7.83354698736633,9.5171912664748,8.39204766062112,FALSE,9.16613626220705
"CAN","cpi",0.3,1981,3,1981,NA,0,11.6414612631626,11.7400831484616,11.5813425032741,11.7113878984199,FALSE,0.270389770694679
"CAN","cpi",0.3,1981,3,1981,NA,0.5,11.2344866452031,13.12873113422,11.5813425032741,12.2156196752767,TRUE,1.89424448901691
"CAN","cpi",0.3,1981,3,1980,NA,1,7.72968833235552,11.4161044306588,11.5813425032741,11.0496853423024,FALSE,4.15852487720416
"CAN","cpi",0.3,1981,3,1980,NA,1.5,4.86981125773999,8.55622735604332,11.5813425032741,8.33809792174894,FALSE,12.3296022332485
"CAN","cpi",0.3,1982,3,1982,NA,0,10.1309484297306,10.2750999587392,10.1124203763629,10.2566668151097,FALSE,0.197088824344731
"CAN","cpi",0.3,1982,3,1982,NA,0.5,9.69933883520019,10.3283503200939,10.1124203763629,10.1085355973545,TRUE,0.629011484893731
"CAN","cpi",0.3,1982,3,1981,NA,1,8.20088696713238,12.3189273023784,10.1124203763629,11.770988683124,TRUE,4.11804033524605
"CAN","cpi",0.3,1982,3,1981,NA,1.5,6.69427099616443,11.7093532149688,10.1124203763629,12.8701250351281,TRUE,5.01508221880441
"CAN","cpi",0.3,1983,3,1983,NA,0,5.61036891118959,5.69606614038016,5.67091787896303,5.7310121416489,TRUE,0.0856972291905755
"CAN","cpi",0.3,1983,3,1983,NA,0.5,5.05917872417531,5.52209888891747,5.67091787896303,4.91343016009654,FALSE,0.888117279158054
"CAN","cpi",0.3,1983,3,1982,NA,1,6.79900350649102,9.22193909478775,5.67091787896303,9.18500149866057,FALSE,5.64603738123384
"CAN","cpi",0.3,1983,3,1982,NA,1.5,7.48238795210454,9.90532354040127,5.67091787896303,9.68672301569366,FALSE,7.59856436870102
"CAN","cpi",0.3,1984,3,1984,NA,0,NA,NA,4.19799576814029,NA,NA,NA
"CAN","cpi",0.3,1984,3,1984,NA,0.5,5.97392596533053,6.3956964118791,4.19799576814029,5.85770686024457,FALSE,5.49585672423499
"CAN","cpi",0.3,1984,3,1983,NA,1,4.01698999616388,6.05527120676912,4.19799576814029,5.76553357996429,TRUE,2.03828121060524
"CAN","cpi",0.3,1984,3,1983,NA,1.5,2.7091536716174,4.74743488222264,4.19799576814029,2.9197996794717,TRUE,2.03828121060524
"CAN","cpi",0.3,1985,3,1985,NA,0,3.74332514692383,3.81007607877293,3.86444262005169,3.85417990135378,FALSE,0.222083906931283
"CAN","cpi",0.3,1985,3,1985,NA,0.5,4.43973239013963,4.88047990201609,3.86444262005169,4.21990042382899,FALSE,2.08443256927056
"CAN","cpi",0.3,1985,3,1984,NA,1,NA,NA,3.86444262005169,NA,NA,NA
"CAN","cpi",0.3,1985,3,1984,NA,1.5,5.23774591723306,7.98408837002178,3.86444262005169,8.62999660305356,FALSE,6.67006615902119
"CAN","cpi",0.3,1986,3,1986,NA,0,3.93049353373084,4.01227638757076,4.08685396749431,4.03771389199993,FALSE,0.294861653621493
"CAN","cpi",0.3,1986,3,1986,NA,0.5,4.5485744599095,5.03062516819268,4.08685396749431,4.38219332503529,FALSE,1.80125211518371
"CAN","cpi",0.3,1986,3,1985,NA,1,2.18869011137346,3.69656776333171,4.08685396749431,3.37849976080849,FALSE,2.62298109242282
"CAN","cpi",0.3,1986,3,1985,NA,1.5,3.73051650877601,5.65354977402323,4.08685396749431,4.95309858900956,TRUE,1.92303326524722
"CAN","cpi",0.3,1987,3,1987,NA,0,NA,NA,4.23980729277887,NA,NA,NA
"CAN","cpi",0.3,1987,3,1987,NA,0.5,4.22910651274793,4.70780341271181,4.23980729277887,4.13342161080085,TRUE,0.478696899963879
"CAN","cpi",0.3,1987,3,1986,NA,1,2.39249706606956,4.09974163571192,4.23980729277887,3.66140988164798,FALSE,2.10743216126222
"CAN","cpi",0.3,1987,3,1986,NA,1.5,3.66875367988391,5.55832065602728,4.23980729277887,4.80242768143514,TRUE,1.88956697614337
"CAN","cpi",0.3,1988,3,1988,NA,0,3.84803685157701,3.9483654309976,3.92899537638065,3.9438316199536,TRUE,0.100328579420587
"CAN","cpi",0.3,1988,3,1988,NA,0.5,3.56324635242062,4.00297388921171,3.92899537638065,3.35419215340812,TRUE,0.439727536791095
"CAN","cpi",0.3,1988,3,1987,NA,1,NA,NA,3.92899537638065,NA,NA,NA
"CAN","cpi",0.3,1988,3,1987,NA,1.5,3.29662600822856,4.98455500135595,3.92899537638065,3.89461929526446,TRUE,1.68792899312739
"CAN","cpi",0.3,1989,3,1989,NA,0,4.85106602321096,4.95739347881008,4.82821664544208,4.95130318392835,FALSE,0.171611392081638
"CAN","cpi",0.3,1989,3,1989,NA,0.5,4.32387741882134,4.74242066479842,4.82821664544208,4.23024942747073,FALSE,0.663674619244673
"CAN","cpi",0.3,1989,3,1988,NA,1,2.78163062357906,4.39123231005442,4.82821664544208,4.05841794603162,FALSE,2.85812835901152
"CAN","cpi",0.3,1989,3,1988,NA,1.5,2.66020022385025,4.26980191032561,4.82821664544208,2.597843559383,FALSE,3.20507235823669
"CAN","cpi",0.3,1990,3,1990,NA,0,4.36617487808541,4.46252828380734,4.64347549432717,4.4746950192663,FALSE,0.613345435778585
"CAN","cpi",0.3,1990,3,1990,NA,0.5,4.96170844968113,5.45986759212507,4.64347549432717,4.96487168902479,FALSE,1.40739615774097
"CAN","cpi",0.3,1990,3,1989,NA,1,3.83618505450822,5.75038473487379,4.64347549432717,5.43871373969076,TRUE,1.91419968036557
"CAN","cpi",0.3,1990,3,1989,NA,1.5,2.91187169707382,4.82607137743939,4.64347549432717,3.3732540002381,TRUE,1.91419968036557
"CAN","cpi",0.3,1991,3,1991,NA,0,5.50738969676906,5.61764246636907,5.4258100696218,5.61053369942382,FALSE,0.343337418592191
"CAN","cpi",0.3,1991,3,1991,NA,0.5,7.44238552359717,8.04419419992483,5.4258100696218,7.82199295477594,FALSE,6.36345283054302
"CAN","cpi",0.3,1991,3,1990,NA,1,2.53310530687999,4.09671139636379,5.4258100696218,3.66716818384097,FALSE,5.36103087022096
"CAN","cpi",0.3,1991,3,1990,NA,1.5,4.01764585262388,5.58125194210768,5.4258100696218,4.82481948664164,TRUE,1.56360608948381
"CAN","cpi",0.3,1992,3,1992,NA,0,NA,NA,1.47496888572843,NA,NA,NA
"CAN","cpi",0.3,1992,3,1992,NA,0.5,NA,NA,1.47496888572843,NA,NA,NA
"CAN","cpi",0.3,1992,3,1991,NA,1,1.89735452888443,3.29608941648824,1.47496888572843,2.76780571233213,FALSE,2.60555101090666
"CAN","cpi",0.3,1992,3,1991,NA,1.5,5.12147032143013,7.04167518557212,1.47496888572843,7.14938182660169,FALSE,12.3387803947183
"CAN","cpi",0.3,1993,3,1993,NA,0,NA,NA,NA,NA,NA,NA
"CAN","cpi",0.3,1993,3,1993,NA,0.5,NA,NA,NA,NA,NA,NA
"CAN","cpi",0.3,1993,3,1992,NA,1,NA,NA,NA,NA,NA,NA
"CAN","cpi",0.3,1993,3,1992,NA,1.5,NA,NA,NA,NA,NA,NA
"CAN","cpi",0.3,1994,3,1994,NA,0,NA,NA,NA,NA,NA,NA
"CAN","cpi",0.3,1994,3,1994,NA,0.5,NA,NA,NA,NA,NA,NA
"CAN","cpi",0.3,1994,3,1993,NA,1,NA,NA,NA,NA,NA,NA
"CAN","cpi",0.3,1994,3,1993,NA,1.5,NA,NA,NA,NA,NA,NA
"CAN","cpi",0.3,1995,3,1995,NA,0,NA,NA,2.11688403676572,NA,NA,NA
"CAN","cpi",0.3,1995,3,1995,NA,0.5,2.83842445512245,3.24786693280866,2.11688403676572,2.51937811073084,FALSE,2.47098653013403
"CAN","cpi",0.3,1995,3,1994,NA,1,0.357477394522173,1.08930368331867,2.11688403676572,0.719396410821945,FALSE,3.66777015578806
"CAN","cpi",0.3,1995,3,1994,NA,1.5,1.19951970682722,1.93134599562371,2.11688403676572,-1.04654603924828,FALSE,1.26193497777364
"CAN","cpi",0.3,1996,3,1996,NA,0,1.32960729023525,1.4284541864877,1.55309584667184,1.42780748357026,FALSE,0.454965925349998
"CAN","cpi",0.3,1996,3,1996,NA,0.5,NA,NA,1.55309584667184,NA,NA,NA
"CAN","cpi",0.3,1996,3,1995,NA,1,NA,NA,1.55309584667184,NA,NA,NA
"CAN","cpi",0.3,1996,3,1995,NA,1.5,3.02899649140243,4.36418745062896,1.55309584667184,2.92232271175447,FALSE,5.55204994417107
"CAN","cpi",0.3,1997,3,1997,NA,0,1.65465066369077,1.73648032904176,1.60528783555959,1.73535847807117,FALSE,0.222866317154346
"CAN","cpi",0.3,1997,3,1997,NA,0.5,2.34660005314886,2.80622185445501,1.60528783555959,2.11078363597796,FALSE,2.57765670870406
"CAN","cpi",0.3,1997,3,1996,NA,1,0.654481594309996,1.69159148069,1.60528783555959,0.984961337307556,TRUE,1.03710988638001
"CAN","cpi",0.3,1997,3,1996,NA,1.5,NA,NA,1.60528783555959,NA,NA,NA
"CAN","cpi",0.3,1998,3,1998,NA,0,0.938932736295624,1.03512468336815,0.988908029337191,1.0350847138471,TRUE,0.0961919470725245
"CAN","cpi",0.3,1998,3,1998,NA,0.5,1.98887417656683,2.41756253446138,0.988908029337191,1.68533655437107,FALSE,3.28573449283638
"CAN","cpi",0.3,1998,3,1997,NA,1,1.53748953802549,2.83039502156681,0.988908029337191,2.25159584334757,FALSE,2.86028122265075
"CAN","cpi",0.3,1998,3,1997,NA,1.5,2.67980441858465,4.03441349484391,0.988908029337191,2.38987816876076,FALSE,6.18574161696629
"CAN","cpi",0.3,1999,3,1999,NA,0,1.6761672579868,1.77736930917039,1.7107350135213,1.77618438459462,TRUE,0.101202051183582
"CAN","cpi",0.3,1999,3,1999,NA,0.5,1.43708877966201,1.81806288631596,1.7107350135213,1.0290924799153,TRUE,0.380974106653945
"CAN","cpi",0.3,1999,3,1998,NA,1,1.0966954387686,2.44368295417003,1.7107350135213,1.85177544064205,TRUE,1.34698751540143
"CAN","cpi",0.3,1999,3,1998,NA,1.5,2.90795663912404,4.37466257389034,1.7107350135213,2.94645730787123,FALSE,4.88733915077413
"CAN","cpi",0.3,2000,3,2000,NA,0,2.62227711288073,2.68921474789129,2.6718361971244,2.7102541785615,TRUE,0.0669376350105644
"CAN","cpi",0.3,2000,3,2000,NA,0.5,2.54273757207045,3.01931987089616,2.6718361971244,2.34405201403356,TRUE,0.476582298825707
"CAN","cpi",0.3,2000,3,1999,NA,1,2.17350432479475,3.56552235118136,2.6718361971244,3.07542936781209,TRUE,1.39201802638661
"CAN","cpi",0.3,2000,3,1999,NA,1.5,2.57228414741109,3.9643021737977,2.6718361971244,2.27809035801724,TRUE,1.39201802638661
"CAN","cpi",0.3,2001,3,2001,NA,0,2.6870025372483,2.75475434361835,2.47906219852806,2.77546584984351,FALSE,0.661867059856441
"CAN","cpi",0.3,2001,3,2001,NA,0.5,2.61977006595449,3.08811009836093,2.47906219852806,2.43566755503104,FALSE,0.870362510767656
"CAN","cpi",0.3,2001,3,2000,NA,1,2.59855702849848,4.13694094645197,2.47906219852806,3.68958695319843,FALSE,1.87979771786897
"CAN","cpi",0.3,2001,3,2000,NA,1.5,2.87651214862884,4.41489606658233,2.47906219852806,3.01270789712173,FALSE,2.6739552039557
"CAN","cpi",0.3,2002,3,2002,NA,0,2.18725338090744,2.23444641610722,2.20880570551249,2.27196234986351,TRUE,0.0471930351997738
"CAN","cpi",0.3,2002,3,2002,NA,0.5,1.90320903803786,2.30793095824228,2.20880570551249,1.58345411989126,TRUE,0.404721920204427
"CAN","cpi",0.3,2002,3,2001,NA,1,1.5469066351702,2.80556463784449,2.20880570551249,2.26510423845898,TRUE,1.25865800267428
"CAN","cpi",0.3,2002,3,2001,NA,1.5,2.83209535109851,4.36115617379065,2.20880570551249,3.02058043279009,FALSE,3.30988838150936
"CAN","cpi",0.3,2003,3,2003,NA,0,2.6252674954082,2.678841155442,2.71189071546809,2.71326702620668,FALSE,0.148000974394054
"CAN","cpi",0.3,2003,3,2003,NA,0.5,4.36755521421948,4.98542605187282,2.71189071546809,4.51432649273496,FALSE,5.34834083408589
"CAN","cpi",0.3,2003,3,2002,NA,1,2.73252703776018,4.28167027756498,2.71189071546809,3.85618281746238,FALSE,1.60810416063934
"CAN","cpi",0.3,2003,3,2002,NA,1.5,2.50149434838653,4.05063758819133,2.71189071546809,2.39402389849184,TRUE,1.54914323980479
"CAN","cpi",0.3,2004,3,2004,NA,0,1.693667596452,1.74892439228987,1.83151661303942,1.77466852383015,FALSE,0.291234569408016
"CAN","cpi",0.3,2004,3,2004,NA,0.5,1.85216281826698,2.27105976259879,1.83151661303942,1.55260435151936,FALSE,0.477886102124829
"CAN","cpi",0.3,2004,3,2003,NA,1,1.21859619281533,2.23561401354879,1.83151661303942,1.79415792598285,TRUE,1.01701782073346
"CAN","cpi",0.3,2004,3,2003,NA,1.5,3.33771310848509,5.13092107095713,1.83151661303942,4.26699272545716,FALSE,6.09662652088822
"CAN","cpi",0.3,2005,3,2005,NA,0,2.25890456702504,2.34128756339434,2.18071628336509,2.34345353472953,FALSE,0.305778092540594
"CAN","cpi",0.3,2005,3,2005,NA,0.5,1.81099424634209,2.22579380817062,2.18071628336509,1.50321338317329,TRUE,0.414799561828532
"CAN","cpi",0.3,2005,3,2004,NA,1,1.18608341859195,2.08215292005874,2.18071628336509,1.64043962712234,FALSE,1.17767911091351
"CAN","cpi",0.3,2005,3,2004,NA,1.5,2.43185335608626,3.67394662069023,2.18071628336509,2.03393284113233,FALSE,1.95962775809303
"CAN","cpi",0.3,2006,3,2006,NA,0,2.01175323711076,2.07101118428937,1.97519342012289,2.09514376892657,FALSE,0.163714567143968
"CAN","cpi",0.3,2006,3,2006,NA,0.5,2.30373150879901,2.76757170875289,1.97519342012289,2.09436263599022,FALSE,1.40252045331423
"CAN","cpi",0.3,2006,3,2005,NA,1,2.09980160670587,3.46442465473928,1.97519342012289,2.9582912060806,FALSE,1.72064643827049
"CAN","cpi",0.3,2006,3,2005,NA,1.5,2.07382772655816,3.43845077459157,1.97519342012289,1.64885961980806,FALSE,1.6464353521342
"CAN","cpi",0.3,2007,3,2007,NA,0,2.00509460487088,2.08276243323603,2.10062087284572,2.10683622102307,FALSE,0.128691941535703
"CAN","cpi",0.3,2007,3,2007,NA,0.5,2.3720274759696,2.83557022520941,2.10062087284572,2.17629902083353,FALSE,1.23899018673661
"CAN","cpi",0.3,2007,3,2006,NA,1,1.01953721481578,1.95055078913211,2.10062087284572,1.50861692709856,FALSE,1.35978524206951
"CAN","cpi",0.3,2007,3,2006,NA,1.5,2.22935018067792,3.71697395157345,2.10062087284572,2.15918616350405,FALSE,1.85542179327323
"CAN","cpi",0.3,2008,3,2008,NA,0,2.78162042614864,2.86657650349443,2.31447335265955,2.87079455148828,FALSE,1.41966200160032
"CAN","cpi",0.3,2008,3,2008,NA,0.5,1.63080015501455,2.03941949892163,2.31447335265955,1.31005314695267,FALSE,1.194487497444
"CAN","cpi",0.3,2008,3,2007,NA,1,1.06892892840978,2.01419219484302,2.31447335265955,1.47031049982668,FALSE,1.80320943162333
