isdrw/probabilistic-benchmark-forecasts/results/linear_quantile_regression/ldr_prediction_rw_2026-02-18_16-02-44.csv
"country","target","tau","target_year","target_quarter","forecast_year","forecast_quarter","horizon","lower_bound","upper_bound","truth_value","prediction","covered","IS"
"CAN","cpi",0.1,1950,3,1950,NA,0,2.44668978058026,2.44668978058026,2.59031220731124,2.34506766740468,FALSE,0.31916094829107
"CAN","cpi",0.1,1950,3,1950,NA,0.5,0.634852177820488,0.634852177820488,2.59031220731124,-0.480727815155867,FALSE,4.34546673220167
"CAN","cpi",0.1,1950,3,1949,NA,1,-24.7312842731929,-24.7312842731929,2.59031220731124,2.05479851121881,FALSE,60.7146588455648
"CAN","cpi",0.1,1950,3,1949,NA,1.5,14.2036158124835,14.2036158124835,2.59031220731124,0,FALSE,25.8073413448273
"CAN","cpi",0.1,1951,3,1951,NA,0,9.80019208199033,9.81526333558829,9.87945438999359,9.94785600170898,FALSE,0.157718041165299
"CAN","cpi",0.1,1951,3,1951,NA,0.5,9.47619064275766,9.49126189635561,9.87945438999359,9.56401243485552,FALSE,0.877721239460134
"CAN","cpi",0.1,1951,3,1950,NA,1,7.60465958206659,7.61973083566455,9.87945438999359,7.18504019917801,FALSE,5.03667915210695
"CAN","cpi",0.1,1951,3,1950,NA,1.5,2.4630011401511,15.873989275693,9.87945438999359,-2.18579641022426,TRUE,13.4109881355419
"CAN","cpi",0.1,1952,3,1952,NA,0,2.73453226045422,2.73453226045422,2.55562336095485,2.49651395855886,FALSE,0.39757533222082
"CAN","cpi",0.1,1952,3,1952,NA,0.5,5.60205941348793,5.60205941348793,2.55562336095485,3.9078404779387,FALSE,6.76985789451797
"CAN","cpi",0.1,1952,3,1951,NA,1,9.27897840616498,9.27897840616498,2.55562336095485,8.88778808098424,FALSE,14.9407889893559
"CAN","cpi",0.1,1952,3,1951,NA,1.5,5.01656633283886,5.01656633283886,2.55562336095485,10.076419411745,FALSE,5.46876215974226
"CAN","cpi",0.1,1953,3,1953,NA,0,-0.627548748561953,-0.848313568261226,-1.01492775838436,-0.954275034924989,FALSE,0.640077424350526
"CAN","cpi",0.1,1953,3,1953,NA,0.5,0.4348260868504,0.214061267151126,-1.01492775838436,-2.19876634474816,FALSE,3.00091039193353
"CAN","cpi",0.1,1953,3,1952,NA,1,0.950773810004295,0.730008990305021,-1.01492775838436,-1.18145267469342,FALSE,4.14746088783108
"CAN","cpi",0.1,1953,3,1952,NA,1.5,8.64294728168907,8.64294728168907,-1.01492775838436,0.93216905581622,FALSE,21.4619445334965
"CAN","cpi",0.1,1954,3,1954,NA,0,0.989555581625795,0.997065476784289,0.644425455961438,0.879731201855888,FALSE,0.774465729968176
"CAN","cpi",0.1,1954,3,1954,NA,0.5,0.508557307999466,0.733951368716736,0.644425455961438,-0.358875738913824,TRUE,0.225394060717269
"CAN","cpi",0.1,1954,3,1953,NA,1,0.78088586032166,3.59566076549145,0.644425455961438,3.38326531029323,FALSE,3.11802024819251
"CAN","cpi",0.1,1954,3,1953,NA,1.5,2.60014825970703,10.1457073126509,0.644425455961438,-2.85717744192413,FALSE,11.891609727934
"CAN","cpi",0.1,1955,3,1955,NA,0,0.215113364430338,0.215113364430338,0.173649026558865,0.115254687233858,FALSE,0.0921429730477169
"CAN","cpi",0.1,1955,3,1955,NA,0.5,0.306864393902625,0.306864393902625,0.173649026558865,-0.770970046821609,FALSE,0.296034149652801
"CAN","cpi",0.1,1955,3,1954,NA,1,1.53218031289743,2.96637011316861,0.173649026558865,3.47019599757395,FALSE,4.45314821435689
"CAN","cpi",0.1,1955,3,1954,NA,1.5,1.76280704832818,3.19699684859937,0.173649026558865,-1.89562740163941,FALSE,4.96565207086967
"CAN","cpi",0.1,1956,3,1956,NA,0,1.60035394768299,1.63572323494535,1.32752769429961,1.56059797998755,FALSE,0.641649850336541
"CAN","cpi",0.1,1956,3,1956,NA,0.5,0.224816304687274,0.35750666148849,1.32752769429961,-0.709146002056511,FALSE,2.28829265193703
"CAN","cpi",0.1,1956,3,1955,NA,1,-0.202138209979524,1.07183565913654,1.32752769429961,0.884549626974225,FALSE,1.84217839170066
"CAN","cpi",0.1,1956,3,1955,NA,1.5,0.801884655658533,2.48014198917543,1.32752769429961,-1.89150615642833,TRUE,1.6782573335169
"CAN","cpi",0.1,1957,3,1957,NA,0,3.38869521239657,3.43097785880579,3.24684755852518,3.4151370317006,FALSE,0.357499655012313
"CAN","cpi",0.1,1957,3,1957,NA,0.5,2.77311446919823,2.84740957946988,3.24684755852518,2.23982631608766,FALSE,0.96193506372786
"CAN","cpi",0.1,1957,3,1956,NA,1,3.3268082874261,6.10820502997514,3.24684755852518,6.98754636690555,FALSE,2.95908725121776
"CAN","cpi",0.1,1957,3,1956,NA,1.5,-0.325285389417697,2.45611135313134,3.24684755852518,-1.88668623310337,FALSE,4.5385883100909
"CAN","cpi",0.1,1958,3,1958,NA,0,2.1305783910621,2.23836365966019,2.33186388641149,2.22387249143335,FALSE,0.315563550267639
"CAN","cpi",0.1,1958,3,1958,NA,0.5,2.7470355073785,2.85482077597659,2.33186388641149,2.22839060734872,FALSE,1.03038887074701
"CAN","cpi",0.1,1958,3,1957,NA,1,1.18909643007831,1.90781606695466,2.33186388641149,4.42088197051908,FALSE,1.66104812455819
"CAN","cpi",0.1,1958,3,1957,NA,1.5,1.69275709288881,2.64349048485108,2.33186388641149,0.91301479707402,TRUE,0.950733391962267
"CAN","cpi",0.1,1959,3,1959,NA,0,1.27913577217943,1.29367456959424,1.19382698397654,1.24991216431293,FALSE,0.204113882310125
"CAN","cpi",0.1,1959,3,1959,NA,0.5,1.29704335245092,1.38189977416412,1.19382698397654,0.437839731590327,FALSE,0.314226129434048
"CAN","cpi",0.1,1959,3,1958,NA,1,0.518915201274134,0.741453610830757,1.19382698397654,1.75862762885946,FALSE,1.22781257210281
"CAN","cpi",0.1,1959,3,1958,NA,1.5,1.80489150369629,2.40233217320383,1.19382698397654,1.77407172713766,FALSE,1.95536182444032
"CAN","cpi",0.1,1960,3,1960,NA,0,0.974753697324658,1.06730216822586,1.34209404870695,1.02361304259477,FALSE,0.703197094192517
"CAN","cpi",0.1,1960,3,1960,NA,0.5,1.28237189235345,1.37492036325465,1.34209404870695,0.53898348018166,TRUE,0.0925484709012006
"CAN","cpi",0.1,1960,3,1959,NA,1,2.04923799775328,2.14178646865448,1.34209404870695,3.95759373689442,FALSE,1.66397946878193
"CAN","cpi",0.1,1960,3,1959,NA,1.5,1.46010443383291,2.18565868335833,1.34209404870695,-0.873476815404885,FALSE,0.987799549805324
"CAN","cpi",0.1,1961,3,1961,NA,0,0.973103136566993,1.04060872747009,1.00921348094007,1.00921348094007,TRUE,0.0675055909030973
"CAN","cpi",0.1,1961,3,1961,NA,0.5,1.71304134258367,1.78054693348677,1.00921348094007,1.00921348094007,FALSE,1.63156750566664
"CAN","cpi",0.1,1961,3,1960,NA,1,-0.176250265178244,0.33019181197097,1.00921348094007,0.0537704626035329,FALSE,2.01537911930277
"CAN","cpi",0.1,1961,3,1960,NA,1.5,1.14939358777327,1.65583566492249,1.00921348094007,-0.862181798940035,FALSE,0.817953425667443
"CAN","cpi",0.1,1962,3,1962,NA,0,1.10494005215386,1.14324508531548,1.04957947883042,1.10232402731478,FALSE,0.161328529435941
"CAN","cpi",0.1,1962,3,1962,NA,0.5,0.84646351368713,0.884768546848747,1.04957947883042,0,FALSE,0.404551548676435
"CAN","cpi",0.1,1962,3,1961,NA,1,0.484187793975501,0.522492827137118,1.04957947883042,0,FALSE,1.20960870359117
"CAN","cpi",0.1,1962,3,1961,NA,1.5,1.46272057368418,1.57385627140557,1.04957947883042,0,FALSE,1.02922701961865
"CAN","cpi",0.1,1963,3,1963,NA,0,1.86346939751353,1.93356478537852,1.60677118395228,1.91491729531202,FALSE,0.640535862445532
"CAN","cpi",0.1,1963,3,1963,NA,0.5,1.5703133561121,1.6404087439771,1.60677118395228,0.836828714617504,TRUE,0.0700953878649946
"CAN","cpi",0.1,1963,3,1962,NA,1,1.40879123785107,1.81933949978051,1.60677118395228,2.56411490415144,TRUE,0.410548261929436
"CAN","cpi",0.1,1963,3,1962,NA,1.5,1.14752553975268,1.57385627140557,1.60677118395228,0,FALSE,0.499474981756697
"CAN","cpi",0.1,1964,3,1964,NA,0,1.93008289548981,1.97059365648887,1.88764670034376,1.98877256446048,FALSE,0.134813416879173
"CAN","cpi",0.1,1964,3,1964,NA,0.5,2.02556104459833,2.06607180559739,1.88764670034376,1.38369006227607,FALSE,0.346987081564768
"CAN","cpi",0.1,1964,3,1963,NA,1,2.356487909842,2.60754133652611,1.88764670034376,5.39044290347256,FALSE,1.29292278112464
"CAN","cpi",0.1,1964,3,1963,NA,1.5,1.39276170920282,1.64381513588693,1.88764670034376,0,FALSE,0.792901347699283
"CAN","cpi",0.1,1965,3,1965,NA,0,2.26898423516622,2.33534420415479,2.29538304394236,2.34557047418999,TRUE,0.0663599689885697
"CAN","cpi",0.1,1965,3,1965,NA,0.5,2.1629978396324,2.24169390730082,2.29538304394236,1.61079447956654,FALSE,0.198005260205175
"CAN","cpi",0.1,1965,3,1964,NA,1,1.39996635520243,1.59217319209643,2.29538304394236,2.42518862179847,FALSE,1.75489539655162
"CAN","cpi",0.1,1965,3,1964,NA,1.5,1.54744891154934,1.73965574844335,2.29538304394236,0.818102552316399,FALSE,1.42715638244736
"CAN","cpi",0.1,1966,3,1966,NA,0,3.72170519133832,3.76106923418157,3.72486065470629,3.82010987863709,TRUE,0.0393640428432542
"CAN","cpi",0.1,1966,3,1966,NA,0.5,4.173710954186,4.21307499702925,3.72486065470629,3.99123398895563,FALSE,1.03680915279816
"CAN","cpi",0.1,1966,3,1965,NA,1,1.78023962613033,1.94549133240096,3.72486065470629,3.20722068745854,FALSE,4.11940575583802
"CAN","cpi",0.1,1966,3,1965,NA,1.5,1.66580057882884,1.83105228509947,3.72486065470629,1.60663824631958,FALSE,4.37371474984134
"CAN","cpi",0.1,1967,3,1967,NA,0,3.66494674085861,3.68750796752892,3.49360316391996,3.76768849328632,FALSE,0.403324730978417
"CAN","cpi",0.1,1967,3,1967,NA,0.5,2.82124992622966,2.89523406076797,3.49360316391996,2.4074547441976,FALSE,1.40369325265384
"CAN","cpi",0.1,1967,3,1966,NA,1,1.76835922924858,2.00521483223588,3.49360316391996,3.18103323070284,FALSE,3.54438522895192
"CAN","cpi",0.1,1967,3,1966,NA,1.5,2.1663735761761,2.4032291791634,3.49360316391996,4.65128160487248,FALSE,2.65990890244632
"CAN","cpi",0.1,1968,3,1968,NA,0,4.0625370870097,4.08415327504849,3.95128347779386,4.17287945672396,FALSE,0.268846430740669
"CAN","cpi",0.1,1968,3,1968,NA,0.5,4.24455726864179,4.27307088571518,3.95128347779386,4.07097205779852,FALSE,0.68023315229102
"CAN","cpi",0.1,1968,3,1967,NA,1,2.45252694359548,2.82419758944148,3.95128347779386,5.84521682123848,FALSE,2.87630595329573
"CAN","cpi",0.1,1968,3,1967,NA,1.5,1.81360498888675,2.18527563473275,3.95128347779386,2.25565858240226,FALSE,4.29613251931513
"CAN","cpi",0.1,1969,3,1969,NA,0,4.47652705967856,4.48473521630259,4.42679496126681,4.59520664360618,FALSE,0.118723930872361
"CAN","cpi",0.1,1969,3,1969,NA,0.5,3.28285534869205,3.353535196123,4.42679496126681,2.96612019395715,FALSE,2.45570154775054
"CAN","cpi",0.1,1969,3,1968,NA,1,3.02966586126558,3.16207996579239,4.42679496126681,6.72487630040807,FALSE,2.94289187224775
"CAN","cpi",0.1,1969,3,1968,NA,1.5,2.13600770887081,2.35387265974553,4.42679496126681,4.31664452944541,FALSE,4.82435895425536
"CAN","cpi",0.1,1970,3,1970,NA,0,3.50741479537252,3.51653935936351,3.28128405769805,3.60761538249925,FALSE,0.511637314378712
"CAN","cpi",0.1,1970,3,1970,NA,0.5,4.48220232172713,4.50995561907933,3.28128405769805,4.36016077421692,FALSE,2.69646055075016
"CAN","cpi",0.1,1970,3,1969,NA,1,2.61315846452281,3.35297715041049,3.28128405769805,4.91369447805135,TRUE,0.73981868588768
"CAN","cpi",0.1,1970,3,1969,NA,1.5,1.76715207806591,2.50697076395359,3.28128405769805,2.07973847283129,FALSE,2.4605148942087
"CAN","cpi",0.1,1971,3,1971,NA,0,2.80273739008123,2.83191213405847,2.64123406634756,2.91872900980337,FALSE,0.388071018940947
"CAN","cpi",0.1,1971,3,1971,NA,0.5,1.97525119393177,2.0552911990642,2.64123406634756,1.38357105636307,FALSE,1.38213526576212
"CAN","cpi",0.1,1971,3,1970,NA,1,2.01832261590762,2.43784656655777,2.64123406634756,3.17686610979278,FALSE,0.871496172405244
"CAN","cpi",0.1,1971,3,1970,NA,1.5,2.19650481245896,2.6160287631091,2.64123406634756,4.62066312326275,FALSE,0.475535735624503
"CAN","cpi",0.1,1972,3,1972,NA,0,5.02009408234909,5.04302093170472,4.83230569625923,5.17210692165851,FALSE,0.440234373999761
"CAN","cpi",0.1,1972,3,1972,NA,0.5,4.81261889977426,4.83931506491506,4.83230569625923,4.76224255478946,TRUE,0.0266961651407911
"CAN","cpi",0.1,1972,3,1971,NA,1,3.37758017586348,4.27715395008571,4.83230569625923,6.83863498061675,FALSE,2.1332443212745
"CAN","cpi",0.1,1972,3,1971,NA,1.5,1.67794757992441,2.57752135414664,4.83230569625923,1.95441162589064,FALSE,5.91020564558354
"CAN","cpi",0.1,1973,3,1973,NA,0,7.22002906593356,7.23950277210142,7.12388603531779,7.41057825703995,FALSE,0.233124885314012
"CAN","cpi",0.1,1973,3,1973,NA,0.5,6.02856054031577,6.0513664312972,7.12388603531779,6.24191401313708,FALSE,2.40618278880496
"CAN","cpi",0.1,1973,3,1972,NA,1,3.9385135360615,4.83326932970702,7.12388603531779,8.12590883681935,FALSE,5.98501513944723
"CAN","cpi",0.1,1973,3,1972,NA,1.5,2.09920119767916,2.99395699132469,7.12388603531779,4.96130694391223,FALSE,10.072375891408
"CAN","cpi",0.1,1974,3,1974,NA,0,10.022511546363,10.0571456004455,10.2717243737774,10.2919804098732,FALSE,0.51147577259778
"CAN","cpi",0.1,1974,3,1974,NA,0.5,8.29930096864928,8.33393502273177,10.2717243737774,9.01679902243293,FALSE,4.34083261196171
"CAN","cpi",0.1,1974,3,1973,NA,1,6.64840236610022,6.79517256101592,10.2717243737774,11.5076386824751,FALSE,7.87244088994124
"CAN","cpi",0.1,1974,3,1973,NA,1.5,2.8658870857161,3.0126572806318,10.2717243737774,7.03851017911898,FALSE,16.278030401906
"CAN","cpi",0.1,1975,3,1975,NA,0,10.081021588056,10.0911106394431,10.0232981493341,10.3166994702432,FALSE,0.138363359657947
"CAN","cpi",0.1,1975,3,1975,NA,0.5,8.27467537576521,8.36748158133739,10.0232981493341,8.87817825771755,FALSE,3.77239857889825
"CAN","cpi",0.1,1975,3,1974,NA,1,7.68677776772959,7.77958397330176,10.0232981493341,11.6634485116586,FALSE,5.07883770786631
"CAN","cpi",0.1,1975,3,1974,NA,1.5,3.37041215460079,4.88162859494142,10.0232981493341,9.09165939347615,FALSE,12.9371487834355
"CAN","cpi",0.1,1976,3,1976,NA,0,7.03897466565733,7.09058924899987,7.22784311401172,7.25911367403926,FALSE,0.356623172257746
"CAN","cpi",0.1,1976,3,1976,NA,0.5,6.86761399770106,7.70260726329578,7.22784311401172,7.22502565269042,TRUE,0.834993265594722
"CAN","cpi",0.1,1976,3,1975,NA,1,8.69951211926088,10.3836067190495,7.22784311401172,12.4780790437784,FALSE,4.95447016700896
"CAN","cpi",0.1,1976,3,1975,NA,1.5,4.27236153563314,5.95645613542174,7.22784311401172,7.18586013837568,FALSE,4.50939899665521
"CAN","cpi",0.1,1977,3,1977,NA,0,7.39803315955713,7.41692297501038,7.58101410153764,7.59139014959698,FALSE,0.38353676329161
"CAN","cpi",0.1,1977,3,1977,NA,0.5,7.13465724990254,7.25002571246159,7.58101410153764,7.25038656554249,FALSE,0.850898216061382
"CAN","cpi",0.1,1977,3,1976,NA,1,3.9240280677663,4.28857819783491,7.58101410153764,5.92994518665441,FALSE,7.68107436051912
"CAN","cpi",0.1,1977,3,1976,NA,1.5,4.46971177195985,5.20931861955507,7.58101410153764,5.68954314963938,FALSE,6.01004125200094
"CAN","cpi",0.1,1978,3,1978,NA,0,8.48058189826669,8.51741774091479,8.50208927062595,8.68881076810062,TRUE,0.0368358426480988
"CAN","cpi",0.1,1978,3,1978,NA,0.5,8.05240797318821,8.3225090588963,8.50208927062595,8.11208508764938,FALSE,0.669168222885076
"CAN","cpi",0.1,1978,3,1977,NA,1,5.50861606298397,5.77871714869206,8.50208927062595,8.34671923233743,FALSE,6.32203913445006
"CAN","cpi",0.1,1978,3,1977,NA,1.5,5.61771228277772,7.80506323906112,8.50208927062595,8.21410731625775,FALSE,3.73629769309413
"CAN","cpi",0.1,1979,3,1979,NA,0,8.35517373415302,8.37689451571214,8.65147652410481,8.56136533364911,FALSE,0.631903022431722
"CAN","cpi",0.1,1979,3,1979,NA,0.5,8.11295008264777,8.47487183964362,8.65147652410481,8.23092589685401,FALSE,0.754376611354046
"CAN","cpi",0.1,1979,3,1978,NA,1,6.68073102870959,8.15363872800687,8.65147652410481,9.66481845899329,FALSE,2.57921391284826
"CAN","cpi",0.1,1979,3,1978,NA,1.5,6.38843238201279,7.86134008131008,8.65147652410481,7.91014806370246,FALSE,3.22876646106336
"CAN","cpi",0.1,1980,3,1980,NA,0,9.31399922648472,9.35112810099338,9.5171912664748,9.53576705858497,FALSE,0.406158131134034
"CAN","cpi",0.1,1980,3,1980,NA,0.5,8.55249048324498,8.99500622657984,9.5171912664748,8.6434746104286,FALSE,1.60292694310144
"CAN","cpi",0.1,1980,3,1979,NA,1,5.65806562126049,6.54978712787158,9.5171912664748,7.78967249140325,FALSE,7.48595292572934
"CAN","cpi",0.1,1980,3,1979,NA,1.5,7.21970913055686,8.11143063716795,9.5171912664748,8.29781572565185,FALSE,4.01563401618185
"CAN","cpi",0.1,1981,3,1981,NA,0,11.4967223209755,11.6301980540257,11.5813425032741,11.7120328235834,TRUE,0.133475733050208
"CAN","cpi",0.1,1981,3,1981,NA,0.5,12.291732882917,12.4252086159672,11.5813425032741,12.3296185245412,FALSE,1.71212102114536
"CAN","cpi",0.1,1981,3,1980,NA,1,8.12415728906216,9.21229774690172,11.5813425032741,11.0356264341109,FALSE,6.35268436088938
"CAN","cpi",0.1,1981,3,1980,NA,1.5,7.93702290941872,9.02516336725828,11.5813425032741,8.52474858684185,FALSE,6.76853853787481
"CAN","cpi",0.1,1982,3,1982,NA,0,10.0460501946613,10.1329364427567,10.1124203763629,10.253224031375,TRUE,0.0868862480953361
"CAN","cpi",0.1,1982,3,1982,NA,0.5,9.81035546375468,10.3333037428281,10.1124203763629,10.1221315066235,TRUE,0.522948279073422
"CAN","cpi",0.1,1982,3,1981,NA,1,9.7183096033959,10.2412578824693,10.1124203763629,11.652777546881,TRUE,0.522948279073422
"CAN","cpi",0.1,1982,3,1981,NA,1.5,11.7076411957502,13.0601697290583,10.1124203763629,13.2139534836213,FALSE,4.89746368750196
"CAN","cpi",0.1,1983,3,1983,NA,0,5.73371533657585,5.75478466536042,5.67091787896303,5.84362752346853,FALSE,0.160619234590824
"CAN","cpi",0.1,1983,3,1983,NA,0.5,5.0682449443319,5.25291140226003,5.67091787896303,4.70635148143536,FALSE,1.11356973949036
"CAN","cpi",0.1,1983,3,1982,NA,1,7.36209131870358,7.54675777663172,5.67091787896303,8.61437359933683,FALSE,3.94282965735157
"CAN","cpi",0.1,1983,3,1982,NA,1.5,8.37912669793461,9.74639859004582,5.67091787896303,9.84330302935538,FALSE,7.38551371204805
"CAN","cpi",0.1,1984,3,1984,NA,0,4.08494754843242,4.13594062382521,4.19799576814029,4.21315663178917,FALSE,0.188893396092958
"CAN","cpi",0.1,1984,3,1984,NA,0.5,5.19272475067152,5.36490594201239,4.19799576814029,4.73004206452632,FALSE,2.38269004141027
"CAN","cpi",0.1,1984,3,1983,NA,1,5.36250578043465,5.58117106111896,4.19799576814029,6.30529961834119,FALSE,2.80646530800512
"CAN","cpi",0.1,1984,3,1983,NA,1.5,3.63785681380786,4.3606186254555,4.19799576814029,2.81189439817776,TRUE,0.722761811647641
"CAN","cpi",0.1,1985,3,1985,NA,0,3.80960118633837,3.83044705123848,3.86444262005169,3.90546894544143,FALSE,0.0963915733739139
"CAN","cpi",0.1,1985,3,1985,NA,0.5,4.43972628244107,4.62869300406679,3.86444262005169,4.0117649915267,FALSE,1.46737486026878
"CAN","cpi",0.1,1985,3,1984,NA,1,2.24466851782083,2.86134513820927,3.86444262005169,3.28942198062367,FALSE,2.84578213559383
"CAN","cpi",0.1,1985,3,1984,NA,1.5,4.80043913890164,5.56227813864633,3.86444262005169,4.67970369844593,FALSE,2.84183126385569
"CAN","cpi",0.1,1986,3,1986,NA,0,4.02980243001135,4.05230966464398,4.08685396749431,4.12727747445429,FALSE,0.0992723520778062
"CAN","cpi",0.1,1986,3,1986,NA,0.5,4.92878452199339,5.14226566220184,4.08685396749431,4.57514120825518,FALSE,2.08443792798418
"CAN","cpi",0.1,1986,3,1985,NA,1,2.76124115705038,3.4964216182445,4.08685396749431,3.84501750700332,FALSE,2.04725234841591
"CAN","cpi",0.1,1986,3,1985,NA,1.5,4.69869427676099,5.45364190320297,4.08685396749431,4.51624000588938,FALSE,2.11459275814571
"CAN","cpi",0.1,1987,3,1987,NA,0,4.23911849775271,4.26110332444753,4.23980729277887,4.3376164199738,TRUE,0.0219848266948244
"CAN","cpi",0.1,1987,3,1987,NA,0.5,4.29186488552932,4.51754511670079,4.23980729277887,3.8898385702312,FALSE,0.341363770616911
"CAN","cpi",0.1,1987,3,1986,NA,1,3.80392530468698,4.10627578779451,4.23980729277887,4.56284936423577,FALSE,0.599087160850562
"CAN","cpi",0.1,1987,3,1986,NA,1.5,5.09612054187454,5.87798660621672,4.23980729277887,5.15474659430673,FALSE,2.6847843956659
"CAN","cpi",0.1,1988,3,1988,NA,0,3.90419752891743,3.92624816968048,3.92899537638065,4.00028299604827,FALSE,0.0281555445412216
"CAN","cpi",0.1,1988,3,1988,NA,0.5,3.97669339061684,4.15907040918668,3.92899537638065,3.53181278911538,FALSE,0.288372605761358
"CAN","cpi",0.1,1988,3,1987,NA,1,3.61843228320303,3.9189596883382,3.92899537638065,4.34173286045961,FALSE,0.322828934118399
"CAN","cpi",0.1,1988,3,1987,NA,1.5,4.23054162106092,4.79613922054853,3.92899537638065,3.76612293581706,FALSE,1.23570036544376
"CAN","cpi",0.1,1989,3,1989,NA,0,4.90278974049833,4.92464415163691,4.82821664544208,5.00606812502784,FALSE,0.187572400152483
"CAN","cpi",0.1,1989,3,1989,NA,0.5,4.84238565569753,4.99671783488339,4.82821664544208,4.51521437972404,FALSE,0.185818868642421
"CAN","cpi",0.1,1989,3,1988,NA,1,3.71877742131967,3.91656780672213,4.82821664544208,4.3270389784901,FALSE,2.223676693669
"CAN","cpi",0.1,1989,3,1988,NA,1.5,4.01941124059118,4.58356053854433,4.82821664544208,3.42699250808196,FALSE,1.10782953550371
"CAN","cpi",0.1,1990,3,1990,NA,0,4.42189774578494,4.44384665521265,4.64347549432717,4.52171223749059,FALSE,0.465568551904431
"CAN","cpi",0.1,1990,3,1990,NA,0.5,5.45280132826902,5.63908564470885,4.64347549432717,5.22335253259958,FALSE,1.98478616964394
"CAN","cpi",0.1,1990,3,1989,NA,1,4.91521365455314,5.10149797099297,4.64347549432717,5.7236432392913,FALSE,0.790146894719759
"CAN","cpi",0.1,1990,3,1989,NA,1.5,4.94916127134518,5.51968842166237,4.64347549432717,4.92041342133377,FALSE,1.24982887702388
"CAN","cpi",0.1,1991,3,1991,NA,0,5.50854002935669,5.53027540676927,5.4258100696218,5.6161816682171,FALSE,0.205579732379018
"CAN","cpi",0.1,1991,3,1991,NA,0.5,8.63555109362592,8.8984600434885,5.4258100696218,8.8240510060175,FALSE,7.39566678098286
"CAN","cpi",0.1,1991,3,1990,NA,1,3.31507340798309,3.57798235784567,5.4258100696218,3.89170713423419,FALSE,4.36919275380954
"CAN","cpi",0.1,1991,3,1990,NA,1.5,5.2517256758936,6.01125649551363,5.4258100696218,5.70462042447442,TRUE,0.759530819620034
"CAN","cpi",0.1,1992,3,1992,NA,0,1.39821322259365,1.41916141578301,1.47496888572843,1.47544467241393,FALSE,0.144964793068069
"CAN","cpi",0.1,1992,3,1992,NA,0.5,2.05488799281546,2.07583618600482,1.47496888572843,1.36069384263819,FALSE,1.30965732004942
"CAN","cpi",0.1,1992,3,1991,NA,1,2.16689180950351,2.40328195131786,1.47496888572843,2.43500720778875,FALSE,1.77399663909229
"CAN","cpi",0.1,1992,3,1991,NA,1.5,8.76787388393189,9.00426402574624,1.47496888572843,11.2072976243743,FALSE,16.4428456933776
"CAN","cpi",0.1,1993,3,1993,NA,0,1.73548586317028,1.76050603551395,1.84351085411351,1.81496037239602,FALSE,0.209475324787143
"CAN","cpi",0.1,1993,3,1993,NA,0.5,2.97662769604002,3.02987348938501,1.84351085411351,2.43338635087472,FALSE,2.57128321984834
"CAN","cpi",0.1,1993,3,1992,NA,1,1.5147663507292,1.74739115934146,1.84351085411351,1.76228766319361,FALSE,0.446224130327931
"CAN","cpi",0.1,1993,3,1992,NA,1.5,2.82806808840941,3.26954900145494,1.84351085411351,1.598750613598,FALSE,2.62938587814752
"CAN","cpi",0.1,1994,3,1994,NA,0,0.160905560864103,0.169335777908558,0.161630694655448,0.220147227157928,TRUE,0.00843021704445496
"CAN","cpi",0.1,1994,3,1994,NA,0.5,0.203381527973898,0.211811745018353,0.161630694655448,-0.741542526043691,FALSE,0.101209846641011
"CAN","cpi",0.1,1994,3,1993,NA,1,1.30768808584472,1.61938048125854,0.161630694655448,1.50794631797803,FALSE,2.85848659805666
"CAN","cpi",0.1,1994,3,1993,NA,1.5,3.43400987134866,3.74570226676248,0.161630694655448,2.81797717341095,FALSE,7.58364612139874
"CAN","cpi",0.1,1995,3,1995,NA,0,2.07786768294157,2.09777441713331,2.11688403676572,2.15484685959489,FALSE,0.0623725555970858
"CAN","cpi",0.1,1995,3,1995,NA,0.5,3.38713185142071,3.45171300190091,2.11688403676572,2.90883921660758,FALSE,2.88735407193575
"CAN","cpi",0.1,1995,3,1994,NA,1,1.71753040109656,1.86765463540055,2.11688403676572,1.95173420121315,FALSE,0.703967348448808
"CAN","cpi",0.1,1995,3,1994,NA,1.5,0.557762510368403,0.707886744672393,2.11688403676572,-2.17983456081826,FALSE,3.28122932784471
"CAN","cpi",0.1,1996,3,1996,NA,0,1.37149550274671,1.39925031868191,1.55309584667184,1.44166889374788,FALSE,0.369633767023941
"CAN","cpi",0.1,1996,3,1996,NA,0.5,2.03480435484771,2.07378602615859,1.55309584667184,1.36236766996786,FALSE,1.1094450228128
"CAN","cpi",0.1,1996,3,1995,NA,1,0.783622504346387,1.13219128686627,1.55309584667184,0.911474268150699,FALSE,1.28391224875449
"CAN","cpi",0.1,1996,3,1995,NA,1.5,4.12116338841102,4.67703918268502,1.55309584667184,3.98784768949811,FALSE,6.26269255369439
"CAN","cpi",0.1,1997,3,1997,NA,0,1.62790858716799,1.64358039643902,1.60528783555959,1.68811714545079,FALSE,0.0659401461785851
"CAN","cpi",0.1,1997,3,1997,NA,0.5,2.68374223375941,2.711941679806,1.60528783555959,2.10620867662285,FALSE,2.42476477537952
"CAN","cpi",0.1,1997,3,1996,NA,1,0.681025438688733,0.975369457350751,1.60528783555959,0.758460286059383,FALSE,1.69416263690389
"CAN","cpi",0.1,1997,3,1996,NA,1.5,2.76008042645219,3.05442444511421,1.60528783555959,1.66287852692671,FALSE,2.86054977620113
"CAN","cpi",0.1,1998,3,1998,NA,0,0.906275838018992,0.931161736823977,0.988908029337191,0.970744023070627,FALSE,0.153210993278793
"CAN","cpi",0.1,1998,3,1998,NA,0.5,2.17195897477474,2.19684487357973,0.988908029337191,1.52096865004292,FALSE,2.65388799977733
"CAN","cpi",0.1,1998,3,1997,NA,1,1.13662319515756,1.37038816452234,0.988908029337191,1.03996058978499,FALSE,0.562020893410043
"CAN","cpi",0.1,1998,3,1997,NA,1.5,3.07255886746846,3.36770372894778,0.988908029337191,2.22059574107629,FALSE,4.92548005732659
"CAN","cpi",0.1,1999,3,1999,NA,0,1.72801262384503,1.74598963614383,1.7107350135213,1.79141464940687,FALSE,0.0563717019071043
"CAN","cpi",0.1,1999,3,1999,NA,0.5,1.54209443320524,1.56007144550403,1.7107350135213,0.800552372711202,FALSE,0.352784941226049
"CAN","cpi",0.1,1999,3,1998,NA,1,0.523835832768362,0.751098497852535,1.7107350135213,0.474525424909611,FALSE,2.3597882554592
"CAN","cpi",0.1,1999,3,1998,NA,1.5,3.04412421964903,3.2713868847332,1.7107350135213,2.19776497346126,FALSE,3.19034978981247
"CAN","cpi",0.1,2000,3,2000,NA,0,2.65138369240061,2.68036365851142,2.6718361971244,2.73388860624727,TRUE,0.0289799661108043
"CAN","cpi",0.1,2000,3,2000,NA,0.5,2.68691080559904,2.71992542064301,2.6718361971244,2.11525832235237,FALSE,0.0665137449876117
"CAN","cpi",0.1,2000,3,1999,NA,1,2.64333064817749,2.79328299733683,2.6718361971244,2.81438082878813,TRUE,0.149952349159341
"CAN","cpi",0.1,2000,3,1999,NA,1.5,2.30309524900748,2.45304759816683,2.6718361971244,0.872413614651861,FALSE,0.636149235731728
"CAN","cpi",0.1,2001,3,2001,NA,0,2.65592429717693,2.67352534574284,2.47906219852806,2.73506715681632,FALSE,0.410627934452275
"CAN","cpi",0.1,2001,3,2001,NA,0.5,2.33024201312245,2.37442955897854,2.47906219852806,1.72363549629744,FALSE,0.27670452263281
"CAN","cpi",0.1,2001,3,2000,NA,1,3.39520306152287,3.56955583723915,2.47906219852806,3.73995761394105,FALSE,2.21022136014918
"CAN","cpi",0.1,2001,3,2000,NA,1.5,2.94089764697103,3.22193220175614,2.47906219852806,1.98299961497232,FALSE,1.30733555132504
"CAN","cpi",0.1,2002,3,2002,NA,0,2.27117237222497,2.29143821734411,2.20880570551249,2.3500140093739,FALSE,0.158858437813551
"CAN","cpi",0.1,2002,3,2002,NA,0.5,2.12568290221159,2.15132513633734,2.20880570551249,1.47074452365548,FALSE,0.153376832292749
"CAN","cpi",0.1,2002,3,2001,NA,1,0.934749293865076,1.03946179906651,2.20880570551249,0.79597273109289,FALSE,2.70325451952583
"CAN","cpi",0.1,2002,3,2001,NA,1.5,2.29809918759907,2.4028116928005,2.20880570551249,0.827019109774735,FALSE,0.303142465393847
"CAN","cpi",0.1,2003,3,2003,NA,0,2.68582859803579,2.70634710559229,2.71189071546809,2.76866538316948,FALSE,0.0328376406138329
"CAN","cpi",0.1,2003,3,2003,NA,0.5,4.85627005781789,4.91390224949375,2.71189071546809,4.59645517963757,FALSE,4.82291961911985
"CAN","cpi",0.1,2003,3,2002,NA,1,3.89502539822686,4.05623029199293,2.71189071546809,4.33746529644743,FALSE,2.79039307767444
"CAN","cpi",0.1,2003,3,2002,NA,1.5,3.330045279899,3.57137184243777,2.71189071546809,2.71468890277684,FALSE,1.61500337238524
"CAN","cpi",0.1,2004,3,2004,NA,0,1.69518485166998,1.7143806585327,1.83151661303942,1.7684769390021,FALSE,0.279497927988771
"CAN","cpi",0.1,2004,3,2004,NA,0.5,2.20559688034123,2.24311521519648,1.83151661303942,1.5625176897836,FALSE,0.868807817748154
"CAN","cpi",0.1,2004,3,2003,NA,1,1.57806445642277,1.67793263546874,1.83151661303942,1.41754396673829,FALSE,0.441165906980813
"CAN","cpi",0.1,2004,3,2003,NA,1.5,4.48150691796205,5.19129823245892,1.83151661303942,5.32651436309904,FALSE,6.59865865876938
"CAN","cpi",0.1,2005,3,2005,NA,0,2.30282299069242,2.32839089443353,2.18071628336509,2.38196957660787,FALSE,0.296916142246291
"CAN","cpi",0.1,2005,3,2005,NA,0.5,2.19844801053051,2.24113020957435,2.18071628336509,1.57253942332725,FALSE,0.0820860371892057
"CAN","cpi",0.1,2005,3,2004,NA,1,1.27600740383644,1.33232815937731,2.18071628336509,0.993232956459974,FALSE,1.94162769773594
"CAN","cpi",0.1,2005,3,2004,NA,1.5,2.89046528650915,3.16525170752598,2.18071628336509,2.05989686108521,FALSE,1.85200642800362
"CAN","cpi",0.1,2006,3,2006,NA,0,1.99058712982749,2.01033171895958,1.97519342012289,2.0667253719809,FALSE,0.0539528329200892
"CAN","cpi",0.1,2006,3,2006,NA,0.5,2.51704236872194,2.56336354216575,1.97519342012289,1.93779395271753,FALSE,1.25042994810837
"CAN","cpi",0.1,2006,3,2005,NA,1,3.07527346905188,3.33925105238057,1.97519342012289,3.47726378201784,FALSE,2.70859991428201
"CAN","cpi",0.1,2006,3,2005,NA,1.5,2.50082397197015,2.76480155529883,1.97519342012289,1.38669164389589,FALSE,1.4320454763226
"CAN","cpi",0.1,2007,3,2007,NA,0,2.03154058280206,2.05080535307536,2.10062087284572,2.10807340507977,FALSE,0.129965925318544
"CAN","cpi",0.1,2007,3,2007,NA,0.5,2.9443731505493,2.96811039997185,2.10062087284572,2.41912196921498,FALSE,1.89874231098606
"CAN","cpi",0.1,2007,3,2006,NA,1,0.933061640500225,0.956798889922777,2.10062087284572,0.502333085291807,FALSE,2.56556387814021
"CAN","cpi",0.1,2007,3,2006,NA,1.5,2.74540663538295,3.03234195011027,2.10062087284572,1.9704266811846,FALSE,1.71979256481005
"CAN","cpi",0.1,2008,3,2008,NA,0,2.87625971182527,2.88393641457369,2.31447335265955,2.95401501251803,FALSE,1.2560908342278
"CAN","cpi",0.1,2008,3,2008,NA,0.5,1.83671401638269,1.84439071913111,2.31447335265955,1.1596607753752,FALSE,1.05230477725606
"CAN","cpi",0.1,2008,3,2007,NA,1,0.836677799187291,0.84435450193571,2.31447335265955,0.365030180386173,FALSE,3.27460748213473
"CAN","cpi",0.1,2008,3,2007,NA,1.5,3.58042123412755,4.08983923591558,2.31447335265955,3.74970428078329,FALSE,3.32263551616136
"CAN","cpi",0.1,2009,3,2009,NA,0,0.218260904593573,0.234712962557559,0.284533874408197,0.277323060325678,FALSE,0.12716519540985
"CAN","cpi",0.1,2009,3,2009,NA,0.5,0.00177225735745257,0.0361364514213517,0.284533874408197,-0.926841850998946,FALSE,0.586358467368
"CAN","cpi",0.1,2009,3,2008,NA,1,3.78627932580029,4.10133572312124,0.284533874408197,4.39167027484448,FALSE,8.09671295597004
"CAN","cpi",0.1,2009,3,2008,NA,1.5,2.37861863538064,2.69367503270158,0.284533874408197,1.30718110670587,FALSE,4.96857808837081
"CAN","cpi",0.1,2010,3,2010,NA,0,1.68868385207164,1.68212682486679,1.75525687020327,1.74893097969613,FALSE,0.155954184654001
"CAN","cpi",0.1,2010,3,2010,NA,0.5,2.2516708583576,2.24511383115274,1.75525687020327,1.60514557059791,FALSE,1.09658516869364
"CAN","cpi",0.1,2010,3,2009,NA,1,1.16102859216983,1.15447156496497,1.75525687020327,0.646877121410091,FALSE,1.32852142888026
"CAN","cpi",0.1,2010,3,2009,NA,1.5,1.12090883122512,1.11435180402026,1.75525687020327,-1.29107136836179,FALSE,1.41767645320183
"CAN","cpi",0.1,2011,3,2011,NA,0,2.75905847403144,2.77924824368911,2.85717434028225,2.83658425111878,FALSE,0.193358873197963
"CAN","cpi",0.1,2011,3,2011,NA,0.5,3.34031356431992,3.40797477995359,2.85717434028225,2.89516877702572,FALSE,1.14130393571738
"CAN","cpi",0.1,2011,3,2010,NA,1,2.16088339489172,2.37343949336626,2.85717434028225,2.19120159589417,FALSE,1.28752242495451
"CAN","cpi",0.1,2011,3,2010,NA,1.5,2.74220992740169,3.02829350590489,2.85717434028225,1.9636150267392,TRUE,0.286083578503199
"CAN","cpi",0.1,2012,3,2012,NA,0,1.40119732183753,1.41754588340957,1.50118536134935,1.46012306845465,FALSE,0.202214068104876
"CAN","cpi",0.1,2012,3,2012,NA,0.5,2.39948875240934,2.44474960255266,1.50118536134935,1.81318735388827,FALSE,2.04149060805442
"CAN","cpi",0.1,2012,3,2011,NA,1,1.51064796342506,1.55590881356839,1.50118536134935,1.0674603716489,FALSE,0.0662888547560271
"CAN","cpi",0.1,2012,3,2011,NA,1.5,3.3529129117451,3.70016984813788,1.50118536134935,3.26492178435033,FALSE,4.46220704838334
"CAN","cpi",0.1,2013,3,2013,NA,0,1.03845371611866,0.948631749852808,0.931270594714462,1.03964630394149,FALSE,0.148362747965702
"CAN","cpi",0.1,2013,3,2013,NA,0.5,1.89790883327768,1.80808686701183,0.931270594714462,1.16522799725517,FALSE,2.05826300831907
"CAN","cpi",0.1,2013,3,2012,NA,1,0.485947185389031,0.396125219123178,0.931270594714462,-0.4587869493051,FALSE,1.09938997949255
"CAN","cpi",0.1,2013,3,2012,NA,1.5,2.65709196502528,2.90544389582349,0.931270594714462,1.87018597092114,FALSE,4.08351053148892
"CAN","cpi",0.1,2014,3,2014,NA,0,1.92333880521068,1.94229050401837,1.87639912240215,1.98941686448128,FALSE,0.123262105048857
"CAN","cpi",0.1,2014,3,2014,NA,0.5,2.81501729415776,2.84467499021091,1.87639912240215,2.28534818047506,FALSE,2.11547585551006
"CAN","cpi",0.1,2014,3,2013,NA,1,1.42929393897957,1.45895163503272,1.87639912240215,0.933988257976399,FALSE,0.95731877909633
"CAN","cpi",0.1,2014,3,2013,NA,1.5,2.60300637098716,2.83372965562367,1.87639912240215,1.74432822228681,FALSE,1.84540605926986
"CAN","cpi",0.1,2015,3,2015,NA,0,1.21951377243152,1.19107220433463,1.11090953952792,1.2616807067513,FALSE,0.212901171688899
"CAN","cpi",0.1,2015,3,2015,NA,0.5,1.01939609215232,0.990954524055425,1.11090953952792,0.218363095132572,FALSE,0.238125132953091
"CAN","cpi",0.1,2015,3,2014,NA,1,1.2817317344681,1.25329016637121,1.11090953952792,0.62327975322943,FALSE,0.35116330954797
"CAN","cpi",0.1,2015,3,2014,NA,1.5,3.35060592428849,3.85818446757261,1.11090953952792,3.54844533129153,FALSE,5.48468162052984
"CAN","cpi",0.1,2016,3,2016,NA,0,1.37383456502196,1.39820374271279,1.41168586698797,1.44403049252289,FALSE,0.0543294538578854
"CAN","cpi",0.1,2016,3,2016,NA,0.5,1.6339554354455,1.68344343399169,1.41168586698797,0.943700860843074,FALSE,0.543420372896264
"CAN","cpi",0.1,2016,3,2015,NA,1,1.86644356839977,2.00924367071527,1.41168586698797,1.65805837950254,FALSE,1.15337277211951
"CAN","cpi",0.1,2016,3,2015,NA,1.5,1.82345831178117,1.96625841409668,1.41168586698797,0.212753204814446,FALSE,1.05784997963375
"CAN","cpi",0.1,2017,3,2017,NA,0,1.46632113569888,1.45972329721152,1.57888581671161,1.52172534057668,FALSE,0.25820776040173
"CAN","cpi",0.1,2017,3,2017,NA,0.5,2.73554493746076,2.7289470989734,1.57888581671161,2.17995751143343,FALSE,2.56375576317741
"CAN","cpi",0.1,2017,3,2016,NA,1,1.13694767518881,1.13034983670145,1.57888581671161,0.478660156386378,FALSE,0.990148783757451
"CAN","cpi",0.1,2017,3,2016,NA,1.5,2.11815682648336,2.41334346550317,1.57888581671161,1.04780579189651,FALSE,1.4935666607348
"CAN","cpi",0.1,2018,3,2018,NA,0,2.36168594263587,2.36000461925875,2.23316270166586,2.42606863838048,FALSE,0.283925878778451
"CAN","cpi",0.1,2018,3,2018,NA,0.5,3.4685282398465,3.46684691646938,2.23316270166586,3.02101124054505,FALSE,2.74357542813541
"CAN","cpi",0.1,2018,3,2017,NA,1,1.16519933713153,1.1635180137544,2.23316270166586,0.52369802733857,FALSE,2.37530687198167
"CAN","cpi",0.1,2018,3,2017,NA,1.5,2.92618177897982,3.5471979633609,2.23316270166586,3.08408184322128,FALSE,2.1610585784121
"CAN","cpi",0.1,2019,3,2019,NA,0,1.94720310758806,1.97550900937503,1.91921619871868,2.02292335146186,FALSE,0.0904990326078132
"CAN","cpi",0.1,2019,3,2019,NA,0.5,2.22139388502686,2.37421871901263,1.91921619871868,1.7605507439285,FALSE,0.824330803559505
"CAN","cpi",0.1,2019,3,2018,NA,1,2.08972851282267,2.37151613285037,1.91921619871868,1.97136692329685,FALSE,0.660703873592125
"CAN","cpi",0.1,2019,3,2018,NA,1.5,3.35090677064505,4.13269718276833,1.91921619871868,4.13001487917394,FALSE,3.96332501640411
"CAN","cpi",0.1,2020,3,2020,NA,0,0.684332878747726,0.708161730093372,0.71139989671781,0.748237853268385,FALSE,0.0310247771777311
"CAN","cpi",0.1,2020,3,2020,NA,0.5,1.74320825863627,1.8663220814029,0.71139989671781,1.20638084891419,FALSE,2.41602129369654
"CAN","cpi",0.1,2020,3,2019,NA,1,1.65686219422722,1.77997601699385,0.71139989671781,1.33625965438418,FALSE,2.22414115056531
"CAN","cpi",0.1,2020,3,2019,NA,1.5,2.63001281371342,3.20807604585972,0.71139989671781,2.47827605395127,FALSE,4.84164749213655
"CAN","cpi",0.1,2021,3,2021,NA,0,3.27225052228644,3.29812041108917,3.31148121717802,3.36073739108717,FALSE,0.0555605690001778
"CAN","cpi",0.1,2021,3,2021,NA,0.5,3.1522884204101,3.35189773575897,3.31148121717802,2.87786599282032,TRUE,0.19960931534887
"CAN","cpi",0.1,2021,3,2020,NA,1,1.93869485226388,2.13830416761275,3.31148121717802,1.80567605729774,FALSE,2.80666942549392
"CAN","cpi",0.1,2021,3,2020,NA,1.5,2.16959512089075,2.53651116972393,3.31148121717802,1.36315122932478,FALSE,2.08907170984227
"CAN","cpi",0.1,2022,3,2022,NA,0,6.4621959330619,6.49464624163905,6.50977236228281,6.58141742776733,FALSE,0.0660639100077268
"CAN","cpi",0.1,2022,3,2022,NA,0.5,6.63378838589565,6.7599050415189,6.50977236228281,6.74293883776587,FALSE,0.401707819207334
"CAN","cpi",0.1,2022,3,2021,NA,1,3.69276984282991,4.5026705523276,6.50977236228281,4.82564214996571,FALSE,5.2701269538426
"CAN","cpi",0.1,2022,3,2021,NA,1.5,3.21421536480536,4.02411607430304,6.50977236228281,3.93575064315212,FALSE,6.33358134945273
"CAN","cpi",0.1,2023,3,2023,NA,0,3.92489635107279,3.94973473549028,3.78831288758619,4.01453285616146,FALSE,0.328357192165488
"CAN","cpi",0.1,2023,3,2023,NA,0.5,3.36513409464891,3.52571899057602,3.78831288758619,3.07888421739245,FALSE,0.744126889283048
"CAN","cpi",0.1,2023,3,2022,NA,1,3.11825854137952,3.87331491357707,3.78831288758619,3.85673280569707,TRUE,0.755056372197544
"CAN","cpi",0.1,2023,3,2022,NA,1.5,4.93995543713547,6.33988392480878,3.78831288758619,8.07292283446253,FALSE,3.95913415333838
"CAN","cpi",0.1,2024,3,2023,NA,1,3.51663742035228,3.95888556017447,NA,4.07504753996503,NA,NA
"CAN","cpi",0.1,2024,3,2023,NA,1.5,2.60400705137415,3.09838069536103,NA,2.41529048319689,NA,NA
"CAN","cpi",0.2,1950,3,1950,NA,0,2.44668978058026,2.44668978058026,2.59031220731124,2.34506766740468,FALSE,0.359056066827453
"CAN","cpi",0.2,1950,3,1950,NA,0.5,0.634852177820488,0.634852177820488,2.59031220731124,-0.480727815155867,FALSE,4.88865007372688
"CAN","cpi",0.2,1950,3,1949,NA,1,-24.7312842731929,-24.7312842731929,2.59031220731124,2.05479851121881,FALSE,68.3039912012604
"CAN","cpi",0.2,1950,3,1949,NA,1.5,14.2036158124835,14.2036158124835,2.59031220731124,0,FALSE,29.0332590129307
"CAN","cpi",0.2,1951,3,1951,NA,0,9.78512082839237,9.83033458918625,9.87945438999359,9.94785600170898,FALSE,0.168013262812238
"CAN","cpi",0.2,1951,3,1951,NA,0.5,8.80398365459423,9.48372626955663,9.87945438999359,9.56401243485552,FALSE,1.6690629160548
"CAN","cpi",0.2,1951,3,1950,NA,1,3.11652554301406,7.61219520886557,9.87945438999359,7.18504019917801,FALSE,10.1638176186716
"CAN","cpi",0.2,1951,3,1950,NA,1.5,2.4630011401511,15.873989275693,9.87945438999359,-2.18579641022426,TRUE,13.4109881355419
"CAN","cpi",0.2,1952,3,1952,NA,0,2.64599342150601,2.68140895708529,2.55562336095485,2.49651395855886,FALSE,0.2613406869572
"CAN","cpi",0.2,1952,3,1952,NA,0.5,5.58435164569829,5.61976718127757,2.55562336095485,3.9078404779387,FALSE,7.6072362474379
"CAN","cpi",0.2,1952,3,1951,NA,1,9.26127063837534,9.29668617395462,2.55562336095485,8.88778808098424,FALSE,16.7995337291305
"CAN","cpi",0.2,1952,3,1951,NA,1.5,4.99885856504922,5.0342741006285,2.55562336095485,10.076419411745,FALSE,6.14350354581522
"CAN","cpi",0.2,1953,3,1953,NA,0,-0.565439306516481,-0.724094684170283,-1.01492775838436,-0.954275034924989,FALSE,0.965065752015902
"CAN","cpi",0.2,1953,3,1953,NA,0.5,0.403771365827664,0.245115988173862,-1.01492775838436,-2.19876634474816,FALSE,3.38809243287626
"CAN","cpi",0.2,1953,3,1952,NA,1,0.919719088981559,0.761063711327757,-1.01492775838436,-1.18145267469342,FALSE,4.677961740761
"CAN","cpi",0.2,1953,3,1952,NA,1.5,8.01719290649025,8.64294728168907,-1.01492775838436,0.93216905581622,FALSE,23.2060560373854
"CAN","cpi",0.2,1954,3,1954,NA,0,0.989555581625795,0.997065476784289,0.644425455961438,0.879731201855888,FALSE,0.870335209319386
"CAN","cpi",0.2,1954,3,1954,NA,0.5,0.508557307999466,0.733951368716736,0.644425455961438,-0.358875738913824,TRUE,0.225394060717269
"CAN","cpi",0.2,1954,3,1953,NA,1,0.78088586032166,3.89071972067637,0.644425455961438,3.38326531029323,FALSE,3.45098487125526
"CAN","cpi",0.2,1954,3,1953,NA,1.5,2.60014825970703,10.1457073126509,0.644425455961438,-2.85717744192413,FALSE,12.4348660623078
"CAN","cpi",0.2,1955,3,1955,NA,0,0.0844697304213066,0.168637041948427,0.173649026558865,0.115254687233858,FALSE,0.0966972730532156
"CAN","cpi",0.2,1955,3,1955,NA,0.5,0.260388071420714,0.344555382947834,0.173649026558865,-0.770970046821609,FALSE,0.301014923681744
"CAN","cpi",0.2,1955,3,1954,NA,1,1.10883325767242,3.38971716839363,0.173649026558865,3.47019599757395,FALSE,4.61884448850509
"CAN","cpi",0.2,1955,3,1954,NA,1.5,0.492765882653137,2.77364979337435,0.173649026558865,-1.89562740163941,FALSE,3.07867605095689
"CAN","cpi",0.2,1956,3,1956,NA,0,1.58183421485375,1.63572323494535,1.32752769429961,1.56059797998755,FALSE,0.689655321476955
"CAN","cpi",0.2,1956,3,1956,NA,0.5,0.224816304687274,0.350039339092573,1.32752769429961,-0.709146002056511,FALSE,2.56894392242289
"CAN","cpi",0.2,1956,3,1955,NA,1,-0.389567560281943,1.07183565913654,1.32752769429961,0.884549626974225,FALSE,2.10063330732616
"CAN","cpi",0.2,1956,3,1955,NA,1.5,0.78712272406349,2.48014198917543,1.32752769429961,-1.89150615642833,TRUE,1.69301926511194
"CAN","cpi",0.2,1957,3,1957,NA,0,3.28663240775492,3.43097785880579,3.24684755852518,3.4151370317006,FALSE,0.243807574125233
"CAN","cpi",0.2,1957,3,1957,NA,0.5,2.66546682130709,2.84740957946988,3.24684755852518,2.23982631608766,FALSE,1.18053770580102
"CAN","cpi",0.2,1957,3,1956,NA,1,3.35441628326713,6.20586462983688,3.24684755852518,6.98754636690555,FALSE,3.12037015842462
"CAN","cpi",0.2,1957,3,1956,NA,1.5,-0.367728997597392,2.48371934897236,3.24684755852518,-1.88668623310337,FALSE,4.75926887045179
"CAN","cpi",0.2,1958,3,1958,NA,0,2.11386682382472,2.25507522689757,2.33186388641149,2.22387249143335,FALSE,0.333180051857642
"CAN","cpi",0.2,1958,3,1958,NA,0.5,2.76374707461589,3.23790753279918,2.33186388641149,2.22839060734872,FALSE,1.55386842869429
"CAN","cpi",0.2,1958,3,1957,NA,1,1.7066709586585,4.12612983600201,2.33186388641149,4.42088197051908,TRUE,2.41945887734351
"CAN","cpi",0.2,1958,3,1957,NA,1.5,0.741606136087752,3.16106501343126,2.33186388641149,0.91301479707402,TRUE,2.41945887734351
"CAN","cpi",0.2,1959,3,1959,NA,0,1.15503097070348,1.33035402709751,1.19382698397654,1.24991216431293,TRUE,0.17532305639403
"CAN","cpi",0.2,1959,3,1959,NA,0.5,1.17409321249576,1.38189977416412,1.19382698397654,0.437839731590327,TRUE,0.207806561668363
"CAN","cpi",0.2,1959,3,1958,NA,1,0.141734332587078,0.741453610830758,1.19382698397654,1.75862762885946,FALSE,1.73065271110814
"CAN","cpi",0.2,1959,3,1958,NA,1.5,1.80489150369629,2.69364249175313,1.19382698397654,1.77407172713766,FALSE,2.41641228735621
"CAN","cpi",0.2,1960,3,1960,NA,0,0.936348792896187,1.06619089885513,1.34209404870695,1.02361304259477,FALSE,0.8195999805885
"CAN","cpi",0.2,1960,3,1960,NA,0.5,1.2732956906613,1.40313779662024,1.34209404870695,0.53898348018166,TRUE,0.129842105958941
"CAN","cpi",0.2,1960,3,1959,NA,1,1.15455331523582,2.69809488054169,1.34209404870695,3.95759373689442,TRUE,1.54354156530587
"CAN","cpi",0.2,1960,3,1959,NA,1.5,0.789837030644697,2.33337859595057,1.34209404870695,-0.873476815404885,TRUE,1.54354156530587
"CAN","cpi",0.2,1961,3,1961,NA,0,0.959590373003912,1.09181598120312,1.00921348094007,1.00921348094007,TRUE,0.132225608199204
"CAN","cpi",0.2,1961,3,1961,NA,0.5,1.66397450684174,1.79620011504094,1.00921348094007,1.00921348094007,FALSE,1.76912817295337
"CAN","cpi",0.2,1961,3,1960,NA,1,-0.430841701738208,0.44749834051125,1.00921348094007,0.0537704626035329,FALSE,2.28262789332151
"CAN","cpi",0.2,1961,3,1960,NA,1.5,1.32579442170788,2.20413446395733,1.00921348094007,-0.862181798940035,FALSE,1.66979239416897
"CAN","cpi",0.2,1962,3,1962,NA,0,1.0490003950184,1.14798965002497,1.04957947883042,1.10232402731478,TRUE,0.0989892550065781
"CAN","cpi",0.2,1962,3,1962,NA,0.5,0.811725020523341,0.946044081160712,1.04957947883042,0,FALSE,0.393157554811629
"CAN","cpi",0.2,1962,3,1961,NA,1,0.00208973940412061,0.755874900449151,1.04957947883042,0,FALSE,1.48804660699819
"CAN","cpi",0.2,1962,3,1961,NA,1.5,1.13110168461162,2.25714340473427,1.04957947883042,0,FALSE,1.32984723457565
"CAN","cpi",0.2,1963,3,1963,NA,0,1.84693003167115,1.95010415122089,1.60677118395228,1.91491729531202,FALSE,0.703571238846914
"CAN","cpi",0.2,1963,3,1963,NA,0.5,1.52349741222187,1.64936029638923,1.60677118395228,0.836828714617504,TRUE,0.125862884167358
"CAN","cpi",0.2,1963,3,1962,NA,1,1.40879123785107,1.81933949978051,1.60677118395228,2.56411490415144,TRUE,0.410548261929436
"CAN","cpi",0.2,1963,3,1962,NA,1.5,1.13110168461162,1.57385627140557,1.60677118395228,0,FALSE,0.525041868160735
"CAN","cpi",0.2,1964,3,1964,NA,0,1.92078023745791,2.02108921995545,1.88764670034376,1.98877256446048,FALSE,0.183142825282914
"CAN","cpi",0.2,1964,3,1964,NA,0.5,1.97343172180296,2.07374070430049,1.88764670034376,1.38369006227607,FALSE,0.314771536145525
"CAN","cpi",0.2,1964,3,1963,NA,1,2.18624238375104,2.7082627471648,1.88764670034376,5.39044290347256,FALSE,1.26850957193196
"CAN","cpi",0.2,1964,3,1963,NA,1.5,1.10792625257507,1.62994661598883,1.88764670034376,0,FALSE,1.16627057430109
"CAN","cpi",0.2,1965,3,1965,NA,0,2.26898423516622,2.33534420415479,2.29538304394236,2.34557047418999,TRUE,0.0663599689885697
"CAN","cpi",0.2,1965,3,1965,NA,0.5,2.1629978396324,2.25785218401183,2.29538304394236,1.61079447956654,FALSE,0.188681494205756
"CAN","cpi",0.2,1965,3,1964,NA,1,1.37171531431306,1.77450589281719,2.29538304394236,2.42518862179847,FALSE,1.70498345631705
"CAN","cpi",0.2,1965,3,1964,NA,1.5,1.24675832529174,1.71140470755398,2.29538304394236,0.818102552316399,FALSE,1.92459222323318
"CAN","cpi",0.2,1966,3,1966,NA,0,3.71593326897049,3.79859991853736,3.72486065470629,3.82010987863709,TRUE,0.0826666495668702
"CAN","cpi",0.2,1966,3,1966,NA,0.5,4.12987047485738,4.29064328288102,3.72486065470629,3.99123398895563,FALSE,1.17329735840137
"CAN","cpi",0.2,1966,3,1965,NA,1,1.59789032874606,2.00940907215934,3.72486065470629,3.20722068745854,FALSE,4.70014769978065
"CAN","cpi",0.2,1966,3,1965,NA,1.5,1.66712580426557,2.07864454767885,3.72486065470629,1.60663824631958,FALSE,4.52705901098188
"CAN","cpi",0.2,1967,3,1967,NA,0,3.66449274954102,3.74657967991978,3.49360316391996,3.76768849328632,FALSE,0.509310894431421
"CAN","cpi",0.2,1967,3,1967,NA,0.5,2.82124992622966,2.91042485941285,3.49360316391996,2.4074547441976,FALSE,1.54712069445096
"CAN","cpi",0.2,1967,3,1966,NA,1,1.75514571175689,2.01842834972758,3.49360316391996,3.18103323070284,FALSE,3.95121967345165
"CAN","cpi",0.2,1967,3,1966,NA,1.5,2.10505924460381,2.39001566167171,3.49360316391996,4.65128160487248,FALSE,3.04392517268853
"CAN","cpi",0.2,1968,3,1968,NA,0,4.06210211235907,4.10055693872444,3.95128347779386,4.17287945672396,FALSE,0.3155014127784
"CAN","cpi",0.2,1968,3,1968,NA,0.5,4.19575520957724,4.35747892296532,3.95128347779386,4.07097205779852,FALSE,0.772903042846529
"CAN","cpi",0.2,1968,3,1967,NA,1,2.3959063525377,2.88759850729346,3.95128347779386,5.84521682123848,FALSE,3.15090458100675
"CAN","cpi",0.2,1968,3,1967,NA,1.5,1.77422541448998,2.41613456436316,3.95128347779386,2.25565858240226,FALSE,4.47978143344993
"CAN","cpi",0.2,1969,3,1969,NA,0,4.45241580451535,4.49757339551117,4.42679496126681,4.59520664360618,FALSE,0.109209699117155
"CAN","cpi",0.2,1969,3,1969,NA,0.5,3.28285534869204,3.36804754173972,4.42679496126681,2.96612019395715,FALSE,2.73206074186541
"CAN","cpi",0.2,1969,3,1968,NA,1,2.94183133230879,4.06379401918523,4.42679496126681,6.72487630040807,FALSE,2.0294650420804
"CAN","cpi",0.2,1969,3,1968,NA,1.5,1.80164891903646,2.9236116059129,4.42679496126681,4.31664452944541,FALSE,4.87992107526124
"CAN","cpi",0.2,1970,3,1970,NA,0,3.48061161644737,3.53081086916552,3.28128405769805,3.60761538249925,FALSE,0.548518149591452
"CAN","cpi",0.2,1970,3,1970,NA,0.5,4.43470157662235,4.5998739702427,3.28128405769805,4.36016077421692,FALSE,3.04871619093112
"CAN","cpi",0.2,1970,3,1969,NA,1,2.35797099495678,3.31282925570724,3.28128405769805,4.91369447805135,TRUE,0.954858260750463
"CAN","cpi",0.2,1970,3,1969,NA,1.5,1.65859378937586,2.61345205012632,3.28128405769805,2.07973847283129,FALSE,2.62443827967977
"CAN","cpi",0.2,1971,3,1971,NA,0,2.79793302656011,2.85645341354557,2.64123406634756,2.91872900980337,FALSE,0.450267787516829
"CAN","cpi",0.2,1971,3,1971,NA,0.5,1.95680644184297,2.07172541984801,2.64123406634756,1.38357105636307,FALSE,1.53869059425392
"CAN","cpi",0.2,1971,3,1970,NA,1,1.9503055708715,2.53383655240581,2.64123406634756,3.17686610979278,FALSE,0.852024766388696
"CAN","cpi",0.2,1971,3,1970,NA,1.5,2.1136819463224,2.69721292785671,2.64123406634756,4.62066312326275,TRUE,0.583530981534309
"CAN","cpi",0.2,1972,3,1972,NA,0,5.01631859356384,5.05030569173514,4.83230569625923,5.17210692165851,FALSE,0.494019341432828
"CAN","cpi",0.2,1972,3,1972,NA,0.5,4.76692747365161,4.86795654218414,4.83230569625923,4.76224255478946,TRUE,0.101029068532526
"CAN","cpi",0.2,1972,3,1971,NA,1,3.26447971614269,4.25558232075086,4.83230569625923,6.83863498061675,FALSE,2.4329110433791
"CAN","cpi",0.2,1972,3,1971,NA,1.5,1.62801675502052,2.61911935962868,4.83230569625923,1.95441162589064,FALSE,6.52406844618453
"CAN","cpi",0.2,1973,3,1973,NA,0,7.18749813330405,7.24481546328177,7.12388603531779,7.41057825703995,FALSE,0.216347574943362
"CAN","cpi",0.2,1973,3,1973,NA,0.5,5.98952745532234,6.07583415558273,7.12388603531779,6.24191401313708,FALSE,2.70643639959805
"CAN","cpi",0.2,1973,3,1972,NA,1,3.86613659413687,4.93106137098908,7.12388603531779,8.12590883681935,FALSE,6.54698643767398
"CAN","cpi",0.2,1973,3,1972,NA,1.5,2.02783437975981,3.09275915661202,7.12388603531779,4.96130694391223,FALSE,11.1427419736166
"CAN","cpi",0.2,1974,3,1974,NA,0,9.95428574939886,10.0668552619646,10.2717243737774,10.2919804098732,FALSE,0.624742292097725
"CAN","cpi",0.2,1974,3,1974,NA,0.5,8.2823164000331,8.50302089211969,10.2717243737774,9.01679902243293,FALSE,4.64246319623091
"CAN","cpi",0.2,1974,3,1973,NA,1,5.13497745758707,7.13875273197269,10.2717243737774,11.5076386824751,FALSE,9.83620437889745
"CAN","cpi",0.2,1974,3,1973,NA,1.5,2.23020754208641,4.23398281647203,10.2717243737774,7.03851017911898,FALSE,17.0981291676491
"CAN","cpi",0.2,1975,3,1975,NA,0,10.0371887437133,10.1198471593857,10.0232981493341,10.3166994702432,FALSE,0.117384901620339
"CAN","cpi",0.2,1975,3,1975,NA,0.5,8.42924489800928,8.98278656085252,10.0232981493341,8.87817825771755,FALSE,3.15482063404724
"CAN","cpi",0.2,1975,3,1974,NA,1,7.38027998344232,7.93382164628556,10.0232981493341,11.6634485116586,FALSE,5.77723292046464
"CAN","cpi",0.2,1975,3,1974,NA,1.5,3.54317258135198,6.73097965625668,10.0232981493341,9.09165939347615,FALSE,11.4186033075983
"CAN","cpi",0.2,1976,3,1976,NA,0,7.02885230658517,7.09632550846999,7.22784311401172,7.25911367403926,FALSE,0.39626721573913
"CAN","cpi",0.2,1976,3,1976,NA,0.5,6.86761399770106,7.71314519364143,7.22784311401172,7.22502565269042,TRUE,0.845531195940374
"CAN","cpi",0.2,1976,3,1975,NA,1,8.61309927696363,10.704746351651,7.22784311401172,12.4780790437784,FALSE,5.55478748206717
"CAN","cpi",0.2,1976,3,1975,NA,1.5,3.15871380613592,5.85918062143825,7.22784311401172,7.18586013837568,FALSE,6.122123046736
"CAN","cpi",0.2,1977,3,1977,NA,0,7.36479904908455,7.422076372884,7.58101410153764,7.59139014959698,FALSE,0.454621645433551
"CAN","cpi",0.2,1977,3,1977,NA,0.5,6.92234165363497,7.73663381664616,7.58101410153764,7.25038656554249,TRUE,0.81429216301119
"CAN","cpi",0.2,1977,3,1976,NA,1,3.54187600747445,5.22715391001193,7.58101410153764,5.92994518665441,FALSE,7.56992838135176
"CAN","cpi",0.2,1977,3,1976,NA,1.5,3.85208561678936,6.17223652091646,7.58101410153764,5.68954314963938,FALSE,5.84209485568005
"CAN","cpi",0.2,1978,3,1978,NA,0,8.44091012731871,8.62263773357995,8.50208927062595,8.68881076810062,TRUE,0.181727606261237
"CAN","cpi",0.2,1978,3,1978,NA,0.5,7.86203442951851,8.3649055748934,8.50208927062595,8.11208508764938,FALSE,0.845830384706257
"CAN","cpi",0.2,1978,3,1977,NA,1,5.48259514565169,7.24881436085634,8.50208927062595,8.34671923233743,FALSE,4.89940648962866
"CAN","cpi",0.2,1978,3,1977,NA,1.5,4.72374648050625,7.90188028390022,8.50208927062595,8.21410731625775,FALSE,4.67865627020829
"CAN","cpi",0.2,1979,3,1979,NA,0,8.35294575425881,8.37703825799388,8.65147652410481,8.56136533364911,FALSE,0.7101881690124
"CAN","cpi",0.2,1979,3,1979,NA,0.5,7.9896188034579,8.61178050343608,8.65147652410481,8.23092589685401,FALSE,0.721401751649999
"CAN","cpi",0.2,1979,3,1978,NA,1,6.34066184196569,8.35142015951538,8.65147652410481,9.66481845899329,FALSE,2.76089922902327
"CAN","cpi",0.2,1979,3,1978,NA,1.5,5.46359585884451,7.97753530816569,8.65147652410481,7.91014806370246,FALSE,4.19879248916899
"CAN","cpi",0.2,1980,3,1980,NA,0,9.31221615079948,9.46809486627114,9.5171912664748,9.53576705858497,FALSE,0.278619715980804
"CAN","cpi",0.2,1980,3,1980,NA,0.5,8.47650927730895,9.02687601295799,9.5171912664748,8.6434746104286,FALSE,1.77615486944105
"CAN","cpi",0.2,1980,3,1979,NA,1,5.18409022149664,6.83909426543353,9.5171912664748,7.78967249140325,FALSE,8.35024654654005
"CAN","cpi",0.2,1980,3,1979,NA,1.5,6.79296746591936,8.56261081140319,9.5171912664748,8.29781572565185,FALSE,4.15609448316285
"CAN","cpi",0.2,1981,3,1981,NA,0,11.4546870331302,11.6405085248289,11.5813425032741,11.7120328235834,TRUE,0.185821491698643
"CAN","cpi",0.2,1981,3,1981,NA,0.5,11.7214361768541,12.4408873793788,11.5813425032741,12.3296185245412,FALSE,1.06968538647453
"CAN","cpi",0.2,1981,3,1980,NA,1,7.66215945039256,9.54594242528669,11.5813425032741,11.0356264341109,FALSE,6.97228316986274
"CAN","cpi",0.2,1981,3,1980,NA,1.5,6.88537209959293,8.76915507448706,11.5813425032741,8.52474858684185,FALSE,8.91425154686182
"CAN","cpi",0.2,1982,3,1982,NA,0,10.0384444476426,10.1842819019652,10.1124203763629,10.253224031375,TRUE,0.14583745432256
"CAN","cpi",0.2,1982,3,1982,NA,0.5,9.66431191487477,10.3963698711111,10.1124203763629,10.1221315066235,TRUE,0.732057956236375
"CAN","cpi",0.2,1982,3,1981,NA,1,8.41333932822886,10.039352540286,10.1124203763629,11.652777546881,FALSE,1.80868280224949
"CAN","cpi",0.2,1982,3,1981,NA,1.5,11.5282123858271,13.1542255978843,10.1124203763629,13.2139534836213,FALSE,5.16549323571766
"CAN","cpi",0.2,1983,3,1983,NA,0,5.69325436527816,5.78249061499365,5.67091787896303,5.84362752346853,FALSE,0.14507746550331
"CAN","cpi",0.2,1983,3,1983,NA,0.5,5.01064439363492,5.35856373938135,5.67091787896303,4.70635148143536,FALSE,1.12880469470064
"CAN","cpi",0.2,1983,3,1982,NA,1,6.12694968324956,7.72922968636874,5.67091787896303,8.61437359933683,FALSE,2.74235951383549
"CAN","cpi",0.2,1983,3,1982,NA,1.5,8.01397489745842,9.67463809151586,5.67091787896303,9.84330302935538,FALSE,7.51830574029591
"CAN","cpi",0.2,1984,3,1984,NA,0,4.08361338298189,4.13755789823433,4.19799576814029,4.21315663178917,FALSE,0.205039190017335
"CAN","cpi",0.2,1984,3,1984,NA,0.5,5.03149930655448,5.4023557813197,4.19799576814029,4.73004206452632,FALSE,2.4546153208007
"CAN","cpi",0.2,1984,3,1983,NA,1,4.35853648242099,5.50028875870341,4.19799576814029,6.30529961834119,FALSE,1.54310406198418
"CAN","cpi",0.2,1984,3,1983,NA,1.5,3.55439121128921,4.69614348757163,4.19799576814029,2.81189439817776,TRUE,1.14175227628241
"CAN","cpi",0.2,1985,3,1985,NA,0,3.77985652830836,3.85154418202947,3.86444262005169,3.90546894544143,FALSE,0.103933748776657
"CAN","cpi",0.2,1985,3,1985,NA,0.5,4.39919719089924,4.71745359480001,3.86444262005169,4.0117649915267,FALSE,1.65514283101964
"CAN","cpi",0.2,1985,3,1984,NA,1,2.1449345293801,3.02750759833124,3.86444262005169,3.28942198062367,FALSE,2.97491062325227
"CAN","cpi",0.2,1985,3,1984,NA,1.5,4.79930407417332,5.95834283101944,3.86444262005169,4.67970369844593,FALSE,3.49619239215019
"CAN","cpi",0.2,1986,3,1986,NA,0,3.99883136578874,4.07282128390981,4.08685396749431,4.12727747445429,FALSE,0.10907162708232
"CAN","cpi",0.2,1986,3,1986,NA,0.5,4.84718275886397,5.23745536996841,4.08685396749431,4.57514120825518,FALSE,2.29109458952859
"CAN","cpi",0.2,1986,3,1985,NA,1,2.56839506344792,3.71194027803607,4.08685396749431,3.84501750700332,FALSE,2.08082943823376
"CAN","cpi",0.2,1986,3,1985,NA,1.5,4.66675297623295,5.8102981908211,4.08685396749431,4.51624000588938,FALSE,2.59329273643474
"CAN","cpi",0.2,1987,3,1987,NA,0,4.20778021297311,4.29463223244447,4.23980729277887,4.3376164199738,TRUE,0.0868520194713653
"CAN","cpi",0.2,1987,3,1987,NA,0.5,4.2430042076253,4.60491431175792,4.23980729277887,3.8898385702312,FALSE,0.369902391248689
"CAN","cpi",0.2,1987,3,1986,NA,1,3.07178565313065,4.30150757138962,4.23980729277887,4.56284936423577,TRUE,1.22972191825897
"CAN","cpi",0.2,1987,3,1986,NA,1.5,4.89807729990644,6.12779921816541,4.23980729277887,5.15474659430673,FALSE,2.87539693607789
"CAN","cpi",0.2,1988,3,1988,NA,0,3.87485691377916,3.94613106932902,3.92899537638065,4.00028299604827,TRUE,0.0712741555498599
"CAN","cpi",0.2,1988,3,1988,NA,0.5,3.93170292789819,4.25342838806787,3.92899537638065,3.53181278911538,FALSE,0.328494338963529
"CAN","cpi",0.2,1988,3,1987,NA,1,3.03854963149254,4.12128398098354,3.92899537638065,4.34173286045961,TRUE,1.08273434949101
"CAN","cpi",0.2,1988,3,1987,NA,1.5,3.93006983231646,5.01280418180746,3.92899537638065,3.76612293581706,FALSE,1.08542048933051
"CAN","cpi",0.2,1989,3,1989,NA,0,4.86749292216359,4.94950645550289,4.82821664544208,5.00606812502784,FALSE,0.180204225143087
"CAN","cpi",0.2,1989,3,1989,NA,0.5,4.78435983460854,5.08763648243088,4.82821664544208,4.51521437972404,TRUE,0.30327664782234
"CAN","cpi",0.2,1989,3,1988,NA,1,3.03341290835195,4.04448469981314,4.82821664544208,4.3270389784901,FALSE,2.97040165553353
"CAN","cpi",0.2,1989,3,1988,NA,1.5,3.73990644612726,4.7638280853225,4.82821664544208,3.42699250808196,FALSE,1.18489303949418
"CAN","cpi",0.2,1990,3,1990,NA,0,4.38946925588582,4.45282129949429,4.64347549432717,4.52171223749059,FALSE,0.539987530690674
"CAN","cpi",0.2,1990,3,1990,NA,0.5,5.40248663854259,5.73317383864202,4.64347549432717,5.22335253259958,FALSE,2.22821506063797
"CAN","cpi",0.2,1990,3,1989,NA,1,4.05156588659732,5.25748149006232,4.64347549432717,5.7236432392913,TRUE,1.20591560346501
"CAN","cpi",0.2,1990,3,1989,NA,1.5,4.55473682371481,5.76065242717981,4.64347549432717,4.92041342133377,TRUE,1.20591560346501
"CAN","cpi",0.2,1991,3,1991,NA,0,5.46963015279366,5.55815823844237,5.4258100696218,5.6161816682171,FALSE,0.198078293578374
"CAN","cpi",0.2,1991,3,1991,NA,0.5,8.53219362056044,9.01556352998266,5.4258100696218,8.8240510060175,FALSE,8.24932878676884
"CAN","cpi",0.2,1991,3,1990,NA,1,2.72161303515768,3.78081491814291,5.4258100696218,3.89170713423419,FALSE,5.17168976168244
"CAN","cpi",0.2,1991,3,1990,NA,1.5,5.09031972918642,6.25686002146296,5.4258100696218,5.70462042447442,TRUE,1.16654029227654
"CAN","cpi",0.2,1992,3,1992,NA,0,1.38302703563097,1.4327358012153,1.47496888572843,1.47544467241393,FALSE,0.155291476867169
"CAN","cpi",0.2,1992,3,1992,NA,0.5,2.04055224273437,2.19779486808007,1.47496888572843,1.36069384263819,FALSE,1.57120101786054
"CAN","cpi",0.2,1992,3,1991,NA,1,1.70196160900389,2.59241580373193,1.47496888572843,2.43500720778875,FALSE,1.45793600291667
"CAN","cpi",0.2,1992,3,1991,NA,1.5,8.22576684100689,9.86397808257951,1.47496888572843,11.2072976243743,FALSE,18.5152061297688
"CAN","cpi",0.2,1993,3,1993,NA,0,1.71810408091995,1.79794503993463,1.84351085411351,1.81496037239602,FALSE,0.193755494461882
"CAN","cpi",0.2,1993,3,1993,NA,0.5,2.97287908982861,3.16680929400375,1.84351085411351,2.43338635087472,FALSE,3.01735079346288
"CAN","cpi",0.2,1993,3,1992,NA,1,1.20862618168123,2.03142267913725,1.84351085411351,1.76228766319361,TRUE,0.82279649745603
"CAN","cpi",0.2,1993,3,1992,NA,1.5,2.71579263211247,3.5385891295685,1.84351085411351,1.598750613598,FALSE,3.00350094245344
"CAN","cpi",0.2,1994,3,1994,NA,0,0.163161747624717,0.202428429306206,0.161630694655448,0.220147227157928,FALSE,0.0430943141046626
"CAN","cpi",0.2,1994,3,1994,NA,0.5,0.18025279971286,0.219519481394348,0.161630694655448,-0.741542526043691,FALSE,0.0858219443250182
"CAN","cpi",0.2,1994,3,1993,NA,1,1.01428027271171,1.70942008202426,0.161630694655448,1.50794631797803,FALSE,2.8267637544532
"CAN","cpi",0.2,1994,3,1993,NA,1.5,3.29210596498925,4.2018086620485,0.161630694655448,2.81797717341095,FALSE,8.73589087289376
"CAN","cpi",0.2,1995,3,1995,NA,0,2.06704139650624,2.1339276866299,2.11688403676572,2.15484685959489,TRUE,0.0668862901236666
"CAN","cpi",0.2,1995,3,1995,NA,0.5,3.37794293299752,3.53107507282087,2.11688403676572,2.90883921660758,FALSE,3.30577938040286
"CAN","cpi",0.2,1995,3,1994,NA,1,1.41058893688721,1.93581804300202,2.11688403676572,1.95173420121315,FALSE,0.977894090524048
"CAN","cpi",0.2,1995,3,1994,NA,1.5,0.684971439003874,1.21020054511868,2.11688403676572,-2.17983456081826,FALSE,2.79193783523239
"CAN","cpi",0.2,1996,3,1996,NA,0,1.36466005230895,1.41062559809754,1.55309584667184,1.44166889374788,FALSE,0.402141167224348
"CAN","cpi",0.2,1996,3,1996,NA,0.5,2.00140577224105,2.1200878507134,1.55309584667184,1.36236766996786,FALSE,1.23945689239536
"CAN","cpi",0.2,1996,3,1995,NA,1,0.587066155586928,1.25950861836372,1.55309584667184,0.911474268150699,FALSE,1.40641053354709
"CAN","cpi",0.2,1996,3,1995,NA,1.5,3.8295504981041,4.91567574029517,1.55309584667184,3.98784768949811,FALSE,6.77726187077172
"CAN","cpi",0.2,1997,3,1997,NA,0,1.60737738598397,1.67255869858388,1.60528783555959,1.68811714545079,FALSE,0.070405188660854
"CAN","cpi",0.2,1997,3,1997,NA,0.5,2.65115381541007,2.77639062471607,1.60528783555959,2.10620867662285,FALSE,2.7399017589322
"CAN","cpi",0.2,1997,3,1996,NA,1,0.477472196765536,1.13339549726073,1.60528783555959,0.758460286059383,FALSE,1.83565414624235
"CAN","cpi",0.2,1997,3,1996,NA,1.5,2.69670173687889,3.49675560446076,1.60528783555959,1.66287852692671,FALSE,3.52858862088011
"CAN","cpi",0.2,1998,3,1998,NA,0,0.900864394671965,0.963425121925051,0.988908029337191,0.970744023070627,FALSE,0.126267995783435
"CAN","cpi",0.2,1998,3,1998,NA,0.5,2.14098240183058,2.23809647858616,0.988908029337191,1.52096865004292,FALSE,2.97730000798906
"CAN","cpi",0.2,1998,3,1997,NA,1,1.35989326957116,1.45700734632674,0.988908029337191,1.03996058978499,FALSE,1.0245771773405
"CAN","cpi",0.2,1998,3,1997,NA,1.5,2.92001763107501,3.71900565843313,0.988908029337191,2.22059574107629,FALSE,5.62676203170268
"CAN","cpi",0.2,1999,3,1999,NA,0,1.70911109503754,1.7746697564909,1.7107350135213,1.79141464940687,TRUE,0.065558661453359
"CAN","cpi",0.2,1999,3,1999,NA,0.5,1.5088927517268,1.58147723868982,1.7107350135213,0.800552372711202,FALSE,0.395728924041712
"CAN","cpi",0.2,1999,3,1998,NA,1,0.614134064288604,0.899378245764239,1.7107350135213,0.474525424909611,FALSE,2.31363610086828
"CAN","cpi",0.2,1999,3,1998,NA,1.5,2.8905080568495,3.62244668754235,1.7107350135213,2.19776497346126,FALSE,3.68137123901336
"CAN","cpi",0.2,2000,3,2000,NA,0,2.63871919898091,2.70631872279808,2.6718361971244,2.73388860624727,TRUE,0.0675995238171652
"CAN","cpi",0.2,2000,3,2000,NA,0.5,2.65749485370356,2.78467269924717,2.6718361971244,2.11525832235237,TRUE,0.127177845543609
"CAN","cpi",0.2,2000,3,1999,NA,1,2.2102563168794,2.85666342451962,2.6718361971244,2.81438082878813,TRUE,0.646407107640217
"CAN","cpi",0.2,2000,3,1999,NA,1.5,2.24048599672116,2.88689310436138,2.6718361971244,0.872413614651861,TRUE,0.646407107640218
"CAN","cpi",0.2,2001,3,2001,NA,0,2.63987963029247,2.69147481329443,2.47906219852806,2.73506715681632,FALSE,0.453638762412972
"CAN","cpi",0.2,2001,3,2001,NA,0.5,2.31535081661941,2.42626646651616,2.47906219852806,1.72363549629744,FALSE,0.242904979926508
"CAN","cpi",0.2,2001,3,2000,NA,1,2.97816789895889,3.65701523074352,2.47906219852806,3.73995761394105,FALSE,1.92661158286169
"CAN","cpi",0.2,2001,3,2000,NA,1.5,2.7925085521957,3.49592184416501,2.47906219852806,1.98299961497232,FALSE,1.48702917613841
"CAN","cpi",0.2,2002,3,2002,NA,0,2.25925395994702,2.31015759972352,2.20880570551249,2.3500140093739,FALSE,0.177024275862834
"CAN","cpi",0.2,2002,3,2002,NA,0.5,2.09607337993992,2.19482515419701,2.20880570551249,1.47074452365548,FALSE,0.133703152545784
"CAN","cpi",0.2,2002,3,2001,NA,1,0.827191350032489,1.16431300858043,2.20880570551249,0.79597273109289,FALSE,2.94835340087809
"CAN","cpi",0.2,2002,3,2001,NA,1.5,2.26502349736253,2.64446832906262,2.20880570551249,0.827019109774735,FALSE,0.519989311325205
"CAN","cpi",0.2,2003,3,2003,NA,0,2.67156747600938,2.7247470567211,2.71189071546809,2.76866538316948,TRUE,0.0531795807117232
"CAN","cpi",0.2,2003,3,2003,NA,0.5,4.82639392433941,5.06434929015265,2.71189071546809,4.59645517963757,FALSE,5.52421338799154
"CAN","cpi",0.2,2003,3,2002,NA,1,3.36593029884114,4.1142364051269,2.71189071546809,4.33746529644743,FALSE,2.38340506471839
"CAN","cpi",0.2,2003,3,2002,NA,1.5,3.06445358145944,3.81275968774521,2.71189071546809,2.71468890277684,FALSE,1.62971327126414
"CAN","cpi",0.2,2004,3,2004,NA,0,1.68652063285497,1.72324951346975,1.83151661303942,1.7684769390021,FALSE,0.307396629538967
"CAN","cpi",0.2,2004,3,2004,NA,0.5,2.17623760129055,2.29264656751861,1.83151661303942,1.5625176897836,FALSE,0.978211436855889
"CAN","cpi",0.2,2004,3,2003,NA,1,1.58851856968251,1.76235300722956,1.83151661303942,1.41754396673829,FALSE,0.3467434520717
"CAN","cpi",0.2,2004,3,2003,NA,1.5,4.1424003891009,5.35716654596992,1.83151661303942,5.32651436309904,FALSE,6.99197559702272
"CAN","cpi",0.2,2005,3,2005,NA,0,2.29221063850833,2.34180312174215,2.18071628336509,2.38196957660787,FALSE,0.328328371091917
"CAN","cpi",0.2,2005,3,2005,NA,0.5,2.18911319302982,2.28221750912789,2.18071628336509,1.57253942332725,FALSE,0.11409659025989
"CAN","cpi",0.2,2005,3,2004,NA,1,1.32885750140287,1.42196181750094,2.18071628336509,0.993232956459974,FALSE,1.98999048075844
"CAN","cpi",0.2,2005,3,2004,NA,1.5,2.73861754689339,3.26911070246032,2.18071628336509,2.05989686108521,FALSE,1.92524631438768
"CAN","cpi",0.2,2006,3,2006,NA,0,1.98025395790461,2.02961753774894,1.97519342012289,2.0667253719809,FALSE,0.0620149242986483
"CAN","cpi",0.2,2006,3,2006,NA,0.5,2.49940860828613,2.6222604700992,1.97519342012289,1.93779395271753,FALSE,1.43338983222118
"CAN","cpi",0.2,2006,3,2005,NA,1,2.8828385674746,3.42850140280622,1.97519342012289,3.47726378201784,FALSE,2.81477570371091
"CAN","cpi",0.2,2006,3,2005,NA,1.5,2.3798678479615,2.92553068329312,1.97519342012289,1.38669164389589,FALSE,1.55734890492816
"CAN","cpi",0.2,2007,3,2007,NA,0,2.02097603354166,2.05992721513519,2.10062087284572,2.10807340507977,FALSE,0.14068532586986
"CAN","cpi",0.2,2007,3,2007,NA,0.5,2.90294530598854,3.00368217001037,2.10062087284572,2.41912196921498,FALSE,2.10654794687887
"CAN","cpi",0.2,2007,3,2006,NA,1,1.04940163827542,1.15013850229725,2.10062087284572,0.502333085291807,FALSE,2.476942790393
"CAN","cpi",0.2,2007,3,2006,NA,1.5,2.49083064732284,3.21421837329619,2.10062087284572,1.9704266811846,FALSE,1.69891216216614
"CAN","cpi",0.2,2008,3,2008,NA,0,2.85913993843357,2.90326955816703,2.31447335265955,2.95401501251803,FALSE,1.40579608416851
"CAN","cpi",0.2,2008,3,2008,NA,0.5,1.81699633002326,1.86112594975672,2.31447335265955,1.1596607753752,FALSE,1.17749812699054
"CAN","cpi",0.2,2008,3,2007,NA,1,0.982818670014202,1.02694828974766,2.31447335265955,0.365030180386173,FALSE,3.26294227701318
"CAN","cpi",0.2,2008,3,2007,NA,1.5,3.2095334092863,4.22157871392846,2.31447335265955,3.74970428078329,FALSE,3.24969544620903
"CAN","cpi",0.2,2009,3,2009,NA,0,0.225629514166518,0.237223250362995,0.284533874408197,0.277323060325678,FALSE,0.129870296309481
"CAN","cpi",0.2,2009,3,2009,NA,0.5,-0.00330835660234836,0.00828537959412862,0.284533874408197,-0.926841850998946,FALSE,0.702214973231649
"CAN","cpi",0.2,2009,3,2008,NA,1,3.44158506478035,4.19696232672031,0.284533874408197,4.39167027484448,FALSE,8.64800523787034
"CAN","cpi",0.2,2009,3,2008,NA,1.5,2.07526504194241,2.83064230388236,0.284533874408197,1.30718110670587,FALSE,5.23220518077548
"CAN","cpi",0.2,2010,3,2010,NA,0,1.66727057490534,1.71490650900034,1.75525687020327,1.74893097969613,FALSE,0.148511837102323
"CAN","cpi",0.2,2010,3,2010,NA,0.5,2.21728865942965,2.28850726515705,1.75525687020327,1.60514557059791,FALSE,1.22629807879335
"CAN","cpi",0.2,2010,3,2009,NA,1,1.24575001224277,1.31696861797017,1.75525687020327,0.646877121410091,FALSE,1.16693923631015
"CAN","cpi",0.2,2010,3,2009,NA,1.5,1.08118811387,1.1524067195974,1.75525687020327,-1.29107136836179,FALSE,1.57834398224209
"CAN","cpi",0.2,2011,3,2011,NA,0,2.73845813731848,2.80783483440453,2.85717434028225,2.83658425111878,FALSE,0.192725461780332
"CAN","cpi",0.2,2011,3,2011,NA,0.5,3.24785159932873,3.49843285143962,2.85717434028225,2.89516877702572,FALSE,1.2272743997271
"CAN","cpi",0.2,2011,3,2010,NA,1,2.08309164956366,2.56124087313315,2.85717434028225,2.19120159589417,FALSE,1.21798289144223
"CAN","cpi",0.2,2011,3,2010,NA,1.5,2.47119064385607,3.10986147518602,2.85717434028225,1.9636150267392,TRUE,0.638670831329948
"CAN","cpi",0.2,2012,3,2012,NA,0,1.38453677147095,1.44718329736886,1.50118536134935,1.46012306845465,FALSE,0.197651685849124
"CAN","cpi",0.2,2012,3,2012,NA,0.5,2.32965012324879,2.47865129500886,1.50118536134935,1.81318735388827,FALSE,2.22016307650868
"CAN","cpi",0.2,2012,3,2011,NA,1,1.45539738304805,1.80478407614652,1.50118536134935,1.0674603716489,TRUE,0.349386693098471
"CAN","cpi",0.2,2012,3,2011,NA,1.5,3.01371544405339,3.91983508207756,1.50118536134935,3.26492178435033,FALSE,4.68744484478428
"CAN","cpi",0.2,2013,3,2013,NA,0,0.992170558401736,1.01432289324807,0.931270594714462,1.03964630394149,FALSE,0.174402244064524
"CAN","cpi",0.2,2013,3,2013,NA,0.5,1.81074780005571,1.83290013490205,0.931270594714462,1.16522799725517,FALSE,2.22084534819947
"CAN","cpi",0.2,2013,3,2012,NA,1,0.527273937904978,0.549426272751316,0.931270594714462,-0.4587869493051,FALSE,0.976763139754202
"CAN","cpi",0.2,2013,3,2012,NA,1.5,2.43325164241945,3.0475877663018,0.931270594714462,1.87018597092114,FALSE,4.36928874314482
"CAN","cpi",0.2,2014,3,2014,NA,0,1.90411580443407,1.97443621701568,1.87639912240215,1.98941686448128,FALSE,0.139612117661406
"CAN","cpi",0.2,2014,3,2014,NA,0.5,2.63849835340535,2.89791867810637,1.87639912240215,2.28534818047506,FALSE,2.16466840220901
"CAN","cpi",0.2,2014,3,2013,NA,1,1.42744090506846,1.70003163857131,1.87639912240215,0.933988257976399,FALSE,0.713509443079952
"CAN","cpi",0.2,2014,3,2013,NA,1.5,2.38214422980098,2.96724064995259,1.87639912240215,1.74432822228681,FALSE,1.84945918864868
"CAN","cpi",0.2,2015,3,2015,NA,0,1.18739666115504,1.25102018876448,1.11090953952792,1.2616807067513,FALSE,0.254841331677248
"CAN","cpi",0.2,2015,3,2015,NA,0.5,0.729238146851667,1.01727129869642,1.11090953952792,0.218363095132572,FALSE,0.522128753923493
"CAN","cpi",0.2,2015,3,2014,NA,1,1.21807200785355,1.5061051596983,1.11090953952792,0.62327975322943,FALSE,0.555939322658831
"CAN","cpi",0.2,2015,3,2014,NA,1.5,3.07186906040557,4.0872456716151,1.11090953952792,3.54844533129153,FALSE,5.91777541340367
"CAN","cpi",0.2,2016,3,2016,NA,0,1.36482349460527,1.4312755562337,1.41168586698797,1.44403049252289,TRUE,0.0664520616284383
"CAN","cpi",0.2,2016,3,2016,NA,0.5,1.52124771545456,1.70185733727635,1.41168586698797,0.943700860843074,FALSE,0.454514242988275
"CAN","cpi",0.2,2016,3,2015,NA,1,1.83285665554138,2.23042536017521,1.41168586698797,1.65805837950254,FALSE,1.45049567601736
"CAN","cpi",0.2,2016,3,2015,NA,1.5,1.65673805221278,2.05430675684661,1.41168586698797,0.212753204814446,FALSE,1.01019916769587
"CAN","cpi",0.2,2017,3,2017,NA,0,1.44350454474709,1.48990530645965,1.57888581671161,1.52172534057668,FALSE,0.268852037342468
"CAN","cpi",0.2,2017,3,2017,NA,0.5,2.48843466255899,2.76483944115811,1.57888581671161,2.17995751143343,FALSE,2.55027689321757
"CAN","cpi",0.2,2017,3,2016,NA,1,1.10027309501247,1.3766778736116,1.57888581671161,0.478660156386378,FALSE,0.781924636349161
"CAN","cpi",0.2,2017,3,2016,NA,1.5,2.01998169698497,2.53483600402133,1.57888581671161,1.04780579189651,FALSE,1.61759400771976
"CAN","cpi",0.2,2018,3,2018,NA,0,2.33415721707531,2.40203428842153,2.23316270166586,2.42606863838048,FALSE,0.320363359869851
"CAN","cpi",0.2,2018,3,2018,NA,0.5,3.20252118291583,3.50696268007209,2.23316270166586,3.02101124054505,FALSE,2.72783770028119
"CAN","cpi",0.2,2018,3,2017,NA,1,1.11825944019135,1.4227009373476,2.23316270166586,0.52369802733857,FALSE,2.3305959079519
"CAN","cpi",0.2,2018,3,2017,NA,1.5,2.83638570977685,3.7243486558764,2.23316270166586,3.08408184322128,FALSE,2.39602046637703
"CAN","cpi",0.2,2019,3,2019,NA,0,1.93711504514505,1.98624050129557,1.91921619871868,2.02292335146186,FALSE,0.0938725722164346
"CAN","cpi",0.2,2019,3,2019,NA,0.5,1.99946856570735,2.40699677529055,1.91921619871868,1.7605507439285,FALSE,0.60815912705487
"CAN","cpi",0.2,2019,3,2018,NA,1,2.00060127187853,2.52577183794445,1.91921619871868,1.97136692329685,FALSE,0.728633248965536
"CAN","cpi",0.2,2019,3,2018,NA,1.5,3.18306600452214,4.31309483609606,1.91921619871868,4.13001487917394,FALSE,4.28965334608257
"CAN","cpi",0.2,2020,3,2020,NA,0,0.679356606382448,0.723922492524923,0.71139989671781,0.748237853268385,TRUE,0.0445658861424758
"CAN","cpi",0.2,2020,3,2020,NA,0.5,1.52947674348695,1.91809931414098,0.71139989671781,1.20638084891419,FALSE,2.43381468757688
"CAN","cpi",0.2,2020,3,2019,NA,1,1.61568042912129,2.03447041669502,0.71139989671781,1.33625965438418,FALSE,2.67949131858243
"CAN","cpi",0.2,2020,3,2019,NA,1.5,2.46381617423194,3.30680826317458,0.71139989671781,2.47827605395127,FALSE,5.22403278272797
"CAN","cpi",0.2,2021,3,2021,NA,0,3.25467625488046,3.3110745540863,3.31148121717802,3.36073739108717,FALSE,0.0574149569351448
"CAN","cpi",0.2,2021,3,2021,NA,0.5,2.93856738173892,3.39270998959788,3.31148121717802,2.87786599282032,TRUE,0.454142607858956
"CAN","cpi",0.2,2021,3,2020,NA,1,1.86774654612594,2.36944287704224,3.31148121717802,1.80567605729774,FALSE,2.85679218125576
"CAN","cpi",0.2,2021,3,2020,NA,1.5,1.97823496210728,2.627442299853,3.31148121717802,1.36315122932478,FALSE,2.35930463105829
"CAN","cpi",0.2,2022,3,2022,NA,0,6.42659922743911,6.5005063131761,6.50977236228281,6.58141742776733,FALSE,0.0970722085037692
"CAN","cpi",0.2,2022,3,2022,NA,0.5,6.21926605338026,6.80093947951062,6.50977236228281,6.74293883776587,TRUE,0.58167342613036
"CAN","cpi",0.2,2022,3,2021,NA,1,3.57788228781816,4.71578109952025,6.50977236228281,4.82564214996571,FALSE,5.62287696860849
"CAN","cpi",0.2,2022,3,2021,NA,1.5,3.08049449688596,4.21839330858806,6.50977236228281,3.93575064315212,FALSE,6.86634644593898
"CAN","cpi",0.2,2023,3,2023,NA,0,3.89857407503197,3.95915378674169,3.78831288758619,4.01453285616146,FALSE,0.336232680324165
"CAN","cpi",0.2,2023,3,2023,NA,0.5,3.11754797973157,3.55629933167181,3.78831288758619,3.07888421739245,FALSE,1.0187852417262
"CAN","cpi",0.2,2023,3,2022,NA,1,3.02004386610939,4.00252040512319,3.78831288758619,3.85673280569707,TRUE,0.982476539013803
"CAN","cpi",0.2,2023,3,2022,NA,1.5,4.90000565284026,6.65930444330656,3.78831288758619,8.07292283446253,FALSE,4.53853070360148
"CAN","cpi",0.2,2024,3,2023,NA,1,3.14991636005093,4.16538622192473,NA,4.07504753996503,NA,NA
"CAN","cpi",0.2,2024,3,2023,NA,1.5,2.28950415238824,3.30497401426204,NA,2.41529048319689,NA,NA
"CAN","cpi",0.3,1950,3,1950,NA,0,2.44668978058026,2.44668978058026,2.59031220731124,2.34506766740468,FALSE,0.410349790659947
"CAN","cpi",0.3,1950,3,1950,NA,0.5,0.634852177820488,0.634852177820488,2.59031220731124,-0.480727815155867,FALSE,5.58702865568786
"CAN","cpi",0.3,1950,3,1949,NA,1,-24.7312842731929,-24.7312842731929,2.59031220731124,2.05479851121881,FALSE,78.0617042300119
"CAN","cpi",0.3,1950,3,1949,NA,1.5,14.2036158124835,14.2036158124835,2.59031220731124,0,FALSE,33.1808674433494
"CAN","cpi",0.3,1951,3,1951,NA,0,9.78512082839237,9.83033458918625,9.87945438999359,9.94785600170898,FALSE,0.185556048814862
"CAN","cpi",0.3,1951,3,1951,NA,0.5,8.80398365459423,9.48372626955663,9.87945438999359,9.56401243485552,FALSE,1.81039438763943
"CAN","cpi",0.3,1951,3,1950,NA,1,3.11652554301406,7.61219520886557,9.87945438999359,7.18504019917801,FALSE,10.973553040503
"CAN","cpi",0.3,1951,3,1950,NA,1.5,2.4630011401511,15.873989275693,9.87945438999359,-2.18579641022426,TRUE,13.4109881355419
"CAN","cpi",0.3,1952,3,1952,NA,0,2.59287011813709,2.73551071879442,2.55562336095485,2.49651395855886,FALSE,0.249059906892316
"CAN","cpi",0.3,1952,3,1952,NA,0.5,4.66999515434159,5.13602728391476,2.55562336095485,3.9078404779387,FALSE,6.50709439639243
"CAN","cpi",0.3,1952,3,1951,NA,1,9.0459623413784,9.51199447095157,2.55562336095485,8.88778808098424,FALSE,19.0098577879262
"CAN","cpi",0.3,1952,3,1951,NA,1.5,4.78355026805228,5.24958239762545,2.55562336095485,10.076419411745,FALSE,6.83153757842297
"CAN","cpi",0.3,1953,3,1953,NA,0,-0.572544728422562,-0.738305527982446,-1.01492775838436,-0.954275034924989,FALSE,1.09819071461669
"CAN","cpi",0.3,1953,3,1953,NA,0.5,0.407324076780705,0.241563277220821,-1.01492775838436,-2.19876634474816,FALSE,3.89781587234031
"CAN","cpi",0.3,1953,3,1952,NA,1,0.9232717999346,0.757511000374716,-1.01492775838436,-1.18145267469342,FALSE,5.37195222420858
"CAN","cpi",0.3,1953,3,1952,NA,1.5,2.58710314386974,8.64294728168907,-1.01492775838436,0.93216905581622,FALSE,16.3473610014025
"CAN","cpi",0.3,1954,3,1954,NA,0,0.989555581625795,0.997065476784289,0.644425455961438,0.879731201855888,FALSE,0.993595968485228
"CAN","cpi",0.3,1954,3,1954,NA,0.5,0.508557307999466,0.733951368716736,0.644425455961438,-0.358875738913824,TRUE,0.225394060717269
"CAN","cpi",0.3,1954,3,1953,NA,1,0.78088586032166,3.89071972067637,0.644425455961438,3.38326531029323,FALSE,3.49972072995534
"CAN","cpi",0.3,1954,3,1953,NA,1.5,2.60014825970703,10.1457073126509,0.644425455961438,-2.85717744192413,FALSE,13.1333384922169
"CAN","cpi",0.3,1955,3,1955,NA,0,0.057869776678266,0.228370816749117,0.173649026558865,0.115254687233858,TRUE,0.170501040070851
"CAN","cpi",0.3,1955,3,1955,NA,0.5,0.147454389133942,0.317955429204794,0.173649026558865,-0.770970046821609,TRUE,0.170501040070851
"CAN","cpi",0.3,1955,3,1954,NA,1,0.81508541276184,3.97581429658944,0.173649026558865,3.47019599757395,FALSE,4.99340427297896
"CAN","cpi",0.3,1955,3,1954,NA,1.5,0.786513727563714,9.76438061973132,0.173649026558865,-1.89562740163941,FALSE,10.7289088950386
"CAN","cpi",0.3,1956,3,1956,NA,0,1.473294197198,1.62332123383133,1.32752769429961,1.56059797998755,FALSE,0.566502759200164
"CAN","cpi",0.3,1956,3,1956,NA,0.5,0.212414303573258,0.362441340206589,1.32752769429961,-0.709146002056511,FALSE,2.90741661975624
"CAN","cpi",0.3,1956,3,1955,NA,1,-0.389567560281943,1.07183565913654,1.32752769429961,0.884549626974225,FALSE,2.19195189131297
"CAN","cpi",0.3,1956,3,1955,NA,1.5,0.78712272406349,2.48014198917543,1.32752769429961,-1.89150615642833,TRUE,1.69301926511194
"CAN","cpi",0.3,1957,3,1957,NA,0,3.28663240775492,3.45852650620117,3.24684755852518,3.4151370317006,FALSE,0.28556509624552
"CAN","cpi",0.3,1957,3,1957,NA,0.5,2.66546682130709,2.84740957946988,3.24684755852518,2.23982631608766,FALSE,1.3231941268922
"CAN","cpi",0.3,1957,3,1956,NA,1,3.06634944900287,6.49393146410113,3.24684755852518,6.98754636690555,TRUE,3.42758201509826
"CAN","cpi",0.3,1957,3,1956,NA,1.5,-0.0796621633331365,3.34791985176513,3.24684755852518,-1.88668623310337,TRUE,3.42758201509826
"CAN","cpi",0.3,1958,3,1958,NA,0,2.06935474863258,2.25507522689757,2.33186388641149,2.22387249143335,FALSE,0.405116648304747
"CAN","cpi",0.3,1958,3,1958,NA,0.5,2.6560023145466,3.23790753279918,2.33186388641149,2.22839060734872,FALSE,1.50801501292432
"CAN","cpi",0.3,1958,3,1957,NA,1,1.57919828019137,4.43372115785331,2.33186388641149,4.42088197051908,TRUE,2.85452287766194
"CAN","cpi",0.3,1958,3,1957,NA,1.5,0.811444999851903,3.66596787751384,2.33186388641149,0.91301479707402,TRUE,2.85452287766194
"CAN","cpi",0.3,1959,3,1959,NA,0,1.15503097070348,1.33035402709751,1.19382698397654,1.24991216431293,TRUE,0.17532305639403
"CAN","cpi",0.3,1959,3,1959,NA,0.5,1.17409321249576,1.83811926795112,1.19382698397654,0.437839731590327,TRUE,0.664026055455364
"CAN","cpi",0.3,1959,3,1958,NA,1,0.253760742363779,1.84267080131531,1.19382698397654,1.75862762885946,TRUE,1.58891005895153
"CAN","cpi",0.3,1959,3,1958,NA,1.5,1.21675884257829,2.80566890152983,1.19382698397654,1.77407172713766,FALSE,1.65442965495654
"CAN","cpi",0.3,1960,3,1960,NA,0,0.940858256136794,1.09931520245495,1.34209404870695,1.02361304259477,FALSE,0.852110792752453
"CAN","cpi",0.3,1960,3,1960,NA,0.5,1.24919031354269,1.40764725986084,1.34209404870695,0.53898348018166,TRUE,0.158456946318152
"CAN","cpi",0.3,1960,3,1959,NA,1,1.3985952306237,3.78399875119804,1.34209404870695,3.95759373689442,FALSE,2.54683546890791
"CAN","cpi",0.3,1960,3,1959,NA,1.5,0.545795115256816,2.93119863583115,1.34209404870695,-0.873476815404885,TRUE,2.38540352057434
"CAN","cpi",0.3,1961,3,1961,NA,0,0.929918874439273,1.08192548168157,1.00921348094007,1.00921348094007,TRUE,0.152006607242297
"CAN","cpi",0.3,1961,3,1961,NA,0.5,1.65408400732019,1.80609061456249,1.00921348094007,1.00921348094007,FALSE,1.99449382547121
"CAN","cpi",0.3,1961,3,1960,NA,1,-0.52897648178975,-0.0869582199055678,1.00921348094007,0.0537704626035329,FALSE,3.57393740715744
"CAN","cpi",0.3,1961,3,1960,NA,1.5,0.939226008080126,2.54009468275329,1.00921348094007,-0.862181798940035,TRUE,1.60086867467317
"CAN","cpi",0.3,1962,3,1962,NA,0,1.04949340374858,1.18479848184631,1.04957947883042,1.10232402731478,TRUE,0.135305078097733
"CAN","cpi",0.3,1962,3,1962,NA,0.5,0.81123201179316,0.946537089890893,1.04957947883042,0,FALSE,0.429711903639224
"CAN","cpi",0.3,1962,3,1961,NA,1,0.00208973940412066,0.452992606798315,1.04957947883042,0,FALSE,2.15543678748591
"CAN","cpi",0.3,1962,3,1961,NA,1.5,1.13110168461162,2.25714340473427,1.04957947883042,0,FALSE,1.35896230806894
"CAN","cpi",0.3,1963,3,1963,NA,0,1.84638908497703,1.98397926462883,1.60677118395228,1.91491729531202,FALSE,0.822212754008208
"CAN","cpi",0.3,1963,3,1963,NA,0.5,1.50430745749204,1.70638735462989,1.60677118395228,0.836828714617504,TRUE,0.20207989713785
"CAN","cpi",0.3,1963,3,1962,NA,1,0.870275119090606,1.97105550881291,1.60677118395228,2.56411490415144,TRUE,1.1007803897223
"CAN","cpi",0.3,1963,3,1962,NA,1.5,1.06663063236994,2.25714340473427,1.60677118395228,0,TRUE,1.19051277236432
"CAN","cpi",0.3,1964,3,1964,NA,0,1.88415937675754,2.02126537166745,1.88764670034376,1.98877256446048,TRUE,0.137105994909912
"CAN","cpi",0.3,1964,3,1964,NA,0.5,1.97360787351496,2.11071386842488,1.88764670034376,1.38369006227607,FALSE,0.382709346827638
"CAN","cpi",0.3,1964,3,1963,NA,1,2.17012462069063,2.72438051022522,1.88764670034376,5.39044290347256,FALSE,1.36133566195421
"CAN","cpi",0.3,1964,3,1963,NA,1.5,1.05957296339382,1.61382885292841,1.88764670034376,0,FALSE,1.3365925964356
"CAN","cpi",0.3,1965,3,1965,NA,0,2.23874104131677,2.37520385776352,2.29538304394236,2.34557047418999,TRUE,0.136462816446752
"CAN","cpi",0.3,1965,3,1965,NA,0.5,2.14486279008928,2.29984308099253,2.29538304394236,1.61079447956654,TRUE,0.154980290903246
"CAN","cpi",0.3,1965,3,1964,NA,1,0.952730907132016,1.74366383882731,2.29538304394236,2.42518862179847,FALSE,2.36727351773828
"CAN","cpi",0.3,1965,3,1964,NA,1.5,1.21591627130187,2.00684920299716,2.29538304394236,0.818102552316399,FALSE,1.61531533439585
"CAN","cpi",0.3,1966,3,1966,NA,0,3.68970929624729,3.83072839318932,3.72486065470629,3.82010987863709,TRUE,0.141019096942026
"CAN","cpi",0.3,1966,3,1966,NA,0.5,4.11497993314505,4.30049348540558,3.72486065470629,3.99123398895563,FALSE,1.30014006208555
"CAN","cpi",0.3,1966,3,1965,NA,1,1.58041996385534,2.02687943705007,3.72486065470629,3.20722068745854,FALSE,5.29783438078394
"CAN","cpi",0.3,1966,3,1965,NA,1.5,1.35823504562045,2.361618294579,3.72486065470629,1.60663824631958,FALSE,4.8983614207508
"CAN","cpi",0.3,1967,3,1967,NA,0,3.63812588939221,3.77898300589825,3.49360316391996,3.76768849328632,FALSE,0.553779189283907
"CAN","cpi",0.3,1967,3,1967,NA,0.5,2.80420071417869,2.96313559286919,3.49360316391996,2.4074547441976,FALSE,1.67455651026413
"CAN","cpi",0.3,1967,3,1966,NA,1,1.64922975151912,2.62952666424117,3.49360316391996,3.18103323070284,FALSE,3.44908691180431
"CAN","cpi",0.3,1967,3,1966,NA,1.5,1.71286323591959,2.69316014864165,3.49360316391996,4.65128160487248,FALSE,3.26727695637437
"CAN","cpi",0.3,1968,3,1968,NA,0,4.03683970019958,4.14866998071348,3.95128347779386,4.17287945672396,FALSE,0.356276630244542
"CAN","cpi",0.3,1968,3,1968,NA,0.5,4.18097334980694,4.3675096809646,3.95128347779386,4.07097205779852,FALSE,0.842793108337887
"CAN","cpi",0.3,1968,3,1967,NA,1,2.5178048776382,3.91690970812945,3.95128347779386,5.84521682123848,FALSE,1.49731560096098
"CAN","cpi",0.3,1968,3,1967,NA,1.5,1.27601029694406,2.67511512743532,3.95128347779386,2.25565858240226,FALSE,5.04530011722995
"CAN","cpi",0.3,1969,3,1969,NA,0,4.4483769075738,4.56776537259028,4.42679496126681,4.59520664360618,FALSE,0.181051168750725
"CAN","cpi",0.3,1969,3,1969,NA,0.5,3.26656759032195,3.40175539439914,4.42679496126681,2.96612019395715,FALSE,3.06387228084198
"CAN","cpi",0.3,1969,3,1968,NA,1,2.90834677281933,4.23822154843311,4.42679496126681,6.72487630040807,FALSE,1.86865595513864
"CAN","cpi",0.3,1969,3,1968,NA,1.5,1.66969292538185,2.99956770099562,4.42679496126681,4.31664452944541,FALSE,5.40766694781718
"CAN","cpi",0.3,1970,3,1970,NA,0,3.47612179305776,3.54821500024211,3.28128405769805,3.60761538249925,FALSE,0.628772451069248
"CAN","cpi",0.3,1970,3,1970,NA,0.5,4.42031387727969,4.61055955481022,3.28128405769805,4.36016077421692,FALSE,3.44461659062094
"CAN","cpi",0.3,1970,3,1969,NA,1,2.16123075780006,3.37353763773499,3.28128405769805,4.91369447805135,TRUE,1.21230687993494
"CAN","cpi",0.3,1970,3,1969,NA,1.5,1.62453502706773,2.83684190700267,3.28128405769805,2.07973847283129,FALSE,2.48214159620745
"CAN","cpi",0.3,1971,3,1971,NA,0,2.79793302656011,2.87507681255384,2.64123406634756,2.91872900980337,FALSE,0.524855100886715
"CAN","cpi",0.3,1971,3,1971,NA,0.5,1.95680644184297,2.10989721559925,2.64123406634756,1.38357105636307,FALSE,1.67119606160861
"CAN","cpi",0.3,1971,3,1970,NA,1,1.75414348087684,2.60916319012287,2.64123406634756,3.17686610979278,FALSE,0.946650784173724
"CAN","cpi",0.3,1971,3,1970,NA,1.5,2.10083085413995,3.48765697534385,2.64123406634756,4.62066312326275,TRUE,1.3868261212039
"CAN","cpi",0.3,1972,3,1972,NA,0,4.99614417529443,5.06230659255693,4.83230569625923,5.17210692165851,FALSE,0.534272357363068
"CAN","cpi",0.3,1972,3,1972,NA,0.5,4.75308780650239,4.89882647828723,4.83230569625923,4.76224255478946,TRUE,0.145738671784844
"CAN","cpi",0.3,1972,3,1971,NA,1,2.85451195745489,4.26539368228311,4.83230569625923,6.83863498061675,FALSE,3.03063033618857
"CAN","cpi",0.3,1972,3,1971,NA,1.5,1.51294401793457,2.92382574276279,4.83230569625923,1.95441162589064,FALSE,6.86368159196091
"CAN","cpi",0.3,1973,3,1973,NA,0,7.19609909431763,7.25356758135923,7.12388603531779,7.41057825703995,FALSE,0.263791512755433
"CAN","cpi",0.3,1973,3,1973,NA,0.5,5.97770456096429,6.1022055985843,7.12388603531779,6.24191401313708,FALSE,3.04358799971569
"CAN","cpi",0.3,1973,3,1972,NA,1,3.78534969033502,5.11099945000627,7.12388603531779,8.12590883681935,FALSE,7.07675428913273
"CAN","cpi",0.3,1973,3,1972,NA,1.5,2.10353002058762,3.42917978025888,7.12388603531779,4.96130694391223,FALSE,11.8819533455539
"CAN","cpi",0.3,1974,3,1974,NA,0,9.92742541229752,10.0741996934423,10.2717243737774,10.2919804098732,FALSE,0.711130510673627
"CAN","cpi",0.3,1974,3,1974,NA,0.5,8.27427563754888,9.10012168190453,10.2717243737774,9.01679902243293,FALSE,4.17328230684961
"CAN","cpi",0.3,1974,3,1973,NA,1,5.27104607408098,7.16784379456441,10.2717243737774,11.5076386824751,FALSE,10.7650279468063
"CAN","cpi",0.3,1974,3,1973,NA,1.5,2.14218982493968,4.03898754542311,10.2717243737774,7.03851017911898,FALSE,19.7046172300672
"CAN","cpi",0.3,1975,3,1975,NA,0,10.0686238086481,10.2474141529836,10.0232981493341,10.3166994702432,FALSE,0.308292228089655
"CAN","cpi",0.3,1975,3,1975,NA,0.5,8.15954928391876,9.24425247417458,10.0232981493341,8.87817825771755,FALSE,3.31054797642594
"CAN","cpi",0.3,1975,3,1974,NA,1,5.63465907298303,9.74870870714055,10.0232981493341,11.6634485116586,FALSE,4.89859089756773
"CAN","cpi",0.3,1975,3,1974,NA,1.5,2.55104516527826,6.66509479943578,10.0232981493341,9.09165939347615,FALSE,13.7089163481528
"CAN","cpi",0.3,1976,3,1976,NA,0,7.02114041191742,7.10529745313886,7.22784311401172,7.25911367403926,FALSE,0.434287500858166
"CAN","cpi",0.3,1976,3,1976,NA,0.5,6.80183769197476,8.03345473473016,7.22784311401172,7.22502565269042,TRUE,1.2316170427554
"CAN","cpi",0.3,1976,3,1975,NA,1,8.32612178798946,10.69097960322,7.22784311401172,12.4780790437784,FALSE,5.50279688373834
"CAN","cpi",0.3,1976,3,1975,NA,1.5,3.21552416873696,7.07043732407322,7.22784311401172,7.18586013837568,FALSE,4.30464398373196
"CAN","cpi",0.3,1977,3,1977,NA,0,7.34739336393455,7.52863435274839,7.58101410153764,7.59139014959698,FALSE,0.330897413925994
"CAN","cpi",0.3,1977,3,1977,NA,0.5,6.82279251367735,7.73663381664616,7.58101410153764,7.25038656554249,TRUE,0.913841302968809
"CAN","cpi",0.3,1977,3,1976,NA,1,3.51514747580292,5.32404654390149,7.58101410153764,5.92994518665441,FALSE,8.25737780420186
"CAN","cpi",0.3,1977,3,1976,NA,1.5,2.8805323409726,6.25523256655902,7.58101410153764,5.68954314963938,FALSE,7.16264746838249
"CAN","cpi",0.3,1978,3,1978,NA,0,8.42491988997077,8.62342568059733,8.50208927062595,8.68881076810062,TRUE,0.198505790626555
"CAN","cpi",0.3,1978,3,1978,NA,0.5,7.64616667655874,8.53471675031511,8.50208927062595,8.11208508764938,TRUE,0.888550073756374
"CAN","cpi",0.3,1978,3,1977,NA,1,4.8854228326791,7.34755948780443,8.50208927062595,8.34671923233743,FALSE,5.76079317747252
"CAN","cpi",0.3,1978,3,1977,NA,1.5,4.53820234641838,8.18454740122603,8.50208927062595,8.21410731625775,FALSE,4.55360753880741
"CAN","cpi",0.3,1979,3,1979,NA,0,8.33358238423459,8.49628559040866,8.65147652410481,8.56136533364911,FALSE,0.60610587387735
"CAN","cpi",0.3,1979,3,1979,NA,0.5,7.74599271691969,8.64478404092357,8.65147652410481,8.23092589685401,FALSE,0.917912704521703
"CAN","cpi",0.3,1979,3,1978,NA,1,5.64424903913584,8.41092304975823,8.65147652410481,9.66481845899329,FALSE,3.45396965161261
"CAN","cpi",0.3,1979,3,1978,NA,1.5,4.73022037256991,8.28629095417081,8.65147652410481,7.91014806370246,FALSE,4.59945792426947
"CAN","cpi",0.3,1980,3,1980,NA,0,9.29671944260914,9.46835276348163,9.5171912664748,9.53576705858497,FALSE,0.311171900852963
"CAN","cpi",0.3,1980,3,1980,NA,0.5,8.34615134588614,9.02687601295799,9.5171912664748,8.6434746104286,FALSE,2.08162539140558
"CAN","cpi",0.3,1980,3,1979,NA,1,5.14847791556981,7.08734752329756,9.5171912664748,7.78967249140325,FALSE,8.88128030251986
"CAN","cpi",0.3,1980,3,1979,NA,1.5,4.87732566456639,8.56151872924096,9.5171912664748,8.29781572565185,FALSE,6.41468602819982
"CAN","cpi",0.3,1981,3,1981,NA,0,11.4504688024738,11.6962933990832,11.5813425032741,11.7120328235834,TRUE,0.245824596609353
"CAN","cpi",0.3,1981,3,1981,NA,0.5,11.7311958181235,12.4502098952436,11.5813425032741,12.3296185245412,FALSE,1.14716640526113
"CAN","cpi",0.3,1981,3,1980,NA,1,7.34847604733933,9.7949184456822,11.5813425032741,11.0356264341109,FALSE,7.55051113431984
"CAN","cpi",0.3,1981,3,1980,NA,1.5,6.63846087704713,9.11071561591031,11.5813425032741,8.52474858684185,FALSE,9.53118870275984
"CAN","cpi",0.3,1982,3,1982,NA,0,10.0107543997273,10.2069728308948,10.1124203763629,10.253224031375,TRUE,0.196218431167473
"CAN","cpi",0.3,1982,3,1982,NA,0.5,9.661945717051,10.40427589554,10.1124203763629,10.1221315066235,TRUE,0.742330178489041
"CAN","cpi",0.3,1982,3,1981,NA,1,8.03137910615455,10.3939252272486,10.1124203763629,11.652777546881,TRUE,2.36254612109401
"CAN","cpi",0.3,1982,3,1981,NA,1.5,9.8472902593139,13.3935249357577,10.1124203763629,13.2139534836213,TRUE,3.54623467644381
"CAN","cpi",0.3,1983,3,1983,NA,0,5.65887522499104,5.80663290024245,5.67091787896303,5.84362752346853,TRUE,0.147757675251409
"CAN","cpi",0.3,1983,3,1983,NA,0.5,4.95295731038615,5.39466948703569,5.67091787896303,4.70635148143536,FALSE,1.23099329644196
"CAN","cpi",0.3,1983,3,1982,NA,1,5.88973648222016,7.8357161831039,5.67091787896303,8.61437359933683,FALSE,2.5711757101898
"CAN","cpi",0.3,1983,3,1982,NA,1.5,7.9868300815494,10.0959600501047,5.67091787896303,9.84330302935538,FALSE,8.72602197594487
"CAN","cpi",0.3,1984,3,1984,NA,0,4.04974561283935,4.15849468489019,4.19799576814029,4.21315663178917,FALSE,0.221609309908261
"CAN","cpi",0.3,1984,3,1984,NA,0.5,4.97355613098145,5.41813937658016,4.19799576814029,4.73004206452632,FALSE,2.66046999657346
"CAN","cpi",0.3,1984,3,1983,NA,1,4.29836503861089,5.77621421063849,4.19799576814029,6.30529961834119,FALSE,1.76461851622932
"CAN","cpi",0.3,1984,3,1983,NA,1.5,3.43709542274917,4.91494459477677,4.19799576814029,2.81189439817776,TRUE,1.4778491720276
"CAN","cpi",0.3,1985,3,1985,NA,0,3.7460852593039,3.8833057879764,3.86444262005169,3.90546894544143,TRUE,0.137220528672495
"CAN","cpi",0.3,1985,3,1985,NA,0.5,4.34901850319793,4.75339974145008,3.86444262005169,4.0117649915267,FALSE,1.78888376152711
"CAN","cpi",0.3,1985,3,1984,NA,1,2.10913438470844,3.33352117779201,3.86444262005169,3.28942198062367,FALSE,2.7413051995398
"CAN","cpi",0.3,1985,3,1984,NA,1.5,4.64798099949656,5.99281099077488,3.86444262005169,4.67970369844593,FALSE,3.58351107540652
"CAN","cpi",0.3,1986,3,1986,NA,0,3.97975380210065,4.10341696072499,4.08685396749431,4.12727747445429,TRUE,0.123663158624346
"CAN","cpi",0.3,1986,3,1986,NA,0.5,4.8289206701282,5.25889060570534,4.08685396749431,4.57514120825518,FALSE,2.5501605145311
"CAN","cpi",0.3,1986,3,1985,NA,1,2.49395173450659,3.79696407266492,4.08685396749431,3.84501750700332,FALSE,2.13126918052802
"CAN","cpi",0.3,1986,3,1985,NA,1.5,4.32815852626902,5.84069633930294,4.08685396749431,4.51624000588938,FALSE,2.20197940953309
"CAN","cpi",0.3,1987,3,1987,NA,0,4.18700620310824,4.296181864881,4.23980729277887,4.3376164199738,TRUE,0.109175661772758
"CAN","cpi",0.3,1987,3,1987,NA,0.5,4.2321747765543,4.62418098769649,4.23980729277887,3.8898385702312,TRUE,0.392006211142196
"CAN","cpi",0.3,1987,3,1986,NA,1,2.99113743846799,4.58790333576232,4.23980729277887,4.56284936423577,TRUE,1.59676589729434
"CAN","cpi",0.3,1987,3,1986,NA,1.5,4.39784555542975,6.3002360627139,4.23980729277887,5.15474659430673,FALSE,2.35392840057238
"CAN","cpi",0.3,1988,3,1988,NA,0,3.86269173409787,3.96046992064652,3.92899537638065,4.00028299604827,TRUE,0.0977781865486422
"CAN","cpi",0.3,1988,3,1988,NA,0.5,3.92041409912497,4.29258674865405,3.92899537638065,3.53181278911538,TRUE,0.372172649529073
"CAN","cpi",0.3,1988,3,1987,NA,1,2.90058835161762,4.41179033320256,3.92899537638065,4.34173286045961,TRUE,1.51120198158494
"CAN","cpi",0.3,1988,3,1987,NA,1.5,3.6061649230783,5.30082941050383,3.92899537638065,3.76612293581706,TRUE,1.69466448742553
"CAN","cpi",0.3,1989,3,1989,NA,0,4.85285818682501,4.96142048523215,4.82821664544208,5.00606812502784,FALSE,0.178966702358376
"CAN","cpi",0.3,1989,3,1989,NA,0.5,4.77673775581171,5.2033879236273,4.82821664544208,4.51521437972404,TRUE,0.426650167815588
"CAN","cpi",0.3,1989,3,1988,NA,1,2.89314072161931,4.19903611163969,4.82821664544208,4.3270389784901,FALSE,3.1035540580272
"CAN","cpi",0.3,1989,3,1988,NA,1.5,3.55501175674157,5.05675377246239,4.82821664544208,3.42699250808196,TRUE,1.50174201572082
"CAN","cpi",0.3,1990,3,1990,NA,0,4.36840057161939,4.47789399618931,4.64347549432717,4.52171223749059,FALSE,0.582583419249529
"CAN","cpi",0.3,1990,3,1990,NA,0.5,5.39979484712441,5.83576078176004,4.64347549432717,5.22335253259958,FALSE,2.59687837119917
"CAN","cpi",0.3,1990,3,1989,NA,1,3.81716280506448,5.51244262250844,4.64347549432717,5.7236432392913,TRUE,1.69527981744395
"CAN","cpi",0.3,1990,3,1989,NA,1.5,4.28371103138444,6.13158408096862,4.64347549432717,4.92041342133377,TRUE,1.84787304958418
"CAN","cpi",0.3,1991,3,1991,NA,0,5.45349737447476,5.56860136106813,5.4258100696218,5.6161816682171,FALSE,0.194210571887557
"CAN","cpi",0.3,1991,3,1991,NA,0.5,8.52877433082848,9.15924079818014,5.4258100696218,8.8240510060175,FALSE,9.49607864222791
"CAN","cpi",0.3,1991,3,1990,NA,1,2.60511622605562,4.05335764943091,5.4258100696218,3.89170713423419,FALSE,5.36953405249211
"CAN","cpi",0.3,1991,3,1990,NA,1.5,4.66566759315039,6.61870395037581,5.4258100696218,5.70462042447442,TRUE,1.95303635722542
"CAN","cpi",0.3,1992,3,1992,NA,0,1.36683438322587,1.44776788050674,1.47496888572843,1.47544467241393,FALSE,0.158650655057146
"CAN","cpi",0.3,1992,3,1992,NA,0.5,1.97030067869728,2.27048891545119,1.47496888572843,1.36069384263819,FALSE,1.71542193095061
"CAN","cpi",0.3,1992,3,1991,NA,1,1.65021914242548,2.89313761386727,1.47496888572843,2.43500720778875,FALSE,1.74363349057621
"CAN","cpi",0.3,1992,3,1991,NA,1.5,8.03520476531078,10.2230660033155,1.47496888572843,11.2072976243743,FALSE,20.9313923225257
"CAN","cpi",0.3,1993,3,1993,NA,0,1.71130463562145,1.80879451601658,1.84351085411351,1.81496037239602,FALSE,0.196679417814942
"CAN","cpi",0.3,1993,3,1993,NA,0.5,2.87284584287705,3.26059462444259,1.84351085411351,2.43338635087472,FALSE,3.3287058923185
"CAN","cpi",0.3,1993,3,1992,NA,1,1.13819184943582,2.27913427687633,1.84351085411351,1.76228766319361,TRUE,1.14094242744051
"CAN","cpi",0.3,1993,3,1992,NA,1.5,2.56210850395356,3.70305093139407,1.84351085411351,1.598750613598,FALSE,3.19407856984064
"CAN","cpi",0.3,1994,3,1994,NA,0,0.141257088403163,0.226185437477171,0.161630694655448,0.220147227157928,TRUE,0.0849283490740073
"CAN","cpi",0.3,1994,3,1994,NA,0.5,0.198425359191534,0.28946371928626,0.161630694655448,-0.741542526043691,FALSE,0.196165973054972
"CAN","cpi",0.3,1994,3,1993,NA,1,1.02467790242518,2.15475999812148,0.161630694655448,1.50794631797803,FALSE,3.59593126075267
"CAN","cpi",0.3,1994,3,1993,NA,1.5,3.17351686610511,4.36460600970653,0.161630694655448,2.81797717341095,FALSE,9.79647820488616
"CAN","cpi",0.3,1995,3,1995,NA,0,2.04591307997281,2.14608007321173,2.11688403676572,2.15484685959489,TRUE,0.100166993238924
"CAN","cpi",0.3,1995,3,1995,NA,0.5,3.27184336727662,3.6755580616184,2.11688403676572,2.90883921660758,FALSE,3.7035984958015
"CAN","cpi",0.3,1995,3,1994,NA,1,1.40070140267803,2.01052798959249,2.11688403676572,1.95173420121315,FALSE,0.913701007409395
"CAN","cpi",0.3,1995,3,1994,NA,1.5,0.685789110256156,1.29561569717061,2.11688403676572,-2.17983456081826,FALSE,2.95630755718618
"CAN","cpi",0.3,1996,3,1996,NA,0,1.34928871820655,1.41415445379064,1.55309584667184,1.44166889374788,FALSE,0.461841143816105
"CAN","cpi",0.3,1996,3,1996,NA,0.5,1.90777202995042,2.21350758358493,1.55309584667184,1.36236766996786,FALSE,1.31909607728759
"CAN","cpi",0.3,1996,3,1995,NA,1,0.460288054575136,1.34998653901268,1.55309584667184,0.911474268150699,FALSE,1.47001079203515
"CAN","cpi",0.3,1996,3,1995,NA,1.5,3.62284763473384,5.14912539438586,1.55309584667184,3.98784768949811,FALSE,7.43985429697201
"CAN","cpi",0.3,1997,3,1997,NA,0,1.5917973881177,1.68292193770598,1.60528783555959,1.68811714545079,TRUE,0.0911245495882733
"CAN","cpi",0.3,1997,3,1997,NA,0.5,2.52512325105767,2.83059525404161,1.60528783555959,2.10620867662285,FALSE,2.9335731901213
"CAN","cpi",0.3,1997,3,1996,NA,1,0.51895662033655,1.42901167150707,1.60528783555959,0.758460286059383,FALSE,1.41370123417773
"CAN","cpi",0.3,1997,3,1996,NA,1.5,2.57555021848273,3.63788843922106,1.60528783555959,1.66287852692671,FALSE,3.83451645766157
"CAN","cpi",0.3,1998,3,1998,NA,0,0.88589178506988,0.971038404786193,0.988908029337191,0.970744023070627,FALSE,0.136202689862022
"CAN","cpi",0.3,1998,3,1998,NA,0.5,2.00196481324511,2.29015219149459,0.988908029337191,1.52096865004292,FALSE,3.18263533227211
"CAN","cpi",0.3,1998,3,1997,NA,1,0.71834210011402,1.65728971851313,0.988908029337191,1.03996058978499,TRUE,0.938947618399107
"CAN","cpi",0.3,1998,3,1997,NA,1.5,2.81382636597974,4.00040630746763,0.988908029337191,2.22059574107629,FALSE,6.40063233189517
"CAN","cpi",0.3,1999,3,1999,NA,0,1.70607679192531,1.78542897311604,1.7107350135213,1.79141464940687,TRUE,0.0793521811907256
"CAN","cpi",0.3,1999,3,1999,NA,0.5,1.40204147000781,1.62487989030707,1.7107350135213,0.800552372711202,FALSE,0.468138772339914
"CAN","cpi",0.3,1999,3,1998,NA,1,0.357007524197857,1.19875936015118,1.7107350135213,0.474525424909611,FALSE,2.3045394170108
"CAN","cpi",0.3,1999,3,1998,NA,1.5,2.58265929654325,3.958044158649,1.7107350135213,2.19776497346126,FALSE,3.86659709931134
"CAN","cpi",0.3,2000,3,2000,NA,0,2.6324628442354,2.72069079036166,2.6718361971244,2.73388860624727,TRUE,0.0882279461262545
"CAN","cpi",0.3,2000,3,2000,NA,0.5,2.49685680594662,2.89984123088638,2.6718361971244,2.11525832235237,TRUE,0.402984424939761
"CAN","cpi",0.3,2000,3,1999,NA,1,2.09020045213382,3.17424486888229,2.6718361971244,2.81438082878813,TRUE,1.08404441674848
