isdrw/probabilistic-benchmark-forecasts/data/processed/point predictions/point_predictions_rw.csv
"country","forecast_year","forecast_quarter","target_year","target_quarter","horizon","target","prediction","truth_value"
"CAN",1946,3,1946,4,0,"tv_cpi",3.1861206290656,1.38410086759011
"CAN",1946,3,1946,4,1,"tv_cpi",3.1861206290656,1.38410086759011
"CAN",1946,3,1947,1,1,"tv_cpi",3.1861206290656,0.343058961286502
"CAN",1946,3,1947,2,1,"tv_cpi",3.1861206290656,3.36732374965898
"CAN",1946,3,1947,3,1,"tv_cpi",3.1861206290656,3.25760696906405
"CAN",1946,3,1947,4,1,"tv_cpi",3.1861206290656,5.00105036859821
"CAN",1947,1,1947,2,0.5,"tv_cpi",0.343058961286502,3.36732374965898
"CAN",1947,1,1947,3,0.5,"tv_cpi",0.343058961286502,3.25760696906405
"CAN",1947,1,1947,4,0.5,"tv_cpi",0.343058961286502,5.00105036859821
"CAN",1947,1,1947,2,1.5,"tv_cpi",0.343058961286502,3.36732374965898
"CAN",1947,1,1947,3,1.5,"tv_cpi",0.343058961286502,3.25760696906405
"CAN",1947,1,1947,4,1.5,"tv_cpi",0.343058961286502,5.00105036859821
"CAN",1947,1,1948,1,1.5,"tv_cpi",0.343058961286502,3.59318989114983
"CAN",1947,1,1948,2,1.5,"tv_cpi",0.343058961286502,2.6126390029523
"CAN",1947,1,1948,3,1.5,"tv_cpi",0.343058961286502,2.54610392783903
"CAN",1947,1,1948,4,1.5,"tv_cpi",0.343058961286502,1.3869857798281
"CAN",1947,3,1947,4,0,"tv_cpi",3.25760696906405,5.00105036859821
"CAN",1947,3,1947,4,1,"tv_cpi",3.25760696906405,5.00105036859821
"CAN",1947,3,1948,1,1,"tv_cpi",3.25760696906405,3.59318989114983
"CAN",1947,3,1948,2,1,"tv_cpi",3.25760696906405,2.6126390029523
"CAN",1947,3,1948,3,1,"tv_cpi",3.25760696906405,2.54610392783903
"CAN",1947,3,1948,4,1,"tv_cpi",3.25760696906405,1.3869857798281
"CAN",1948,1,1948,2,0.5,"tv_cpi",3.59318989114983,2.6126390029523
"CAN",1948,1,1948,3,0.5,"tv_cpi",3.59318989114983,2.54610392783903
"CAN",1948,1,1948,4,0.5,"tv_cpi",3.59318989114983,1.3869857798281
"CAN",1948,1,1948,2,1.5,"tv_cpi",3.59318989114983,2.6126390029523
"CAN",1948,1,1948,3,1.5,"tv_cpi",3.59318989114983,2.54610392783903
"CAN",1948,1,1948,4,1.5,"tv_cpi",3.59318989114983,1.3869857798281
"CAN",1948,1,1949,1,1.5,"tv_cpi",3.59318989114983,0
"CAN",1948,1,1949,2,1.5,"tv_cpi",3.59318989114983,0
"CAN",1948,1,1949,3,1.5,"tv_cpi",3.59318989114983,0.549450240960603
"CAN",1948,1,1949,4,1.5,"tv_cpi",3.59318989114983,0.818561115865579
"CAN",1948,3,1948,4,0,"tv_cpi",2.54610392783903,1.3869857798281
"CAN",1948,3,1948,4,1,"tv_cpi",2.54610392783903,1.3869857798281
"CAN",1948,3,1949,1,1,"tv_cpi",2.54610392783903,0
"CAN",1948,3,1949,2,1,"tv_cpi",2.54610392783903,0
"CAN",1948,3,1949,3,1,"tv_cpi",2.54610392783903,0.549450240960603
"CAN",1948,3,1949,4,1,"tv_cpi",2.54610392783903,0.818561115865579
"CAN",1949,1,1949,2,0.5,"tv_cpi",0,0
"CAN",1949,1,1949,3,0.5,"tv_cpi",0,0.549450240960603
"CAN",1949,1,1949,4,0.5,"tv_cpi",0,0.818561115865579
"CAN",1949,1,1949,2,1.5,"tv_cpi",0,0
"CAN",1949,1,1949,3,1.5,"tv_cpi",0,0.549450240960603
"CAN",1949,1,1949,4,1.5,"tv_cpi",0,0.818561115865579
"CAN",1949,1,1950,1,1.5,"tv_cpi",0,-0.544958785291794
"CAN",1949,1,1950,2,1.5,"tv_cpi",0,0.816333678581271
"CAN",1949,1,1950,3,1.5,"tv_cpi",0,1.8792491412952
"CAN",1949,1,1950,4,1.5,"tv_cpi",0,2.88358040570076
"CAN",1949,3,1949,4,0,"tv_cpi",0.549450240960603,0.818561115865579
"CAN",1949,3,1949,4,1,"tv_cpi",0.549450240960603,0.818561115865579
"CAN",1949,3,1950,1,1,"tv_cpi",0.549450240960603,-0.544958785291794
"CAN",1949,3,1950,2,1,"tv_cpi",0.549450240960603,0.816333678581271
"CAN",1949,3,1950,3,1,"tv_cpi",0.549450240960603,1.8792491412952
"CAN",1949,3,1950,4,1,"tv_cpi",0.549450240960603,2.88358040570076
"CAN",1950,1,1950,2,0.5,"tv_cpi",-0.544958785291794,0.816333678581271
"CAN",1950,1,1950,3,0.5,"tv_cpi",-0.544958785291794,1.8792491412952
"CAN",1950,1,1950,4,0.5,"tv_cpi",-0.544958785291794,2.88358040570076
"CAN",1950,1,1950,2,1.5,"tv_cpi",-0.544958785291794,0.816333678581271
"CAN",1950,1,1950,3,1.5,"tv_cpi",-0.544958785291794,1.8792491412952
"CAN",1950,1,1950,4,1.5,"tv_cpi",-0.544958785291794,2.88358040570076
"CAN",1950,1,1951,1,1.5,"tv_cpi",-0.544958785291794,2.55110241832952
"CAN",1950,1,1951,2,1.5,"tv_cpi",-0.544958785291794,3.46576691610991
"CAN",1950,1,1951,3,1.5,"tv_cpi",-0.544958785291794,2.16606521235834
"CAN",1950,1,1951,4,1.5,"tv_cpi",-0.544958785291794,1.8869143329785
"CAN",1950,3,1950,4,0,"tv_cpi",1.8792491412952,2.88358040570076
"CAN",1950,3,1950,4,1,"tv_cpi",1.8792491412952,2.88358040570076
"CAN",1950,3,1951,1,1,"tv_cpi",1.8792491412952,2.55110241832952
"CAN",1950,3,1951,2,1,"tv_cpi",1.8792491412952,3.46576691610991
"CAN",1950,3,1951,3,1,"tv_cpi",1.8792491412952,2.16606521235834
"CAN",1950,3,1951,4,1,"tv_cpi",1.8792491412952,1.8869143329785
"CAN",1951,1,1951,2,0.5,"tv_cpi",2.55110241832952,3.46576691610991
"CAN",1951,1,1951,3,0.5,"tv_cpi",2.55110241832952,2.16606521235834
"CAN",1951,1,1951,4,0.5,"tv_cpi",2.55110241832952,1.8869143329785
"CAN",1951,1,1951,2,1.5,"tv_cpi",2.55110241832952,3.46576691610991
"CAN",1951,1,1951,3,1.5,"tv_cpi",2.55110241832952,2.16606521235834
"CAN",1951,1,1951,4,1.5,"tv_cpi",2.55110241832952,1.8869143329785
"CAN",1951,1,1952,1,1.5,"tv_cpi",2.55110241832952,0.233314018497977
"CAN",1951,1,1952,2,1.5,"tv_cpi",2.55110241832952,-1.17232069388553
"CAN",1951,1,1952,3,1.5,"tv_cpi",2.55110241832952,-0.236158316029522
"CAN",1951,1,1952,4,1.5,"tv_cpi",2.55110241832952,0
"CAN",1951,3,1951,4,0,"tv_cpi",2.16606521235834,1.8869143329785
"CAN",1951,3,1951,4,1,"tv_cpi",2.16606521235834,1.8869143329785
"CAN",1951,3,1952,1,1,"tv_cpi",2.16606521235834,0.233314018497977
"CAN",1951,3,1952,2,1,"tv_cpi",2.16606521235834,-1.17232069388553
"CAN",1951,3,1952,3,1,"tv_cpi",2.16606521235834,-0.236158316029522
"CAN",1951,3,1952,4,1,"tv_cpi",2.16606521235834,0
"CAN",1952,1,1952,2,0.5,"tv_cpi",0.233314018497977,-1.17232069388553
"CAN",1952,1,1952,3,0.5,"tv_cpi",0.233314018497977,-0.236158316029522
"CAN",1952,1,1952,4,0.5,"tv_cpi",0.233314018497977,0
"CAN",1952,1,1952,2,1.5,"tv_cpi",0.233314018497977,-1.17232069388553
"CAN",1952,1,1952,3,1.5,"tv_cpi",0.233314018497977,-0.236158316029522
"CAN",1952,1,1952,4,1.5,"tv_cpi",0.233314018497977,0
"CAN",1952,1,1953,1,1.5,"tv_cpi",0.233314018497977,-0.711749341561418
"CAN",1952,1,1953,2,1.5,"tv_cpi",0.233314018497977,-0.716851549438191
"CAN",1952,1,1953,3,1.5,"tv_cpi",0.233314018497977,0.954694712235815
"CAN",1952,1,1953,4,1.5,"tv_cpi",0.233314018497977,0.710064494793317
"CAN",1952,3,1952,4,0,"tv_cpi",-0.236158316029522,0
"CAN",1952,3,1952,4,1,"tv_cpi",-0.236158316029522,0
"CAN",1952,3,1953,1,1,"tv_cpi",-0.236158316029522,-0.711749341561418
"CAN",1952,3,1953,2,1,"tv_cpi",-0.236158316029522,-0.716851549438191
"CAN",1952,3,1953,3,1,"tv_cpi",-0.236158316029522,0.954694712235815
"CAN",1952,3,1953,4,1,"tv_cpi",-0.236158316029522,0.710064494793317
"CAN",1953,1,1953,2,0.5,"tv_cpi",-0.711749341561418,-0.716851549438191
"CAN",1953,1,1953,3,0.5,"tv_cpi",-0.711749341561418,0.954694712235815
"CAN",1953,1,1953,4,0.5,"tv_cpi",-0.711749341561418,0.710064494793317
"CAN",1953,1,1953,2,1.5,"tv_cpi",-0.711749341561418,-0.716851549438191
"CAN",1953,1,1953,3,1.5,"tv_cpi",-0.711749341561418,0.954694712235815
"CAN",1953,1,1953,4,1.5,"tv_cpi",-0.711749341561418,0.710064494793317
"CAN",1953,1,1954,1,1.5,"tv_cpi",-0.711749341561418,-0.472785683690047
"CAN",1953,1,1954,2,1.5,"tv_cpi",-0.711749341561418,-0.23727881110327
"CAN",1953,1,1954,3,1.5,"tv_cpi",-0.711749341561418,0.945666417032776
"CAN",1953,1,1954,4,1.5,"tv_cpi",-0.711749341561418,0
"CAN",1953,3,1953,4,0,"tv_cpi",0.954694712235815,0.710064494793317
"CAN",1953,3,1953,4,1,"tv_cpi",0.954694712235815,0.710064494793317
"CAN",1953,3,1954,1,1,"tv_cpi",0.954694712235815,-0.472785683690047
"CAN",1953,3,1954,2,1,"tv_cpi",0.954694712235815,-0.23727881110327
"CAN",1953,3,1954,3,1,"tv_cpi",0.954694712235815,0.945666417032776
"CAN",1953,3,1954,4,1,"tv_cpi",0.954694712235815,0
"CAN",1954,1,1954,2,0.5,"tv_cpi",-0.472785683690047,-0.23727881110327
"CAN",1954,1,1954,3,0.5,"tv_cpi",-0.472785683690047,0.945666417032776
"CAN",1954,1,1954,4,0.5,"tv_cpi",-0.472785683690047,0
"CAN",1954,1,1954,2,1.5,"tv_cpi",-0.472785683690047,-0.23727881110327
"CAN",1954,1,1954,3,1.5,"tv_cpi",-0.472785683690047,0.945666417032776
"CAN",1954,1,1954,4,1.5,"tv_cpi",-0.472785683690047,0
"CAN",1954,1,1955,1,1.5,"tv_cpi",-0.472785683690047,-0.471760238268981
"CAN",1954,1,1955,2,1.5,"tv_cpi",-0.472785683690047,0
"CAN",1954,1,1955,3,1.5,"tv_cpi",-0.472785683690047,0.236158316029522
"CAN",1954,1,1955,4,1.5,"tv_cpi",-0.472785683690047,0.470560934832509
"CAN",1954,3,1954,4,0,"tv_cpi",0.945666417032776,0
"CAN",1954,3,1954,4,1,"tv_cpi",0.945666417032776,0
"CAN",1954,3,1955,1,1,"tv_cpi",0.945666417032776,-0.471760238268981
"CAN",1954,3,1955,2,1,"tv_cpi",0.945666417032776,0
"CAN",1954,3,1955,3,1,"tv_cpi",0.945666417032776,0.236158316029522
"CAN",1954,3,1955,4,1,"tv_cpi",0.945666417032776,0.470560934832509
"CAN",1955,1,1955,2,0.5,"tv_cpi",-0.471760238268981,0
"CAN",1955,1,1955,3,0.5,"tv_cpi",-0.471760238268981,0.236158316029522
"CAN",1955,1,1955,4,0.5,"tv_cpi",-0.471760238268981,0.470560934832509
"CAN",1955,1,1955,2,1.5,"tv_cpi",-0.471760238268981,0
"CAN",1955,1,1955,3,1.5,"tv_cpi",-0.471760238268981,0.236158316029522
"CAN",1955,1,1955,4,1.5,"tv_cpi",-0.471760238268981,0.470560934832509
"CAN",1955,1,1956,1,1.5,"tv_cpi",-0.471760238268981,-0.470560934832509
"CAN",1955,1,1956,2,1.5,"tv_cpi",-0.471760238268981,0.235601922239459
"CAN",1955,1,1956,3,1.5,"tv_cpi",-0.471760238268981,1.86483217978446
"CAN",1955,1,1956,4,1.5,"tv_cpi",-0.471760238268981,0.919578615012506
"CAN",1955,3,1955,4,0,"tv_cpi",0.236158316029522,0.470560934832509
"CAN",1955,3,1955,4,1,"tv_cpi",0.236158316029522,0.470560934832509
"CAN",1955,3,1956,1,1,"tv_cpi",0.236158316029522,-0.470560934832509
"CAN",1955,3,1956,2,1,"tv_cpi",0.236158316029522,0.235601922239459
"CAN",1955,3,1956,3,1,"tv_cpi",0.236158316029522,1.86483217978446
"CAN",1955,3,1956,4,1,"tv_cpi",0.236158316029522,0.919578615012506
"CAN",1956,1,1956,2,0.5,"tv_cpi",-0.470560934832509,0.235601922239459
"CAN",1956,1,1956,3,0.5,"tv_cpi",-0.470560934832509,1.86483217978446
"CAN",1956,1,1956,4,0.5,"tv_cpi",-0.470560934832509,0.919578615012506
"CAN",1956,1,1956,2,1.5,"tv_cpi",-0.470560934832509,0.235601922239459
"CAN",1956,1,1956,3,1.5,"tv_cpi",-0.470560934832509,1.86483217978446
"CAN",1956,1,1956,4,1.5,"tv_cpi",-0.470560934832509,0.919578615012506
"CAN",1956,1,1957,1,1.5,"tv_cpi",-0.470560934832509,0.228514396337154
"CAN",1956,1,1957,2,1.5,"tv_cpi",-0.470560934832509,0.909128943201409
"CAN",1956,1,1957,3,1.5,"tv_cpi",-0.470560934832509,1.12484646221676
"CAN",1956,1,1957,4,1.5,"tv_cpi",-0.470560934832509,0.446402637773557
"CAN",1956,3,1956,4,0,"tv_cpi",1.86483217978446,0.919578615012506
"CAN",1956,3,1956,4,1,"tv_cpi",1.86483217978446,0.919578615012506
"CAN",1956,3,1957,1,1,"tv_cpi",1.86483217978446,0.228514396337154
"CAN",1956,3,1957,2,1,"tv_cpi",1.86483217978446,0.909128943201409
"CAN",1956,3,1957,3,1,"tv_cpi",1.86483217978446,1.12484646221676
"CAN",1956,3,1957,4,1,"tv_cpi",1.86483217978446,0.446402637773557
"CAN",1957,1,1957,2,0.5,"tv_cpi",0.228514396337154,0.909128943201409
"CAN",1957,1,1957,3,0.5,"tv_cpi",0.228514396337154,1.12484646221676
"CAN",1957,1,1957,4,0.5,"tv_cpi",0.228514396337154,0.446402637773557
"CAN",1957,1,1957,2,1.5,"tv_cpi",0.228514396337154,0.909128943201409
"CAN",1957,1,1957,3,1.5,"tv_cpi",0.228514396337154,1.12484646221676
"CAN",1957,1,1957,4,1.5,"tv_cpi",0.228514396337154,0.446402637773557
"CAN",1957,1,1958,1,1.5,"tv_cpi",0.228514396337154,0.444502928237078
"CAN",1957,1,1958,2,1.5,"tv_cpi",0.228514396337154,0.442452021284723
"CAN",1957,1,1958,3,1.5,"tv_cpi",0.228514396337154,0.440503003675596
"CAN",1957,1,1958,4,1.5,"tv_cpi",0.228514396337154,0.875309836767935
"CAN",1957,3,1957,4,0,"tv_cpi",1.12484646221676,0.446402637773557
"CAN",1957,3,1957,4,1,"tv_cpi",1.12484646221676,0.446402637773557
"CAN",1957,3,1958,1,1,"tv_cpi",1.12484646221676,0.444502928237078
"CAN",1957,3,1958,2,1,"tv_cpi",1.12484646221676,0.442452021284723
"CAN",1957,3,1958,3,1,"tv_cpi",1.12484646221676,0.440503003675596
"CAN",1957,3,1958,4,1,"tv_cpi",1.12484646221676,0.875309836767935
"CAN",1958,1,1958,2,0.5,"tv_cpi",0.444502928237078,0.442452021284723
"CAN",1958,1,1958,3,0.5,"tv_cpi",0.444502928237078,0.440503003675596
"CAN",1958,1,1958,4,0.5,"tv_cpi",0.444502928237078,0.875309836767935
"CAN",1958,1,1958,2,1.5,"tv_cpi",0.444502928237078,0.442452021284723
"CAN",1958,1,1958,3,1.5,"tv_cpi",0.444502928237078,0.440503003675596
"CAN",1958,1,1958,4,1.5,"tv_cpi",0.444502928237078,0.875309836767935
"CAN",1958,1,1959,1,1.5,"tv_cpi",0.444502928237078,-0.218130951759887
"CAN",1958,1,1959,2,1.5,"tv_cpi",0.444502928237078,-0.437611279785477
"CAN",1958,1,1959,3,1.5,"tv_cpi",0.444502928237078,1.09049950588749
"CAN",1958,1,1959,4,1.5,"tv_cpi",0.444502928237078,0.863966547929484
"CAN",1958,3,1958,4,0,"tv_cpi",0.440503003675596,0.875309836767935
"CAN",1958,3,1958,4,1,"tv_cpi",0.440503003675596,0.875309836767935
"CAN",1958,3,1959,1,1,"tv_cpi",0.440503003675596,-0.218130951759887
"CAN",1958,3,1959,2,1,"tv_cpi",0.440503003675596,-0.437611279785477
"CAN",1958,3,1959,3,1,"tv_cpi",0.440503003675596,1.09049950588749
"CAN",1958,3,1959,4,1,"tv_cpi",0.440503003675596,0.863966547929484
"CAN",1959,1,1959,2,0.5,"tv_cpi",-0.218130951759887,-0.437611279785477
"CAN",1959,1,1959,3,0.5,"tv_cpi",-0.218130951759887,1.09049950588749
"CAN",1959,1,1959,4,0.5,"tv_cpi",-0.218130951759887,0.863966547929484
"CAN",1959,1,1959,2,1.5,"tv_cpi",-0.218130951759887,-0.437611279785477
"CAN",1959,1,1959,3,1.5,"tv_cpi",-0.218130951759887,1.09049950588749
"CAN",1959,1,1959,4,1.5,"tv_cpi",-0.218130951759887,0.863966547929484
"CAN",1959,1,1960,1,1.5,"tv_cpi",-0.218130951759887,-0.215313317344057
"CAN",1959,1,1960,2,1.5,"tv_cpi",-0.218130951759887,0.215313317344057
"CAN",1959,1,1960,3,1.5,"tv_cpi",-0.218130951759887,0
"CAN",1959,1,1960,4,1.5,"tv_cpi",-0.218130951759887,1.28207300371712
"CAN",1959,3,1959,4,0,"tv_cpi",1.09049950588749,0.863966547929484
"CAN",1959,3,1959,4,1,"tv_cpi",1.09049950588749,0.863966547929484
"CAN",1959,3,1960,1,1,"tv_cpi",1.09049950588749,-0.215313317344057
"CAN",1959,3,1960,2,1,"tv_cpi",1.09049950588749,0.215313317344057
"CAN",1959,3,1960,3,1,"tv_cpi",1.09049950588749,0
"CAN",1959,3,1960,4,1,"tv_cpi",1.09049950588749,1.28207300371712
"CAN",1960,1,1960,2,0.5,"tv_cpi",-0.215313317344057,0.215313317344057
"CAN",1960,1,1960,3,0.5,"tv_cpi",-0.215313317344057,0
"CAN",1960,1,1960,4,0.5,"tv_cpi",-0.215313317344057,1.28207300371712
"CAN",1960,1,1960,2,1.5,"tv_cpi",-0.215313317344057,0.215313317344057
"CAN",1960,1,1960,3,1.5,"tv_cpi",-0.215313317344057,0
"CAN",1960,1,1960,4,1.5,"tv_cpi",-0.215313317344057,1.28207300371712
"CAN",1960,1,1961,1,1.5,"tv_cpi",-0.215313317344057,0
"CAN",1960,1,1961,2,1.5,"tv_cpi",-0.215313317344057,0
"CAN",1960,1,1961,3,1.5,"tv_cpi",-0.215313317344057,0
"CAN",1960,1,1961,4,1.5,"tv_cpi",-0.215313317344057,0
"CAN",1960,3,1960,4,0,"tv_cpi",0,1.28207300371712
"CAN",1960,3,1960,4,1,"tv_cpi",0,1.28207300371712
"CAN",1960,3,1961,1,1,"tv_cpi",0,0
"CAN",1960,3,1961,2,1,"tv_cpi",0,0
"CAN",1960,3,1961,3,1,"tv_cpi",0,0
"CAN",1960,3,1961,4,1,"tv_cpi",0,0
"CAN",1961,1,1961,2,0.5,"tv_cpi",0,0
"CAN",1961,1,1961,3,0.5,"tv_cpi",0,0
"CAN",1961,1,1961,4,0.5,"tv_cpi",0,0
"CAN",1961,1,1961,2,1.5,"tv_cpi",0,0
"CAN",1961,1,1961,3,1.5,"tv_cpi",0,0
"CAN",1961,1,1961,4,1.5,"tv_cpi",0,0
"CAN",1961,1,1962,1,1.5,"tv_cpi",0,0
"CAN",1961,1,1962,2,1.5,"tv_cpi",0,0.845700362908408
"CAN",1961,1,1962,3,1.5,"tv_cpi",0,0.629594685231627
"CAN",1961,1,1962,4,1.5,"tv_cpi",0,0.417511986589947
"CAN",1961,3,1961,4,0,"tv_cpi",0,0
"CAN",1961,3,1961,4,1,"tv_cpi",0,0
"CAN",1961,3,1962,1,1,"tv_cpi",0,0
"CAN",1961,3,1962,2,1,"tv_cpi",0,0.845700362908408
"CAN",1961,3,1962,3,1,"tv_cpi",0,0.629594685231627
"CAN",1961,3,1962,4,1,"tv_cpi",0,0.417511986589947
"CAN",1962,1,1962,2,0.5,"tv_cpi",0,0.845700362908408
"CAN",1962,1,1962,3,0.5,"tv_cpi",0,0.629594685231627
"CAN",1962,1,1962,4,0.5,"tv_cpi",0,0.417511986589947
"CAN",1962,1,1962,2,1.5,"tv_cpi",0,0.845700362908408
"CAN",1962,1,1962,3,1.5,"tv_cpi",0,0.629594685231627
"CAN",1962,1,1962,4,1.5,"tv_cpi",0,0.417511986589947
"CAN",1962,1,1963,1,1.5,"tv_cpi",0,0
"CAN",1962,1,1963,2,1.5,"tv_cpi",0,0
"CAN",1962,1,1963,3,1.5,"tv_cpi",0,1.44783245519062
"CAN",1962,1,1963,4,1.5,"tv_cpi",0,0.205076991295838
"CAN",1962,3,1962,4,0,"tv_cpi",0.629594685231627,0.417511986589947
"CAN",1962,3,1962,4,1,"tv_cpi",0.629594685231627,0.417511986589947
"CAN",1962,3,1963,1,1,"tv_cpi",0.629594685231627,0
"CAN",1962,3,1963,2,1,"tv_cpi",0.629594685231627,0
"CAN",1962,3,1963,3,1,"tv_cpi",0.629594685231627,1.44783245519062
"CAN",1962,3,1963,4,1,"tv_cpi",0.629594685231627,0.205076991295838
"CAN",1963,1,1963,2,0.5,"tv_cpi",0,0
"CAN",1963,1,1963,3,0.5,"tv_cpi",0,1.44783245519062
"CAN",1963,1,1963,4,0.5,"tv_cpi",0,0.205076991295838
"CAN",1963,1,1963,2,1.5,"tv_cpi",0,0
"CAN",1963,1,1963,3,1.5,"tv_cpi",0,1.44783245519062
"CAN",1963,1,1963,4,1.5,"tv_cpi",0,0.205076991295838
"CAN",1963,1,1964,1,1.5,"tv_cpi",0,0.204734934426165
"CAN",1963,1,1964,2,1.5,"tv_cpi",0,0.611624595603377
"CAN",1963,1,1964,3,1.5,"tv_cpi",0,0.607906478542075
"CAN",1963,1,1964,4,1.5,"tv_cpi",0,0.20176599927848
"CAN",1963,3,1963,4,0,"tv_cpi",1.44783245519062,0.205076991295838
"CAN",1963,3,1963,4,1,"tv_cpi",1.44783245519062,0.205076991295838
"CAN",1963,3,1964,1,1,"tv_cpi",1.44783245519062,0.204734934426165
"CAN",1963,3,1964,2,1,"tv_cpi",1.44783245519062,0.611624595603377
"CAN",1963,3,1964,3,1,"tv_cpi",1.44783245519062,0.607906478542075
"CAN",1963,3,1964,4,1,"tv_cpi",1.44783245519062,0.20176599927848
"CAN",1964,1,1964,2,0.5,"tv_cpi",0.204734934426165,0.611624595603377
"CAN",1964,1,1964,3,0.5,"tv_cpi",0.204734934426165,0.607906478542075
"CAN",1964,1,1964,4,0.5,"tv_cpi",0.204734934426165,0.20176599927848
"CAN",1964,1,1964,2,1.5,"tv_cpi",0.204734934426165,0.611624595603377
"CAN",1964,1,1964,3,1.5,"tv_cpi",0.204734934426165,0.607906478542075
"CAN",1964,1,1964,4,1.5,"tv_cpi",0.204734934426165,0.20176599927848
"CAN",1964,1,1965,1,1.5,"tv_cpi",0.204734934426165,0.402467294680608
"CAN",1964,1,1965,2,1.5,"tv_cpi",0.204734934426165,0.998987176760613
"CAN",1964,1,1965,3,1.5,"tv_cpi",0.204734934426165,0.792110893736009
"CAN",1964,1,1965,4,1.5,"tv_cpi",0.204734934426165,0.589973974871771
"CAN",1964,3,1964,4,0,"tv_cpi",0.607906478542075,0.20176599927848
"CAN",1964,3,1964,4,1,"tv_cpi",0.607906478542075,0.20176599927848
"CAN",1964,3,1965,1,1,"tv_cpi",0.607906478542075,0.402467294680608
"CAN",1964,3,1965,2,1,"tv_cpi",0.607906478542075,0.998987176760613
"CAN",1964,3,1965,3,1,"tv_cpi",0.607906478542075,0.792110893736009
"CAN",1964,3,1965,4,1,"tv_cpi",0.607906478542075,0.589973974871771
"CAN",1965,1,1965,2,0.5,"tv_cpi",0.402467294680608,0.998987176760613
"CAN",1965,1,1965,3,0.5,"tv_cpi",0.402467294680608,0.792110893736009
"CAN",1965,1,1965,4,0.5,"tv_cpi",0.402467294680608,0.589973974871771
"CAN",1965,1,1965,2,1.5,"tv_cpi",0.402467294680608,0.998987176760613
"CAN",1965,1,1965,3,1.5,"tv_cpi",0.402467294680608,0.792110893736009
"CAN",1965,1,1965,4,1.5,"tv_cpi",0.402467294680608,0.589973974871771
"CAN",1965,1,1966,1,1.5,"tv_cpi",0.402467294680608,1.16960743915446
"CAN",1965,1,1966,2,1.5,"tv_cpi",0.402467294680608,1.34742539763972
"CAN",1965,1,1966,3,1.5,"tv_cpi",0.402467294680608,0.761935035640349
"CAN",1965,1,1966,4,1.5,"tv_cpi",0.402467294680608,0.378765586440188
"CAN",1965,3,1965,4,0,"tv_cpi",0.792110893736009,0.589973974871771
"CAN",1965,3,1965,4,1,"tv_cpi",0.792110893736009,0.589973974871771
"CAN",1965,3,1966,1,1,"tv_cpi",0.792110893736009,1.16960743915446
"CAN",1965,3,1966,2,1,"tv_cpi",0.792110893736009,1.34742539763972
"CAN",1965,3,1966,3,1,"tv_cpi",0.792110893736009,0.761935035640349
"CAN",1965,3,1966,4,1,"tv_cpi",0.792110893736009,0.378765586440188
"CAN",1966,1,1966,2,0.5,"tv_cpi",1.16960743915446,1.34742539763972
"CAN",1966,1,1966,3,0.5,"tv_cpi",1.16960743915446,0.761935035640349
"CAN",1966,1,1966,4,0.5,"tv_cpi",1.16960743915446,0.378765586440188
"CAN",1966,1,1966,2,1.5,"tv_cpi",1.16960743915446,1.34742539763972
"CAN",1966,1,1966,3,1.5,"tv_cpi",1.16960743915446,0.761935035640349
"CAN",1966,1,1966,4,1.5,"tv_cpi",1.16960743915446,0.378765586440188
"CAN",1966,1,1967,1,1.5,"tv_cpi",1.16960743915446,0.56550763720149
"CAN",1966,1,1967,2,1.5,"tv_cpi",1.16960743915446,1.4925465177654
"CAN",1966,1,1967,3,1.5,"tv_cpi",1.16960743915446,1.4706660636532
"CAN",1966,1,1967,4,1.5,"tv_cpi",1.16960743915446,0.364277207547525
"CAN",1966,3,1966,4,0,"tv_cpi",0.761935035640349,0.378765586440188
"CAN",1966,3,1966,4,1,"tv_cpi",0.761935035640349,0.378765586440188
"CAN",1966,3,1967,1,1,"tv_cpi",0.761935035640349,0.56550763720149
"CAN",1966,3,1967,2,1,"tv_cpi",0.761935035640349,1.4925465177654
"CAN",1966,3,1967,3,1,"tv_cpi",0.761935035640349,1.4706660636532
"CAN",1966,3,1967,4,1,"tv_cpi",0.761935035640349,0.364277207547525
"CAN",1967,1,1967,2,0.5,"tv_cpi",0.56550763720149,1.4925465177654
"CAN",1967,1,1967,3,0.5,"tv_cpi",0.56550763720149,1.4706660636532
"CAN",1967,1,1967,4,0.5,"tv_cpi",0.56550763720149,0.364277207547525
"CAN",1967,1,1967,2,1.5,"tv_cpi",0.56550763720149,1.4925465177654
"CAN",1967,1,1967,3,1.5,"tv_cpi",0.56550763720149,1.4706660636532
"CAN",1967,1,1967,4,1.5,"tv_cpi",0.56550763720149,0.364277207547525
"CAN",1967,1,1968,1,1.5,"tv_cpi",0.56550763720149,1.08500507905789
"CAN",1967,1,1968,2,1.5,"tv_cpi",0.56550763720149,0.538119600789955
"CAN",1967,1,1968,3,1.5,"tv_cpi",0.56550763720149,1.77305718058687
"CAN",1967,1,1968,4,1.5,"tv_cpi",0.56550763720149,0.874943419379193
"CAN",1967,3,1967,4,0,"tv_cpi",1.4706660636532,0.364277207547525
"CAN",1967,3,1967,4,1,"tv_cpi",1.4706660636532,0.364277207547525
"CAN",1967,3,1968,1,1,"tv_cpi",1.4706660636532,1.08500507905789
"CAN",1967,3,1968,2,1,"tv_cpi",1.4706660636532,0.538119600789955
"CAN",1967,3,1968,3,1,"tv_cpi",1.4706660636532,1.77305718058687
"CAN",1967,3,1968,4,1,"tv_cpi",1.4706660636532,0.874943419379193
"CAN",1968,1,1968,2,0.5,"tv_cpi",1.08500507905789,0.538119600789955
"CAN",1968,1,1968,3,0.5,"tv_cpi",1.08500507905789,1.77305718058687
"CAN",1968,1,1968,4,0.5,"tv_cpi",1.08500507905789,0.874943419379193
"CAN",1968,1,1968,2,1.5,"tv_cpi",1.08500507905789,0.538119600789955
"CAN",1968,1,1968,3,1.5,"tv_cpi",1.08500507905789,1.77305718058687
"CAN",1968,1,1968,4,1.5,"tv_cpi",1.08500507905789,0.874943419379193
"CAN",1968,1,1969,1,1.5,"tv_cpi",1.08500507905789,0.521288623874838
"CAN",1968,1,1969,2,1.5,"tv_cpi",1.08500507905789,2.0583979709349
"CAN",1968,1,1969,3,1.5,"tv_cpi",1.08500507905789,1.18140940266898
"CAN",1968,1,1969,4,1.5,"tv_cpi",1.08500507905789,0.502094806727849
"CAN",1968,3,1968,4,0,"tv_cpi",1.77305718058687,0.874943419379193
"CAN",1968,3,1968,4,1,"tv_cpi",1.77305718058687,0.874943419379193
"CAN",1968,3,1969,1,1,"tv_cpi",1.77305718058687,0.521288623874838
"CAN",1968,3,1969,2,1,"tv_cpi",1.77305718058687,2.0583979709349
"CAN",1968,3,1969,3,1,"tv_cpi",1.77305718058687,1.18140940266898
"CAN",1968,3,1969,4,1,"tv_cpi",1.77305718058687,0.502094806727849
"CAN",1969,1,1969,2,0.5,"tv_cpi",0.521288623874838,2.0583979709349
"CAN",1969,1,1969,3,0.5,"tv_cpi",0.521288623874838,1.18140940266898
"CAN",1969,1,1969,4,0.5,"tv_cpi",0.521288623874838,0.502094806727849
"CAN",1969,1,1969,2,1.5,"tv_cpi",0.521288623874838,2.0583979709349
"CAN",1969,1,1969,3,1.5,"tv_cpi",0.521288623874838,1.18140940266898
"CAN",1969,1,1969,4,1.5,"tv_cpi",0.521288623874838,0.502094806727849
"CAN",1969,1,1970,1,1.5,"tv_cpi",0.521288623874838,1.16186358612742
"CAN",1969,1,1970,2,1.5,"tv_cpi",0.521288623874838,0.493829707328164
"CAN",1969,1,1970,3,1.5,"tv_cpi",0.521288623874838,0.817647968865298
"CAN",1969,1,1970,4,1.5,"tv_cpi",0.521288623874838,-0.489798516943107
"CAN",1969,3,1969,4,0,"tv_cpi",1.18140940266898,0.502094806727849
"CAN",1969,3,1969,4,1,"tv_cpi",1.18140940266898,0.502094806727849
"CAN",1969,3,1970,1,1,"tv_cpi",1.18140940266898,1.16186358612742
"CAN",1969,3,1970,2,1,"tv_cpi",1.18140940266898,0.493829707328164
"CAN",1969,3,1970,3,1,"tv_cpi",1.18140940266898,0.817647968865298
"CAN",1969,3,1970,4,1,"tv_cpi",1.18140940266898,-0.489798516943107
"CAN",1970,1,1970,2,0.5,"tv_cpi",1.16186358612742,0.493829707328164
"CAN",1970,1,1970,3,0.5,"tv_cpi",1.16186358612742,0.817647968865298
"CAN",1970,1,1970,4,0.5,"tv_cpi",1.16186358612742,-0.489798516943107
"CAN",1970,1,1970,2,1.5,"tv_cpi",1.16186358612742,0.493829707328164
"CAN",1970,1,1970,3,1.5,"tv_cpi",1.16186358612742,0.817647968865298
"CAN",1970,1,1970,4,1.5,"tv_cpi",1.16186358612742,-0.489798516943107
"CAN",1970,1,1971,1,1.5,"tv_cpi",1.16186358612742,0.489798516943107
"CAN",1970,1,1971,2,1.5,"tv_cpi",1.16186358612742,1.29450035286163
"CAN",1970,1,1971,3,1.5,"tv_cpi",1.16186358612742,1.75307894124619
"CAN",1970,1,1971,4,1.5,"tv_cpi",1.16186358612742,0.629885487777981
"CAN",1970,3,1970,4,0,"tv_cpi",0.817647968865298,-0.489798516943107
"CAN",1970,3,1970,4,1,"tv_cpi",0.817647968865298,-0.489798516943107
"CAN",1970,3,1971,1,1,"tv_cpi",0.817647968865298,0.489798516943107
"CAN",1970,3,1971,2,1,"tv_cpi",0.817647968865298,1.29450035286163
"CAN",1970,3,1971,3,1,"tv_cpi",0.817647968865298,1.75307894124619
"CAN",1970,3,1971,4,1,"tv_cpi",0.817647968865298,0.629885487777981
"CAN",1971,1,1971,2,0.5,"tv_cpi",0.489798516943107,1.29450035286163
"CAN",1971,1,1971,3,0.5,"tv_cpi",0.489798516943107,1.75307894124619
"CAN",1971,1,1971,4,0.5,"tv_cpi",0.489798516943107,0.629885487777981
"CAN",1971,1,1971,2,1.5,"tv_cpi",0.489798516943107,1.29450035286163
"CAN",1971,1,1971,3,1.5,"tv_cpi",0.489798516943107,1.75307894124619
"CAN",1971,1,1971,4,1.5,"tv_cpi",0.489798516943107,0.629885487777981
"CAN",1971,1,1972,1,1.5,"tv_cpi",0.489798516943107,1.24805068908862
"CAN",1971,1,1972,2,1.5,"tv_cpi",0.489798516943107,0.925935796665911
"CAN",1971,1,1972,3,1.5,"tv_cpi",0.489798516943107,2.12778527734403
"CAN",1971,1,1972,4,1.5,"tv_cpi",0.489798516943107,0.749050554917297
"CAN",1971,3,1971,4,0,"tv_cpi",1.75307894124619,0.629885487777981
"CAN",1971,3,1971,4,1,"tv_cpi",1.75307894124619,0.629885487777981
"CAN",1971,3,1972,1,1,"tv_cpi",1.75307894124619,1.24805068908862
"CAN",1971,3,1972,2,1,"tv_cpi",1.75307894124619,0.925935796665911
"CAN",1971,3,1972,3,1,"tv_cpi",1.75307894124619,2.12778527734403
"CAN",1971,3,1972,4,1,"tv_cpi",1.75307894124619,0.749050554917297
"CAN",1972,1,1972,2,0.5,"tv_cpi",1.24805068908862,0.925935796665911
"CAN",1972,1,1972,3,0.5,"tv_cpi",1.24805068908862,2.12778527734403
"CAN",1972,1,1972,4,0.5,"tv_cpi",1.24805068908862,0.749050554917297
"CAN",1972,1,1972,2,1.5,"tv_cpi",1.24805068908862,0.925935796665911
"CAN",1972,1,1972,3,1.5,"tv_cpi",1.24805068908862,2.12778527734403
"CAN",1972,1,1972,4,1.5,"tv_cpi",1.24805068908862,0.749050554917297
"CAN",1972,1,1973,1,1.5,"tv_cpi",1.24805068908862,1.77520019638968
"CAN",1972,1,1973,2,1.5,"tv_cpi",1.24805068908862,2.17558208127699
"CAN",1972,1,1973,3,1.5,"tv_cpi",1.24805068908862,2.96842485757458
"CAN",1972,1,1973,4,1.5,"tv_cpi",1.24805068908862,1.79435977109055
"CAN",1972,3,1972,4,0,"tv_cpi",2.12778527734403,0.749050554917297
"CAN",1972,3,1972,4,1,"tv_cpi",2.12778527734403,0.749050554917297
"CAN",1972,3,1973,1,1,"tv_cpi",2.12778527734403,1.77520019638968
"CAN",1972,3,1973,2,1,"tv_cpi",2.12778527734403,2.17558208127699
"CAN",1972,3,1973,3,1,"tv_cpi",2.12778527734403,2.96842485757458
"CAN",1972,3,1973,4,1,"tv_cpi",2.12778527734403,1.79435977109055
"CAN",1973,1,1973,2,0.5,"tv_cpi",1.77520019638968,2.17558208127699
"CAN",1973,1,1973,3,0.5,"tv_cpi",1.77520019638968,2.96842485757458
"CAN",1973,1,1973,4,0.5,"tv_cpi",1.77520019638968,1.79435977109055
"CAN",1973,1,1973,2,1.5,"tv_cpi",1.77520019638968,2.17558208127699
"CAN",1973,1,1973,3,1.5,"tv_cpi",1.77520019638968,2.96842485757458
"CAN",1973,1,1973,4,1.5,"tv_cpi",1.77520019638968,1.79435977109055
"CAN",1973,1,1974,1,1.5,"tv_cpi",1.77520019638968,2.29894237836987
"CAN",1973,1,1974,2,1.5,"tv_cpi",1.77520019638968,3.41688457713851
"CAN",1973,1,1974,3,1.5,"tv_cpi",1.77520019638968,2.92832219067054
"CAN",1973,1,1974,4,1.5,"tv_cpi",1.77520019638968,2.84495917493341
"CAN",1973,3,1973,4,0,"tv_cpi",2.96842485757458,1.79435977109055
"CAN",1973,3,1973,4,1,"tv_cpi",2.96842485757458,1.79435977109055
"CAN",1973,3,1974,1,1,"tv_cpi",2.96842485757458,2.29894237836987
"CAN",1973,3,1974,2,1,"tv_cpi",2.96842485757458,3.41688457713851
"CAN",1973,3,1974,3,1,"tv_cpi",2.96842485757458,2.92832219067054
"CAN",1973,3,1974,4,1,"tv_cpi",2.96842485757458,2.84495917493341
"CAN",1974,1,1974,2,0.5,"tv_cpi",2.29894237836987,3.41688457713851
"CAN",1974,1,1974,3,0.5,"tv_cpi",2.29894237836987,2.92832219067054
"CAN",1974,1,1974,4,0.5,"tv_cpi",2.29894237836987,2.84495917493341
"CAN",1974,1,1974,2,1.5,"tv_cpi",2.29894237836987,3.41688457713851
"CAN",1974,1,1974,3,1.5,"tv_cpi",2.29894237836987,2.92832219067054
"CAN",1974,1,1974,4,1.5,"tv_cpi",2.29894237836987,2.84495917493341
"CAN",1974,1,1975,1,1.5,"tv_cpi",2.29894237836987,1.81269853169406
"CAN",1974,1,1975,2,1.5,"tv_cpi",2.29894237836987,2.3670121698423
"CAN",1974,1,1975,3,1.5,"tv_cpi",2.29894237836987,3.22235435686844
"CAN",1974,1,1975,4,1.5,"tv_cpi",2.29894237836987,2.01801228662699
"CAN",1974,3,1974,4,0,"tv_cpi",2.92832219067054,2.84495917493341
"CAN",1974,3,1974,4,1,"tv_cpi",2.92832219067054,2.84495917493341
"CAN",1974,3,1975,1,1,"tv_cpi",2.92832219067054,1.81269853169406
"CAN",1974,3,1975,2,1,"tv_cpi",2.92832219067054,2.3670121698423
"CAN",1974,3,1975,3,1,"tv_cpi",2.92832219067054,3.22235435686844
"CAN",1974,3,1975,4,1,"tv_cpi",2.92832219067054,2.01801228662699
"CAN",1975,1,1975,2,0.5,"tv_cpi",1.81269853169406,2.3670121698423
"CAN",1975,1,1975,3,0.5,"tv_cpi",1.81269853169406,3.22235435686844
"CAN",1975,1,1975,4,0.5,"tv_cpi",1.81269853169406,2.01801228662699
"CAN",1975,1,1975,2,1.5,"tv_cpi",1.81269853169406,2.3670121698423
"CAN",1975,1,1975,3,1.5,"tv_cpi",1.81269853169406,3.22235435686844
"CAN",1975,1,1975,4,1.5,"tv_cpi",1.81269853169406,2.01801228662699
"CAN",1975,1,1976,1,1.5,"tv_cpi",1.81269853169406,1.43254982749603
"CAN",1975,1,1976,2,1.5,"tv_cpi",1.81269853169406,1.41227637672539
"CAN",1975,1,1976,3,1.5,"tv_cpi",1.81269853169406,1.49894882688582
"CAN",1975,1,1976,4,1.5,"tv_cpi",1.81269853169406,1.3720710353391
"CAN",1975,3,1975,4,0,"tv_cpi",3.22235435686844,2.01801228662699
"CAN",1975,3,1975,4,1,"tv_cpi",3.22235435686844,2.01801228662699
"CAN",1975,3,1976,1,1,"tv_cpi",3.22235435686844,1.43254982749603
"CAN",1975,3,1976,2,1,"tv_cpi",3.22235435686844,1.41227637672539
"CAN",1975,3,1976,3,1,"tv_cpi",3.22235435686844,1.49894882688582
"CAN",1975,3,1976,4,1,"tv_cpi",3.22235435686844,1.3720710353391
"CAN",1976,1,1976,2,0.5,"tv_cpi",1.43254982749603,1.41227637672539
"CAN",1976,1,1976,3,0.5,"tv_cpi",1.43254982749603,1.49894882688582
"CAN",1976,1,1976,4,0.5,"tv_cpi",1.43254982749603,1.3720710353391
"CAN",1976,1,1976,2,1.5,"tv_cpi",1.43254982749603,1.41227637672539
"CAN",1976,1,1976,3,1.5,"tv_cpi",1.43254982749603,1.49894882688582
"CAN",1976,1,1976,4,1.5,"tv_cpi",1.43254982749603,1.3720710353391
"CAN",1976,1,1977,1,1.5,"tv_cpi",1.43254982749603,2.07475676302611
"CAN",1976,1,1977,2,1.5,"tv_cpi",1.43254982749603,2.5343682996434
"CAN",1976,1,1977,3,1.5,"tv_cpi",1.43254982749603,2.0802817976298
"CAN",1976,1,1977,4,1.5,"tv_cpi",1.43254982749603,2.03792299218417
"CAN",1976,3,1976,4,0,"tv_cpi",1.49894882688582,1.3720710353391
"CAN",1976,3,1976,4,1,"tv_cpi",1.49894882688582,1.3720710353391
"CAN",1976,3,1977,1,1,"tv_cpi",1.49894882688582,2.07475676302611
"CAN",1976,3,1977,2,1,"tv_cpi",1.49894882688582,2.5343682996434
"CAN",1976,3,1977,3,1,"tv_cpi",1.49894882688582,2.0802817976298
"CAN",1976,3,1977,4,1,"tv_cpi",1.49894882688582,2.03792299218417
"CAN",1977,1,1977,2,0.5,"tv_cpi",2.07475676302611,2.5343682996434
"CAN",1977,1,1977,3,0.5,"tv_cpi",2.07475676302611,2.0802817976298
"CAN",1977,1,1977,4,0.5,"tv_cpi",2.07475676302611,2.03792299218417
"CAN",1977,1,1977,2,1.5,"tv_cpi",2.07475676302611,2.5343682996434
"CAN",1977,1,1977,3,1.5,"tv_cpi",2.07475676302611,2.0802817976298
"CAN",1977,1,1977,4,1.5,"tv_cpi",2.07475676302611,2.03792299218417
"CAN",1977,1,1978,1,1.5,"tv_cpi",2.07475676302611,1.99721980992398
"CAN",1977,1,1978,2,1.5,"tv_cpi",2.07475676302611,2.3267526452325
"CAN",1977,1,1978,3,1.5,"tv_cpi",2.07475676302611,2.45356152061698
"CAN",1977,1,1978,4,1.5,"tv_cpi",2.07475676302611,1.69120075030964
"CAN",1977,3,1977,4,0,"tv_cpi",2.0802817976298,2.03792299218417
"CAN",1977,3,1977,4,1,"tv_cpi",2.0802817976298,2.03792299218417
"CAN",1977,3,1978,1,1,"tv_cpi",2.0802817976298,1.99721980992398
"CAN",1977,3,1978,2,1,"tv_cpi",2.0802817976298,2.3267526452325
"CAN",1977,3,1978,3,1,"tv_cpi",2.0802817976298,2.45356152061698
"CAN",1977,3,1978,4,1,"tv_cpi",2.0802817976298,1.69120075030964
"CAN",1978,1,1978,2,0.5,"tv_cpi",1.99721980992398,2.3267526452325
"CAN",1978,1,1978,3,0.5,"tv_cpi",1.99721980992398,2.45356152061698
"CAN",1978,1,1978,4,0.5,"tv_cpi",1.99721980992398,1.69120075030964
"CAN",1978,1,1978,2,1.5,"tv_cpi",1.99721980992398,2.3267526452325
"CAN",1978,1,1978,3,1.5,"tv_cpi",1.99721980992398,2.45356152061698
"CAN",1978,1,1978,4,1.5,"tv_cpi",1.99721980992398,1.69120075030964
"CAN",1978,1,1979,1,1.5,"tv_cpi",1.99721980992398,2.09612028715123
"CAN",1978,1,1979,2,1.5,"tv_cpi",1.99721980992398,2.72824736605242
"CAN",1978,1,1979,3,1.5,"tv_cpi",1.99721980992398,1.91592240920695
"CAN",1978,1,1979,4,1.5,"tv_cpi",1.99721980992398,2.28393585715518
"CAN",1978,3,1978,4,0,"tv_cpi",2.45356152061698,1.69120075030964
"CAN",1978,3,1978,4,1,"tv_cpi",2.45356152061698,1.69120075030964
"CAN",1978,3,1979,1,1,"tv_cpi",2.45356152061698,2.09612028715123
"CAN",1978,3,1979,2,1,"tv_cpi",2.45356152061698,2.72824736605242
"CAN",1978,3,1979,3,1,"tv_cpi",2.45356152061698,1.91592240920695
"CAN",1978,3,1979,4,1,"tv_cpi",2.45356152061698,2.28393585715518
"CAN",1979,1,1979,2,0.5,"tv_cpi",2.09612028715123,2.72824736605242
"CAN",1979,1,1979,3,0.5,"tv_cpi",2.09612028715123,1.91592240920695
"CAN",1979,1,1979,4,0.5,"tv_cpi",2.09612028715123,2.28393585715518
"CAN",1979,1,1979,2,1.5,"tv_cpi",2.09612028715123,2.72824736605242
"CAN",1979,1,1979,3,1.5,"tv_cpi",2.09612028715123,1.91592240920695
"CAN",1979,1,1979,4,1.5,"tv_cpi",2.09612028715123,2.28393585715518
"CAN",1979,1,1980,1,1.5,"tv_cpi",2.09612028715123,2.15405913261506
"CAN",1979,1,1980,2,1.5,"tv_cpi",2.09612028715123,2.72496311689348
"CAN",1979,1,1980,3,1.5,"tv_cpi",2.09612028715123,2.80214225188988
"CAN",1979,1,1980,4,1.5,"tv_cpi",2.09612028715123,2.72578537427455
"CAN",1979,3,1979,4,0,"tv_cpi",1.91592240920695,2.28393585715518
"CAN",1979,3,1979,4,1,"tv_cpi",1.91592240920695,2.28393585715518
"CAN",1979,3,1980,1,1,"tv_cpi",1.91592240920695,2.15405913261506
"CAN",1979,3,1980,2,1,"tv_cpi",1.91592240920695,2.72496311689348
"CAN",1979,3,1980,3,1,"tv_cpi",1.91592240920695,2.80214225188988
"CAN",1979,3,1980,4,1,"tv_cpi",1.91592240920695,2.72578537427455
"CAN",1980,1,1980,2,0.5,"tv_cpi",2.15405913261506,2.72496311689348
"CAN",1980,1,1980,3,0.5,"tv_cpi",2.15405913261506,2.80214225188988
"CAN",1980,1,1980,4,0.5,"tv_cpi",2.15405913261506,2.72578537427455
"CAN",1980,1,1980,2,1.5,"tv_cpi",2.15405913261506,2.72496311689348
"CAN",1980,1,1980,3,1.5,"tv_cpi",2.15405913261506,2.80214225188988
"CAN",1980,1,1980,4,1.5,"tv_cpi",2.15405913261506,2.72578537427455
"CAN",1980,1,1981,1,1.5,"tv_cpi",2.15405913261506,3.35865939464655
"CAN",1980,1,1981,2,1.5,"tv_cpi",2.15405913261506,2.90877534275418
"CAN",1980,1,1981,3,1.5,"tv_cpi",2.15405913261506,2.95919491678953
"CAN",1980,1,1981,4,1.5,"tv_cpi",2.15405913261506,2.42236849316555
"CAN",1980,3,1980,4,0,"tv_cpi",2.80214225188988,2.72578537427455
"CAN",1980,3,1980,4,1,"tv_cpi",2.80214225188988,2.72578537427455
"CAN",1980,3,1981,1,1,"tv_cpi",2.80214225188988,3.35865939464655
"CAN",1980,3,1981,2,1,"tv_cpi",2.80214225188988,2.90877534275418
"CAN",1980,3,1981,3,1,"tv_cpi",2.80214225188988,2.95919491678953
"CAN",1980,3,1981,4,1,"tv_cpi",2.80214225188988,2.42236849316555
"CAN",1981,1,1981,2,0.5,"tv_cpi",3.35865939464655,2.90877534275418
"CAN",1981,1,1981,3,0.5,"tv_cpi",3.35865939464655,2.95919491678953
"CAN",1981,1,1981,4,0.5,"tv_cpi",3.35865939464655,2.42236849316555
"CAN",1981,1,1981,2,1.5,"tv_cpi",3.35865939464655,2.90877534275418
"CAN",1981,1,1981,3,1.5,"tv_cpi",3.35865939464655,2.95919491678953
"CAN",1981,1,1981,4,1.5,"tv_cpi",3.35865939464655,2.42236849316555
"CAN",1981,1,1982,1,1.5,"tv_cpi",3.35865939464655,2.49135397543214
"CAN",1981,1,1982,2,1.5,"tv_cpi",3.35865939464655,3.0446532371057
"CAN",1981,1,1982,3,1.5,"tv_cpi",3.35865939464655,2.1193642255005
"CAN",1981,1,1982,4,1.5,"tv_cpi",3.35865939464655,1.54582966761603
"CAN",1981,3,1981,4,0,"tv_cpi",2.95919491678953,2.42236849316555
"CAN",1981,3,1981,4,1,"tv_cpi",2.95919491678953,2.42236849316555
"CAN",1981,3,1982,1,1,"tv_cpi",2.95919491678953,2.49135397543214
"CAN",1981,3,1982,2,1,"tv_cpi",2.95919491678953,3.0446532371057
"CAN",1981,3,1982,3,1,"tv_cpi",2.95919491678953,2.1193642255005
"CAN",1981,3,1982,4,1,"tv_cpi",2.95919491678953,1.54582966761603
"CAN",1982,1,1982,2,0.5,"tv_cpi",2.49135397543214,3.0446532371057
"CAN",1982,1,1982,3,0.5,"tv_cpi",2.49135397543214,2.1193642255005
"CAN",1982,1,1982,4,0.5,"tv_cpi",2.49135397543214,1.54582966761603
"CAN",1982,1,1982,2,1.5,"tv_cpi",2.49135397543214,3.0446532371057
"CAN",1982,1,1982,3,1.5,"tv_cpi",2.49135397543214,2.1193642255005
"CAN",1982,1,1982,4,1.5,"tv_cpi",2.49135397543214,1.54582966761603
"CAN",1982,1,1983,1,1.5,"tv_cpi",2.49135397543214,0.705450258972062
"CAN",1982,1,1983,2,1.5,"tv_cpi",2.49135397543214,1.33841553760603
"CAN",1982,1,1983,3,1.5,"tv_cpi",2.49135397543214,1.6055296868895
"CAN",1982,1,1983,4,1.5,"tv_cpi",2.49135397543214,0.906018518969942
"CAN",1982,3,1982,4,0,"tv_cpi",2.1193642255005,1.54582966761603
"CAN",1982,3,1982,4,1,"tv_cpi",2.1193642255005,1.54582966761603
"CAN",1982,3,1983,1,1,"tv_cpi",2.1193642255005,0.705450258972062
"CAN",1982,3,1983,2,1,"tv_cpi",2.1193642255005,1.33841553760603
"CAN",1982,3,1983,3,1,"tv_cpi",2.1193642255005,1.6055296868895
"CAN",1982,3,1983,4,1,"tv_cpi",2.1193642255005,0.906018518969942
"CAN",1983,1,1983,2,0.5,"tv_cpi",0.705450258972062,1.33841553760603
"CAN",1983,1,1983,3,0.5,"tv_cpi",0.705450258972062,1.6055296868895
"CAN",1983,1,1983,4,0.5,"tv_cpi",0.705450258972062,0.906018518969942
"CAN",1983,1,1983,2,1.5,"tv_cpi",0.705450258972062,1.33841553760603
"CAN",1983,1,1983,3,1.5,"tv_cpi",0.705450258972062,1.6055296868895
"CAN",1983,1,1983,4,1.5,"tv_cpi",0.705450258972062,0.906018518969942
"CAN",1983,1,1984,1,1.5,"tv_cpi",0.705450258972062,1.17679632467897
"CAN",1983,1,1984,2,1.5,"tv_cpi",0.705450258972062,0.832185080159764
"CAN",1983,1,1984,3,1.5,"tv_cpi",0.705450258972062,0.825316876936055
"CAN",1983,1,1984,4,1.5,"tv_cpi",0.705450258972062,0.764191457831176
"CAN",1983,3,1983,4,0,"tv_cpi",1.6055296868895,0.906018518969942
"CAN",1983,3,1983,4,1,"tv_cpi",1.6055296868895,0.906018518969942
"CAN",1983,3,1984,1,1,"tv_cpi",1.6055296868895,1.17679632467897
"CAN",1983,3,1984,2,1,"tv_cpi",1.6055296868895,0.832185080159764
"CAN",1983,3,1984,3,1,"tv_cpi",1.6055296868895,0.825316876936055
"CAN",1983,3,1984,4,1,"tv_cpi",1.6055296868895,0.764191457831176
"CAN",1984,1,1984,2,0.5,"tv_cpi",1.17679632467897,0.832185080159764
"CAN",1984,1,1984,3,0.5,"tv_cpi",1.17679632467897,0.825316876936055
"CAN",1984,1,1984,4,0.5,"tv_cpi",1.17679632467897,0.764191457831176
"CAN",1984,1,1984,2,1.5,"tv_cpi",1.17679632467897,0.832185080159764
"CAN",1984,1,1984,3,1.5,"tv_cpi",1.17679632467897,0.825316876936055
"CAN",1984,1,1984,4,1.5,"tv_cpi",1.17679632467897,0.764191457831176
"CAN",1984,1,1985,1,1.5,"tv_cpi",1.17679632467897,1.13545794008982
"CAN",1984,1,1985,2,1.5,"tv_cpi",1.17679632467897,1.17584571170664
"CAN",1984,1,1985,3,1.5,"tv_cpi",1.17679632467897,0.951907670712382
"CAN",1984,1,1985,4,1.5,"tv_cpi",1.17679632467897,0.786376098391628
"CAN",1984,3,1984,4,0,"tv_cpi",0.825316876936055,0.764191457831176
"CAN",1984,3,1984,4,1,"tv_cpi",0.825316876936055,0.764191457831176
"CAN",1984,3,1985,1,1,"tv_cpi",0.825316876936055,1.13545794008982
"CAN",1984,3,1985,2,1,"tv_cpi",0.825316876936055,1.17584571170664
"CAN",1984,3,1985,3,1,"tv_cpi",0.825316876936055,0.951907670712382
"CAN",1984,3,1985,4,1,"tv_cpi",0.825316876936055,0.786376098391628
"CAN",1985,1,1985,2,0.5,"tv_cpi",1.13545794008982,1.17584571170664
"CAN",1985,1,1985,3,0.5,"tv_cpi",1.13545794008982,0.951907670712382
"CAN",1985,1,1985,4,0.5,"tv_cpi",1.13545794008982,0.786376098391628
"CAN",1985,1,1985,2,1.5,"tv_cpi",1.13545794008982,1.17584571170664
"CAN",1985,1,1985,3,1.5,"tv_cpi",1.13545794008982,0.951907670712382
"CAN",1985,1,1985,4,1.5,"tv_cpi",1.13545794008982,0.786376098391628
"CAN",1985,1,1986,1,1.5,"tv_cpi",1.13545794008982,1.29702599916377
"CAN",1985,1,1986,2,1.5,"tv_cpi",1.13545794008982,0.821349527320425
"CAN",1985,1,1986,3,1.5,"tv_cpi",1.13545794008982,1.16900694062392
"CAN",1985,1,1986,4,1.5,"tv_cpi",1.13545794008982,1.00555488009815
"CAN",1985,3,1985,4,0,"tv_cpi",0.951907670712382,0.786376098391628
"CAN",1985,3,1985,4,1,"tv_cpi",0.951907670712382,0.786376098391628
"CAN",1985,3,1986,1,1,"tv_cpi",0.951907670712382,1.29702599916377
"CAN",1985,3,1986,2,1,"tv_cpi",0.951907670712382,0.821349527320425
"CAN",1985,3,1986,3,1,"tv_cpi",0.951907670712382,1.16900694062392
"CAN",1985,3,1986,4,1,"tv_cpi",0.951907670712382,1.00555488009815
"CAN",1986,1,1986,2,0.5,"tv_cpi",1.29702599916377,0.821349527320425
"CAN",1986,1,1986,3,0.5,"tv_cpi",1.29702599916377,1.16900694062392
"CAN",1986,1,1986,4,0.5,"tv_cpi",1.29702599916377,1.00555488009815
"CAN",1986,1,1986,2,1.5,"tv_cpi",1.29702599916377,0.821349527320425
"CAN",1986,1,1986,3,1.5,"tv_cpi",1.29702599916377,1.16900694062392
"CAN",1986,1,1986,4,1.5,"tv_cpi",1.29702599916377,1.00555488009815
"CAN",1986,1,1987,1,1.5,"tv_cpi",1.29702599916377,0.945977078179228
"CAN",1986,1,1987,2,1.5,"tv_cpi",1.29702599916377,1.42683691216376
"CAN",1986,1,1987,3,1.5,"tv_cpi",1.29702599916377,1.06901881020494
"CAN",1986,1,1987,4,1.5,"tv_cpi",1.29702599916377,0.674372413337654
"CAN",1986,3,1986,4,0,"tv_cpi",1.16900694062392,1.00555488009815
"CAN",1986,3,1986,4,1,"tv_cpi",1.16900694062392,1.00555488009815
"CAN",1986,3,1987,1,1,"tv_cpi",1.16900694062392,0.945977078179228
"CAN",1986,3,1987,2,1,"tv_cpi",1.16900694062392,1.42683691216376
"CAN",1986,3,1987,3,1,"tv_cpi",1.16900694062392,1.06901881020494
"CAN",1986,3,1987,4,1,"tv_cpi",1.16900694062392,0.674372413337654
"CAN",1987,1,1987,2,0.5,"tv_cpi",0.945977078179228,1.42683691216376
"CAN",1987,1,1987,3,0.5,"tv_cpi",0.945977078179228,1.06901881020494
"CAN",1987,1,1987,4,0.5,"tv_cpi",0.945977078179228,0.674372413337654
"CAN",1987,1,1987,2,1.5,"tv_cpi",0.945977078179228,1.42683691216376
"CAN",1987,1,1987,3,1.5,"tv_cpi",0.945977078179228,1.06901881020494
"CAN",1987,1,1987,4,1.5,"tv_cpi",0.945977078179228,0.674372413337654
"CAN",1987,1,1988,1,1.5,"tv_cpi",0.945977078179228,0.860428717407213
"CAN",1987,1,1988,2,1.5,"tv_cpi",0.945977078179228,1.2769190126444
"CAN",1987,1,1988,3,1.5,"tv_cpi",0.945977078179228,1.07502536716426
"CAN",1987,1,1988,4,1.5,"tv_cpi",0.945977078179228,0.787219982743181
"CAN",1987,3,1987,4,0,"tv_cpi",1.06901881020494,0.674372413337654
"CAN",1987,3,1987,4,1,"tv_cpi",1.06901881020494,0.674372413337654
"CAN",1987,3,1988,1,1,"tv_cpi",1.06901881020494,0.860428717407213
"CAN",1987,3,1988,2,1,"tv_cpi",1.06901881020494,1.2769190126444
"CAN",1987,3,1988,3,1,"tv_cpi",1.06901881020494,1.07502536716426
"CAN",1987,3,1988,4,1,"tv_cpi",1.06901881020494,0.787219982743181
"CAN",1988,1,1988,2,0.5,"tv_cpi",0.860428717407213,1.2769190126444
"CAN",1988,1,1988,3,0.5,"tv_cpi",0.860428717407213,1.07502536716426
"CAN",1988,1,1988,4,0.5,"tv_cpi",0.860428717407213,0.787219982743181
"CAN",1988,1,1988,2,1.5,"tv_cpi",0.860428717407213,1.2769190126444
"CAN",1988,1,1988,3,1.5,"tv_cpi",0.860428717407213,1.07502536716426
"CAN",1988,1,1988,4,1.5,"tv_cpi",0.860428717407213,0.787219982743181
"CAN",1988,1,1989,1,1.5,"tv_cpi",0.860428717407213,1.23770024456311
"CAN",1988,1,1989,2,1.5,"tv_cpi",0.860428717407213,1.71639236195382
"CAN",1988,1,1989,3,1.5,"tv_cpi",0.860428717407213,1.42287750412482
"CAN",1988,1,1989,4,1.5,"tv_cpi",0.860428717407213,0.703909573446548
"CAN",1988,3,1988,4,0,"tv_cpi",1.07502536716426,0.787219982743181
"CAN",1988,3,1988,4,1,"tv_cpi",1.07502536716426,0.787219982743181
"CAN",1988,3,1989,1,1,"tv_cpi",1.07502536716426,1.23770024456311
"CAN",1988,3,1989,2,1,"tv_cpi",1.07502536716426,1.71639236195382
"CAN",1988,3,1989,3,1,"tv_cpi",1.07502536716426,1.42287750412482
"CAN",1988,3,1989,4,1,"tv_cpi",1.07502536716426,0.703909573446548
"CAN",1989,1,1989,2,0.5,"tv_cpi",1.23770024456311,1.71639236195382
"CAN",1989,1,1989,3,0.5,"tv_cpi",1.23770024456311,1.42287750412482
"CAN",1989,1,1989,4,0.5,"tv_cpi",1.23770024456311,0.703909573446548
"CAN",1989,1,1989,2,1.5,"tv_cpi",1.23770024456311,1.71639236195382
"CAN",1989,1,1989,3,1.5,"tv_cpi",1.23770024456311,1.42287750412482
"CAN",1989,1,1989,4,1.5,"tv_cpi",1.23770024456311,0.703909573446548
"CAN",1989,1,1990,1,1.5,"tv_cpi",1.23770024456311,1.43637321563084
"CAN",1989,1,1990,2,1.5,"tv_cpi",1.23770024456311,0.946235822452035
"CAN",1989,1,1990,3,1.5,"tv_cpi",1.23770024456311,0.979771403063978
"CAN",1989,1,1990,4,1.5,"tv_cpi",1.23770024456311,1.47279610793536
"CAN",1989,3,1989,4,0,"tv_cpi",1.42287750412482,0.703909573446548
"CAN",1989,3,1989,4,1,"tv_cpi",1.42287750412482,0.703909573446548
"CAN",1989,3,1990,1,1,"tv_cpi",1.42287750412482,1.43637321563084
"CAN",1989,3,1990,2,1,"tv_cpi",1.42287750412482,0.946235822452035
"CAN",1989,3,1990,3,1,"tv_cpi",1.42287750412482,0.979771403063978
"CAN",1989,3,1990,4,1,"tv_cpi",1.42287750412482,1.47279610793536
"CAN",1990,1,1990,2,0.5,"tv_cpi",1.43637321563084,0.946235822452035
"CAN",1990,1,1990,3,0.5,"tv_cpi",1.43637321563084,0.979771403063978
"CAN",1990,1,1990,4,0.5,"tv_cpi",1.43637321563084,1.47279610793536
"CAN",1990,1,1990,2,1.5,"tv_cpi",1.43637321563084,0.946235822452035
"CAN",1990,1,1990,3,1.5,"tv_cpi",1.43637321563084,0.979771403063978
"CAN",1990,1,1990,4,1.5,"tv_cpi",1.43637321563084,1.47279610793536
"CAN",1990,1,1991,1,1.5,"tv_cpi",1.43637321563084,2.84144467061074
"CAN",1990,1,1991,2,1.5,"tv_cpi",1.43637321563084,0.728160905900221
"CAN",1990,1,1991,3,1.5,"tv_cpi",1.43637321563084,0.602776511185432
"CAN",1990,1,1991,4,1.5,"tv_cpi",1.43637321563084,-0.160390549892142
"CAN",1990,3,1990,4,0,"tv_cpi",0.979771403063978,1.47279610793536
"CAN",1990,3,1990,4,1,"tv_cpi",0.979771403063978,1.47279610793536
"CAN",1990,3,1991,1,1,"tv_cpi",0.979771403063978,2.84144467061074
"CAN",1990,3,1991,2,1,"tv_cpi",0.979771403063978,0.728160905900221
"CAN",1990,3,1991,3,1,"tv_cpi",0.979771403063978,0.602776511185432
"CAN",1990,3,1991,4,1,"tv_cpi",0.979771403063978,-0.160390549892142
"CAN",1991,1,1991,2,0.5,"tv_cpi",2.84144467061074,0.728160905900221
"CAN",1991,1,1991,3,0.5,"tv_cpi",2.84144467061074,0.602776511185432
"CAN",1991,1,1991,4,0.5,"tv_cpi",2.84144467061074,-0.160390549892142
"CAN",1991,1,1991,2,1.5,"tv_cpi",2.84144467061074,0.728160905900221
"CAN",1991,1,1991,3,1.5,"tv_cpi",2.84144467061074,0.602776511185432
"CAN",1991,1,1991,4,1.5,"tv_cpi",2.84144467061074,-0.160390549892142
"CAN",1991,1,1992,1,1.5,"tv_cpi",2.84144467061074,0.400487469734934
"CAN",1991,1,1992,2,1.5,"tv_cpi",2.84144467061074,0.518230733074621
"CAN",1991,1,1992,3,1.5,"tv_cpi",2.84144467061074,0.436433483245668
"CAN",1991,1,1992,4,1.5,"tv_cpi",2.84144467061074,0.43452204872283
"CAN",1991,3,1991,4,0,"tv_cpi",0.602776511185432,-0.160390549892142
"CAN",1991,3,1991,4,1,"tv_cpi",0.602776511185432,-0.160390549892142
"CAN",1991,3,1992,1,1,"tv_cpi",0.602776511185432,0.400487469734934
"CAN",1991,3,1992,2,1,"tv_cpi",0.602776511185432,0.518230733074621
"CAN",1991,3,1992,3,1,"tv_cpi",0.602776511185432,0.436433483245668
"CAN",1991,3,1992,4,1,"tv_cpi",0.602776511185432,0.43452204872283
"CAN",1992,1,1992,2,0.5,"tv_cpi",0.400487469734934,0.518230733074621
"CAN",1992,1,1992,3,0.5,"tv_cpi",0.400487469734934,0.436433483245668
"CAN",1992,1,1992,4,0.5,"tv_cpi",0.400487469734934,0.43452204872283
"CAN",1992,1,1992,2,1.5,"tv_cpi",0.400487469734934,0.518230733074621
"CAN",1992,1,1992,3,1.5,"tv_cpi",0.400487469734934,0.436433483245668
"CAN",1992,1,1992,4,1.5,"tv_cpi",0.400487469734934,0.43452204872283
"CAN",1992,1,1993,1,1.5,"tv_cpi",0.400487469734934,0.706981692162945
"CAN",1992,1,1993,2,1.5,"tv_cpi",0.400487469734934,0.195514019837706
"CAN",1992,1,1993,3,1.5,"tv_cpi",0.400487469734934,0.389855442450138
"CAN",1992,1,1993,4,1.5,"tv_cpi",0.400487469734934,0.504568081301926
"CAN",1992,3,1992,4,0,"tv_cpi",0.436433483245668,0.43452204872283
"CAN",1992,3,1992,4,1,"tv_cpi",0.436433483245668,0.43452204872283
"CAN",1992,3,1993,1,1,"tv_cpi",0.436433483245668,0.706981692162945
"CAN",1992,3,1993,2,1,"tv_cpi",0.436433483245668,0.195514019837706
"CAN",1992,3,1993,3,1,"tv_cpi",0.436433483245668,0.389855442450138
"CAN",1992,3,1993,4,1,"tv_cpi",0.436433483245668,0.504568081301926
"CAN",1993,1,1993,2,0.5,"tv_cpi",0.706981692162945,0.195514019837706
"CAN",1993,1,1993,3,0.5,"tv_cpi",0.706981692162945,0.389855442450138
"CAN",1993,1,1993,4,0.5,"tv_cpi",0.706981692162945,0.504568081301926
"CAN",1993,1,1993,2,1.5,"tv_cpi",0.706981692162945,0.195514019837706
"CAN",1993,1,1993,3,1.5,"tv_cpi",0.706981692162945,0.389855442450138
"CAN",1993,1,1993,4,1.5,"tv_cpi",0.706981692162945,0.504568081301926
"CAN",1993,1,1994,1,1.5,"tv_cpi",0.706981692162945,-0.543476434298906
"CAN",1993,1,1994,2,1.5,"tv_cpi",0.706981692162945,-0.350947089453157
"CAN",1993,1,1994,3,1.5,"tv_cpi",0.706981692162945,0.545381899008923
"CAN",1993,1,1994,4,1.5,"tv_cpi",0.706981692162945,0.31031442868148
"CAN",1993,3,1993,4,0,"tv_cpi",0.389855442450138,0.504568081301926
"CAN",1993,3,1993,4,1,"tv_cpi",0.389855442450138,0.504568081301926
"CAN",1993,3,1994,1,1,"tv_cpi",0.389855442450138,-0.543476434298906
"CAN",1993,3,1994,2,1,"tv_cpi",0.389855442450138,-0.350947089453157
"CAN",1993,3,1994,3,1,"tv_cpi",0.389855442450138,0.545381899008923
"CAN",1993,3,1994,4,1,"tv_cpi",0.389855442450138,0.31031442868148
"CAN",1994,1,1994,2,0.5,"tv_cpi",-0.543476434298906,-0.350947089453157
"CAN",1994,1,1994,3,0.5,"tv_cpi",-0.543476434298906,0.545381899008923
"CAN",1994,1,1994,4,0.5,"tv_cpi",-0.543476434298906,0.31031442868148
"CAN",1994,1,1994,2,1.5,"tv_cpi",-0.543476434298906,-0.350947089453157
"CAN",1994,1,1994,3,1.5,"tv_cpi",-0.543476434298906,0.545381899008923
"CAN",1994,1,1994,4,1.5,"tv_cpi",-0.543476434298906,0.31031442868148
"CAN",1994,1,1995,1,1.5,"tv_cpi",-0.543476434298906,1.0019481442165
"CAN",1994,1,1995,2,1.5,"tv_cpi",-0.543476434298906,0.801992688062469
"CAN",1994,1,1995,3,1.5,"tv_cpi",-0.543476434298906,0.189987130897684
"CAN",1994,1,1995,4,1.5,"tv_cpi",-0.543476434298906,0.0379627963394746
"CAN",1994,3,1994,4,0,"tv_cpi",0.545381899008923,0.31031442868148
"CAN",1994,3,1994,4,1,"tv_cpi",0.545381899008923,0.31031442868148
"CAN",1994,3,1995,1,1,"tv_cpi",0.545381899008923,1.0019481442165
"CAN",1994,3,1995,2,1,"tv_cpi",0.545381899008923,0.801992688062469
"CAN",1994,3,1995,3,1,"tv_cpi",0.545381899008923,0.189987130897684
"CAN",1994,3,1995,4,1,"tv_cpi",0.545381899008923,0.0379627963394746
"CAN",1995,1,1995,2,0.5,"tv_cpi",1.0019481442165,0.801992688062469
"CAN",1995,1,1995,3,0.5,"tv_cpi",1.0019481442165,0.189987130897684
"CAN",1995,1,1995,4,0.5,"tv_cpi",1.0019481442165,0.0379627963394746
"CAN",1995,1,1995,2,1.5,"tv_cpi",1.0019481442165,0.801992688062469
"CAN",1995,1,1995,3,1.5,"tv_cpi",1.0019481442165,0.189987130897684
"CAN",1995,1,1995,4,1.5,"tv_cpi",1.0019481442165,0.0379627963394746
"CAN",1995,1,1996,1,1.5,"tv_cpi",1.0019481442165,0.416584944468834
"CAN",1995,1,1996,2,1.5,"tv_cpi",1.0019481442165,0.79052054952351
"CAN",1995,1,1996,3,1.5,"tv_cpi",1.0019481442165,0.149874121723226
"CAN",1995,1,1996,4,1.5,"tv_cpi",1.0019481442165,0.597246179584676
"CAN",1995,3,1995,4,0,"tv_cpi",0.189987130897684,0.0379627963394746
"CAN",1995,3,1995,4,1,"tv_cpi",0.189987130897684,0.0379627963394746
"CAN",1995,3,1996,1,1,"tv_cpi",0.189987130897684,0.416584944468834
"CAN",1995,3,1996,2,1,"tv_cpi",0.189987130897684,0.79052054952351
"CAN",1995,3,1996,3,1,"tv_cpi",0.189987130897684,0.149874121723226
"CAN",1995,3,1996,4,1,"tv_cpi",0.189987130897684,0.597246179584676
"CAN",1996,1,1996,2,0.5,"tv_cpi",0.416584944468834,0.79052054952351
"CAN",1996,1,1996,3,0.5,"tv_cpi",0.416584944468834,0.149874121723226
"CAN",1996,1,1996,4,0.5,"tv_cpi",0.416584944468834,0.597246179584676
"CAN",1996,1,1996,2,1.5,"tv_cpi",0.416584944468834,0.79052054952351
"CAN",1996,1,1996,3,1.5,"tv_cpi",0.416584944468834,0.149874121723226
"CAN",1996,1,1996,4,1.5,"tv_cpi",0.416584944468834,0.597246179584676
"CAN",1996,1,1997,1,1.5,"tv_cpi",0.416584944468834,0.556692742458331
"CAN",1996,1,1997,2,1.5,"tv_cpi",0.416584944468834,0.295635791469806
"CAN",1996,1,1997,3,1.5,"tv_cpi",0.416584944468834,0.25797503179863
"CAN",1996,1,1997,4,1.5,"tv_cpi",0.416584944468834,-0.073647259255516
"CAN",1996,3,1996,4,0,"tv_cpi",0.149874121723226,0.597246179584676
"CAN",1996,3,1996,4,1,"tv_cpi",0.149874121723226,0.597246179584676
"CAN",1996,3,1997,1,1,"tv_cpi",0.149874121723226,0.556692742458331
"CAN",1996,3,1997,2,1,"tv_cpi",0.149874121723226,0.295635791469806
"CAN",1996,3,1997,3,1,"tv_cpi",0.149874121723226,0.25797503179863
"CAN",1996,3,1997,4,1,"tv_cpi",0.149874121723226,-0.073647259255516
"CAN",1997,1,1997,2,0.5,"tv_cpi",0.556692742458331,0.295635791469806
"CAN",1997,1,1997,3,0.5,"tv_cpi",0.556692742458331,0.25797503179863
"CAN",1997,1,1997,4,0.5,"tv_cpi",0.556692742458331,-0.073647259255516
"CAN",1997,1,1997,2,1.5,"tv_cpi",0.556692742458331,0.295635791469806
"CAN",1997,1,1997,3,1.5,"tv_cpi",0.556692742458331,0.25797503179863
"CAN",1997,1,1997,4,1.5,"tv_cpi",0.556692742458331,-0.073647259255516
"CAN",1997,1,1998,1,1.5,"tv_cpi",0.556692742458331,0.550953440040391
"CAN",1997,1,1998,2,1.5,"tv_cpi",0.556692742458331,0.256087564166396
"CAN",1997,1,1998,3,1.5,"tv_cpi",0.556692742458331,0.109549393622732
"CAN",1997,1,1998,4,1.5,"tv_cpi",0.556692742458331,0.182311442729333
"CAN",1997,3,1997,4,0,"tv_cpi",0.25797503179863,-0.073647259255516
"CAN",1997,3,1997,4,1,"tv_cpi",0.25797503179863,-0.073647259255516
"CAN",1997,3,1998,1,1,"tv_cpi",0.25797503179863,0.550953440040391
"CAN",1997,3,1998,2,1,"tv_cpi",0.25797503179863,0.256087564166396
"CAN",1997,3,1998,3,1,"tv_cpi",0.25797503179863,0.109549393622732
"CAN",1997,3,1998,4,1,"tv_cpi",0.25797503179863,0.182311442729333
"CAN",1998,1,1998,2,0.5,"tv_cpi",0.550953440040391,0.256087564166396
"CAN",1998,1,1998,3,0.5,"tv_cpi",0.550953440040391,0.109549393622732
"CAN",1998,1,1998,4,0.5,"tv_cpi",0.550953440040391,0.182311442729333
"CAN",1998,1,1998,2,1.5,"tv_cpi",0.550953440040391,0.256087564166396
"CAN",1998,1,1998,3,1.5,"tv_cpi",0.550953440040391,0.109549393622732
"CAN",1998,1,1998,4,1.5,"tv_cpi",0.550953440040391,0.182311442729333
"CAN",1998,1,1999,1,1.5,"tv_cpi",0.550953440040391,0.218341422147095
"CAN",1998,1,1999,2,1.5,"tv_cpi",0.550953440040391,1.0846129043383
"CAN",1998,1,1999,3,1.5,"tv_cpi",0.550953440040391,0.680890936718725
"CAN",1998,1,1999,4,1.5,"tv_cpi",0.550953440040391,0.356498750269996
"CAN",1998,3,1998,4,0,"tv_cpi",0.109549393622732,0.182311442729333
"CAN",1998,3,1998,4,1,"tv_cpi",0.109549393622732,0.182311442729333
"CAN",1998,3,1999,1,1,"tv_cpi",0.109549393622732,0.218341422147095
"CAN",1998,3,1999,2,1,"tv_cpi",0.109549393622732,1.0846129043383
"CAN",1998,3,1999,3,1,"tv_cpi",0.109549393622732,0.680890936718725
"CAN",1998,3,1999,4,1,"tv_cpi",0.109549393622732,0.356498750269996
"CAN",1999,1,1999,2,0.5,"tv_cpi",0.218341422147095,1.0846129043383
"CAN",1999,1,1999,3,0.5,"tv_cpi",0.218341422147095,0.680890936718725
"CAN",1999,1,1999,4,0.5,"tv_cpi",0.218341422147095,0.356498750269996
"CAN",1999,1,1999,2,1.5,"tv_cpi",0.218341422147095,1.0846129043383
"CAN",1999,1,1999,3,1.5,"tv_cpi",0.218341422147095,0.680890936718725
"CAN",1999,1,1999,4,1.5,"tv_cpi",0.218341422147095,0.356498750269996
"CAN",1999,1,2000,1,1.5,"tv_cpi",0.218341422147095,0.496980776755063
"CAN",1999,1,2000,2,1.5,"tv_cpi",0.218341422147095,0.881380941246768
"CAN",1999,1,2000,3,1.5,"tv_cpi",0.218341422147095,0.943241478863577
"CAN",1999,1,2000,4,1.5,"tv_cpi",0.218341422147095,0.693001314700403
"CAN",1999,3,1999,4,0,"tv_cpi",0.680890936718725,0.356498750269996
"CAN",1999,3,1999,4,1,"tv_cpi",0.680890936718725,0.356498750269996
"CAN",1999,3,2000,1,1,"tv_cpi",0.680890936718725,0.496980776755063
"CAN",1999,3,2000,2,1,"tv_cpi",0.680890936718725,0.881380941246768
"CAN",1999,3,2000,3,1,"tv_cpi",0.680890936718725,0.943241478863577
"CAN",1999,3,2000,4,1,"tv_cpi",0.680890936718725,0.693001314700403
"CAN",2000,1,2000,2,0.5,"tv_cpi",0.496980776755063,0.881380941246768
"CAN",2000,1,2000,3,0.5,"tv_cpi",0.496980776755063,0.943241478863577
"CAN",2000,1,2000,4,0.5,"tv_cpi",0.496980776755063,0.693001314700403
"CAN",2000,1,2000,2,1.5,"tv_cpi",0.496980776755063,0.881380941246768
"CAN",2000,1,2000,3,1.5,"tv_cpi",0.496980776755063,0.943241478863577
"CAN",2000,1,2000,4,1.5,"tv_cpi",0.496980776755063,0.693001314700403
"CAN",2000,1,2001,1,1.5,"tv_cpi",0.496980776755063,0.206968662514129
"CAN",2000,1,2001,2,1.5,"tv_cpi",0.496980776755063,1.67439093095751
"CAN",2000,1,2001,3,1.5,"tv_cpi",0.496980776755063,0.101609145874004
"CAN",2000,1,2001,4,1.5,"tv_cpi",0.496980776755063,-0.918220643692003
"CAN",2000,3,2000,4,0,"tv_cpi",0.943241478863577,0.693001314700403
"CAN",2000,3,2000,4,1,"tv_cpi",0.943241478863577,0.693001314700403
"CAN",2000,3,2001,1,1,"tv_cpi",0.943241478863577,0.206968662514129
"CAN",2000,3,2001,2,1,"tv_cpi",0.943241478863577,1.67439093095751
"CAN",2000,3,2001,3,1,"tv_cpi",0.943241478863577,0.101609145874004
"CAN",2000,3,2001,4,1,"tv_cpi",0.943241478863577,-0.918220643692003
"CAN",2001,1,2001,2,0.5,"tv_cpi",0.206968662514129,1.67439093095751
"CAN",2001,1,2001,3,0.5,"tv_cpi",0.206968662514129,0.101609145874004
"CAN",2001,1,2001,4,0.5,"tv_cpi",0.206968662514129,-0.918220643692003
"CAN",2001,1,2001,2,1.5,"tv_cpi",0.206968662514129,1.67439093095751
"CAN",2001,1,2001,3,1.5,"tv_cpi",0.206968662514129,0.101609145874004
"CAN",2001,1,2001,4,1.5,"tv_cpi",0.206968662514129,-0.918220643692003
"CAN",2001,1,2002,1,1.5,"tv_cpi",0.206968662514129,0.680980424390487
"CAN",2001,1,2002,2,1.5,"tv_cpi",0.206968662514129,1.481995338166
"CAN",2001,1,2002,3,1.5,"tv_cpi",0.206968662514129,1.0642054824225
"CAN",2001,1,2002,4,1.5,"tv_cpi",0.206968662514129,0.494970408705875
"CAN",2001,3,2001,4,0,"tv_cpi",0.101609145874004,-0.918220643692003
"CAN",2001,3,2001,4,1,"tv_cpi",0.101609145874004,-0.918220643692003
"CAN",2001,3,2002,1,1,"tv_cpi",0.101609145874004,0.680980424390487
"CAN",2001,3,2002,2,1,"tv_cpi",0.101609145874004,1.481995338166
"CAN",2001,3,2002,3,1,"tv_cpi",0.101609145874004,1.0642054824225
"CAN",2001,3,2002,4,1,"tv_cpi",0.101609145874004,0.494970408705875
"CAN",2002,1,2002,2,0.5,"tv_cpi",0.680980424390487,1.481995338166
"CAN",2002,1,2002,3,0.5,"tv_cpi",0.680980424390487,1.0642054824225
"CAN",2002,1,2002,4,0.5,"tv_cpi",0.680980424390487,0.494970408705875
"CAN",2002,1,2002,2,1.5,"tv_cpi",0.680980424390487,1.481995338166
"CAN",2002,1,2002,3,1.5,"tv_cpi",0.680980424390487,1.0642054824225
"CAN",2002,1,2002,4,1.5,"tv_cpi",0.680980424390487,0.494970408705875
"CAN",2002,1,2003,1,1.5,"tv_cpi",0.680980424390487,1.34053425049219
"CAN",2002,1,2003,2,1.5,"tv_cpi",0.680980424390487,-0.162518800159273
"CAN",2002,1,2003,3,1.5,"tv_cpi",0.680980424390487,0.389612147274132
"CAN",2002,1,2003,4,1.5,"tv_cpi",0.680980424390487,0.161887350326229
"CAN",2002,3,2002,4,0,"tv_cpi",1.0642054824225,0.494970408705875
"CAN",2002,3,2002,4,1,"tv_cpi",1.0642054824225,0.494970408705875
"CAN",2002,3,2003,1,1,"tv_cpi",1.0642054824225,1.34053425049219
"CAN",2002,3,2003,2,1,"tv_cpi",1.0642054824225,-0.162518800159273
"CAN",2002,3,2003,3,1,"tv_cpi",1.0642054824225,0.389612147274132
"CAN",2002,3,2003,4,1,"tv_cpi",1.0642054824225,0.161887350326229
"CAN",2003,1,2003,2,0.5,"tv_cpi",1.34053425049219,-0.162518800159273
"CAN",2003,1,2003,3,0.5,"tv_cpi",1.34053425049219,0.389612147274132
"CAN",2003,1,2003,4,0.5,"tv_cpi",1.34053425049219,0.161887350326229
"CAN",2003,1,2003,2,1.5,"tv_cpi",1.34053425049219,-0.162518800159273
"CAN",2003,1,2003,3,1.5,"tv_cpi",1.34053425049219,0.389612147274132
"CAN",2003,1,2003,4,1.5,"tv_cpi",1.34053425049219,0.161887350326229
"CAN",2003,1,2004,1,1.5,"tv_cpi",1.34053425049219,0.516302486589382
"CAN",2003,1,2004,2,1.5,"tv_cpi",1.34053425049219,1.12019049884955
"CAN",2003,1,2004,3,1.5,"tv_cpi",1.34053425049219,0.190779686386655
"CAN",2003,1,2004,4,1.5,"tv_cpi",1.34053425049219,0.443738244572423
"CAN",2003,3,2003,4,0,"tv_cpi",0.389612147274132,0.161887350326229
"CAN",2003,3,2003,4,1,"tv_cpi",0.389612147274132,0.161887350326229
"CAN",2003,3,2004,1,1,"tv_cpi",0.389612147274132,0.516302486589382
"CAN",2003,3,2004,2,1,"tv_cpi",0.389612147274132,1.12019049884955
"CAN",2003,3,2004,3,1,"tv_cpi",0.389612147274132,0.190779686386655
"CAN",2003,3,2004,4,1,"tv_cpi",0.389612147274132,0.443738244572423
"CAN",2004,1,2004,2,0.5,"tv_cpi",0.516302486589382,1.12019049884955
"CAN",2004,1,2004,3,0.5,"tv_cpi",0.516302486589382,0.190779686386655
"CAN",2004,1,2004,4,0.5,"tv_cpi",0.516302486589382,0.443738244572423
"CAN",2004,1,2004,2,1.5,"tv_cpi",0.516302486589382,1.12019049884955
"CAN",2004,1,2004,3,1.5,"tv_cpi",0.516302486589382,0.190779686386655
"CAN",2004,1,2004,4,1.5,"tv_cpi",0.516302486589382,0.443738244572423
"CAN",2004,1,2005,1,1.5,"tv_cpi",0.516302486589382,0.347274516510243
"CAN",2004,1,2005,2,1.5,"tv_cpi",0.516302486589382,0.909809206981915
"CAN",2004,1,2005,3,1.5,"tv_cpi",0.516302486589382,0.870659028490195
"CAN",2004,1,2005,4,1.5,"tv_cpi",0.516302486589382,0.0618966252139863
"CAN",2004,3,2004,4,0,"tv_cpi",0.190779686386655,0.443738244572423
"CAN",2004,3,2004,4,1,"tv_cpi",0.190779686386655,0.443738244572423
"CAN",2004,3,2005,1,1,"tv_cpi",0.190779686386655,0.347274516510243
"CAN",2004,3,2005,2,1,"tv_cpi",0.190779686386655,0.909809206981915
"CAN",2004,3,2005,3,1,"tv_cpi",0.190779686386655,0.870659028490195
"CAN",2004,3,2005,4,1,"tv_cpi",0.190779686386655,0.0618966252139863
"CAN",2005,1,2005,2,0.5,"tv_cpi",0.347274516510243,0.909809206981915
"CAN",2005,1,2005,3,0.5,"tv_cpi",0.347274516510243,0.870659028490195
"CAN",2005,1,2005,4,0.5,"tv_cpi",0.347274516510243,0.0618966252139863
"CAN",2005,1,2005,2,1.5,"tv_cpi",0.347274516510243,0.909809206981915
"CAN",2005,1,2005,3,1.5,"tv_cpi",0.347274516510243,0.870659028490195
"CAN",2005,1,2005,4,1.5,"tv_cpi",0.347274516510243,0.0618966252139863
"CAN",2005,1,2006,1,1.5,"tv_cpi",0.347274516510243,0.493821971686703
"CAN",2005,1,2006,2,1.5,"tv_cpi",0.347274516510243,1.10228056003638
"CAN",2005,1,2006,3,1.5,"tv_cpi",0.347274516510243,0.0608907052648711
"CAN",2005,1,2006,4,1.5,"tv_cpi",0.347274516510243,-0.304790201733152
"CAN",2005,3,2005,4,0,"tv_cpi",0.870659028490195,0.0618966252139863
"CAN",2005,3,2005,4,1,"tv_cpi",0.870659028490195,0.0618966252139863
"CAN",2005,3,2006,1,1,"tv_cpi",0.870659028490195,0.493821971686703
"CAN",2005,3,2006,2,1,"tv_cpi",0.870659028490195,1.10228056003638
"CAN",2005,3,2006,3,1,"tv_cpi",0.870659028490195,0.0608907052648711
"CAN",2005,3,2006,4,1,"tv_cpi",0.870659028490195,-0.304790201733152
"CAN",2006,1,2006,2,0.5,"tv_cpi",0.493821971686703,1.10228056003638
"CAN",2006,1,2006,3,0.5,"tv_cpi",0.493821971686703,0.0608907052648711
"CAN",2006,1,2006,4,0.5,"tv_cpi",0.493821971686703,-0.304790201733152
"CAN",2006,1,2006,2,1.5,"tv_cpi",0.493821971686703,1.10228056003638
"CAN",2006,1,2006,3,1.5,"tv_cpi",0.493821971686703,0.0608907052648711
"CAN",2006,1,2006,4,1.5,"tv_cpi",0.493821971686703,-0.304790201733152
"CAN",2006,1,2007,1,1.5,"tv_cpi",0.493821971686703,0.941833670279557
"CAN",2006,1,2007,2,1.5,"tv_cpi",0.493821971686703,1.47083255589164
"CAN",2006,1,2007,3,1.5,"tv_cpi",0.493821971686703,0
"CAN",2006,1,2007,4,1.5,"tv_cpi",0.493821971686703,-0.0298056861587348
"CAN",2006,3,2006,4,0,"tv_cpi",0.0608907052648711,-0.304790201733152
"CAN",2006,3,2006,4,1,"tv_cpi",0.0608907052648711,-0.304790201733152
"CAN",2006,3,2007,1,1,"tv_cpi",0.0608907052648711,0.941833670279557
"CAN",2006,3,2007,2,1,"tv_cpi",0.0608907052648711,1.47083255589164
"CAN",2006,3,2007,3,1,"tv_cpi",0.0608907052648711,0
"CAN",2006,3,2007,4,1,"tv_cpi",0.0608907052648711,-0.0298056861587348
"CAN",2007,1,2007,2,0.5,"tv_cpi",0.941833670279557,1.47083255589164
"CAN",2007,1,2007,3,0.5,"tv_cpi",0.941833670279557,0
"CAN",2007,1,2007,4,0.5,"tv_cpi",0.941833670279557,-0.0298056861587348
"CAN",2007,1,2007,2,1.5,"tv_cpi",0.941833670279557,1.47083255589164
"CAN",2007,1,2007,3,1.5,"tv_cpi",0.941833670279557,0
"CAN",2007,1,2007,4,1.5,"tv_cpi",0.941833670279557,-0.0298056861587348
"CAN",2007,1,2008,1,1.5,"tv_cpi",0.941833670279557,0.327329834585477
"CAN",2007,1,2008,2,1.5,"tv_cpi",0.941833670279557,2.02918956180236
"CAN",2007,1,2008,3,1.5,"tv_cpi",0.941833670279557,1.04258444528922
"CAN",2007,1,2008,4,1.5,"tv_cpi",0.941833670279557,-1.50947114900948
"CAN",2007,3,2007,4,0,"tv_cpi",0,-0.0298056861587348
"CAN",2007,3,2007,4,1,"tv_cpi",0,-0.0298056861587348
"CAN",2007,3,2008,1,1,"tv_cpi",0,0.327329834585477
"CAN",2007,3,2008,2,1,"tv_cpi",0,2.02918956180236
"CAN",2007,3,2008,3,1,"tv_cpi",0,1.04258444528922
"CAN",2007,3,2008,4,1,"tv_cpi",0,-1.50947114900948
"CAN",2008,1,2008,2,0.5,"tv_cpi",0.327329834585477,2.02918956180236
"CAN",2008,1,2008,3,0.5,"tv_cpi",0.327329834585477,1.04258444528922
"CAN",2008,1,2008,4,0.5,"tv_cpi",0.327329834585477,-1.50947114900948
"CAN",2008,1,2008,2,1.5,"tv_cpi",0.327329834585477,2.02918956180236
"CAN",2008,1,2008,3,1.5,"tv_cpi",0.327329834585477,1.04258444528922
"CAN",2008,1,2008,4,1.5,"tv_cpi",0.327329834585477,-1.50947114900948
"CAN",2008,1,2009,1,1.5,"tv_cpi",0.327329834585477,-0.322247506666695
"CAN",2008,1,2009,2,1.5,"tv_cpi",0.327329834585477,0.847337933786196
"CAN",2008,1,2009,3,1.5,"tv_cpi",0.327329834585477,0.116316949660789
"CAN",2008,1,2009,4,1.5,"tv_cpi",0.327329834585477,0.145197920492812
"CAN",2008,3,2008,4,0,"tv_cpi",1.04258444528922,-1.50947114900948
"CAN",2008,3,2008,4,1,"tv_cpi",1.04258444528922,-1.50947114900948
"CAN",2008,3,2009,1,1,"tv_cpi",1.04258444528922,-0.322247506666695
"CAN",2008,3,2009,2,1,"tv_cpi",1.04258444528922,0.847337933786196
"CAN",2008,3,2009,3,1,"tv_cpi",1.04258444528922,0.116316949660789
"CAN",2008,3,2009,4,1,"tv_cpi",1.04258444528922,0.145197920492812
"CAN",2009,1,2009,2,0.5,"tv_cpi",-0.322247506666695,0.847337933786196
"CAN",2009,1,2009,3,0.5,"tv_cpi",-0.322247506666695,0.116316949660789
"CAN",2009,1,2009,4,0.5,"tv_cpi",-0.322247506666695,0.145197920492812
"CAN",2009,1,2009,2,1.5,"tv_cpi",-0.322247506666695,0.847337933786196
"CAN",2009,1,2009,3,1.5,"tv_cpi",-0.322247506666695,0.116316949660789
"CAN",2009,1,2009,4,1.5,"tv_cpi",-0.322247506666695,0.145197920492812
"CAN",2009,1,2010,1,1.5,"tv_cpi",-0.322247506666695,0.492110663284873
"CAN",2009,1,2010,2,1.5,"tv_cpi",-0.322247506666695,0.633283564390474
"CAN",2009,1,2010,3,1.5,"tv_cpi",-0.322247506666695,0.543707395001736
"CAN",2009,1,2010,4,1.5,"tv_cpi",-0.322247506666695,0.569151753397001
"CAN",2009,3,2009,4,0,"tv_cpi",0.116316949660789,0.145197920492812
"CAN",2009,3,2009,4,1,"tv_cpi",0.116316949660789,0.145197920492812
"CAN",2009,3,2010,1,1,"tv_cpi",0.116316949660789,0.492110663284873
"CAN",2009,3,2010,2,1,"tv_cpi",0.116316949660789,0.633283564390474
"CAN",2009,3,2010,3,1,"tv_cpi",0.116316949660789,0.543707395001736
"CAN",2009,3,2010,4,1,"tv_cpi",0.116316949660789,0.569151753397001
"CAN",2010,1,2010,2,0.5,"tv_cpi",0.492110663284873,0.633283564390474
"CAN",2010,1,2010,3,0.5,"tv_cpi",0.492110663284873,0.543707395001736
"CAN",2010,1,2010,4,0.5,"tv_cpi",0.492110663284873,0.569151753397001
"CAN",2010,1,2010,2,1.5,"tv_cpi",0.492110663284873,0.633283564390474
"CAN",2010,1,2010,3,1.5,"tv_cpi",0.492110663284873,0.543707395001736
"CAN",2010,1,2010,4,1.5,"tv_cpi",0.492110663284873,0.569151753397001
"CAN",2010,1,2011,1,1.5,"tv_cpi",0.492110663284873,0.819570688633764
"CAN",2010,1,2011,2,1.5,"tv_cpi",0.492110663284873,1.36967971541564
"CAN",2010,1,2011,3,1.5,"tv_cpi",0.492110663284873,0.19415203830313
"CAN",2010,1,2011,4,1.5,"tv_cpi",0.492110663284873,0.276706290589956
"CAN",2010,3,2010,4,0,"tv_cpi",0.543707395001736,0.569151753397001
"CAN",2010,3,2010,4,1,"tv_cpi",0.543707395001736,0.569151753397001
"CAN",2010,3,2011,1,1,"tv_cpi",0.543707395001736,0.819570688633764
"CAN",2010,3,2011,2,1,"tv_cpi",0.543707395001736,1.36967971541564
"CAN",2010,3,2011,3,1,"tv_cpi",0.543707395001736,0.19415203830313
"CAN",2010,3,2011,4,1,"tv_cpi",0.543707395001736,0.276706290589956
"CAN",2011,1,2011,2,0.5,"tv_cpi",0.819570688633764,1.36967971541564
"CAN",2011,1,2011,3,0.5,"tv_cpi",0.819570688633764,0.19415203830313
"CAN",2011,1,2011,4,0.5,"tv_cpi",0.819570688633764,0.276706290589956
"CAN",2011,1,2011,2,1.5,"tv_cpi",0.819570688633764,1.36967971541564
"CAN",2011,1,2011,3,1.5,"tv_cpi",0.819570688633764,0.19415203830313
"CAN",2011,1,2011,4,1.5,"tv_cpi",0.819570688633764,0.276706290589956
"CAN",2011,1,2012,1,1.5,"tv_cpi",0.819570688633764,0.468641196763109
"CAN",2011,1,2012,2,1.5,"tv_cpi",0.819570688633764,0.630569548036597
"CAN",2011,1,2012,3,1.5,"tv_cpi",0.819570688633764,-0.164114356447964
"CAN",2011,1,2012,4,1.5,"tv_cpi",0.819570688633764,0
"CAN",2011,3,2011,4,0,"tv_cpi",0.19415203830313,0.276706290589956
"CAN",2011,3,2011,4,1,"tv_cpi",0.19415203830313,0.276706290589956
"CAN",2011,3,2012,1,1,"tv_cpi",0.19415203830313,0.468641196763109
"CAN",2011,3,2012,2,1,"tv_cpi",0.19415203830313,0.630569548036597
"CAN",2011,3,2012,3,1,"tv_cpi",0.19415203830313,-0.164114356447964
"CAN",2011,3,2012,4,1,"tv_cpi",0.19415203830313,0
"CAN",2012,1,2012,2,0.5,"tv_cpi",0.468641196763109,0.630569548036597
"CAN",2012,1,2012,3,0.5,"tv_cpi",0.468641196763109,-0.164114356447964
"CAN",2012,1,2012,4,0.5,"tv_cpi",0.468641196763109,0
"CAN",2012,1,2012,2,1.5,"tv_cpi",0.468641196763109,0.630569548036597
"CAN",2012,1,2012,3,1.5,"tv_cpi",0.468641196763109,-0.164114356447964
"CAN",2012,1,2012,4,1.5,"tv_cpi",0.468641196763109,0
"CAN",2012,1,2013,1,1.5,"tv_cpi",0.468641196763109,0.437034277020132
"CAN",2012,1,2013,2,1.5,"tv_cpi",0.468641196763109,0.489399004633917
"CAN",2012,1,2013,3,1.5,"tv_cpi",0.468641196763109,0.216751079013466
"CAN",2012,1,2013,4,1.5,"tv_cpi",0.468641196763109,-0.216751079013466
"CAN",2012,3,2012,4,0,"tv_cpi",-0.164114356447964,0
"CAN",2012,3,2012,4,1,"tv_cpi",-0.164114356447964,0
"CAN",2012,3,2013,1,1,"tv_cpi",-0.164114356447964,0.437034277020132
"CAN",2012,3,2013,2,1,"tv_cpi",-0.164114356447964,0.489399004633917
"CAN",2012,3,2013,3,1,"tv_cpi",-0.164114356447964,0.216751079013466
"CAN",2012,3,2013,4,1,"tv_cpi",-0.164114356447964,-0.216751079013466
"CAN",2013,1,2013,2,0.5,"tv_cpi",0.437034277020132,0.489399004633917
"CAN",2013,1,2013,3,0.5,"tv_cpi",0.437034277020132,0.216751079013466
"CAN",2013,1,2013,4,0.5,"tv_cpi",0.437034277020132,-0.216751079013466
"CAN",2013,1,2013,2,1.5,"tv_cpi",0.437034277020132,0.489399004633917
"CAN",2013,1,2013,3,1.5,"tv_cpi",0.437034277020132,0.216751079013466
"CAN",2013,1,2013,4,1.5,"tv_cpi",0.437034277020132,-0.216751079013466
"CAN",2013,1,2014,1,1.5,"tv_cpi",0.437034277020132,0.891057826706287
"CAN",2013,1,2014,2,1.5,"tv_cpi",0.437034277020132,1.30860213016817
"CAN",2013,1,2014,3,1.5,"tv_cpi",0.437034277020132,0.0795653103605076
"CAN",2013,1,2014,4,1.5,"tv_cpi",0.437034277020132,-0.371844235092489
"CAN",2013,3,2013,4,0,"tv_cpi",0.216751079013466,-0.216751079013466
"CAN",2013,3,2013,4,1,"tv_cpi",0.216751079013466,-0.216751079013466
"CAN",2013,3,2014,1,1,"tv_cpi",0.216751079013466,0.891057826706287
"CAN",2013,3,2014,2,1,"tv_cpi",0.216751079013466,1.30860213016817
"CAN",2013,3,2014,3,1,"tv_cpi",0.216751079013466,0.0795653103605076
"CAN",2013,3,2014,4,1,"tv_cpi",0.216751079013466,-0.371844235092489
"CAN",2014,1,2014,2,0.5,"tv_cpi",0.891057826706287,1.30860213016817
"CAN",2014,1,2014,3,0.5,"tv_cpi",0.891057826706287,0.0795653103605076
"CAN",2014,1,2014,4,0.5,"tv_cpi",0.891057826706287,-0.371844235092489
"CAN",2014,1,2014,2,1.5,"tv_cpi",0.891057826706287,1.30860213016817
"CAN",2014,1,2014,3,1.5,"tv_cpi",0.891057826706287,0.0795653103605076
"CAN",2014,1,2014,4,1.5,"tv_cpi",0.891057826706287,-0.371844235092489
"CAN",2014,1,2015,1,1.5,"tv_cpi",0.891057826706287,0.0532024486886939
"CAN",2014,1,2015,2,1.5,"tv_cpi",0.891057826706287,1.13711424398018
"CAN",2014,1,2015,3,1.5,"tv_cpi",0.891057826706287,0.367442475515478
"CAN",2014,1,2015,4,1.5,"tv_cpi",0.891057826706287,-0.236036608597434
"CAN",2014,3,2014,4,0,"tv_cpi",0.0795653103605076,-0.371844235092489
"CAN",2014,3,2014,4,1,"tv_cpi",0.0795653103605076,-0.371844235092489
"CAN",2014,3,2015,1,1,"tv_cpi",0.0795653103605076,0.0532024486886939
"CAN",2014,3,2015,2,1,"tv_cpi",0.0795653103605076,1.13711424398018
"CAN",2014,3,2015,3,1,"tv_cpi",0.0795653103605076,0.367442475515478
"CAN",2014,3,2015,4,1,"tv_cpi",0.0795653103605076,-0.236036608597434
"CAN",2015,1,2015,2,0.5,"tv_cpi",0.0532024486886939,1.13711424398018
"CAN",2015,1,2015,3,0.5,"tv_cpi",0.0532024486886939,0.367442475515478
"CAN",2015,1,2015,4,0.5,"tv_cpi",0.0532024486886939,-0.236036608597434
"CAN",2015,1,2015,2,1.5,"tv_cpi",0.0532024486886939,1.13711424398018
"CAN",2015,1,2015,3,1.5,"tv_cpi",0.0532024486886939,0.367442475515478
"CAN",2015,1,2015,4,1.5,"tv_cpi",0.0532024486886939,-0.236036608597434
"CAN",2015,1,2016,1,1.5,"tv_cpi",0.0532024486886939,0.262294840554755
"CAN",2015,1,2016,2,1.5,"tv_cpi",0.0532024486886939,1.14583608493746
"CAN",2015,1,2016,3,1.5,"tv_cpi",0.0532024486886939,0.0517013286766677
"CAN",2015,1,2016,4,1.5,"tv_cpi",0.0532024486886939,-0.0776603627136829
"CAN",2015,3,2015,4,0,"tv_cpi",0.367442475515478,-0.236036608597434
"CAN",2015,3,2015,4,1,"tv_cpi",0.367442475515478,-0.236036608597434
"CAN",2015,3,2016,1,1,"tv_cpi",0.367442475515478,0.262294840554755
"CAN",2015,3,2016,2,1,"tv_cpi",0.367442475515478,1.14583608493746
"CAN",2015,3,2016,3,1,"tv_cpi",0.367442475515478,0.0517013286766677
"CAN",2015,3,2016,4,1,"tv_cpi",0.367442475515478,-0.0776603627136829
"CAN",2016,1,2016,2,0.5,"tv_cpi",0.262294840554755,1.14583608493746
"CAN",2016,1,2016,3,0.5,"tv_cpi",0.262294840554755,0.0517013286766677
"CAN",2016,1,2016,4,0.5,"tv_cpi",0.262294840554755,-0.0776603627136829
"CAN",2016,1,2016,2,1.5,"tv_cpi",0.262294840554755,1.14583608493746
"CAN",2016,1,2016,3,1.5,"tv_cpi",0.262294840554755,0.0517013286766677
"CAN",2016,1,2016,4,1.5,"tv_cpi",0.262294840554755,-0.0776603627136829
"CAN",2016,1,2017,1,1.5,"tv_cpi",0.262294840554755,0.774000477482861
"CAN",2016,1,2017,2,1.5,"tv_cpi",0.262294840554755,0.563810483539395
"CAN",2016,1,2017,3,1.5,"tv_cpi",0.262294840554755,0.102223218225461
"CAN",2016,1,2017,4,1.5,"tv_cpi",0.262294840554755,0.331360700207561
"CAN",2016,3,2016,4,0,"tv_cpi",0.0517013286766677,-0.0776603627136829
"CAN",2016,3,2016,4,1,"tv_cpi",0.0517013286766677,-0.0776603627136829
"CAN",2016,3,2017,1,1,"tv_cpi",0.0517013286766677,0.774000477482861
"CAN",2016,3,2017,2,1,"tv_cpi",0.0517013286766677,0.563810483539395
"CAN",2016,3,2017,3,1,"tv_cpi",0.0517013286766677,0.102223218225461
"CAN",2016,3,2017,4,1,"tv_cpi",0.0517013286766677,0.331360700207561
"CAN",2017,1,2017,2,0.5,"tv_cpi",0.774000477482861,0.563810483539395
"CAN",2017,1,2017,3,0.5,"tv_cpi",0.774000477482861,0.102223218225461
"CAN",2017,1,2017,4,0.5,"tv_cpi",0.774000477482861,0.331360700207561
"CAN",2017,1,2017,2,1.5,"tv_cpi",0.774000477482861,0.563810483539395
"CAN",2017,1,2017,3,1.5,"tv_cpi",0.774000477482861,0.102223218225461
"CAN",2017,1,2017,4,1.5,"tv_cpi",0.774000477482861,0.331360700207561
"CAN",2017,1,2018,1,1.5,"tv_cpi",0.774000477482861,1.0378524321518
"CAN",2017,1,2018,2,1.5,"tv_cpi",0.774000477482861,0.802545545231759
"CAN",2017,1,2018,3,1.5,"tv_cpi",0.774000477482861,0.473525968673538
"CAN",2017,1,2018,4,1.5,"tv_cpi",0.774000477482861,-0.298768182590425
"CAN",2017,3,2017,4,0,"tv_cpi",0.102223218225461,0.331360700207561
"CAN",2017,3,2017,4,1,"tv_cpi",0.102223218225461,0.331360700207561
"CAN",2017,3,2018,1,1,"tv_cpi",0.102223218225461,1.0378524321518
"CAN",2017,3,2018,2,1,"tv_cpi",0.102223218225461,0.802545545231759
"CAN",2017,3,2018,3,1,"tv_cpi",0.102223218225461,0.473525968673538
"CAN",2017,3,2018,4,1,"tv_cpi",0.102223218225461,-0.298768182590425
"CAN",2018,1,2018,2,0.5,"tv_cpi",1.0378524321518,0.802545545231759
"CAN",2018,1,2018,3,0.5,"tv_cpi",1.0378524321518,0.473525968673538
"CAN",2018,1,2018,4,0.5,"tv_cpi",1.0378524321518,-0.298768182590425
"CAN",2018,1,2018,2,1.5,"tv_cpi",1.0378524321518,0.802545545231759
"CAN",2018,1,2018,3,1.5,"tv_cpi",1.0378524321518,0.473525968673538
"CAN",2018,1,2018,4,1.5,"tv_cpi",1.0378524321518,-0.298768182590425
"CAN",2018,1,2019,1,1.5,"tv_cpi",1.0378524321518,0.62149231230304
"CAN",2018,1,2019,2,1.5,"tv_cpi",1.0378524321518,1.3294368873602
"CAN",2018,1,2019,3,1.5,"tv_cpi",1.0378524321518,0.268650967925055
"CAN",2018,1,2019,4,1.5,"tv_cpi",1.0378524321518,-0.146430550441412
"CAN",2018,3,2018,4,0,"tv_cpi",0.473525968673538,-0.298768182590425
"CAN",2018,3,2018,4,1,"tv_cpi",0.473525968673538,-0.298768182590425
"CAN",2018,3,2019,1,1,"tv_cpi",0.473525968673538,0.62149231230304
"CAN",2018,3,2019,2,1,"tv_cpi",0.473525968673538,1.3294368873602
"CAN",2018,3,2019,3,1,"tv_cpi",0.473525968673538,0.268650967925055
"CAN",2018,3,2019,4,1,"tv_cpi",0.473525968673538,-0.146430550441412
"CAN",2019,1,2019,2,0.5,"tv_cpi",0.62149231230304,1.3294368873602
"CAN",2019,1,2019,3,0.5,"tv_cpi",0.62149231230304,0.268650967925055
"CAN",2019,1,2019,4,0.5,"tv_cpi",0.62149231230304,-0.146430550441412
"CAN",2019,1,2019,2,1.5,"tv_cpi",0.62149231230304,1.3294368873602
"CAN",2019,1,2019,3,1.5,"tv_cpi",0.62149231230304,0.268650967925055
"CAN",2019,1,2019,4,1.5,"tv_cpi",0.62149231230304,-0.146430550441412
"CAN",2019,1,2020,1,1.5,"tv_cpi",0.62149231230304,0.341369149172444
"CAN",2019,1,2020,2,1.5,"tv_cpi",0.62149231230304,-0.439170664447541
"CAN",2019,1,2020,3,1.5,"tv_cpi",0.62149231230304,0.512163233534135
"CAN",2019,1,2020,4,1.5,"tv_cpi",0.62149231230304,0.364165790699822
"CAN",2019,3,2019,4,0,"tv_cpi",0.268650967925055,-0.146430550441412
"CAN",2019,3,2019,4,1,"tv_cpi",0.268650967925055,-0.146430550441412
"CAN",2019,3,2020,1,1,"tv_cpi",0.268650967925055,0.341369149172444
"CAN",2019,3,2020,2,1,"tv_cpi",0.268650967925055,-0.439170664447541
"CAN",2019,3,2020,3,1,"tv_cpi",0.268650967925055,0.512163233534135
"CAN",2019,3,2020,4,1,"tv_cpi",0.268650967925055,0.364165790699822
"CAN",2020,1,2020,2,0.5,"tv_cpi",0.341369149172444,-0.439170664447541
"CAN",2020,1,2020,3,0.5,"tv_cpi",0.341369149172444,0.512163233534135
"CAN",2020,1,2020,4,0.5,"tv_cpi",0.341369149172444,0.364165790699822
"CAN",2020,1,2020,2,1.5,"tv_cpi",0.341369149172444,-0.439170664447541
"CAN",2020,1,2020,3,1.5,"tv_cpi",0.341369149172444,0.512163233534135
"CAN",2020,1,2020,4,1.5,"tv_cpi",0.341369149172444,0.364165790699822
"CAN",2020,1,2021,1,1.5,"tv_cpi",0.341369149172444,0.988794242900592
"CAN",2020,1,2021,2,1.5,"tv_cpi",0.341369149172444,1.42962195873286
"CAN",2020,1,2021,3,1.5,"tv_cpi",0.341369149172444,1.19933971089061
"CAN",2020,1,2021,4,1.5,"tv_cpi",0.341369149172444,1.00014831239861
"CAN",2020,3,2020,4,0,"tv_cpi",0.512163233534135,0.364165790699822
"CAN",2020,3,2020,4,1,"tv_cpi",0.512163233534135,0.364165790699822
"CAN",2020,3,2021,1,1,"tv_cpi",0.512163233534135,0.988794242900592
"CAN",2020,3,2021,2,1,"tv_cpi",0.512163233534135,1.42962195873286
"CAN",2020,3,2021,3,1,"tv_cpi",0.512163233534135,1.19933971089061
"CAN",2020,3,2021,4,1,"tv_cpi",0.512163233534135,1.00014831239861
"CAN",2021,1,2021,2,0.5,"tv_cpi",0.988794242900592,1.42962195873286
"CAN",2021,1,2021,3,0.5,"tv_cpi",0.988794242900592,1.19933971089061
"CAN",2021,1,2021,4,0.5,"tv_cpi",0.988794242900592,1.00014831239861
"CAN",2021,1,2021,2,1.5,"tv_cpi",0.988794242900592,1.42962195873286
"CAN",2021,1,2021,3,1.5,"tv_cpi",0.988794242900592,1.19933971089061
"CAN",2021,1,2021,4,1.5,"tv_cpi",0.988794242900592,1.00014831239861
"CAN",2021,1,2022,1,1.5,"tv_cpi",0.988794242900592,2.03873469150206
"CAN",2021,1,2022,2,1.5,"tv_cpi",0.988794242900592,3.03732503687666
"CAN",2021,1,2022,3,1.5,"tv_cpi",0.988794242900592,0.832433597551585
"CAN",2021,1,2022,4,1.5,"tv_cpi",0.988794242900592,0.543881409523017
"CAN",2021,3,2021,4,0,"tv_cpi",1.19933971089061,1.00014831239861
"CAN",2021,3,2021,4,1,"tv_cpi",1.19933971089061,1.00014831239861
"CAN",2021,3,2022,1,1,"tv_cpi",1.19933971089061,2.03873469150206
"CAN",2021,3,2022,2,1,"tv_cpi",1.19933971089061,3.03732503687666
"CAN",2021,3,2022,3,1,"tv_cpi",1.19933971089061,0.832433597551585
"CAN",2021,3,2022,4,1,"tv_cpi",1.19933971089061,0.543881409523017
"CAN",2022,1,2022,2,0.5,"tv_cpi",2.03873469150206,3.03732503687666
"CAN",2022,1,2022,3,0.5,"tv_cpi",2.03873469150206,0.832433597551585
"CAN",2022,1,2022,4,0.5,"tv_cpi",2.03873469150206,0.543881409523017
"CAN",2022,1,2022,2,1.5,"tv_cpi",2.03873469150206,3.03732503687666
"CAN",2022,1,2022,3,1.5,"tv_cpi",2.03873469150206,0.832433597551585
"CAN",2022,1,2022,4,1.5,"tv_cpi",2.03873469150206,0.543881409523017
"CAN",2022,1,2023,1,1.5,"tv_cpi",2.03873469150206,0.605649304378275
"CAN",2022,1,2023,2,1.5,"tv_cpi",2.03873469150206,1.47704936687578
"CAN",2022,1,2023,3,1.5,"tv_cpi",2.03873469150206,0.993835595806036
"CAN",2022,1,2023,4,1.5,"tv_cpi",2.03873469150206,0.0840849858833259
"CAN",2022,3,2022,4,0,"tv_cpi",0.832433597551585,0.543881409523017
"CAN",2022,3,2022,4,1,"tv_cpi",0.832433597551585,0.543881409523017
"CAN",2022,3,2023,1,1,"tv_cpi",0.832433597551585,0.605649304378275
"CAN",2022,3,2023,2,1,"tv_cpi",0.832433597551585,1.47704936687578
"CAN",2022,3,2023,3,1,"tv_cpi",0.832433597551585,0.993835595806036
"CAN",2022,3,2023,4,1,"tv_cpi",0.832433597551585,0.0840849858833259
"CAN",2023,1,2023,2,0.5,"tv_cpi",0.605649304378275,1.47704936687578
"CAN",2023,1,2023,3,0.5,"tv_cpi",0.605649304378275,0.993835595806036
"CAN",2023,1,2023,4,0.5,"tv_cpi",0.605649304378275,0.0840849858833259
"CAN",2023,1,2023,2,1.5,"tv_cpi",0.605649304378275,1.47704936687578
"CAN",2023,1,2023,3,1.5,"tv_cpi",0.605649304378275,0.993835595806036
"CAN",2023,1,2023,4,1.5,"tv_cpi",0.605649304378275,0.0840849858833259
"CAN",2023,1,2024,1,1.5,"tv_cpi",0.605649304378275,NA
"CAN",2023,1,2024,2,1.5,"tv_cpi",0.605649304378275,NA
"CAN",2023,1,2024,3,1.5,"tv_cpi",0.605649304378275,NA
"CAN",2023,1,2024,4,1.5,"tv_cpi",0.605649304378275,NA
"CAN",2023,3,2023,4,0,"tv_cpi",0.993835595806036,0.0840849858833259
"CAN",2023,3,2023,4,1,"tv_cpi",0.993835595806036,0.0840849858833259
"CAN",2023,3,2024,1,1,"tv_cpi",0.993835595806036,NA
"CAN",2023,3,2024,2,1,"tv_cpi",0.993835595806036,NA
"CAN",2023,3,2024,3,1,"tv_cpi",0.993835595806036,NA
"CAN",2023,3,2024,4,1,"tv_cpi",0.993835595806036,NA
"CAN",1961,3,1961,4,0,"tv_gdp",2.433416055,1.360480145
"CAN",1961,3,1961,4,1,"tv_gdp",2.433416055,1.360480145
"CAN",1961,3,1962,1,1,"tv_gdp",2.433416055,2.660950188
"CAN",1961,3,1962,2,1,"tv_gdp",2.433416055,0.794766259
"CAN",1961,3,1962,3,1,"tv_gdp",2.433416055,1.278910818
"CAN",1961,3,1962,4,1,"tv_gdp",2.433416055,1.962242774
"CAN",1962,1,1962,2,0.5,"tv_gdp",2.660950188,0.794766259
"CAN",1962,1,1962,3,0.5,"tv_gdp",2.660950188,1.278910818
"CAN",1962,1,1962,4,0.5,"tv_gdp",2.660950188,1.962242774
"CAN",1962,1,1962,2,1.5,"tv_gdp",2.660950188,0.794766259
"CAN",1962,1,1962,3,1.5,"tv_gdp",2.660950188,1.278910818
"CAN",1962,1,1962,4,1.5,"tv_gdp",2.660950188,1.962242774
"CAN",1962,1,1963,1,1.5,"tv_gdp",2.660950188,0.63408554
"CAN",1962,1,1963,2,1.5,"tv_gdp",2.660950188,1.454368266
"CAN",1962,1,1963,3,1.5,"tv_gdp",2.660950188,0.759938107
"CAN",1962,1,1963,4,1.5,"tv_gdp",2.660950188,3.129534749
"CAN",1962,3,1962,4,0,"tv_gdp",1.278910818,1.962242774
"CAN",1962,3,1962,4,1,"tv_gdp",1.278910818,1.962242774
"CAN",1962,3,1963,1,1,"tv_gdp",1.278910818,0.63408554
"CAN",1962,3,1963,2,1,"tv_gdp",1.278910818,1.454368266
"CAN",1962,3,1963,3,1,"tv_gdp",1.278910818,0.759938107
"CAN",1962,3,1963,4,1,"tv_gdp",1.278910818,3.129534749
"CAN",1963,1,1963,2,0.5,"tv_gdp",0.63408554,1.454368266
"CAN",1963,1,1963,3,0.5,"tv_gdp",0.63408554,0.759938107
"CAN",1963,1,1963,4,0.5,"tv_gdp",0.63408554,3.129534749
"CAN",1963,1,1963,2,1.5,"tv_gdp",0.63408554,1.454368266
"CAN",1963,1,1963,3,1.5,"tv_gdp",0.63408554,0.759938107
"CAN",1963,1,1963,4,1.5,"tv_gdp",0.63408554,3.129534749
"CAN",1963,1,1964,1,1.5,"tv_gdp",0.63408554,2.503381101
"CAN",1963,1,1964,2,1.5,"tv_gdp",0.63408554,0.37449939
"CAN",1963,1,1964,3,1.5,"tv_gdp",0.63408554,1.067302224
"CAN",1963,1,1964,4,1.5,"tv_gdp",0.63408554,0.501631232
"CAN",1963,3,1963,4,0,"tv_gdp",0.759938107,3.129534749
"CAN",1963,3,1963,4,1,"tv_gdp",0.759938107,3.129534749
"CAN",1963,3,1964,1,1,"tv_gdp",0.759938107,2.503381101
"CAN",1963,3,1964,2,1,"tv_gdp",0.759938107,0.37449939
"CAN",1963,3,1964,3,1,"tv_gdp",0.759938107,1.067302224
"CAN",1963,3,1964,4,1,"tv_gdp",0.759938107,0.501631232
"CAN",1964,1,1964,2,0.5,"tv_gdp",2.503381101,0.37449939
"CAN",1964,1,1964,3,0.5,"tv_gdp",2.503381101,1.067302224
"CAN",1964,1,1964,4,0.5,"tv_gdp",2.503381101,0.501631232
"CAN",1964,1,1964,2,1.5,"tv_gdp",2.503381101,0.37449939
"CAN",1964,1,1964,3,1.5,"tv_gdp",2.503381101,1.067302224
"CAN",1964,1,1964,4,1.5,"tv_gdp",2.503381101,0.501631232
"CAN",1964,1,1965,1,1.5,"tv_gdp",2.503381101,3.181038821
"CAN",1964,1,1965,2,1.5,"tv_gdp",2.503381101,0.915536674
"CAN",1964,1,1965,3,1.5,"tv_gdp",2.503381101,1.395578506
"CAN",1964,1,1965,4,1.5,"tv_gdp",2.503381101,2.45084687
"CAN",1964,3,1964,4,0,"tv_gdp",1.067302224,0.501631232
"CAN",1964,3,1964,4,1,"tv_gdp",1.067302224,0.501631232
"CAN",1964,3,1965,1,1,"tv_gdp",1.067302224,3.181038821
"CAN",1964,3,1965,2,1,"tv_gdp",1.067302224,0.915536674
"CAN",1964,3,1965,3,1,"tv_gdp",1.067302224,1.395578506
"CAN",1964,3,1965,4,1,"tv_gdp",1.067302224,2.45084687
"CAN",1965,1,1965,2,0.5,"tv_gdp",3.181038821,0.915536674
"CAN",1965,1,1965,3,0.5,"tv_gdp",3.181038821,1.395578506
"CAN",1965,1,1965,4,0.5,"tv_gdp",3.181038821,2.45084687
"CAN",1965,1,1965,2,1.5,"tv_gdp",3.181038821,0.915536674
"CAN",1965,1,1965,3,1.5,"tv_gdp",3.181038821,1.395578506
"CAN",1965,1,1965,4,1.5,"tv_gdp",3.181038821,2.45084687
"CAN",1965,1,1966,1,1.5,"tv_gdp",3.181038821,1.945879533
"CAN",1965,1,1966,2,1.5,"tv_gdp",3.181038821,2.158665681
"CAN",1965,1,1966,3,1.5,"tv_gdp",3.181038821,-0.047768976
"CAN",1965,1,1966,4,1.5,"tv_gdp",3.181038821,1.239297635
"CAN",1965,3,1965,4,0,"tv_gdp",1.395578506,2.45084687
"CAN",1965,3,1965,4,1,"tv_gdp",1.395578506,2.45084687
"CAN",1965,3,1966,1,1,"tv_gdp",1.395578506,1.945879533
"CAN",1965,3,1966,2,1,"tv_gdp",1.395578506,2.158665681
"CAN",1965,3,1966,3,1,"tv_gdp",1.395578506,-0.047768976
"CAN",1965,3,1966,4,1,"tv_gdp",1.395578506,1.239297635
"CAN",1966,1,1966,2,0.5,"tv_gdp",1.945879533,2.158665681
"CAN",1966,1,1966,3,0.5,"tv_gdp",1.945879533,-0.047768976
"CAN",1966,1,1966,4,0.5,"tv_gdp",1.945879533,1.239297635
"CAN",1966,1,1966,2,1.5,"tv_gdp",1.945879533,2.158665681
"CAN",1966,1,1966,3,1.5,"tv_gdp",1.945879533,-0.047768976
"CAN",1966,1,1966,4,1.5,"tv_gdp",1.945879533,1.239297635
"CAN",1966,1,1967,1,1.5,"tv_gdp",1.945879533,-0.225331116
"CAN",1966,1,1967,2,1.5,"tv_gdp",1.945879533,2.083321361
"CAN",1966,1,1967,3,1.5,"tv_gdp",1.945879533,0.315240174
"CAN",1966,1,1967,4,1.5,"tv_gdp",1.945879533,0.43564712
"CAN",1966,3,1966,4,0,"tv_gdp",-0.047768976,1.239297635
"CAN",1966,3,1966,4,1,"tv_gdp",-0.047768976,1.239297635
"CAN",1966,3,1967,1,1,"tv_gdp",-0.047768976,-0.225331116
"CAN",1966,3,1967,2,1,"tv_gdp",-0.047768976,2.083321361
"CAN",1966,3,1967,3,1,"tv_gdp",-0.047768976,0.315240174
"CAN",1966,3,1967,4,1,"tv_gdp",-0.047768976,0.43564712
"CAN",1967,1,1967,2,0.5,"tv_gdp",-0.225331116,2.083321361
"CAN",1967,1,1967,3,0.5,"tv_gdp",-0.225331116,0.315240174
"CAN",1967,1,1967,4,0.5,"tv_gdp",-0.225331116,0.43564712
"CAN",1967,1,1967,2,1.5,"tv_gdp",-0.225331116,2.083321361
"CAN",1967,1,1967,3,1.5,"tv_gdp",-0.225331116,0.315240174
"CAN",1967,1,1967,4,1.5,"tv_gdp",-0.225331116,0.43564712
"CAN",1967,1,1968,1,1.5,"tv_gdp",-0.225331116,0.85242934
"CAN",1967,1,1968,2,1.5,"tv_gdp",-0.225331116,2.688393446
"CAN",1967,1,1968,3,1.5,"tv_gdp",-0.225331116,1.392807753
"CAN",1967,1,1968,4,1.5,"tv_gdp",-0.225331116,1.384671595
"CAN",1967,3,1967,4,0,"tv_gdp",0.315240174,0.43564712
"CAN",1967,3,1967,4,1,"tv_gdp",0.315240174,0.43564712
"CAN",1967,3,1968,1,1,"tv_gdp",0.315240174,0.85242934
"CAN",1967,3,1968,2,1,"tv_gdp",0.315240174,2.688393446
"CAN",1967,3,1968,3,1,"tv_gdp",0.315240174,1.392807753
"CAN",1967,3,1968,4,1,"tv_gdp",0.315240174,1.384671595
"CAN",1968,1,1968,2,0.5,"tv_gdp",0.85242934,2.688393446
"CAN",1968,1,1968,3,0.5,"tv_gdp",0.85242934,1.392807753
"CAN",1968,1,1968,4,0.5,"tv_gdp",0.85242934,1.384671595
"CAN",1968,1,1968,2,1.5,"tv_gdp",0.85242934,2.688393446
"CAN",1968,1,1968,3,1.5,"tv_gdp",0.85242934,1.392807753
"CAN",1968,1,1968,4,1.5,"tv_gdp",0.85242934,1.384671595
"CAN",1968,1,1969,1,1.5,"tv_gdp",0.85242934,1.369084169
"CAN",1968,1,1969,2,1.5,"tv_gdp",0.85242934,0.411425337
"CAN",1968,1,1969,3,1.5,"tv_gdp",0.85242934,1.109424869
"CAN",1968,1,1969,4,1.5,"tv_gdp",0.85242934,1.413083388
"CAN",1968,3,1968,4,0,"tv_gdp",1.392807753,1.384671595
"CAN",1968,3,1968,4,1,"tv_gdp",1.392807753,1.384671595
"CAN",1968,3,1969,1,1,"tv_gdp",1.392807753,1.369084169
"CAN",1968,3,1969,2,1,"tv_gdp",1.392807753,0.411425337
"CAN",1968,3,1969,3,1,"tv_gdp",1.392807753,1.109424869
"CAN",1968,3,1969,4,1,"tv_gdp",1.392807753,1.413083388
"CAN",1969,1,1969,2,0.5,"tv_gdp",1.369084169,0.411425337
"CAN",1969,1,1969,3,0.5,"tv_gdp",1.369084169,1.109424869
"CAN",1969,1,1969,4,0.5,"tv_gdp",1.369084169,1.413083388
"CAN",1969,1,1969,2,1.5,"tv_gdp",1.369084169,0.411425337
"CAN",1969,1,1969,3,1.5,"tv_gdp",1.369084169,1.109424869
"CAN",1969,1,1969,4,1.5,"tv_gdp",1.369084169,1.413083388
"CAN",1969,1,1970,1,1.5,"tv_gdp",1.369084169,0.618000976
"CAN",1969,1,1970,2,1.5,"tv_gdp",1.369084169,0.008329335
"CAN",1969,1,1970,3,1.5,"tv_gdp",1.369084169,1.034916997
"CAN",1969,1,1970,4,1.5,"tv_gdp",1.369084169,0.151842137
"CAN",1969,3,1969,4,0,"tv_gdp",1.109424869,1.413083388
"CAN",1969,3,1969,4,1,"tv_gdp",1.109424869,1.413083388
"CAN",1969,3,1970,1,1,"tv_gdp",1.109424869,0.618000976
"CAN",1969,3,1970,2,1,"tv_gdp",1.109424869,0.008329335
"CAN",1969,3,1970,3,1,"tv_gdp",1.109424869,1.034916997
"CAN",1969,3,1970,4,1,"tv_gdp",1.109424869,0.151842137
"CAN",1970,1,1970,2,0.5,"tv_gdp",0.618000976,0.008329335
"CAN",1970,1,1970,3,0.5,"tv_gdp",0.618000976,1.034916997
"CAN",1970,1,1970,4,0.5,"tv_gdp",0.618000976,0.151842137
"CAN",1970,1,1970,2,1.5,"tv_gdp",0.618000976,0.008329335
"CAN",1970,1,1970,3,1.5,"tv_gdp",0.618000976,1.034916997
"CAN",1970,1,1970,4,1.5,"tv_gdp",0.618000976,0.151842137
"CAN",1970,1,1971,1,1.5,"tv_gdp",0.618000976,-0.514427002
"CAN",1970,1,1971,2,1.5,"tv_gdp",0.618000976,2.919845718
"CAN",1970,1,1971,3,1.5,"tv_gdp",0.618000976,2.763535924
"CAN",1970,1,1971,4,1.5,"tv_gdp",0.618000976,1.092959439
"CAN",1970,3,1970,4,0,"tv_gdp",1.034916997,0.151842137
"CAN",1970,3,1970,4,1,"tv_gdp",1.034916997,0.151842137
"CAN",1970,3,1971,1,1,"tv_gdp",1.034916997,-0.514427002
"CAN",1970,3,1971,2,1,"tv_gdp",1.034916997,2.919845718
"CAN",1970,3,1971,3,1,"tv_gdp",1.034916997,2.763535924
"CAN",1970,3,1971,4,1,"tv_gdp",1.034916997,1.092959439
"CAN",1971,1,1971,2,0.5,"tv_gdp",-0.514427002,2.919845718
"CAN",1971,1,1971,3,0.5,"tv_gdp",-0.514427002,2.763535924
"CAN",1971,1,1971,4,0.5,"tv_gdp",-0.514427002,1.092959439
"CAN",1971,1,1971,2,1.5,"tv_gdp",-0.514427002,2.919845718
"CAN",1971,1,1971,3,1.5,"tv_gdp",-0.514427002,2.763535924
"CAN",1971,1,1971,4,1.5,"tv_gdp",-0.514427002,1.092959439
"CAN",1971,1,1972,1,1.5,"tv_gdp",-0.514427002,-0.334587909
"CAN",1971,1,1972,2,1.5,"tv_gdp",-0.514427002,2.834911476
"CAN",1971,1,1972,3,1.5,"tv_gdp",-0.514427002,0.296709917
"CAN",1971,1,1972,4,1.5,"tv_gdp",-0.514427002,2.348892248
"CAN",1971,3,1971,4,0,"tv_gdp",2.763535924,1.092959439
"CAN",1971,3,1971,4,1,"tv_gdp",2.763535924,1.092959439
"CAN",1971,3,1972,1,1,"tv_gdp",2.763535924,-0.334587909
"CAN",1971,3,1972,2,1,"tv_gdp",2.763535924,2.834911476
"CAN",1971,3,1972,3,1,"tv_gdp",2.763535924,0.296709917
"CAN",1971,3,1972,4,1,"tv_gdp",2.763535924,2.348892248
"CAN",1972,1,1972,2,0.5,"tv_gdp",-0.334587909,2.834911476
"CAN",1972,1,1972,3,0.5,"tv_gdp",-0.334587909,0.296709917
"CAN",1972,1,1972,4,0.5,"tv_gdp",-0.334587909,2.348892248
"CAN",1972,1,1972,2,1.5,"tv_gdp",-0.334587909,2.834911476
"CAN",1972,1,1972,3,1.5,"tv_gdp",-0.334587909,0.296709917
"CAN",1972,1,1972,4,1.5,"tv_gdp",-0.334587909,2.348892248
"CAN",1972,1,1973,1,1.5,"tv_gdp",-0.334587909,2.566523984
"CAN",1972,1,1973,2,1.5,"tv_gdp",-0.334587909,0.953995394
"CAN",1972,1,1973,3,1.5,"tv_gdp",-0.334587909,0.464961005
"CAN",1972,1,1973,4,1.5,"tv_gdp",-0.334587909,1.844449189
"CAN",1972,3,1972,4,0,"tv_gdp",0.296709917,2.348892248
"CAN",1972,3,1972,4,1,"tv_gdp",0.296709917,2.348892248
"CAN",1972,3,1973,1,1,"tv_gdp",0.296709917,2.566523984
"CAN",1972,3,1973,2,1,"tv_gdp",0.296709917,0.953995394
"CAN",1972,3,1973,3,1,"tv_gdp",0.296709917,0.464961005
"CAN",1972,3,1973,4,1,"tv_gdp",0.296709917,1.844449189
"CAN",1973,1,1973,2,0.5,"tv_gdp",2.566523984,0.953995394
"CAN",1973,1,1973,3,0.5,"tv_gdp",2.566523984,0.464961005
"CAN",1973,1,1973,4,0.5,"tv_gdp",2.566523984,1.844449189
"CAN",1973,1,1973,2,1.5,"tv_gdp",2.566523984,0.953995394
"CAN",1973,1,1973,3,1.5,"tv_gdp",2.566523984,0.464961005
"CAN",1973,1,1973,4,1.5,"tv_gdp",2.566523984,1.844449189
"CAN",1973,1,1974,1,1.5,"tv_gdp",2.566523984,0.827632743
"CAN",1973,1,1974,2,1.5,"tv_gdp",2.566523984,1.025739182
"CAN",1973,1,1974,3,1.5,"tv_gdp",2.566523984,0.01921879
"CAN",1973,1,1974,4,1.5,"tv_gdp",2.566523984,-0.520988065
"CAN",1973,3,1973,4,0,"tv_gdp",0.464961005,1.844449189
"CAN",1973,3,1973,4,1,"tv_gdp",0.464961005,1.844449189
"CAN",1973,3,1974,1,1,"tv_gdp",0.464961005,0.827632743
"CAN",1973,3,1974,2,1,"tv_gdp",0.464961005,1.025739182
"CAN",1973,3,1974,3,1,"tv_gdp",0.464961005,0.01921879
"CAN",1973,3,1974,4,1,"tv_gdp",0.464961005,-0.520988065
"CAN",1974,1,1974,2,0.5,"tv_gdp",0.827632743,1.025739182
"CAN",1974,1,1974,3,0.5,"tv_gdp",0.827632743,0.01921879
"CAN",1974,1,1974,4,0.5,"tv_gdp",0.827632743,-0.520988065
"CAN",1974,1,1974,2,1.5,"tv_gdp",0.827632743,1.025739182
"CAN",1974,1,1974,3,1.5,"tv_gdp",0.827632743,0.01921879
"CAN",1974,1,1974,4,1.5,"tv_gdp",0.827632743,-0.520988065
"CAN",1974,1,1975,1,1.5,"tv_gdp",0.827632743,-0.544813179
"CAN",1974,1,1975,2,1.5,"tv_gdp",0.827632743,1.282923644
"CAN",1974,1,1975,3,1.5,"tv_gdp",0.827632743,1.918505342
"CAN",1974,1,1975,4,1.5,"tv_gdp",0.827632743,1.157163082
"CAN",1974,3,1974,4,0,"tv_gdp",0.01921879,-0.520988065
"CAN",1974,3,1974,4,1,"tv_gdp",0.01921879,-0.520988065
"CAN",1974,3,1975,1,1,"tv_gdp",0.01921879,-0.544813179
"CAN",1974,3,1975,2,1,"tv_gdp",0.01921879,1.282923644
"CAN",1974,3,1975,3,1,"tv_gdp",0.01921879,1.918505342
"CAN",1974,3,1975,4,1,"tv_gdp",0.01921879,1.157163082
"CAN",1975,1,1975,2,0.5,"tv_gdp",-0.544813179,1.282923644
"CAN",1975,1,1975,3,0.5,"tv_gdp",-0.544813179,1.918505342
"CAN",1975,1,1975,4,0.5,"tv_gdp",-0.544813179,1.157163082
"CAN",1975,1,1975,2,1.5,"tv_gdp",-0.544813179,1.282923644
"CAN",1975,1,1975,3,1.5,"tv_gdp",-0.544813179,1.918505342
"CAN",1975,1,1975,4,1.5,"tv_gdp",-0.544813179,1.157163082
"CAN",1975,1,1976,1,1.5,"tv_gdp",-0.544813179,1.742666777
"CAN",1975,1,1976,2,1.5,"tv_gdp",-0.544813179,2.156483453
"CAN",1975,1,1976,3,1.5,"tv_gdp",-0.544813179,0.461713212
"CAN",1975,1,1976,4,1.5,"tv_gdp",-0.544813179,0.161577012
"CAN",1975,3,1975,4,0,"tv_gdp",1.918505342,1.157163082
"CAN",1975,3,1975,4,1,"tv_gdp",1.918505342,1.157163082
"CAN",1975,3,1976,1,1,"tv_gdp",1.918505342,1.742666777
"CAN",1975,3,1976,2,1,"tv_gdp",1.918505342,2.156483453
"CAN",1975,3,1976,3,1,"tv_gdp",1.918505342,0.461713212
"CAN",1975,3,1976,4,1,"tv_gdp",1.918505342,0.161577012
"CAN",1976,1,1976,2,0.5,"tv_gdp",1.742666777,2.156483453
"CAN",1976,1,1976,3,0.5,"tv_gdp",1.742666777,0.461713212
"CAN",1976,1,1976,4,0.5,"tv_gdp",1.742666777,0.161577012
"CAN",1976,1,1976,2,1.5,"tv_gdp",1.742666777,2.156483453
"CAN",1976,1,1976,3,1.5,"tv_gdp",1.742666777,0.461713212
"CAN",1976,1,1976,4,1.5,"tv_gdp",1.742666777,0.161577012
"CAN",1976,1,1977,1,1.5,"tv_gdp",1.742666777,1.533829769
"CAN",1976,1,1977,2,1.5,"tv_gdp",1.742666777,0.510302318
"CAN",1976,1,1977,3,1.5,"tv_gdp",1.742666777,0.587798364
"CAN",1976,1,1977,4,1.5,"tv_gdp",1.742666777,1.584637482
"CAN",1976,3,1976,4,0,"tv_gdp",0.461713212,0.161577012
"CAN",1976,3,1976,4,1,"tv_gdp",0.461713212,0.161577012
"CAN",1976,3,1977,1,1,"tv_gdp",0.461713212,1.533829769
"CAN",1976,3,1977,2,1,"tv_gdp",0.461713212,0.510302318
"CAN",1976,3,1977,3,1,"tv_gdp",0.461713212,0.587798364
"CAN",1976,3,1977,4,1,"tv_gdp",0.461713212,1.584637482
"CAN",1977,1,1977,2,0.5,"tv_gdp",1.533829769,0.510302318
"CAN",1977,1,1977,3,0.5,"tv_gdp",1.533829769,0.587798364
"CAN",1977,1,1977,4,0.5,"tv_gdp",1.533829769,1.584637482
"CAN",1977,1,1977,2,1.5,"tv_gdp",1.533829769,0.510302318
"CAN",1977,1,1977,3,1.5,"tv_gdp",1.533829769,0.587798364
"CAN",1977,1,1977,4,1.5,"tv_gdp",1.533829769,1.584637482
"CAN",1977,1,1978,1,1.5,"tv_gdp",1.533829769,0.863597549
"CAN",1977,1,1978,2,1.5,"tv_gdp",1.533829769,0.680645726
"CAN",1977,1,1978,3,1.5,"tv_gdp",1.533829769,0.932836265
"CAN",1977,1,1978,4,1.5,"tv_gdp",1.533829769,0.948169861
"CAN",1977,3,1977,4,0,"tv_gdp",0.587798364,1.584637482
"CAN",1977,3,1977,4,1,"tv_gdp",0.587798364,1.584637482
"CAN",1977,3,1978,1,1,"tv_gdp",0.587798364,0.863597549
"CAN",1977,3,1978,2,1,"tv_gdp",0.587798364,0.680645726
"CAN",1977,3,1978,3,1,"tv_gdp",0.587798364,0.932836265
"CAN",1977,3,1978,4,1,"tv_gdp",0.587798364,0.948169861
"CAN",1978,1,1978,2,0.5,"tv_gdp",0.863597549,0.680645726
"CAN",1978,1,1978,3,0.5,"tv_gdp",0.863597549,0.932836265
"CAN",1978,1,1978,4,0.5,"tv_gdp",0.863597549,0.948169861
"CAN",1978,1,1978,2,1.5,"tv_gdp",0.863597549,0.680645726
"CAN",1978,1,1978,3,1.5,"tv_gdp",0.863597549,0.932836265
"CAN",1978,1,1978,4,1.5,"tv_gdp",0.863597549,0.948169861
"CAN",1978,1,1979,1,1.5,"tv_gdp",0.863597549,0.797819177
"CAN",1978,1,1979,2,1.5,"tv_gdp",0.863597549,1.326596172
"CAN",1978,1,1979,3,1.5,"tv_gdp",0.863597549,0.733071541
"CAN",1978,1,1979,4,1.5,"tv_gdp",0.863597549,0.670926663
"CAN",1978,3,1978,4,0,"tv_gdp",0.932836265,0.948169861
"CAN",1978,3,1978,4,1,"tv_gdp",0.932836265,0.948169861
"CAN",1978,3,1979,1,1,"tv_gdp",0.932836265,0.797819177
"CAN",1978,3,1979,2,1,"tv_gdp",0.932836265,1.326596172
"CAN",1978,3,1979,3,1,"tv_gdp",0.932836265,0.733071541
"CAN",1978,3,1979,4,1,"tv_gdp",0.932836265,0.670926663
"CAN",1979,1,1979,2,0.5,"tv_gdp",0.797819177,1.326596172
"CAN",1979,1,1979,3,0.5,"tv_gdp",0.797819177,0.733071541
"CAN",1979,1,1979,4,0.5,"tv_gdp",0.797819177,0.670926663
"CAN",1979,1,1979,2,1.5,"tv_gdp",0.797819177,1.326596172
"CAN",1979,1,1979,3,1.5,"tv_gdp",0.797819177,0.733071541
"CAN",1979,1,1979,4,1.5,"tv_gdp",0.797819177,0.670926663
"CAN",1979,1,1980,1,1.5,"tv_gdp",0.797819177,0.694332365
"CAN",1979,1,1980,2,1.5,"tv_gdp",0.797819177,-0.043713005
"CAN",1979,1,1980,3,1.5,"tv_gdp",0.797819177,-0.083091031
"CAN",1979,1,1980,4,1.5,"tv_gdp",0.797819177,1.383645399
"CAN",1979,3,1979,4,0,"tv_gdp",0.733071541,0.670926663
"CAN",1979,3,1979,4,1,"tv_gdp",0.733071541,0.670926663
"CAN",1979,3,1980,1,1,"tv_gdp",0.733071541,0.694332365
"CAN",1979,3,1980,2,1,"tv_gdp",0.733071541,-0.043713005
"CAN",1979,3,1980,3,1,"tv_gdp",0.733071541,-0.083091031
"CAN",1979,3,1980,4,1,"tv_gdp",0.733071541,1.383645399
"CAN",1980,1,1980,2,0.5,"tv_gdp",0.694332365,-0.043713005
"CAN",1980,1,1980,3,0.5,"tv_gdp",0.694332365,-0.083091031
"CAN",1980,1,1980,4,0.5,"tv_gdp",0.694332365,1.383645399
"CAN",1980,1,1980,2,1.5,"tv_gdp",0.694332365,-0.043713005
"CAN",1980,1,1980,3,1.5,"tv_gdp",0.694332365,-0.083091031
"CAN",1980,1,1980,4,1.5,"tv_gdp",0.694332365,1.383645399
"CAN",1980,1,1981,1,1.5,"tv_gdp",0.694332365,2.154351265
"CAN",1980,1,1981,2,1.5,"tv_gdp",0.694332365,1.093360409
"CAN",1980,1,1981,3,1.5,"tv_gdp",0.694332365,-0.899099935
"CAN",1980,1,1981,4,1.5,"tv_gdp",0.694332365,-0.459901898
"CAN",1980,3,1980,4,0,"tv_gdp",-0.083091031,1.383645399
"CAN",1980,3,1980,4,1,"tv_gdp",-0.083091031,1.383645399
"CAN",1980,3,1981,1,1,"tv_gdp",-0.083091031,2.154351265
"CAN",1980,3,1981,2,1,"tv_gdp",-0.083091031,1.093360409
"CAN",1980,3,1981,3,1,"tv_gdp",-0.083091031,-0.899099935
"CAN",1980,3,1981,4,1,"tv_gdp",-0.083091031,-0.459901898
"CAN",1981,1,1981,2,0.5,"tv_gdp",2.154351265,1.093360409
"CAN",1981,1,1981,3,0.5,"tv_gdp",2.154351265,-0.899099935
"CAN",1981,1,1981,4,0.5,"tv_gdp",2.154351265,-0.459901898
"CAN",1981,1,1981,2,1.5,"tv_gdp",2.154351265,1.093360409
"CAN",1981,1,1981,3,1.5,"tv_gdp",2.154351265,-0.899099935
"CAN",1981,1,1981,4,1.5,"tv_gdp",2.154351265,-0.459901898
"CAN",1981,1,1982,1,1.5,"tv_gdp",2.154351265,-1.144418136
"CAN",1981,1,1982,2,1.5,"tv_gdp",2.154351265,-1.151291383
"CAN",1981,1,1982,3,1.5,"tv_gdp",2.154351265,-0.886813665
"CAN",1981,1,1982,4,1.5,"tv_gdp",2.154351265,-0.922796955
"CAN",1981,3,1981,4,0,"tv_gdp",-0.899099935,-0.459901898
"CAN",1981,3,1981,4,1,"tv_gdp",-0.899099935,-0.459901898
"CAN",1981,3,1982,1,1,"tv_gdp",-0.899099935,-1.144418136
