isdrw/probabilistic-benchmark-forecasts/data/processed/point predictions/point_predictions_arima1_0_0.csv
"country","forecast_year","target_year","target_quarter","horizon","target","prediction","truth_value"
"CAN",1957,1957,2,0.25,"tv_cpi",0.480456737088829,0.909128943201409
"CAN",1957,1957,3,0.5,"tv_cpi",0.650158819653428,1.12484646221676
"CAN",1957,1957,4,0.75,"tv_cpi",0.764465913652954,0.446402637773557
"CAN",1957,1958,1,1,"tv_cpi",0.841460323745962,0.444502928237078
"CAN",1957,1957,3,0.25,"tv_cpi",0.979647041957222,1.12484646221676
"CAN",1957,1957,4,0.5,"tv_cpi",1.02989873912463,0.446402637773557
"CAN",1957,1958,1,0.75,"tv_cpi",1.06570845482541,0.444502928237078
"CAN",1957,1958,2,1,"tv_cpi",1.09122671213518,0.442452021284723
"CAN",1957,1957,4,0.25,"tv_cpi",1.09735504241152,0.446402637773557
"CAN",1957,1958,1,0.5,"tv_cpi",1.07794553439658,0.444502928237078
"CAN",1957,1958,2,0.75,"tv_cpi",1.0642420223899,0.442452021284723
"CAN",1957,1958,3,1,"tv_cpi",1.05456706096518,0.440503003675596
"CAN",1957,1958,1,0.25,"tv_cpi",0.584815411399332,0.444502928237078
"CAN",1957,1958,2,0.5,"tv_cpi",0.683293286269374,0.442452021284723
"CAN",1957,1958,3,0.75,"tv_cpi",0.753358292445319,0.440503003675596
"CAN",1957,1958,4,1,"tv_cpi",0.803208120103701,0.875309836767935
"CAN",1958,1958,2,0.25,"tv_cpi",0.592189079362865,0.442452021284723
"CAN",1958,1958,3,0.5,"tv_cpi",0.707358613572134,0.440503003675596
"CAN",1958,1958,4,0.75,"tv_cpi",0.797170837053282,0.875309836767935
"CAN",1958,1959,1,1,"tv_cpi",0.867208764548682,-0.218130951759887
"CAN",1958,1958,3,0.25,"tv_cpi",0.583529327044035,0.440503003675596
"CAN",1958,1958,4,0.5,"tv_cpi",0.691344099591222,0.875309836767935
"CAN",1958,1959,1,0.75,"tv_cpi",0.773738820108732,-0.218130951759887
"CAN",1958,1959,2,1,"tv_cpi",0.836706907030097,-0.437611279785477
"CAN",1958,1958,4,0.25,"tv_cpi",0.574578779035403,0.875309836767935
"CAN",1958,1959,1,0.5,"tv_cpi",0.684038728899124,-0.218130951759887
"CAN",1958,1959,2,0.75,"tv_cpi",0.773402229442116,-0.437611279785477
"CAN",1958,1959,3,1,"tv_cpi",0.846358915784837,1.09049950588749
"CAN",1958,1959,1,0.25,"tv_cpi",0.887906704113882,-0.218130951759887
"CAN",1958,1959,2,0.5,"tv_cpi",0.897040069716688,-0.437611279785477
"CAN",1958,1959,3,0.75,"tv_cpi",0.903662221474233,1.09049950588749
"CAN",1958,1959,4,1,"tv_cpi",0.908463616251037,0.863966547929484
"CAN",1959,1959,2,0.25,"tv_cpi",0.0971854302697701,-0.437611279785477
"CAN",1959,1959,3,0.5,"tv_cpi",0.306517333303737,1.09049950588749
"CAN",1959,1959,4,0.75,"tv_cpi",0.445488373583214,0.863966547929484
"CAN",1959,1960,1,1,"tv_cpi",0.537748319422554,-0.215313317344057
"CAN",1959,1959,3,0.25,"tv_cpi",-0.0535365069702429,1.09049950588749
"CAN",1959,1959,4,0.5,"tv_cpi",0.193867500328443,0.863966547929484
"CAN",1959,1960,1,0.75,"tv_cpi",0.353234236078342,-0.215313317344057
"CAN",1959,1960,2,1,"tv_cpi",0.455891249361543,0.215313317344057
"CAN",1959,1959,4,0.25,"tv_cpi",0.897113792865185,0.863966547929484
"CAN",1959,1960,1,0.5,"tv_cpi",0.782521485074416,-0.215313317344057
"CAN",1959,1960,2,0.75,"tv_cpi",0.714618862902428,0.215313317344057
"CAN",1959,1960,3,1,"tv_cpi",0.674382601091115,0
"CAN",1959,1960,1,0.25,"tv_cpi",0.742362168589748,-0.215313317344057
"CAN",1959,1960,2,0.5,"tv_cpi",0.668492017753359,0.215313317344057
"CAN",1959,1960,3,0.75,"tv_cpi",0.623618640542611,0
"CAN",1959,1960,4,1,"tv_cpi",0.596359727984574,1.28207300371712
"CAN",1960,1960,2,0.25,"tv_cpi",0.078533473169016,0.215313317344057
"CAN",1960,1960,3,0.5,"tv_cpi",0.254270578108141,0
"CAN",1960,1960,4,0.75,"tv_cpi",0.359371368892552,1.28207300371712
"CAN",1960,1961,1,1,"tv_cpi",0.42222762356532,0
"CAN",1960,1960,3,0.25,"tv_cpi",0.35126434693752,0
"CAN",1960,1960,4,0.5,"tv_cpi",0.432233651481755,1.28207300371712
"CAN",1960,1961,1,0.75,"tv_cpi",0.480457105897523,0
"CAN",1960,1961,2,1,"tv_cpi",0.509177885566801,0
"CAN",1960,1960,4,0.25,"tv_cpi",0.216997290290352,1.28207300371712
"CAN",1960,1961,1,0.5,"tv_cpi",0.347011598681856,0
"CAN",1960,1961,2,0.75,"tv_cpi",0.424909900379094,0
"CAN",1960,1961,3,1,"tv_cpi",0.471582804941578,0
"CAN",1960,1961,1,0.25,"tv_cpi",0.994943742228419,0
"CAN",1960,1961,2,0.5,"tv_cpi",0.82014611196623,0
"CAN",1960,1961,3,0.75,"tv_cpi",0.713733371631581,0
"CAN",1960,1961,4,1,"tv_cpi",0.648951765104395,0
"CAN",1961,1961,2,0.25,"tv_cpi",0.225073677881532,0
"CAN",1961,1961,3,0.5,"tv_cpi",0.36012051023523,0
"CAN",1961,1961,4,0.75,"tv_cpi",0.441150185052944,0
"CAN",1961,1962,1,1,"tv_cpi",0.489768935205249,0
"CAN",1961,1961,3,0.25,"tv_cpi",0.221031427078962,0
"CAN",1961,1961,4,0.5,"tv_cpi",0.358009128310884,0
"CAN",1961,1962,1,0.75,"tv_cpi",0.442897014539292,0
"CAN",1961,1962,2,1,"tv_cpi",0.495503775811526,0.845700362908408
"CAN",1961,1961,4,0.25,"tv_cpi",0.213818529768091,0
"CAN",1961,1962,1,0.5,"tv_cpi",0.348678420444345,0
"CAN",1961,1962,2,0.75,"tv_cpi",0.433737419460647,0.845700362908408
"CAN",1961,1962,3,1,"tv_cpi",0.487385937766388,0.629594685231627
"CAN",1961,1962,1,0.25,"tv_cpi",0.213891870297584,0
"CAN",1961,1962,2,0.5,"tv_cpi",0.334957681426562,0.845700362908408
"CAN",1961,1962,3,0.75,"tv_cpi",0.403482635665942,0.629594685231627
"CAN",1961,1962,4,1,"tv_cpi",0.442268724898901,0.417511986589947
"CAN",1962,1962,2,0.25,"tv_cpi",0.217193058326923,0.845700362908408
"CAN",1962,1962,3,0.5,"tv_cpi",0.329836036161118,0.629594685231627
"CAN",1962,1962,4,0.75,"tv_cpi",0.388256137397761,0.417511986589947
"CAN",1962,1963,1,1,"tv_cpi",0.418554592695376,0
"CAN",1962,1962,3,0.25,"tv_cpi",0.501858338581619,0.629594685231627
"CAN",1962,1962,4,0.5,"tv_cpi",0.397392433219803,0.417511986589947
"CAN",1962,1963,1,0.75,"tv_cpi",0.365653656075181,0
"CAN",1962,1963,2,1,"tv_cpi",0.356010797276925,0
"CAN",1962,1962,4,0.25,"tv_cpi",0.360479438805342,0.417511986589947
"CAN",1962,1963,1,0.5,"tv_cpi",0.313270832686168,0
"CAN",1962,1963,2,0.75,"tv_cpi",0.304989427149653,0
"CAN",1962,1963,3,1,"tv_cpi",0.30353669038621,1.44783245519062
"CAN",1962,1963,1,0.25,"tv_cpi",0.28933980306936,0
"CAN",1962,1963,2,0.5,"tv_cpi",0.266290442327915,0
"CAN",1962,1963,3,0.75,"tv_cpi",0.262145447556067,1.44783245519062
"CAN",1962,1963,4,1,"tv_cpi",0.261400048069661,0.205076991295838
"CAN",1963,1963,2,0.25,"tv_cpi",0.196459608501424,0
"CAN",1963,1963,3,0.5,"tv_cpi",0.235894127899892,1.44783245519062
"CAN",1963,1963,4,0.75,"tv_cpi",0.24380965482194,0.205076991295838
"CAN",1963,1964,1,1,"tv_cpi",0.24539850559049,0.204734934426165
"CAN",1963,1963,3,0.25,"tv_cpi",0.235293185989533,1.44783245519062
"CAN",1963,1963,4,0.5,"tv_cpi",0.271880961452328,0.205076991295838
"CAN",1963,1964,1,0.75,"tv_cpi",0.277570311561155,0.204734934426165
"CAN",1963,1964,2,1,"tv_cpi",0.278454997887432,0.611624595603377
"CAN",1963,1963,4,0.25,"tv_cpi",0.457032725457988,0.205076991295838
"CAN",1963,1964,1,0.5,"tv_cpi",0.3387256168949,0.204734934426165
"CAN",1963,1964,2,0.75,"tv_cpi",0.324599076973119,0.611624595603377
"CAN",1963,1964,3,1,"tv_cpi",0.322912287966224,0.607906478542075
"CAN",1963,1964,1,0.25,"tv_cpi",0.312412990034303,0.204734934426165
"CAN",1963,1964,2,0.5,"tv_cpi",0.321574168025112,0.611624595603377
"CAN",1963,1964,3,0.75,"tv_cpi",0.322356078876697,0.607906478542075
"CAN",1963,1964,4,1,"tv_cpi",0.322422815335746,0.20176599927848
"CAN",1964,1964,2,0.25,"tv_cpi",0.34425199604656,0.611624595603377
"CAN",1964,1964,3,0.5,"tv_cpi",0.345452913697558,0.607906478542075
"CAN",1964,1964,4,0.75,"tv_cpi",0.345463250807498,0.20176599927848
"CAN",1964,1965,1,1,"tv_cpi",0.34546333978599,0.402467294680608
"CAN",1964,1964,3,0.25,"tv_cpi",0.389948411638997,0.607906478542075
"CAN",1964,1964,4,0.5,"tv_cpi",0.377691306259186,0.20176599927848
"CAN",1964,1965,1,0.75,"tv_cpi",0.377013576114229,0.402467294680608
"CAN",1964,1965,2,1,"tv_cpi",0.376976102490959,0.998987176760613
"CAN",1964,1964,4,0.25,"tv_cpi",0.37917987863887,0.20176599927848
"CAN",1964,1965,1,0.5,"tv_cpi",0.369086965212865,0.402467294680608
"CAN",1964,1965,2,0.75,"tv_cpi",0.368641599866342,0.998987176760613
"CAN",1964,1965,3,1,"tv_cpi",0.36862194743463,0.792110893736009
"CAN",1964,1965,1,0.25,"tv_cpi",0.344523400378159,0.402467294680608
"CAN",1964,1965,2,0.5,"tv_cpi",0.354151304354142,0.998987176760613
"CAN",1964,1965,3,0.75,"tv_cpi",0.354800633455518,0.792110893736009
"CAN",1964,1965,4,1,"tv_cpi",0.354844425778639,0.589973974871771
"CAN",1965,1965,2,0.25,"tv_cpi",0.376664923276554,0.998987176760613
"CAN",1965,1965,3,0.5,"tv_cpi",0.37603228573809,0.792110893736009
"CAN",1965,1965,4,0.75,"tv_cpi",0.376016774363232,0.589973974871771
"CAN",1965,1966,1,1,"tv_cpi",0.376016394046328,1.16960743915446
"CAN",1965,1965,3,0.25,"tv_cpi",0.439844757246178,0.792110893736009
"CAN",1965,1965,4,0.5,"tv_cpi",0.407937401042467,0.589973974871771
"CAN",1965,1966,1,0.75,"tv_cpi",0.406116613807625,1.16960743915446
"CAN",1965,1966,2,1,"tv_cpi",0.406012710929136,1.34742539763972
"CAN",1965,1965,4,0.25,"tv_cpi",0.437951115345173,0.589973974871771
"CAN",1965,1966,1,0.5,"tv_cpi",0.404438145266422,1.16960743915446
"CAN",1965,1966,2,0.75,"tv_cpi",0.401266923597484,1.34742539763972
"CAN",1965,1966,3,1,"tv_cpi",0.400966841365145,0.761935035640349
"CAN",1965,1966,1,0.25,"tv_cpi",0.426092569687329,1.16960743915446
"CAN",1965,1966,2,0.5,"tv_cpi",0.414046380434692,1.34742539763972
"CAN",1965,1966,3,0.75,"tv_cpi",0.413160918930704,0.761935035640349
"CAN",1965,1966,4,1,"tv_cpi",0.413095832615139,0.378765586440188
"CAN",1966,1966,2,0.25,"tv_cpi",0.486681673379685,1.34742539763972
"CAN",1966,1966,3,0.5,"tv_cpi",0.453656067087786,0.761935035640349
"CAN",1966,1966,4,0.75,"tv_cpi",0.452058981832539,0.378765586440188
"CAN",1966,1967,1,1,"tv_cpi",0.451981748388586,0.56550763720149
"CAN",1966,1966,3,0.25,"tv_cpi",0.563925062629219,0.761935035640349
"CAN",1966,1966,4,0.5,"tv_cpi",0.491174201990717,0.378765586440188
"CAN",1966,1967,1,0.75,"tv_cpi",0.484419019526663,0.56550763720149
"CAN",1966,1967,2,1,"tv_cpi",0.483791776223668,1.4925465177654
"CAN",1966,1966,4,0.25,"tv_cpi",0.52337433780166,0.378765586440188
"CAN",1966,1967,1,0.5,"tv_cpi",0.497937359844684,0.56550763720149
"CAN",1966,1967,2,0.75,"tv_cpi",0.495225094775685,1.4925465177654
"CAN",1966,1967,3,1,"tv_cpi",0.494935894469857,1.4706660636532
"CAN",1966,1967,1,0.25,"tv_cpi",0.476954431691692,0.56550763720149
"CAN",1966,1967,2,0.5,"tv_cpi",0.487794295820272,1.4925465177654
"CAN",1966,1967,3,0.75,"tv_cpi",0.488990996464069,1.4706660636532
"CAN",1966,1967,4,1,"tv_cpi",0.48912310996788,0.364277207547525
"CAN",1967,1967,2,0.25,"tv_cpi",0.519517697953945,1.4925465177654
"CAN",1967,1967,3,0.5,"tv_cpi",0.515584897570296,1.4706660636532
"CAN",1967,1967,4,0.75,"tv_cpi",0.515248586648588,0.364277207547525
"CAN",1967,1968,1,1,"tv_cpi",0.515219827234169,1.08500507905789
"CAN",1967,1967,3,0.25,"tv_cpi",0.695834065757342,1.4706660636532
"CAN",1967,1967,4,0.5,"tv_cpi",0.575012676681359,0.364277207547525
"CAN",1967,1968,1,0.75,"tv_cpi",0.556690121258185,1.08500507905789
"CAN",1967,1968,2,1,"tv_cpi",0.55391150697637,0.538119600789955
"CAN",1967,1967,4,0.25,"tv_cpi",0.705540216502394,0.364277207547525
"CAN",1967,1968,1,0.5,"tv_cpi",0.570578873528568,1.08500507905789
"CAN",1967,1968,2,0.75,"tv_cpi",0.546772902046718,0.538119600789955
"CAN",1967,1968,3,1,"tv_cpi",0.542573742007946,1.77305718058687
"CAN",1967,1968,1,0.25,"tv_cpi",0.495860011209244,1.08500507905789
"CAN",1967,1968,2,0.5,"tv_cpi",0.516799614771859,0.538119600789955
"CAN",1967,1968,3,0.75,"tv_cpi",0.520131866290733,1.77305718058687
"CAN",1967,1968,4,1,"tv_cpi",0.52066214854521,0.874943419379193
"CAN",1968,1968,2,0.25,"tv_cpi",0.634120749268246,0.538119600789955
"CAN",1968,1968,3,0.5,"tv_cpi",0.560516524207203,1.77305718058687
"CAN",1968,1968,4,0.75,"tv_cpi",0.548501065720624,0.874943419379193
"CAN",1968,1969,1,1,"tv_cpi",0.546539612522482,0.521288623874838
"CAN",1968,1968,3,0.25,"tv_cpi",0.536276192387862,1.77305718058687
"CAN",1968,1968,4,0.5,"tv_cpi",0.536012502995265,0.874943419379193
"CAN",1968,1969,1,0.75,"tv_cpi",0.53597478368375,0.521288623874838
"CAN",1968,1969,2,1,"tv_cpi",0.535969388144524,2.0583979709349
"CAN",1968,1968,4,0.25,"tv_cpi",0.734361651394593,0.874943419379193
"CAN",1968,1969,1,0.5,"tv_cpi",0.579873087845338,0.521288623874838
"CAN",1968,1969,2,0.75,"tv_cpi",0.556895501443217,2.0583979709349
"CAN",1968,1969,3,1,"tv_cpi",0.553477970302159,1.18140940266898
"CAN",1968,1969,1,0.25,"tv_cpi",0.610231801112463,0.521288623874838
"CAN",1968,1969,2,0.5,"tv_cpi",0.567364924109692,2.0583979709349
"CAN",1968,1969,3,0.75,"tv_cpi",0.560423146653898,1.18140940266898
"CAN",1968,1969,4,1,"tv_cpi",0.559299008913641,0.502094806727849
"CAN",1969,1969,2,0.25,"tv_cpi",0.553247949916599,2.0583979709349
"CAN",1969,1969,3,0.5,"tv_cpi",0.558321510451561,1.18140940266898
"CAN",1969,1969,4,0.75,"tv_cpi",0.559126940968721,0.502094806727849
"CAN",1969,1970,1,1,"tv_cpi",0.559254803505002,1.16186358612742
"CAN",1969,1969,3,0.25,"tv_cpi",0.822735102894209,1.18140940266898
"CAN",1969,1969,4,0.5,"tv_cpi",0.635403722309631,0.502094806727849
"CAN",1969,1970,1,0.75,"tv_cpi",0.607003543701554,1.16186358612742
"CAN",1969,1970,2,1,"tv_cpi",0.60269796423882,0.493829707328164
"CAN",1969,1969,4,0.25,"tv_cpi",0.726008600638588,0.502094806727849
"CAN",1969,1970,1,0.5,"tv_cpi",0.638663494129321,1.16186358612742
"CAN",1969,1970,2,0.75,"tv_cpi",0.621910849871558,0.493829707328164
"CAN",1969,1970,3,1,"tv_cpi",0.618697720930014,0.817647968865298
"CAN",1969,1970,1,0.25,"tv_cpi",0.579288724120357,1.16186358612742
"CAN",1969,1970,2,0.5,"tv_cpi",0.595345747588899,0.493829707328164
"CAN",1969,1970,3,0.75,"tv_cpi",0.598685751715886,0.817647968865298
"CAN",1969,1970,4,1,"tv_cpi",0.599380502370648,-0.489798516943107
"CAN",1970,1970,2,0.25,"tv_cpi",0.713946822621151,0.493829707328164
"CAN",1970,1970,3,0.5,"tv_cpi",0.646243040249849,0.817647968865298
"CAN",1970,1970,4,0.75,"tv_cpi",0.636009437668202,-0.489798516943107
"CAN",1970,1971,1,1,"tv_cpi",0.634462602053838,0.489798516943107
"CAN",1970,1970,3,0.25,"tv_cpi",0.628953872013386,0.817647968865298
"CAN",1970,1970,4,0.5,"tv_cpi",0.653467938378353,-0.489798516943107
"CAN",1970,1971,1,0.75,"tv_cpi",0.657915251345253,0.489798516943107
"CAN",1970,1971,2,1,"tv_cpi",0.658722077611083,1.29450035286163
"CAN",1970,1970,4,0.25,"tv_cpi",0.681526916040902,-0.489798516943107
"CAN",1970,1971,1,0.5,"tv_cpi",0.658035602092206,0.489798516943107
"CAN",1970,1971,2,0.75,"tv_cpi",0.653981550058476,1.29450035286163
"CAN",1970,1971,3,1,"tv_cpi",0.653281915379544,1.75307894124619
"CAN",1970,1971,1,0.25,"tv_cpi",0.408817511121346,0.489798516943107
"CAN",1970,1971,2,0.5,"tv_cpi",0.573699068108495,1.29450035286163
"CAN",1970,1971,3,0.75,"tv_cpi",0.603952176205245,1.75307894124619
"CAN",1970,1971,4,1,"tv_cpi",0.609503133912328,0.629885487777981
"CAN",1971,1971,2,0.25,"tv_cpi",0.612289906842719,1.29450035286163
"CAN",1971,1971,3,0.5,"tv_cpi",0.630956406004276,1.75307894124619
"CAN",1971,1971,4,0.75,"tv_cpi",0.633800999336379,0.629885487777981
"CAN",1971,1972,1,1,"tv_cpi",0.634234487756196,1.24805068908862
"CAN",1971,1971,3,0.25,"tv_cpi",0.741424379647271,1.75307894124619
"CAN",1971,1971,4,0.5,"tv_cpi",0.671248825036911,0.629885487777981
"CAN",1971,1972,1,0.75,"tv_cpi",0.662344788876651,1.24805068908862
"CAN",1971,1972,2,1,"tv_cpi",0.661215024240185,0.925935796665911
"CAN",1971,1971,4,0.25,"tv_cpi",0.930764669303229,0.629885487777981
"CAN",1971,1972,1,0.5,"tv_cpi",0.757218395322412,1.24805068908862
"CAN",1971,1972,2,0.75,"tv_cpi",0.720592119651116,0.925935796665911
"CAN",1971,1972,3,1,"tv_cpi",0.712862284611856,2.12778527734403
"CAN",1971,1972,1,0.25,"tv_cpi",0.669738678938551,1.24805068908862
"CAN",1971,1972,2,0.5,"tv_cpi",0.678713410413964,0.925935796665911
"CAN",1971,1972,3,0.75,"tv_cpi",0.680734473287731,2.12778527734403
"CAN",1971,1972,4,1,"tv_cpi",0.681189606140553,0.749050554917297
"CAN",1972,1972,2,0.25,"tv_cpi",0.816519391062355,0.925935796665911
"CAN",1972,1972,3,0.5,"tv_cpi",0.733390624602073,2.12778527734403
"CAN",1972,1972,4,0.75,"tv_cpi",0.717376973113027,0.749050554917297
"CAN",1972,1973,1,1,"tv_cpi",0.714292156088404,1.77520019638968
"CAN",1972,1972,3,0.25,"tv_cpi",0.764713083499572,2.12778527734403
"CAN",1972,1972,4,0.5,"tv_cpi",0.738330151639148,0.749050554917297
"CAN",1972,1973,1,0.75,"tv_cpi",0.734012775508443,1.77520019638968
"CAN",1972,1973,2,1,"tv_cpi",0.733306268106135,2.17558208127699
"CAN",1972,1972,4,0.25,"tv_cpi",0.976874742210357,0.749050554917297
"CAN",1972,1973,1,0.5,"tv_cpi",0.813170611588175,1.77520019638968
"CAN",1972,1973,2,0.75,"tv_cpi",0.789885532892069,2.17558208127699
"CAN",1972,1973,3,1,"tv_cpi",0.786573491297131,2.96842485757458
"CAN",1972,1973,1,0.25,"tv_cpi",0.79530491881289,1.77520019638968
"CAN",1972,1973,2,0.5,"tv_cpi",0.798974058482534,2.17558208127699
"CAN",1972,1973,3,0.75,"tv_cpi",0.79926511395885,2.96842485757458
"CAN",1972,1973,4,1,"tv_cpi",0.799288202011615,1.79435977109055
"CAN",1973,1973,2,0.25,"tv_cpi",0.913558558401449,2.17558208127699
"CAN",1973,1973,3,0.5,"tv_cpi",0.848278867402922,2.96842485757458
"CAN",1973,1973,4,0.75,"tv_cpi",0.843333147664014,1.79435977109055
"CAN",1973,1974,1,1,"tv_cpi",0.842958450061105,2.29894237836987
"CAN",1973,1973,3,0.25,"tv_cpi",1.0804247281495,2.96842485757458
"CAN",1973,1973,4,0.5,"tv_cpi",0.908150317635935,1.79435977109055
"CAN",1973,1974,1,0.75,"tv_cpi",0.881050584037798,2.29894237836987
"CAN",1973,1974,2,1,"tv_cpi",0.876787643541292,3.41688457713851
"CAN",1973,1973,4,0.25,"tv_cpi",1.55423193846119,1.79435977109055
"CAN",1973,1974,1,0.5,"tv_cpi",1.12578481623219,2.29894237836987
"CAN",1973,1974,2,0.75,"tv_cpi",0.995981495861013,3.41688457713851
"CAN",1973,1974,3,1,"tv_cpi",0.956655984951465,2.92832219067054
"CAN",1973,1974,1,0.25,"tv_cpi",1.22016652817736,2.29894237836987
"CAN",1973,1974,2,0.5,"tv_cpi",1.03865874649088,3.41688457713851
"CAN",1973,1974,3,0.75,"tv_cpi",0.981282462079033,2.92832219067054
"CAN",1973,1974,4,1,"tv_cpi",0.96314528921338,2.84495917493341
"CAN",1974,1974,2,0.25,"tv_cpi",1.43162854257921,3.41688457713851
"CAN",1974,1974,3,0.5,"tv_cpi",1.14849282131741,2.92832219067054
"CAN",1974,1974,4,0.75,"tv_cpi",1.05606279962711,2.84495917493341
"CAN",1974,1975,1,1,"tv_cpi",1.02588889973345,1.81269853169406
"CAN",1974,1974,3,0.25,"tv_cpi",2.21007940113052,2.92832219067054
"CAN",1974,1974,4,0.5,"tv_cpi",1.64238615135304,2.84495917493341
"CAN",1974,1975,1,0.75,"tv_cpi",1.37533755705633,1.81269853169406
"CAN",1974,1975,2,1,"tv_cpi",1.24971522185365,2.3670121698423
"CAN",1974,1974,4,0.25,"tv_cpi",2.14398583655419,2.84495917493341
"CAN",1974,1975,1,0.5,"tv_cpi",1.70442407982739,1.81269853169406
"CAN",1974,1975,2,0.75,"tv_cpi",1.45808265122637,2.3670121698423
"CAN",1974,1975,3,1,"tv_cpi",1.32002673868047,3.22235435686844
"CAN",1974,1975,1,0.25,"tv_cpi",2.17017698955182,1.81269853169406
"CAN",1974,1975,2,0.5,"tv_cpi",1.77231530110065,2.3670121698423
"CAN",1974,1975,3,0.75,"tv_cpi",1.53773008743247,3.22235435686844
"CAN",1974,1975,4,1,"tv_cpi",1.39941513007639,2.01801228662699
"CAN",1975,1975,2,0.25,"tv_cpi",1.54914911578633,2.3670121698423
"CAN",1975,1975,3,0.5,"tv_cpi",1.40197537640203,3.22235435686844
"CAN",1975,1975,4,0.75,"tv_cpi",1.31978923499186,2.01801228662699
"CAN",1975,1976,1,1,"tv_cpi",1.27389407823259,1.43254982749603
"CAN",1975,1975,3,0.25,"tv_cpi",1.89228695749011,3.22235435686844
"CAN",1975,1975,4,0.5,"tv_cpi",1.62280913548222,2.01801228662699
"CAN",1975,1976,1,0.75,"tv_cpi",1.46984001847598,1.43254982749603
"CAN",1975,1976,2,1,"tv_cpi",1.38300708141526,1.41227637672539
"CAN",1975,1975,4,0.25,"tv_cpi",2.48925215256905,2.01801228662699
"CAN",1975,1976,1,0.5,"tv_cpi",2.04192229471929,1.43254982749603
"CAN",1975,1976,2,0.75,"tv_cpi",1.76896717256805,1.41227637672539
"CAN",1975,1976,3,1,"tv_cpi",1.60241334791004,1.49894882688582
"CAN",1975,1976,1,0.25,"tv_cpi",1.72906105345265,1.43254982749603
"CAN",1975,1976,2,0.5,"tv_cpi",1.56479388806725,1.41227637672539
"CAN",1975,1976,3,0.75,"tv_cpi",1.47140892020496,1.49894882688582
"CAN",1975,1976,4,1,"tv_cpi",1.41832008652246,1.3720710353391
"CAN",1976,1976,2,0.25,"tv_cpi",1.4052643065257,1.41227637672539
"CAN",1976,1976,3,0.5,"tv_cpi",1.39012700658476,1.49894882688582
"CAN",1976,1976,4,0.75,"tv_cpi",1.38172922485462,1.3720710353391
"CAN",1976,1977,1,1,"tv_cpi",1.3770703531759,2.07475676302611
"CAN",1976,1976,3,0.25,"tv_cpi",1.39525455157785,1.49894882688582
"CAN",1976,1976,4,0.5,"tv_cpi",1.38582685093227,1.3720710353391
"CAN",1976,1977,1,0.75,"tv_cpi",1.38060522876823,2.07475676302611
"CAN",1976,1977,2,1,"tv_cpi",1.37771318339588,2.5343682996434
"CAN",1976,1976,4,0.25,"tv_cpi",1.44837185215615,1.3720710353391
"CAN",1976,1977,1,0.5,"tv_cpi",1.42054756714806,2.07475676302611
"CAN",1976,1977,2,0.75,"tv_cpi",1.40524038754015,2.5343682996434
"CAN",1976,1977,3,1,"tv_cpi",1.39681933566117,2.0802817976298
"CAN",1976,1977,1,0.25,"tv_cpi",1.39180515840705,2.07475676302611
"CAN",1976,1977,2,0.5,"tv_cpi",1.40255826340092,2.5343682996434
"CAN",1976,1977,3,0.75,"tv_cpi",1.40841762014107,2.0802817976298
"CAN",1976,1977,4,1,"tv_cpi",1.4116103780866,2.03792299218417
"CAN",1977,1977,2,0.25,"tv_cpi",1.79264293806744,2.5343682996434
"CAN",1977,1977,3,0.5,"tv_cpi",1.63948086903646,2.0802817976298
"CAN",1977,1977,4,0.75,"tv_cpi",1.55632783889593,2.03792299218417
"CAN",1977,1978,1,1,"tv_cpi",1.5111833297802,1.99721980992398
"CAN",1977,1977,3,0.25,"tv_cpi",2.07303082123034,2.0802817976298
"CAN",1977,1977,4,0.5,"tv_cpi",1.8136714230655,2.03792299218417
"CAN",1977,1978,1,0.75,"tv_cpi",1.66786211737497,1.99721980992398
"CAN",1977,1978,2,1,"tv_cpi",1.58588955815257,2.3267526452325
"CAN",1977,1977,4,0.25,"tv_cpi",1.81821349940207,2.03792299218417
"CAN",1977,1978,1,0.5,"tv_cpi",1.67171937776091,1.99721980992398
"CAN",1977,1978,2,0.75,"tv_cpi",1.58983031364845,2.3267526452325
"CAN",1977,1978,3,1,"tv_cpi",1.54405496958625,2.45356152061698
"CAN",1977,1978,1,0.25,"tv_cpi",1.80499378292321,1.99721980992398
"CAN",1977,1978,2,0.5,"tv_cpi",1.67811281876917,2.3267526452325
"CAN",1977,1978,3,0.75,"tv_cpi",1.60899834782869,2.45356152061698
"CAN",1977,1978,4,1,"tv_cpi",1.57135038286221,1.69120075030964
"CAN",1978,1978,2,0.25,"tv_cpi",1.80784105235994,2.3267526452325
"CAN",1978,1978,3,0.5,"tv_cpi",1.70443717652676,2.45356152061698
"CAN",1978,1978,4,0.75,"tv_cpi",1.647976981757,1.69120075030964
"CAN",1978,1979,1,1,"tv_cpi",1.61714879888904,2.09612028715123
"CAN",1978,1978,3,0.25,"tv_cpi",2.00441575852814,2.45356152061698
"CAN",1978,1978,4,0.5,"tv_cpi",1.8263204396924,1.69120075030964
"CAN",1978,1979,1,0.75,"tv_cpi",1.72792046159653,2.09612028715123
"CAN",1978,1979,2,1,"tv_cpi",1.67355319494086,2.72824736605242
"CAN",1978,1978,4,0.25,"tv_cpi",2.09905237728657,1.69120075030964
"CAN",1978,1979,1,0.5,"tv_cpi",1.89180262612033,2.09612028715123
"CAN",1978,1979,2,0.75,"tv_cpi",1.77064225503665,2.72824736605242
"CAN",1978,1979,3,1,"tv_cpi",1.69981063551225,1.91592240920695
"CAN",1978,1979,1,0.25,"tv_cpi",1.66358766874588,2.09612028715123
"CAN",1978,1979,2,0.5,"tv_cpi",1.64817461769027,2.72824736605242
"CAN",1978,1979,3,0.75,"tv_cpi",1.63957137135232,1.91592240920695
"CAN",1978,1979,4,1,"tv_cpi",1.63476921717244,2.28393585715518
"CAN",1979,1979,2,0.25,"tv_cpi",1.89854712189637,2.72824736605242
"CAN",1979,1979,3,0.5,"tv_cpi",1.78777032465792,1.91592240920695
"CAN",1979,1979,4,0.75,"tv_cpi",1.72565916300002,2.28393585715518
"CAN",1979,1980,1,1,"tv_cpi",1.69083421320308,2.15405913261506
"CAN",1979,1979,3,0.25,"tv_cpi",2.31126349372107,1.91592240920695
"CAN",1979,1979,4,0.5,"tv_cpi",2.07135655388925,2.28393585715518
"CAN",1979,1980,1,0.75,"tv_cpi",1.93332881804978,2.15405913261506
"CAN",1979,1980,2,1,"tv_cpi",1.8539161263022,2.72496311689348
"CAN",1979,1979,4,0.25,"tv_cpi",1.82450727133311,2.28393585715518
"CAN",1979,1980,1,0.5,"tv_cpi",1.77172936343566,2.15405913261506
"CAN",1979,1980,2,0.75,"tv_cpi",1.74125839739199,2.72496311689348
"CAN",1979,1980,3,1,"tv_cpi",1.72366619245961,2.80214225188988
"CAN",1979,1980,1,0.25,"tv_cpi",2.04791743709526,2.15405913261506
"CAN",1979,1980,2,0.5,"tv_cpi",1.91254942229055,2.72496311689348
"CAN",1979,1980,3,0.75,"tv_cpi",1.83490929815313,2.80214225188988
"CAN",1979,1980,4,1,"tv_cpi",1.79037892009617,2.72578537427455
"CAN",1980,1980,2,0.25,"tv_cpi",2.01191666939176,2.72496311689348
"CAN",1980,1980,3,0.5,"tv_cpi",1.92802407903099,2.80214225188988
"CAN",1980,1980,4,0.75,"tv_cpi",1.8785106081241,2.72578537427455
"CAN",1980,1981,1,1,"tv_cpi",1.84928771977717,3.35865939464655
"CAN",1980,1980,3,0.25,"tv_cpi",2.37078033632417,2.80214225188988
"CAN",1980,1980,4,0.5,"tv_cpi",2.15412992172341,2.72578537427455
"CAN",1980,1981,1,0.75,"tv_cpi",2.02160681579705,3.35865939464655
"CAN",1980,1981,2,1,"tv_cpi",1.94054362634166,2.90877534275418
"CAN",1980,1980,4,0.25,"tv_cpi",2.44364464718836,2.72578537427455
"CAN",1980,1981,1,0.5,"tv_cpi",2.21680859257719,3.35865939464655
"CAN",1980,1981,2,0.75,"tv_cpi",2.07328017008075,2.90877534275418
"CAN",1980,1981,3,1,"tv_cpi",1.98246388384429,2.95919491678953
"CAN",1980,1981,1,0.25,"tv_cpi",2.409510284075,3.35865939464655
"CAN",1980,1981,2,0.5,"tv_cpi",2.21347602986122,2.90877534275418
"CAN",1980,1981,3,0.75,"tv_cpi",2.09196968928629,2.95919491678953
"CAN",1980,1981,4,1,"tv_cpi",2.01665738808095,2.42236849316555
"CAN",1981,1981,2,0.25,"tv_cpi",2.86603781527124,2.90877534275418
"CAN",1981,1981,3,0.5,"tv_cpi",2.54434902282448,2.95919491678953
"CAN",1981,1981,4,0.75,"tv_cpi",2.3342817348322,2.42236849316555
"CAN",1981,1982,1,1,"tv_cpi",2.19710485294956,2.49135397543214
"CAN",1981,1981,3,0.25,"tv_cpi",2.56351741391487,2.95919491678953
"CAN",1981,1981,4,0.5,"tv_cpi",2.34739073180208,2.42236849316555
"CAN",1981,1982,1,0.75,"tv_cpi",2.21209842185249,2.49135397543214
"CAN",1981,1982,2,1,"tv_cpi",2.12740730943379,3.0446532371057
"CAN",1981,1981,4,0.25,"tv_cpi",2.64604373883463,2.42236849316555
"CAN",1981,1982,1,0.5,"tv_cpi",2.43217543706456,2.49135397543214
"CAN",1981,1982,2,0.75,"tv_cpi",2.28611291607796,3.0446532371057
"CAN",1981,1982,3,1,"tv_cpi",2.18635872221012,2.1193642255005
"CAN",1981,1982,1,0.25,"tv_cpi",2.26979582092955,2.49135397543214
"CAN",1981,1982,2,0.5,"tv_cpi",2.18399736193452,3.0446532371057
"CAN",1981,1982,3,0.75,"tv_cpi",2.1357490389679,2.1193642255005
"CAN",1981,1982,4,1,"tv_cpi",2.108616842232,1.54582966761603
"CAN",1982,1982,2,0.25,"tv_cpi",2.32266016999989,3.0446532371057
"CAN",1982,1982,3,0.5,"tv_cpi",2.23571032221652,2.1193642255005
"CAN",1982,1982,4,0.75,"tv_cpi",2.19089376235424,1.54582966761603
"CAN",1982,1983,1,1,"tv_cpi",2.16779396299756,0.705450258972062
"CAN",1982,1982,3,0.25,"tv_cpi",2.63493736191869,2.1193642255005
"CAN",1982,1982,4,0.5,"tv_cpi",2.42500292870571,1.54582966761603
"CAN",1982,1983,1,0.75,"tv_cpi",2.31743456507241,0.705450258972062
"CAN",1982,1983,2,1,"tv_cpi",2.26231758079472,1.33841553760603
"CAN",1982,1982,4,0.25,"tv_cpi",2.14090854068745,1.54582966761603
"CAN",1982,1983,1,0.5,"tv_cpi",2.15213695326195,0.705450258972062
"CAN",1982,1983,2,0.75,"tv_cpi",2.15798894938478,1.33841553760603
"CAN",1982,1983,3,1,"tv_cpi",2.16103887816095,1.6055296868895
"CAN",1982,1983,1,0.25,"tv_cpi",1.8941366677511,0.705450258972062
"CAN",1982,1983,2,0.5,"tv_cpi",2.05503375615897,1.33841553760603
"CAN",1982,1983,3,0.75,"tv_cpi",2.12935862774666,1.6055296868895
"CAN",1982,1983,4,1,"tv_cpi",2.16369229152634,0.906018518969942
"CAN",1983,1983,2,0.25,"tv_cpi",1.45060163038806,1.33841553760603
"CAN",1983,1983,3,0.5,"tv_cpi",1.81255288986576,1.6055296868895
"CAN",1983,1983,4,0.75,"tv_cpi",1.98836779038528,0.906018518969942
"CAN",1983,1984,1,1,"tv_cpi",2.07376845811412,1.17679632467897
"CAN",1983,1983,3,0.25,"tv_cpi",1.77908278055603,1.6055296868895
"CAN",1983,1983,4,0.5,"tv_cpi",1.99460939435296,0.906018518969942
"CAN",1983,1984,1,0.75,"tv_cpi",2.10002163453629,1.17679632467897
"CAN",1983,1984,2,1,"tv_cpi",2.15157786782327,0.832185080159764
"CAN",1983,1983,4,0.25,"tv_cpi",1.84725483413292,0.906018518969942
"CAN",1983,1984,1,0.5,"tv_cpi",1.98230035368388,1.17679632467897
"CAN",1983,1984,2,0.75,"tv_cpi",2.05774675451872,0.832185080159764
"CAN",1983,1984,3,1,"tv_cpi",2.09989668602225,0.825316876936055
"CAN",1983,1984,1,0.25,"tv_cpi",1.45768631667196,1.17679632467897
"CAN",1983,1984,2,0.5,"tv_cpi",1.76761117149155,0.832185080159764
"CAN",1983,1984,3,0.75,"tv_cpi",1.94172576733177,0.825316876936055
"CAN",1983,1984,4,1,"tv_cpi",2.03954268008711,0.764191457831176
"CAN",1984,1984,2,0.25,"tv_cpi",1.59203098722934,0.832185080159764
"CAN",1984,1984,3,0.5,"tv_cpi",1.83337527896086,0.825316876936055
"CAN",1984,1984,4,0.75,"tv_cpi",1.97365033883576,0.764191457831176
"CAN",1984,1985,1,1,"tv_cpi",2.05518155004335,1.13545794008982
"CAN",1984,1984,3,0.25,"tv_cpi",1.30539840391516,0.825316876936055
"CAN",1984,1984,4,0.5,"tv_cpi",1.60852607621738,0.764191457831176
"CAN",1984,1985,1,0.75,"tv_cpi",1.80270147471664,1.13545794008982
"CAN",1984,1985,2,1,"tv_cpi",1.92708498974181,1.17584571170664
"CAN",1984,1984,4,0.25,"tv_cpi",1.20319807222452,0.764191457831176
"CAN",1984,1985,1,0.5,"tv_cpi",1.464061598381,1.13545794008982
"CAN",1984,1985,2,0.75,"tv_cpi",1.64414406908147,1.17584571170664
"CAN",1984,1985,3,1,"tv_cpi",1.768460782619,0.951907670712382
"CAN",1984,1985,1,0.25,"tv_cpi",1.12253445891143,1.13545794008982
"CAN",1984,1985,2,0.5,"tv_cpi",1.38006502519585,1.17584571170664
"CAN",1984,1985,3,0.75,"tv_cpi",1.56514466222196,0.951907670712382
"CAN",1984,1985,4,1,"tv_cpi",1.69815594913803,0.786376098391628
"CAN",1985,1985,2,0.25,"tv_cpi",1.36443654652299,1.17584571170664
"CAN",1985,1985,3,0.5,"tv_cpi",1.53885576996808,0.951907670712382
"CAN",1985,1985,4,0.75,"tv_cpi",1.67171562959023,0.786376098391628
"CAN",1985,1986,1,1,"tv_cpi",1.77291859306045,1.29702599916377
"CAN",1985,1985,3,0.25,"tv_cpi",1.39360879698665,0.951907670712382
"CAN",1985,1985,4,0.5,"tv_cpi",1.55540606339051,0.786376098391628
"CAN",1985,1986,1,0.75,"tv_cpi",1.67562090780318,1.29702599916377
"CAN",1985,1986,2,1,"tv_cpi",1.76494014748114,0.821349527320425
"CAN",1985,1985,4,0.25,"tv_cpi",1.20811216491764,0.786376098391628
"CAN",1985,1986,1,0.5,"tv_cpi",1.39955238719334,1.29702599916377
"CAN",1985,1986,2,0.75,"tv_cpi",1.54259967767377,0.821349527320425
"CAN",1985,1986,3,1,"tv_cpi",1.64948697163189,1.16900694062392
"CAN",1985,1986,1,0.25,"tv_cpi",1.02784152194799,1.29702599916377
"CAN",1985,1986,2,0.5,"tv_cpi",1.21417715167561,0.821349527320425
"CAN",1985,1986,3,0.75,"tv_cpi",1.35796985870011,1.16900694062392
"CAN",1985,1986,4,1,"tv_cpi",1.46893276270112,1.00555488009815
"CAN",1986,1986,2,0.25,"tv_cpi",1.43824437496642,0.821349527320425
"CAN",1986,1986,3,0.5,"tv_cpi",1.54666056544853,1.16900694062392
"CAN",1986,1986,4,0.75,"tv_cpi",1.62989385780052,1.00555488009815
"CAN",1986,1987,1,1,"tv_cpi",1.6937937322099,0.945977078179228
"CAN",1986,1986,3,0.25,"tv_cpi",1.02428038178373,1.16900694062392
"CAN",1986,1986,4,0.5,"tv_cpi",1.18918101506739,1.00555488009815
"CAN",1986,1987,1,0.75,"tv_cpi",1.32317847409978,0.945977078179228
"CAN",1986,1987,2,1,"tv_cpi",1.43206416282997,1.42683691216376
"CAN",1986,1986,4,0.25,"tv_cpi",1.29349350874281,1.00555488009815
"CAN",1986,1987,1,0.5,"tv_cpi",1.39329457917532,0.945977078179228
"CAN",1986,1987,2,0.75,"tv_cpi",1.47330524867953,1.42683691216376
"CAN",1986,1987,3,1,"tv_cpi",1.53744992374933,1.06901881020494
"CAN",1986,1987,1,0.25,"tv_cpi",1.13457514258307,0.945977078179228
"CAN",1986,1987,2,0.5,"tv_cpi",1.24000430626665,1.42683691216376
"CAN",1986,1987,3,0.75,"tv_cpi",1.32615595672015,1.06901881020494
"CAN",1986,1987,4,1,"tv_cpi",1.39655494895854,0.674372413337654
"CAN",1987,1987,2,0.25,"tv_cpi",1.07864932264897,1.42683691216376
"CAN",1987,1987,3,0.5,"tv_cpi",1.18773392888214,1.06901881020494
"CAN",1987,1987,4,0.75,"tv_cpi",1.27742451461549,0.674372413337654
"CAN",1987,1988,1,1,"tv_cpi",1.35116911934912,0.860428717407213
"CAN",1987,1987,3,0.25,"tv_cpi",1.4874816484599,1.06901881020494
"CAN",1987,1987,4,0.5,"tv_cpi",1.53659172002636,0.674372413337654
"CAN",1987,1988,1,0.75,"tv_cpi",1.57636102692029,0.860428717407213
"CAN",1987,1988,2,1,"tv_cpi",1.60856618810975,1.2769190126444
"CAN",1987,1987,4,0.25,"tv_cpi",1.1841458524331,0.674372413337654
"CAN",1987,1988,1,0.5,"tv_cpi",1.27809818192241,0.860428717407213
"CAN",1987,1988,2,0.75,"tv_cpi",1.35477035247095,1.2769190126444
"CAN",1987,1988,3,1,"tv_cpi",1.41734061303372,1.07502536716426
"CAN",1987,1988,1,0.25,"tv_cpi",0.84243609300053,0.860428717407213
"CAN",1987,1988,2,0.5,"tv_cpi",0.98294156498035,1.2769190126444
"CAN",1987,1988,3,0.75,"tv_cpi",1.1004076807757,1.07502536716426
"CAN",1987,1988,4,1,"tv_cpi",1.19861231412997,0.787219982743181
"CAN",1988,1988,2,0.25,"tv_cpi",0.996856191240588,1.2769190126444
"CAN",1988,1988,3,0.5,"tv_cpi",1.11206131755993,1.07502536716426
"CAN",1988,1988,4,0.75,"tv_cpi",1.20934539647254,0.787219982743181
"CAN",1988,1989,1,1,"tv_cpi",1.29149618535013,1.23770024456311
"CAN",1988,1988,3,0.25,"tv_cpi",1.35054418481314,1.07502536716426
"CAN",1988,1988,4,0.5,"tv_cpi",1.41169001789375,0.787219982743181
"CAN",1988,1989,1,0.75,"tv_cpi",1.4624717382346,1.23770024456311
"CAN",1988,1989,2,1,"tv_cpi",1.50464604498381,1.71639236195382
"CAN",1988,1988,4,0.25,"tv_cpi",1.17424769653934,0.787219982743181
"CAN",1988,1989,1,0.5,"tv_cpi",1.25692170897875,1.23770024456311
"CAN",1988,1989,2,0.75,"tv_cpi",1.32580733559003,1.71639236195382
"CAN",1988,1989,3,1,"tv_cpi",1.3832042057021,1.42287750412482
"CAN",1988,1989,1,0.25,"tv_cpi",0.919866492533736,1.23770024456311
"CAN",1988,1989,2,0.5,"tv_cpi",1.03124241687784,1.71639236195382
"CAN",1988,1989,3,0.75,"tv_cpi",1.12475860922313,1.42287750412482
"CAN",1988,1989,4,1,"tv_cpi",1.20327897421459,0.703909573446548
"CAN",1989,1989,2,0.25,"tv_cpi",1.30965823808536,1.71639236195382
"CAN",1989,1989,3,0.5,"tv_cpi",1.3697711602724,1.42287750412482
"CAN",1989,1989,4,0.75,"tv_cpi",1.41998883918459,0.703909573446548
"CAN",1989,1990,1,1,"tv_cpi",1.46194013989628,1.43637321563084
"CAN",1989,1989,3,0.25,"tv_cpi",1.71663504341619,1.42287750412482
"CAN",1989,1989,4,0.5,"tv_cpi",1.71683637281173,0.703909573446548
"CAN",1989,1990,1,0.75,"tv_cpi",1.71700339638706,1.43637321563084
"CAN",1989,1990,2,1,"tv_cpi",1.71714195973315,0.946235822452035
"CAN",1989,1989,4,0.25,"tv_cpi",1.45381796221517,0.703909573446548
"CAN",1989,1990,1,0.5,"tv_cpi",1.47943659077636,1.43637321563084
"CAN",1989,1990,2,0.75,"tv_cpi",1.50064875665445,0.946235822452035
"CAN",1989,1990,3,1,"tv_cpi",1.51821238150519,0.979771403063978
"CAN",1989,1990,1,0.25,"tv_cpi",0.842605171574573,1.43637321563084
"CAN",1989,1990,2,0.5,"tv_cpi",0.958683800500045,0.946235822452035
"CAN",1989,1990,3,0.75,"tv_cpi",1.05583358949897,0.979771403063978
"CAN",1989,1990,4,1,"tv_cpi",1.13714124785007,1.47279610793536
"CAN",1990,1990,2,0.25,"tv_cpi",1.47470706972222,0.946235822452035
"CAN",1990,1990,3,0.5,"tv_cpi",1.50678034874661,0.979771403063978
"CAN",1990,1990,4,0.75,"tv_cpi",1.5336155118618,1.47279610793536
"CAN",1990,1991,1,1,"tv_cpi",1.55606803312947,2.84144467061074
"CAN",1990,1990,3,0.25,"tv_cpi",1.04368647892,0.979771403063978
"CAN",1990,1990,4,0.5,"tv_cpi",1.1244683715685,1.47279610793536
"CAN",1990,1991,1,0.75,"tv_cpi",1.19143266320486,2.84144467061074
"CAN",1990,1991,2,1,"tv_cpi",1.24694283024032,0.728160905900221
"CAN",1990,1990,4,0.25,"tv_cpi",1.07049803325769,1.47279610793536
"CAN",1990,1991,1,0.5,"tv_cpi",1.14642473789461,2.84144467061074
"CAN",1990,1991,2,0.75,"tv_cpi",1.20996577832248,0.728160905900221
"CAN",1990,1991,3,1,"tv_cpi",1.26314158567462,0.602776511185432
"CAN",1990,1991,1,0.25,"tv_cpi",1.48655229551635,2.84144467061074
"CAN",1990,1991,2,0.5,"tv_cpi",1.49788526020087,0.728160905900221
"CAN",1990,1991,3,0.75,"tv_cpi",1.50722186511298,0.602776511185432
"CAN",1990,1991,4,1,"tv_cpi",1.5149137792512,-0.160390549892142
"CAN",1991,1991,2,0.25,"tv_cpi",2.66199603484905,0.728160905900221
"CAN",1991,1991,3,0.5,"tv_cpi",2.51203966501328,0.602776511185432
"CAN",1991,1991,4,0.75,"tv_cpi",2.38672852648677,-0.160390549892142
"CAN",1991,1992,1,1,"tv_cpi",2.28201219162213,0.400487469734934
"CAN",1991,1991,3,0.25,"tv_cpi",0.939311265621849,0.602776511185432
"CAN",1991,1991,4,0.5,"tv_cpi",1.09251227290604,-0.160390549892142
"CAN",1991,1992,1,0.75,"tv_cpi",1.20366789046612,0.400487469734934
"CAN",1991,1992,2,1,"tv_cpi",1.28431730350975,0.518230733074621
"CAN",1991,1991,4,0.25,"tv_cpi",0.843439778341325,-0.160390549892142
"CAN",1991,1992,1,0.5,"tv_cpi",1.0149737312915,0.400487469734934
"CAN",1991,1992,2,0.75,"tv_cpi",1.13723541818055,0.518230733074621
"CAN",1991,1992,3,1,"tv_cpi",1.22437804985126,0.436433483245668
"CAN",1991,1992,1,0.25,"tv_cpi",0.217927378803776,0.400487469734934
"CAN",1991,1992,2,0.5,"tv_cpi",0.503338686317447,0.518230733074621
"CAN",1991,1992,3,0.75,"tv_cpi",0.718659209818564,0.436433483245668
"CAN",1991,1992,4,1,"tv_cpi",0.881101715144231,0.43452204872283
"CAN",1992,1992,2,0.25,"tv_cpi",0.695764934995601,0.518230733074621
"CAN",1992,1992,3,0.5,"tv_cpi",0.895695221172265,0.436433483245668
"CAN",1992,1992,4,0.75,"tv_cpi",1.03106660583041,0.43452204872283
"CAN",1992,1993,1,1,"tv_cpi",1.12272561425132,0.706981692162945
"CAN",1992,1992,3,0.25,"tv_cpi",0.789073723918835,0.436433483245668
"CAN",1992,1992,4,0.5,"tv_cpi",0.961833709259819,0.43452204872283
"CAN",1992,1993,1,0.75,"tv_cpi",1.07203044147721,0.706981692162945
"CAN",1992,1993,2,1,"tv_cpi",1.14232055968614,0.195514019837706
"CAN",1992,1992,4,0.25,"tv_cpi",0.752239668854892,0.43452204872283
"CAN",1992,1993,1,0.5,"tv_cpi",0.935007471691052,0.706981692162945
"CAN",1992,1993,2,0.75,"tv_cpi",1.04078142823695,0.195514019837706
"CAN",1992,1993,3,1,"tv_cpi",1.10199642185049,0.389855442450138
"CAN",1992,1993,1,0.25,"tv_cpi",0.754743240185264,0.706981692162945
"CAN",1992,1993,2,0.5,"tv_cpi",0.930299511093937,0.195514019837706
"CAN",1992,1993,3,0.75,"tv_cpi",1.02654549692206,0.389855442450138
"CAN",1992,1993,4,1,"tv_cpi",1.07931085665591,0.504568081301926
"CAN",1993,1993,2,0.25,"tv_cpi",0.914726282463121,0.195514019837706
"CAN",1993,1993,3,0.5,"tv_cpi",1.01771507605361,0.389855442450138
"CAN",1993,1993,4,0.75,"tv_cpi",1.06877147944731,0.504568081301926
"CAN",1993,1994,1,1,"tv_cpi",1.09408254715304,-0.543476434298906
"CAN",1993,1993,3,0.25,"tv_cpi",0.726800867006133,0.389855442450138
"CAN",1993,1993,4,0.5,"tv_cpi",0.917301888326929,0.504568081301926
"CAN",1993,1994,1,0.75,"tv_cpi",0.985608941885064,-0.543476434298906
"CAN",1993,1994,2,1,"tv_cpi",1.01010148021081,-0.350947089453157
"CAN",1993,1993,4,0.25,"tv_cpi",0.783182288627321,0.504568081301926
"CAN",1993,1994,1,0.5,"tv_cpi",0.914713706911524,-0.543476434298906
"CAN",1993,1994,2,0.75,"tv_cpi",0.958698789963954,-0.350947089453157
"CAN",1993,1994,3,1,"tv_cpi",0.973407728378568,0.545381899008923
"CAN",1993,1994,1,0.25,"tv_cpi",0.784969617957407,-0.543476434298906
"CAN",1993,1994,2,0.5,"tv_cpi",0.888195375772622,-0.350947089453157
"CAN",1993,1994,3,0.75,"tv_cpi",0.926196440972267,0.545381899008923
"CAN",1993,1994,4,1,"tv_cpi",0.940185981827881,0.31031442868148
"CAN",1994,1994,2,0.25,"tv_cpi",0.27258412312182,-0.350947089453157
"CAN",1994,1994,3,0.5,"tv_cpi",0.630714802733679,0.545381899008923
"CAN",1994,1994,4,0.75,"tv_cpi",0.787881550364061,0.31031442868148
"CAN",1994,1995,1,1,"tv_cpi",0.856854659809706,1.0019481442165
"CAN",1994,1994,3,0.25,"tv_cpi",0.256841870862188,0.545381899008923
"CAN",1994,1994,4,0.5,"tv_cpi",0.564272810970161,0.31031442868148
"CAN",1994,1995,1,0.75,"tv_cpi",0.719777088123591,1.0019481442165
"CAN",1994,1995,2,1,"tv_cpi",0.798434038541522,0.801992688062469
"CAN",1994,1994,4,0.25,"tv_cpi",0.709853117688579,0.31031442868148
"CAN",1994,1995,1,0.5,"tv_cpi",0.788592833468902,1.0019481442165
"CAN",1994,1995,2,0.75,"tv_cpi",0.826289051025614,0.801992688062469
"CAN",1994,1995,3,1,"tv_cpi",0.844335913450766,0.189987130897684
"CAN",1994,1995,1,0.25,"tv_cpi",0.584639296193178,1.0019481442165
"CAN",1994,1995,2,0.5,"tv_cpi",0.719116716242387,0.801992688062469
"CAN",1994,1995,3,0.75,"tv_cpi",0.785039199563444,0.189987130897684
"CAN",1994,1995,4,1,"tv_cpi",0.817355210724463,0.0379627963394746
"CAN",1995,1995,2,0.25,"tv_cpi",0.923000131867666,0.801992688062469
"CAN",1995,1995,3,0.5,"tv_cpi",0.885542118788502,0.189987130897684
"CAN",1995,1995,4,0.75,"tv_cpi",0.867769628993077,0.0379627963394746
"CAN",1995,1996,1,1,"tv_cpi",0.859337217138743,0.416584944468834
"CAN",1995,1995,3,0.25,"tv_cpi",0.825702672123332,0.189987130897684
"CAN",1995,1995,4,0.5,"tv_cpi",0.836920394177089,0.0379627963394746
"CAN",1995,1996,1,0.75,"tv_cpi",0.842227748570593,0.416584944468834
"CAN",1995,1996,2,1,"tv_cpi",0.844738776257253,0.79052054952351
"CAN",1995,1995,4,0.25,"tv_cpi",0.520654035115174,0.0379627963394746
"CAN",1995,1996,1,0.5,"tv_cpi",0.677719045631393,0.416584944468834
"CAN",1995,1996,2,0.75,"tv_cpi",0.752324085367194,0.79052054952351
"CAN",1995,1996,3,1,"tv_cpi",0.787761080122978,0.149874121723226
"CAN",1995,1996,1,0.25,"tv_cpi",0.422136578948034,0.416584944468834
"CAN",1995,1996,2,0.5,"tv_cpi",0.614483557452507,0.79052054952351
"CAN",1995,1996,3,0.75,"tv_cpi",0.710787266384924,0.149874121723226
"CAN",1995,1996,4,1,"tv_cpi",0.759004318850472,0.597246179584676
"CAN",1996,1996,2,0.25,"tv_cpi",0.609737589221887,0.79052054952351
"CAN",1996,1996,3,0.5,"tv_cpi",0.705803863291371,0.149874121723226
"CAN",1996,1996,4,0.75,"tv_cpi",0.753583323031062,0.597246179584676
"CAN",1996,1997,1,1,"tv_cpi",0.777346884126037,0.556692742458331
"CAN",1996,1996,3,0.25,"tv_cpi",0.793118952687341,0.149874121723226
"CAN",1996,1996,4,0.5,"tv_cpi",0.794391254887708,0.597246179584676
"CAN",1996,1997,1,0.75,"tv_cpi",0.795014234766887,0.556692742458331
"CAN",1996,1997,2,1,"tv_cpi",0.795319275448063,0.295635791469806
"CAN",1996,1996,4,0.25,"tv_cpi",0.462211431437482,0.597246179584676
"CAN",1996,1997,1,0.5,"tv_cpi",0.615000605920368,0.556692742458331
"CAN",1996,1997,2,0.75,"tv_cpi",0.689742018851531,0.295635791469806
"CAN",1996,1997,3,1,"tv_cpi",0.726304025458696,0.25797503179863
"CAN",1996,1997,1,0.25,"tv_cpi",0.688671902196809,0.556692742458331
"CAN",1996,1997,2,0.5,"tv_cpi",0.733667444143894,0.295635791469806
"CAN",1996,1997,3,0.75,"tv_cpi",0.755812183471808,0.25797503179863
"CAN",1996,1997,4,1,"tv_cpi",0.766710807172751,-0.073647259255516
"CAN",1997,1997,2,0.25,"tv_cpi",0.655101884434368,0.295635791469806
"CAN",1997,1997,3,0.5,"tv_cpi",0.703484126077064,0.25797503179863
"CAN",1997,1997,4,0.75,"tv_cpi",0.727270953798234,-0.073647259255516
"CAN",1997,1998,1,1,"tv_cpi",0.738965599474538,0.550953440040391
"CAN",1997,1997,3,0.25,"tv_cpi",0.518210381899942,0.25797503179863
"CAN",1997,1997,4,0.5,"tv_cpi",0.629459725171127,-0.073647259255516
"CAN",1997,1998,1,0.75,"tv_cpi",0.685065427306091,0.550953440040391
"CAN",1997,1998,2,1,"tv_cpi",0.712858796857813,0.256087564166396
"CAN",1997,1997,4,0.25,"tv_cpi",0.486397675097093,-0.073647259255516
"CAN",1997,1998,1,0.5,"tv_cpi",0.601010390949704,0.550953440040391
"CAN",1997,1998,2,0.75,"tv_cpi",0.658518151325052,0.256087564166396
"CAN",1997,1998,3,1,"tv_cpi",0.687373086650389,0.109549393622732
"CAN",1997,1998,1,0.25,"tv_cpi",0.29352540836386,0.550953440040391
"CAN",1997,1998,2,0.5,"tv_cpi",0.482713997878712,0.256087564166396
"CAN",1997,1998,3,0.75,"tv_cpi",0.580194898716686,0.109549393622732
"CAN",1997,1998,4,1,"tv_cpi",0.630422695501635,0.182311442729333
"CAN",1998,1998,2,0.25,"tv_cpi",0.624387110836804,0.256087564166396
"CAN",1998,1998,3,0.5,"tv_cpi",0.6617332546795,0.109549393622732
"CAN",1998,1998,4,0.75,"tv_cpi",0.680726373841227,0.182311442729333
"CAN",1998,1999,1,1,"tv_cpi",0.690385699768183,0.218341422147095
"CAN",1998,1998,3,0.25,"tv_cpi",0.459421495947929,0.109549393622732
"CAN",1998,1998,4,0.5,"tv_cpi",0.560469523677415,0.182311442729333
"CAN",1998,1999,1,0.75,"tv_cpi",0.610685952477846,0.218341422147095
"CAN",1998,1999,2,1,"tv_cpi",0.635641310619219,1.0846129043383
"CAN",1998,1998,4,0.25,"tv_cpi",0.365722468620247,0.182311442729333
"CAN",1998,1999,1,0.5,"tv_cpi",0.495181914356054,0.218341422147095
"CAN",1998,1999,2,0.75,"tv_cpi",0.560605449168933,1.0846129043383
"CAN",1998,1999,3,1,"tv_cpi",0.593667840893882,0.680890936718725
"CAN",1998,1999,1,0.25,"tv_cpi",0.396830167212639,0.218341422147095
"CAN",1998,1999,2,0.5,"tv_cpi",0.506778157131517,1.0846129043383
"CAN",1998,1999,3,0.75,"tv_cpi",0.563130163308686,0.680890936718725
"CAN",1998,1999,4,1,"tv_cpi",0.592012443035079,0.356498750269996
"CAN",1999,1999,2,0.25,"tv_cpi",0.409968983756631,1.0846129043383
"CAN",1999,1999,3,0.5,"tv_cpi",0.509946020497653,0.680890936718725
"CAN",1999,1999,4,0.75,"tv_cpi",0.562106616768677,0.356498750269996
"CAN",1999,2000,1,1,"tv_cpi",0.589320143914879,0.496980776755063
"CAN",1999,1999,3,0.25,"tv_cpi",0.85253118990164,0.680890936718725
"CAN",1999,1999,4,0.5,"tv_cpi",0.738434745387093,0.356498750269996
"CAN",1999,2000,1,0.75,"tv_cpi",0.682342438923139,0.496980776755063
"CAN",1999,2000,2,1,"tv_cpi",0.654766234793089,0.881380941246768
"CAN",1999,1999,4,0.25,"tv_cpi",0.641423824021567,0.356498750269996
"CAN",1999,2000,1,0.5,"tv_cpi",0.622413942645472,0.496980776755063
"CAN",1999,2000,2,0.75,"tv_cpi",0.613257570029462,0.881380941246768
"CAN",1999,2000,3,1,"tv_cpi",0.608847276360369,0.943241478863577
"CAN",1999,2000,1,0.25,"tv_cpi",0.480866174663366,0.496980776755063
"CAN",1999,2000,2,0.5,"tv_cpi",0.541193072590873,0.881380941246768
"CAN",1999,2000,3,0.75,"tv_cpi",0.570455836785817,0.943241478863577
"CAN",1999,2000,4,1,"tv_cpi",0.584650323784932,0.693001314700403
"CAN",2000,2000,2,0.25,"tv_cpi",0.547703376985355,0.881380941246768
"CAN",2000,2000,3,0.5,"tv_cpi",0.571876930059124,0.943241478863577
"CAN",2000,2000,4,0.75,"tv_cpi",0.583397645983726,0.693001314700403
"CAN",2000,2001,1,1,"tv_cpi",0.588888228812421,0.206968662514129
"CAN",2000,2000,3,0.25,"tv_cpi",0.704368913547852,0.943241478863577
"CAN",2000,2000,4,0.5,"tv_cpi",0.629024661010614,0.693001314700403
"CAN",2000,2001,1,0.75,"tv_cpi",0.596954770256914,0.206968662514129
"CAN",2000,2001,2,1,"tv_cpi",0.58330438740328,1.67439093095751
"CAN",2000,2000,4,0.25,"tv_cpi",0.717014594319465,0.693001314700403
"CAN",2000,2001,1,0.5,"tv_cpi",0.621535012179919,0.206968662514129
"CAN",2000,2001,2,0.75,"tv_cpi",0.581237632741957,1.67439093095751
"CAN",2000,2001,3,1,"tv_cpi",0.564230030140661,0.101609145874004
"CAN",2000,2001,1,0.25,"tv_cpi",0.618455277277284,0.206968662514129
"CAN",2000,2001,2,0.5,"tv_cpi",0.585815152688856,1.67439093095751
"CAN",2000,2001,3,0.75,"tv_cpi",0.571523611917868,0.101609145874004
"CAN",2000,2001,4,1,"tv_cpi",0.565266033548169,-0.918220643692003
"CAN",2001,2001,2,0.25,"tv_cpi",0.390596055742837,1.67439093095751
"CAN",2001,2001,3,0.5,"tv_cpi",0.465277267358333,0.101609145874004
"CAN",2001,2001,4,0.75,"tv_cpi",0.495650096108409,-0.918220643692003
"CAN",2001,2002,1,1,"tv_cpi",0.508002717421398,0.680980424390487
"CAN",2001,2001,3,0.25,"tv_cpi",0.960505245826474,0.101609145874004
"CAN",2001,2001,4,0.5,"tv_cpi",0.700419693556328,-0.918220643692003
"CAN",2001,2002,1,0.75,"tv_cpi",0.605664334388073,0.680980424390487
"CAN",2001,2002,2,1,"tv_cpi",0.571142700976545,1.481995338166
"CAN",2001,2001,4,0.25,"tv_cpi",0.402065620669248,-0.918220643692003
"CAN",2001,2002,1,0.5,"tv_cpi",0.484599350866016,0.680980424390487
"CAN",2001,2002,2,0.75,"tv_cpi",0.507270909616198,1.481995338166
"CAN",2001,2002,3,1,"tv_cpi",0.513498661287394,1.0642054824225
"CAN",2001,2002,1,0.25,"tv_cpi",0.151688779752776,0.680980424390487
"CAN",2001,2002,2,0.5,"tv_cpi",0.393098530214604,1.481995338166
"CAN",2001,2002,3,0.75,"tv_cpi",0.447569185712153,1.0642054824225
"CAN",2001,2002,4,1,"tv_cpi",0.459859709622876,0.494970408705875
"CAN",2002,2002,2,0.25,"tv_cpi",0.422849653807066,1.481995338166
"CAN",2002,2002,3,0.5,"tv_cpi",0.40924954619897,1.0642054824225
"CAN",2002,2002,4,0.75,"tv_cpi",0.408532998820547,0.494970408705875
"CAN",2002,2003,1,1,"tv_cpi",0.408495246167383,1.34053425049219
"CAN",2002,2002,3,0.25,"tv_cpi",0.512719281632878,1.0642054824225
"CAN",2002,2002,4,0.5,"tv_cpi",0.434254416615214,0.494970408705875
"CAN",2002,2003,1,0.75,"tv_cpi",0.427902526458904,1.34053425049219
"CAN",2002,2003,2,1,"tv_cpi",0.42738832805241,-0.162518800159273
"CAN",2002,2002,4,0.25,"tv_cpi",0.535071018105889,0.494970408705875
"CAN",2002,2003,1,0.5,"tv_cpi",0.451272774326661,1.34053425049219
"CAN",2002,2003,2,0.75,"tv_cpi",0.438001770198151,-0.162518800159273
"CAN",2002,2003,3,1,"tv_cpi",0.435900060870651,0.389612147274132
"CAN",2002,2003,1,0.25,"tv_cpi",0.457076076471585,1.34053425049219
"CAN",2002,2003,2,0.5,"tv_cpi",0.451283196799184,-0.162518800159273
"CAN",2002,2003,3,0.75,"tv_cpi",0.450397643395276,0.389612147274132
"CAN",2002,2003,4,1,"tv_cpi",0.45026226947496,0.161887350326229
"CAN",2003,2003,2,0.25,"tv_cpi",0.611385889409798,-0.162518800159273
"CAN",2003,2003,3,0.5,"tv_cpi",0.496824403480539,0.389612147274132
"CAN",2003,2003,4,0.75,"tv_cpi",0.478824864897147,0.161887350326229
"CAN",2003,2004,1,1,"tv_cpi",0.475996834284703,0.516302486589382
"CAN",2003,2003,3,0.25,"tv_cpi",0.39785318193503,0.389612147274132
"CAN",2003,2003,4,0.5,"tv_cpi",0.449453292217676,0.161887350326229
"CAN",2003,2004,1,0.75,"tv_cpi",0.454204727810923,0.516302486589382
"CAN",2003,2004,2,1,"tv_cpi",0.454642248972663,1.12019049884955
"CAN",2003,2003,4,0.25,"tv_cpi",0.448848917764729,0.161887350326229
"CAN",2003,2004,1,0.5,"tv_cpi",0.454329656518882,0.516302486589382
"CAN",2003,2004,2,0.75,"tv_cpi",0.454836748601088,1.12019049884955
"CAN",2003,2004,3,1,"tv_cpi",0.454883666068126,0.190779686386655
"CAN",2003,2004,1,0.25,"tv_cpi",0.42151359474179,0.516302486589382
"CAN",2003,2004,2,0.5,"tv_cpi",0.446223635786609,1.12019049884955
"CAN",2003,2004,3,0.75,"tv_cpi",0.448575424720008,0.190779686386655
"CAN",2003,2004,4,1,"tv_cpi",0.448799257257447,0.443738244572423
"CAN",2004,2004,2,0.25,"tv_cpi",0.45128602518749,1.12019049884955
"CAN",2004,2004,3,0.5,"tv_cpi",0.444828005460191,0.190779686386655
"CAN",2004,2004,4,0.75,"tv_cpi",0.444186536855181,0.443738244572423
"CAN",2004,2005,1,1,"tv_cpi",0.444122820423737,0.347274516510243
"CAN",2004,2004,3,0.25,"tv_cpi",0.533586673547148,0.190779686386655
"CAN",2004,2004,4,0.5,"tv_cpi",0.473834551160039,0.443738244572423
"CAN",2004,2005,1,0.75,"tv_cpi",0.467748133077232,0.347274516510243
"CAN",2004,2005,2,1,"tv_cpi",0.467128163717169,0.909809206981915
"CAN",2004,2004,4,0.25,"tv_cpi",0.438461650552034,0.443738244572423
"CAN",2004,2005,1,0.5,"tv_cpi",0.458775100610643,0.347274516510243
"CAN",2004,2005,2,0.75,"tv_cpi",0.460441092943489,0.909809206981915
"CAN",2004,2005,3,1,"tv_cpi",0.460577728052005,0.870659028490195
"CAN",2004,2005,1,0.25,"tv_cpi",0.455979954769366,0.347274516510243
"CAN",2004,2005,2,0.5,"tv_cpi",0.457137700514451,0.909809206981915
"CAN",2004,2005,3,0.75,"tv_cpi",0.457247192994562,0.870659028490195
"CAN",2004,2005,4,1,"tv_cpi",0.457257548120678,0.0618966252139863
"CAN",2005,2005,2,0.25,"tv_cpi",0.478037997310181,0.909809206981915
"CAN",2005,2005,3,0.5,"tv_cpi",0.479622826129258,0.870659028490195
"CAN",2005,2005,4,0.75,"tv_cpi",0.479642033956783,0.0618966252139863
"CAN",2005,2006,1,1,"tv_cpi",0.479642266752044,0.493821971686703
"CAN",2005,2005,3,0.25,"tv_cpi",0.512440212698114,0.870659028490195
"CAN",2005,2005,4,0.5,"tv_cpi",0.508694630710353,0.0618966252139863
"CAN",2005,2006,1,0.75,"tv_cpi",0.50865932502564,0.493821971686703
"CAN",2005,2006,2,1,"tv_cpi",0.508658992235868,1.10228056003638
"CAN",2005,2005,4,0.25,"tv_cpi",0.52494089553706,0.0618966252139863
"CAN",2005,2006,1,0.5,"tv_cpi",0.516267411110891,0.493821971686703
"CAN",2005,2006,2,0.75,"tv_cpi",0.516049808026412,1.10228056003638
"CAN",2005,2006,3,1,"tv_cpi",0.516044348732309,0.0608907052648711
"CAN",2005,2006,1,0.25,"tv_cpi",0.501919410658263,0.493821971686703
"CAN",2005,2006,2,0.5,"tv_cpi",0.510172111160881,1.10228056003638
"CAN",2005,2006,3,0.75,"tv_cpi",0.510326891930966,0.0608907052648711
"CAN",2005,2006,4,1,"tv_cpi",0.510329794870044,-0.304790201733152
"CAN",2006,2006,2,0.25,"tv_cpi",0.498768574389145,1.10228056003638
"CAN",2006,2006,3,0.5,"tv_cpi",0.498785408775807,0.0608907052648711
"CAN",2006,2006,4,0.75,"tv_cpi",0.49878546606696,-0.304790201733152
"CAN",2006,2007,1,1,"tv_cpi",0.498785466261935,0.941833670279557
"CAN",2006,2006,3,0.25,"tv_cpi",0.513414776406215,0.0608907052648711
"CAN",2006,2006,4,0.5,"tv_cpi",0.505772725185282,-0.304790201733152
"CAN",2006,2007,1,0.75,"tv_cpi",0.505673549874903,0.941833670279557
"CAN",2006,2007,2,1,"tv_cpi",0.505672262819647,1.47083255589164
"CAN",2006,2006,4,0.25,"tv_cpi",0.516481516261013,-0.304790201733152
"CAN",2006,2007,1,0.5,"tv_cpi",0.502856854565362,0.941833670279557
"CAN",2006,2007,2,0.75,"tv_cpi",0.503264306607503,1.47083255589164
"CAN",2006,2007,3,1,"tv_cpi",0.503252121558776,0
"CAN",2006,2007,1,0.25,"tv_cpi",0.492075326133807,0.941833670279557
"CAN",2006,2007,2,0.5,"tv_cpi",0.494786283510598,1.47083255589164
"CAN",2006,2007,3,0.75,"tv_cpi",0.494795506258529,0
"CAN",2006,2007,4,1,"tv_cpi",0.494795537634559,-0.0298056861587348
"CAN",2007,2007,2,0.25,"tv_cpi",0.493846016401056,1.47083255589164
"CAN",2007,2007,3,0.5,"tv_cpi",0.506703324451274,0
"CAN",2007,2007,4,0.75,"tv_cpi",0.506334317919806,-0.0298056861587348
"CAN",2007,2008,1,1,"tv_cpi",0.506344908458644,0.327329834585477
"CAN",2007,2007,3,0.25,"tv_cpi",0.542510824730735,0
"CAN",2007,2007,4,0.5,"tv_cpi",0.522966912381964,-0.0298056861587348
"CAN",2007,2008,1,0.75,"tv_cpi",0.522555455343876,0.327329834585477
"CAN",2007,2008,2,1,"tv_cpi",0.522546792958823,2.02918956180236
"CAN",2007,2007,4,0.25,"tv_cpi",0.530257713393177,-0.0298056861587348
"CAN",2007,2008,1,0.5,"tv_cpi",0.518826752616483,0.327329834585477
"CAN",2007,2008,2,0.75,"tv_cpi",0.519073174047003,2.02918956180236
"CAN",2007,2008,3,1,"tv_cpi",0.519067861849489,1.04258444528922
"CAN",2007,2008,1,0.25,"tv_cpi",0.503004908855022,0.327329834585477
"CAN",2007,2008,2,0.5,"tv_cpi",0.504568482622398,2.02918956180236
"CAN",2007,2008,3,0.75,"tv_cpi",0.50457307105016,1.04258444528922
"CAN",2007,2008,4,1,"tv_cpi",0.504573084515255,-1.50947114900948
"CAN",2008,2008,2,0.25,"tv_cpi",0.49726113574796,2.02918956180236
"CAN",2008,2008,3,0.5,"tv_cpi",0.499266754565781,1.04258444528922
"CAN",2008,2008,4,0.75,"tv_cpi",0.499290425936594,-1.50947114900948
"CAN",2008,2009,1,1,"tv_cpi",0.499290705318593,-0.322247506666695
"CAN",2008,2008,3,0.25,"tv_cpi",0.514536578258143,1.04258444528922
"CAN",2008,2008,4,0.5,"tv_cpi",0.538739786628099,-1.50947114900948
"CAN",2008,2009,1,0.75,"tv_cpi",0.538353034479743,-0.322247506666695
"CAN",2008,2009,2,1,"tv_cpi",0.538359214537444,0.847337933786196
"CAN",2008,2008,4,0.25,"tv_cpi",0.569622651929775,-1.50947114900948
"CAN",2008,2009,1,0.5,"tv_cpi",0.556885402503337,-0.322247506666695
"CAN",2008,2009,2,0.75,"tv_cpi",0.556542377918203,0.847337933786196
"CAN",2008,2009,3,1,"tv_cpi",0.55653313998448,0.116316949660789
"CAN",2008,2009,1,0.25,"tv_cpi",0.614696377805226,-0.322247506666695
"CAN",2008,2009,2,0.5,"tv_cpi",0.522027294236047,0.847337933786196
"CAN",2008,2009,3,0.75,"tv_cpi",0.526070082265308,0.116316949660789
"CAN",2008,2009,4,1,"tv_cpi",0.52589371130727,0.145197920492812
"CAN",2009,2009,2,0.25,"tv_cpi",0.452235984355896,0.847337933786196
"CAN",2009,2009,3,0.5,"tv_cpi",0.499493090378376,0.116316949660789
"CAN",2009,2009,4,0.75,"tv_cpi",0.5023766044823,0.145197920492812
"CAN",2009,2010,1,1,"tv_cpi",0.50255254952607,0.492110663284873
"CAN",2009,2009,3,0.25,"tv_cpi",0.530222016572732,0.116316949660789
"CAN",2009,2009,4,0.5,"tv_cpi",0.518001816406042,0.145197920492812
"CAN",2009,2010,1,0.75,"tv_cpi",0.517530905663289,0.492110663284873
"CAN",2009,2010,2,1,"tv_cpi",0.517512758912449,0.633283564390474
"CAN",2009,2009,4,0.25,"tv_cpi",0.507590998519317,0.145197920492812
"CAN",2009,2010,1,0.5,"tv_cpi",0.517085288666295,0.492110663284873
"CAN",2009,2010,2,0.75,"tv_cpi",0.517315668231865,0.633283564390474
"CAN",2009,2010,3,1,"tv_cpi",0.517321258406951,0.543707395001736
"CAN",2009,2010,1,0.25,"tv_cpi",0.506526171377561,0.492110663284873
"CAN",2009,2010,2,0.5,"tv_cpi",0.516208307450676,0.633283564390474
"CAN",2009,2010,3,0.75,"tv_cpi",0.516467749547188,0.543707395001736
"CAN",2009,2010,4,1,"tv_cpi",0.516474701546306,0.569151753397001
"CAN",2010,2010,2,0.25,"tv_cpi",0.522419710027083,0.633283564390474
"CAN",2010,2010,3,0.5,"tv_cpi",0.523531530568548,0.543707395001736
"CAN",2010,2010,4,0.75,"tv_cpi",0.523572315253297,0.569151753397001
"CAN",2010,2011,1,1,"tv_cpi",0.523573811349518,0.819570688633764
"CAN",2010,2010,3,0.25,"tv_cpi",0.516848848250908,0.543707395001736
"CAN",2010,2010,4,0.5,"tv_cpi",0.51318923715848,0.569151753397001
"CAN",2010,2011,1,0.75,"tv_cpi",0.513074213445692,0.819570688633764
"CAN",2010,2011,2,1,"tv_cpi",0.513070598183258,1.36967971541564
"CAN",2010,2010,4,0.25,"tv_cpi",0.510773367900651,0.569151753397001
"CAN",2010,2011,1,0.5,"tv_cpi",0.509684945305231,0.819570688633764
"CAN",2010,2011,2,0.75,"tv_cpi",0.509648974491744,1.36967971541564
"CAN",2010,2011,3,1,"tv_cpi",0.509647785707693,0.19415203830313
"CAN",2010,2011,1,0.25,"tv_cpi",0.516404243518415,0.819570688633764
"CAN",2010,2011,2,0.5,"tv_cpi",0.514662355783896,1.36967971541564
"CAN",2010,2011,3,0.75,"tv_cpi",0.514604833203462,0.19415203830313
"CAN",2010,2011,4,1,"tv_cpi",0.514602933627965,0.276706290589956
"CAN",2011,2011,2,0.25,"tv_cpi",0.532726834578842,1.36967971541564
"CAN",2011,2011,3,0.5,"tv_cpi",0.522795333156409,0.19415203830313
"CAN",2011,2011,4,0.75,"tv_cpi",0.52245147108961,0.276706290589956
"CAN",2011,2012,1,1,"tv_cpi",0.522439565425406,0.468641196763109
"CAN",2011,2011,3,0.25,"tv_cpi",0.56820352891858,0.19415203830313
"CAN",2011,2011,4,0.5,"tv_cpi",0.535586207855137,0.276706290589956
"CAN",2011,2012,1,0.75,"tv_cpi",0.53425879519924,0.468641196763109
"CAN",2011,2012,2,1,"tv_cpi",0.534204774074832,0.630569548036597
"CAN",2011,2011,4,0.25,"tv_cpi",0.509322703077223,0.276706290589956
"CAN",2011,2012,1,0.5,"tv_cpi",0.515774246082609,0.468641196763109
"CAN",2011,2012,2,0.75,"tv_cpi",0.515906309157642,0.630569548036597
"CAN",2011,2012,3,1,"tv_cpi",0.515909012488577,-0.164114356447964
"CAN",2011,2012,1,0.25,"tv_cpi",0.499893098959803,0.468641196763109
"CAN",2011,2012,2,0.5,"tv_cpi",0.506006279806998,0.630569548036597
"CAN",2011,2012,3,0.75,"tv_cpi",0.506173722409647,-0.164114356447964
"CAN",2011,2012,4,1,"tv_cpi",0.50617830873318,0
"CAN",2012,2012,2,0.25,"tv_cpi",0.511543872599315,0.630569548036597
"CAN",2012,2012,3,0.5,"tv_cpi",0.513680108632415,-0.164114356447964
"CAN",2012,2012,4,0.75,"tv_cpi",0.513786477391476,0
"CAN",2012,2013,1,1,"tv_cpi",0.513791773769184,0.437034277020132
"CAN",2012,2012,3,0.25,"tv_cpi",0.499096661103558,-0.164114356447964
"CAN",2012,2012,4,0.5,"tv_cpi",0.489105364843613,0
"CAN",2012,2013,1,0.75,"tv_cpi",0.48834607520388,0.437034277020132
"CAN",2012,2013,2,1,"tv_cpi",0.488288372905599,0.489399004633917
"CAN",2012,2012,4,0.25,"tv_cpi",0.450964581170613,0
"CAN",2012,2013,1,0.5,"tv_cpi",0.479122484701114,0.437034277020132
"CAN",2012,2013,2,0.75,"tv_cpi",0.480411534744516,0.489399004633917
"CAN",2012,2013,3,1,"tv_cpi",0.480470546595756,0.216751079013466
"CAN",2012,2013,1,0.25,"tv_cpi",0.462785578821254,0.437034277020132
"CAN",2012,2013,2,0.5,"tv_cpi",0.49972497761389,0.489399004633917
"CAN",2012,2013,3,0.75,"tv_cpi",0.502673468763154,0.216751079013466
"CAN",2012,2013,4,1,"tv_cpi",0.502908816395802,-0.216751079013466
"CAN",2013,2013,2,0.25,"tv_cpi",0.495056138509965,0.489399004633917
"CAN",2013,2013,3,0.5,"tv_cpi",0.499353849354821,0.216751079013466
"CAN",2013,2013,4,0.75,"tv_cpi",0.499672183135085,-0.216751079013466
"CAN",2013,2014,1,1,"tv_cpi",0.499695762291365,0.891057826706287
"CAN",2013,2013,3,0.25,"tv_cpi",0.476468694980765,0.216751079013466
"CAN",2013,2013,4,0.5,"tv_cpi",0.475999370358856,-0.216751079013466
"CAN",2013,2014,1,0.75,"tv_cpi",0.475982335530871,0.891057826706287
"CAN",2013,2014,2,1,"tv_cpi",0.475981717226714,1.30860213016817
"CAN",2013,2013,4,0.25,"tv_cpi",0.44778975608897,-0.216751079013466
"CAN",2013,2014,1,0.5,"tv_cpi",0.455759620983222,0.891057826706287
"CAN",2013,2014,2,0.75,"tv_cpi",0.456034547879604,1.30860213016817
"CAN",2013,2014,3,1,"tv_cpi",0.456044031703904,0.0795653103605076
"CAN",2013,2014,1,0.25,"tv_cpi",0.411280562166417,0.891057826706287
"CAN",2013,2014,2,0.5,"tv_cpi",0.439005626076919,1.30860213016817
"CAN",2013,2014,3,0.75,"tv_cpi",0.440229575824733,0.0795653103605076
"CAN",2013,2014,4,1,"tv_cpi",0.440283608269527,-0.371844235092489
"CAN",2014,2014,2,0.25,"tv_cpi",0.457793980601518,1.30860213016817
"CAN",2014,2014,3,0.5,"tv_cpi",0.431342305626093,0.0795653103605076
"CAN",2014,2014,4,0.75,"tv_cpi",0.429727374873628,-0.371844235092489
"CAN",2014,2015,1,1,"tv_cpi",0.429628779932564,0.0532024486886939
"CAN",2014,2014,3,0.25,"tv_cpi",0.536599719291833,0.0795653103605076
"CAN",2014,2014,4,0.5,"tv_cpi",0.470970425082858,-0.371844235092489
"CAN",2014,2015,1,0.75,"tv_cpi",0.4653911623789,0.0532024486886939
"CAN",2014,2015,2,1,"tv_cpi",0.464916859360789,1.13711424398018
"CAN",2014,2014,4,0.25,"tv_cpi",0.433228710968537,-0.371844235092489
"CAN",2014,2015,1,0.5,"tv_cpi",0.453965285594697,0.0532024486886939
"CAN",2014,2015,2,0.75,"tv_cpi",0.455181146570096,1.13711424398018
"CAN",2014,2015,3,1,"tv_cpi",0.455252436932084,0.367442475515478
"CAN",2014,2015,1,0.25,"tv_cpi",0.377624115932064,0.0532024486886939
"CAN",2014,2015,2,0.5,"tv_cpi",0.437427592085347,1.13711424398018
"CAN",2014,2015,3,0.75,"tv_cpi",0.442199582463763,0.367442475515478
"CAN",2014,2015,4,1,"tv_cpi",0.442580361201663,-0.236036608597434
"CAN",2015,2015,2,0.25,"tv_cpi",0.3978320703844,1.13711424398018
"CAN",2015,2015,3,0.5,"tv_cpi",0.430794788408067,0.367442475515478
"CAN",2015,2015,4,0.75,"tv_cpi",0.433947566669441,-0.236036608597434
"CAN",2015,2016,1,1,"tv_cpi",0.434249119798593,0.262294840554755
"CAN",2015,2015,3,0.25,"tv_cpi",0.497195975603985,0.367442475515478
"CAN",2015,2015,4,0.5,"tv_cpi",0.440464853382881,-0.236036608597434
"CAN",2015,2016,1,0.75,"tv_cpi",0.435435429489994,0.262294840554755
"CAN",2015,2016,2,1,"tv_cpi",0.43498955245277,1.14583608493746
"CAN",2015,2015,4,0.25,"tv_cpi",0.431855715647349,-0.236036608597434
"CAN",2015,2016,1,0.5,"tv_cpi",0.43720458109978,0.262294840554755
"CAN",2015,2016,2,0.75,"tv_cpi",0.437648750055877,1.14583608493746
"CAN",2015,2016,3,1,"tv_cpi",0.437685633776979,0.0517013286766677
"CAN",2015,2016,1,0.25,"tv_cpi",0.364362794202566,0.262294840554755
"CAN",2015,2016,2,0.5,"tv_cpi",0.416062592033628,1.14583608493746
"CAN",2015,2016,3,0.75,"tv_cpi",0.42051441041204,0.0517013286766677
"CAN",2015,2016,4,1,"tv_cpi",0.42089775208272,-0.0776603627136829
"CAN",2016,2016,2,0.25,"tv_cpi",0.406436309244295,1.14583608493746
"CAN",2016,2016,3,0.5,"tv_cpi",0.419944559183662,0.0517013286766677
"CAN",2016,2016,4,0.75,"tv_cpi",0.421210487844466,-0.0776603627136829
"CAN",2016,2017,1,1,"tv_cpi",0.421329124631721,0.774000477482861
"CAN",2016,2016,3,0.25,"tv_cpi",0.481364833145473,0.0517013286766677
"CAN",2016,2016,4,0.5,"tv_cpi",0.432007987685516,-0.0776603627136829
"CAN",2016,2017,1,0.75,"tv_cpi",0.428341767082009,0.774000477482861
"CAN",2016,2017,2,1,"tv_cpi",0.428069440652142,0.563810483539395
"CAN",2016,2016,4,0.25,"tv_cpi",0.382882708209406,-0.0776603627136829
"CAN",2016,2017,1,0.5,"tv_cpi",0.404666772021802,0.774000477482861
"CAN",2016,2017,2,0.75,"tv_cpi",0.406099658849111,0.563810483539395
"CAN",2016,2017,3,1,"tv_cpi",0.406193909613227,0.102223218225461
"CAN",2016,2017,1,0.25,"tv_cpi",0.366126819503166,0.774000477482861
"CAN",2016,2017,2,0.5,"tv_cpi",0.400513204017102,0.563810483539395
"CAN",2016,2017,3,0.75,"tv_cpi",0.403177596967871,0.102223218225461
"CAN",2016,2017,4,1,"tv_cpi",0.40338404466211,0.331360700207561
"CAN",2017,2017,2,0.25,"tv_cpi",0.435426607946337,0.563810483539395
"CAN",2017,2017,3,0.5,"tv_cpi",0.413654153309032,0.102223218225461
"CAN",2017,2017,4,0.75,"tv_cpi",0.412254045906821,0.331360700207561
"CAN",2017,2018,1,1,"tv_cpi",0.412164010089988,1.0378524321518
"CAN",2017,2017,3,0.25,"tv_cpi",0.411551732060639,0.102223218225461
"CAN",2017,2017,4,0.5,"tv_cpi",0.399047496476464,0.331360700207561
"CAN",2017,2018,1,0.75,"tv_cpi",0.398020587310153,1.0378524321518
"CAN",2017,2018,2,1,"tv_cpi",0.397936252491863,0.802545545231759
"CAN",2017,2017,4,0.25,"tv_cpi",0.377930003599993,0.331360700207561
"CAN",2017,2018,1,0.5,"tv_cpi",0.396288762164757,1.0378524321518
"CAN",2017,2018,2,0.75,"tv_cpi",0.397511234856466,0.802545545231759
"CAN",2017,2018,3,1,"tv_cpi",0.397592636846513,0.473525968673538
"CAN",2017,2018,1,0.25,"tv_cpi",0.406965379326976,1.0378524321518
"CAN",2017,2018,2,0.5,"tv_cpi",0.413987802729865,0.802545545231759
"CAN",2017,2018,3,0.75,"tv_cpi",0.414640069640112,0.473525968673538
"CAN",2017,2018,4,1,"tv_cpi",0.414700654440799,-0.298768182590425
"CAN",2018,2018,2,0.25,"tv_cpi",0.454518221317788,0.802545545231759
"CAN",2018,2018,3,0.5,"tv_cpi",0.420347370003058,0.473525968673538
"CAN",2018,2018,4,0.75,"tv_cpi",0.418345692306315,-0.298768182590425
"CAN",2018,2019,1,1,"tv_cpi",0.418228437001063,0.62149231230304
"CAN",2018,2018,3,0.25,"tv_cpi",0.442022969508176,0.473525968673538
"CAN",2018,2018,4,0.5,"tv_cpi",0.404926124144261,-0.298768182590425
"CAN",2018,2019,1,0.75,"tv_cpi",0.401108954211998,0.62149231230304
"CAN",2018,2019,2,1,"tv_cpi",0.400716177248112,1.3294368873602
"CAN",2018,2018,4,0.25,"tv_cpi",0.416400203035505,-0.298768182590425
"CAN",2018,2019,1,0.5,"tv_cpi",0.411095005844409,0.62149231230304
"CAN",2018,2019,2,0.75,"tv_cpi",0.410602318929458,1.3294368873602
"CAN",2018,2019,3,1,"tv_cpi",0.410556563722362,0.268650967925055
"CAN",2018,2019,1,0.25,"tv_cpi",0.342113639767982,0.62149231230304
"CAN",2018,2019,2,0.5,"tv_cpi",0.398232984802837,1.3294368873602
"CAN",2018,2019,3,0.75,"tv_cpi",0.40314712150834,0.268650967925055
"CAN",2018,2019,4,1,"tv_cpi",0.403577431939535,-0.146430550441412
"CAN",2019,2019,2,0.25,"tv_cpi",0.437468649494201,1.3294368873602
"CAN",2019,2019,3,0.5,"tv_cpi",0.418782500207249,0.268650967925055
"CAN",2019,2019,4,0.75,"tv_cpi",0.416885069355995,-0.146430550441412
"CAN",2019,2020,1,1,"tv_cpi",0.416692400241562,0.341369149172444
"CAN",2019,2019,3,0.25,"tv_cpi",0.428999891554592,0.268650967925055
"CAN",2019,2019,4,0.5,"tv_cpi",0.398433001236232,-0.146430550441412
"CAN",2019,2020,1,0.75,"tv_cpi",0.397395355306437,0.341369149172444
"CAN",2019,2020,2,1,"tv_cpi",0.397360130621675,-0.439170664447541
"CAN",2019,2019,4,0.25,"tv_cpi",0.352971930624885,-0.146430550441412
"CAN",2019,2020,1,0.5,"tv_cpi",0.36687727082931,0.341369149172444
"CAN",2019,2020,2,0.75,"tv_cpi",0.369170395575633,-0.439170664447541
"CAN",2019,2020,3,1,"tv_cpi",0.369548553968373,0.512163233534135
"CAN",2019,2020,1,0.25,"tv_cpi",0.396134022664048,0.341369149172444
"CAN",2019,2020,2,0.5,"tv_cpi",0.408516121166063,-0.439170664447541
"CAN",2019,2020,3,0.75,"tv_cpi",0.408798698339202,0.512163233534135
"CAN",2019,2020,4,1,"tv_cpi",0.408805147153898,0.364165790699822
"CAN",2020,2020,2,0.25,"tv_cpi",0.419871642854058,-0.439170664447541
"CAN",2020,2020,3,0.5,"tv_cpi",0.424756620327664,0.512163233534135
"CAN",2020,2020,4,0.75,"tv_cpi",0.425060597995105,0.364165790699822
"CAN",2020,2021,1,1,"tv_cpi",0.425079513624257,0.988794242900592
"CAN",2020,2020,3,0.25,"tv_cpi",0.322098776010079,0.512163233534135
"CAN",2020,2020,4,0.5,"tv_cpi",0.386946469643706,0.364165790699822
"CAN",2020,2021,1,0.75,"tv_cpi",0.392470431523843,0.988794242900592
"CAN",2020,2021,2,1,"tv_cpi",0.392940982643604,1.42962195873286
"CAN",2020,2020,4,0.25,"tv_cpi",0.41071160058617,0.364165790699822
"CAN",2020,2021,1,0.5,"tv_cpi",0.40450901978842,0.988794242900592
"CAN",2020,2021,2,0.75,"tv_cpi",0.404129804516721,1.42962195873286
"CAN",2020,2021,3,1,"tv_cpi",0.404106619938079,1.19933971089061
"CAN",2020,2021,1,0.25,"tv_cpi",0.406515784710491,0.988794242900592
"CAN",2020,2021,2,0.5,"tv_cpi",0.40918277103919,1.42962195873286
"CAN",2020,2021,3,0.75,"tv_cpi",0.409350724217075,1.19933971089061
"CAN",2020,2021,4,1,"tv_cpi",0.409361301050431,1.00014831239861
"CAN",2021,2021,2,0.25,"tv_cpi",0.455083711992137,1.42962195873286
"CAN",2021,2021,3,0.5,"tv_cpi",0.42366457094773,1.19933971089061
"CAN",2021,2021,4,0.75,"tv_cpi",0.421814949539121,1.00014831239861
"CAN",2021,2022,1,1,"tv_cpi",0.421706063705789,2.03873469150206
"CAN",2021,2021,3,0.25,"tv_cpi",0.553840580998819,1.19933971089061
"CAN",2021,2021,4,0.5,"tv_cpi",0.454553188823154,1.00014831239861
"CAN",2021,2022,1,0.75,"tv_cpi",0.443296970666803,2.03873469150206
"CAN",2021,2022,2,1,"tv_cpi",0.4420208524769,3.03732503687666
"CAN",2021,2021,4,0.25,"tv_cpi",0.585014615042579,1.00014831239861
"CAN",2021,2022,1,0.5,"tv_cpi",0.479496439853052,2.03873469150206
"CAN",2021,2022,2,0.75,"tv_cpi",0.461372346648039,3.03732503687666
"CAN",2021,2022,3,1,"tv_cpi",0.458259302341559,0.832433597551585
"CAN",2021,2022,1,0.25,"tv_cpi",0.573631044010138,2.03873469150206
"CAN",2021,2022,2,0.5,"tv_cpi",0.489187291080796,3.03732503687666
"CAN",2021,2022,3,0.75,"tv_cpi",0.472468747806489,0.832433597551585
"CAN",2021,2022,4,1,"tv_cpi",0.469158737539078,0.543881409523017
"CAN",2022,2022,2,0.25,"tv_cpi",0.905744793716404,3.03732503687666
"CAN",2022,2022,3,0.5,"tv_cpi",0.612475706635866,0.832433597551585
"CAN",2022,2022,4,0.75,"tv_cpi",0.536564387739602,0.543881409523017
"CAN",2022,2023,1,1,"tv_cpi",0.51691510116141,0.605649304378275
"CAN",2022,2022,3,0.25,"tv_cpi",1.86897260688921,0.832433597551585
"CAN",2022,2022,4,0.5,"tv_cpi",1.25631570212835,0.543881409523017
"CAN",2022,2023,1,0.75,"tv_cpi",0.935052636877408,0.605649304378275
"CAN",2022,2023,2,1,"tv_cpi",0.766589739793573,1.47704936687578
"CAN",2022,2022,4,0.25,"tv_cpi",0.656645773494058,0.543881409523017
"CAN",2022,2023,1,0.5,"tv_cpi",0.587925038239642,0.605649304378275
"CAN",2022,2023,2,0.75,"tv_cpi",0.561060040739235,1.47704936687578
"CAN",2022,2023,3,1,"tv_cpi",0.550557707083681,0.993835595806036
"CAN",2022,2023,1,0.25,"tv_cpi",0.546620826574752,0.605649304378275
"CAN",2022,2023,2,0.5,"tv_cpi",0.547684722436408,1.47704936687578
"CAN",2022,2023,3,0.75,"tv_cpi",0.548097903190954,0.993835595806036
"CAN",2022,2023,4,1,"tv_cpi",0.548258368460234,0.0840849858833259
"CAN",2023,2023,2,0.25,"tv_cpi",0.57440414532953,1.47704936687578
"CAN",2023,2023,3,0.5,"tv_cpi",0.562255756639267,0.993835595806036
"CAN",2023,2023,4,0.75,"tv_cpi",0.557532357806844,0.0840849858833259
"CAN",2023,2024,1,1,"tv_cpi",0.555695859395494,NA
"CAN",2023,2023,3,0.25,"tv_cpi",0.938793267618157,0.993835595806036
"CAN",2023,2023,4,0.5,"tv_cpi",0.721521073718216,0.0840849858833259
"CAN",2023,2024,1,0.75,"tv_cpi",0.633817086142036,NA
"CAN",2023,2024,2,1,"tv_cpi",0.598414537391112,NA
"CAN",2023,2023,4,0.25,"tv_cpi",0.751106702176036,0.0840849858833259
"CAN",2023,2024,1,0.5,"tv_cpi",0.656239390192756,NA
"CAN",2023,2024,2,0.75,"tv_cpi",0.619161781720435,NA
"CAN",2023,2024,3,1,"tv_cpi",0.604670498882475,NA
"CAN",2023,2024,1,0.25,"tv_cpi",0.401906355212784,NA
"CAN",2023,2024,2,0.5,"tv_cpi",0.520542836189611,0.0840849858833259
"CAN",2023,2024,3,0.75,"tv_cpi",0.564827506689458,NA
"CAN",2023,2024,4,1,"tv_cpi",0.581358105246769,NA
"CAN",1961,1962,1,0.25,"tv_gdp",2.38432786169273,2.660950188
"CAN",1961,1962,2,0.5,"tv_gdp",2.01559941550824,0.794766259
"CAN",1961,1962,3,0.75,"tv_gdp",2.14839325272538,1.278910818
"CAN",1961,1962,4,1,"tv_gdp",2.10056888933458,1.962242774
"CAN",1962,1962,2,0.25,"tv_gdp",2.02675442421574,0.794766259
"CAN",1962,1962,3,0.5,"tv_gdp",2.35598206990855,1.278910818
"CAN",1962,1962,4,0.75,"tv_gdp",2.18507136870541,1.962242774
"CAN",1962,1963,1,1,"tv_gdp",2.27379559392738,0.63408554
"CAN",1962,1962,3,0.25,"tv_gdp",2.9450841497034,1.278910818
"CAN",1962,1962,4,0.5,"tv_gdp",1.15625105286303,1.962242774
"CAN",1962,1963,1,0.75,"tv_gdp",2.64436769933001,0.63408554
"CAN",1962,1963,2,1,"tv_gdp",1.406414780523,1.454368266
"CAN",1962,1962,4,0.25,"tv_gdp",1.95116650004184,1.962242774
"CAN",1962,1963,1,0.5,"tv_gdp",1.82575754783429,0.63408554
"CAN",1962,1963,2,0.75,"tv_gdp",1.84915252345729,1.454368266
"CAN",1962,1963,3,1,"tv_gdp",1.84478820277072,0.759938107
"CAN",1962,1963,1,0.25,"tv_gdp",1.84115125136817,0.63408554
"CAN",1962,1963,2,0.5,"tv_gdp",1.86354105970839,1.454368266
"CAN",1962,1963,3,0.75,"tv_gdp",1.85940118677083,0.759938107
"CAN",1962,1963,4,1,"tv_gdp",1.86016664879171,3.129534749
"CAN",1963,1963,2,0.25,"tv_gdp",1.98051135468083,1.454368266
"CAN",1963,1963,3,0.5,"tv_gdp",1.64516180329099,0.759938107
"CAN",1963,1963,4,0.75,"tv_gdp",1.7286861388995,3.129534749
"CAN",1963,1964,1,1,"tv_gdp",1.70788302581964,2.503381101
"CAN",1963,1963,3,0.25,"tv_gdp",1.70908487143573,0.759938107
"CAN",1963,1963,4,0.5,"tv_gdp",1.67578473450208,3.129534749
"CAN",1963,1964,1,0.75,"tv_gdp",1.6801381967269,2.503381101
"CAN",1963,1964,2,1,"tv_gdp",1.67956905091886,0.37449939
"CAN",1963,1963,4,0.25,"tv_gdp",1.67325704899794,3.129534749
"CAN",1963,1964,1,0.5,"tv_gdp",1.58038920133102,2.503381101
"CAN",1963,1964,2,0.75,"tv_gdp",1.58983216449941,0.37449939
"CAN",1963,1964,3,1,"tv_gdp",1.58887198769291,1.067302224
"CAN",1963,1964,1,0.25,"tv_gdp",1.30765590651812,2.503381101
"CAN",1963,1964,2,0.5,"tv_gdp",1.84072778252898,0.37449939
"CAN",1963,1964,3,0.75,"tv_gdp",1.68475384048208,1.067302224
"CAN",1963,1964,4,1,"tv_gdp",1.73039097065616,0.501631232
"CAN",1964,1964,2,0.25,"tv_gdp",1.74398197919441,0.37449939
"CAN",1964,1964,3,0.5,"tv_gdp",1.7940870652909,1.067302224
"CAN",1964,1964,4,0.75,"tv_gdp",1.79078113619426,0.501631232
"CAN",1964,1965,1,1,"tv_gdp",1.7909992611002,3.181038821
"CAN",1964,1964,3,0.25,"tv_gdp",1.94113074149497,1.067302224
"CAN",1964,1964,4,0.5,"tv_gdp",1.63896743260068,0.501631232
"CAN",1964,1965,1,0.75,"tv_gdp",1.69724704327924,3.181038821
"CAN",1964,1965,2,1,"tv_gdp",1.68600638989457,0.915536674
"CAN",1964,1964,4,0.25,"tv_gdp",1.68764277685605,0.501631232
"CAN",1964,1965,1,0.5,"tv_gdp",1.6360402442423,3.181038821
"CAN",1964,1965,2,0.75,"tv_gdp",1.64033275963548,0.915536674
"CAN",1964,1965,3,1,"tv_gdp",1.63997569017654,1.395578506
"CAN",1964,1965,1,0.25,"tv_gdp",1.59040066897667,3.181038821
"CAN",1964,1965,2,0.5,"tv_gdp",1.5631158878078,0.915536674
"CAN",1964,1965,3,0.75,"tv_gdp",1.56379964991404,1.395578506
"CAN",1964,1965,4,1,"tv_gdp",1.56378251469807,2.45084687
"CAN",1965,1965,2,0.25,"tv_gdp",1.41605032810395,0.915536674
"CAN",1965,1965,3,0.5,"tv_gdp",1.698459807985,1.395578506
"CAN",1965,1965,4,0.75,"tv_gdp",1.65327247976859,2.45084687
"CAN",1965,1966,1,1,"tv_gdp",1.6605027421245,1.945879533
"CAN",1965,1965,3,0.25,"tv_gdp",1.77587278016426,1.395578506
"CAN",1965,1965,4,0.5,"tv_gdp",1.59013540602791,2.45084687
"CAN",1965,1966,1,0.75,"tv_gdp",1.6302341208254,1.945879533
"CAN",1965,1966,2,1,"tv_gdp",1.62157723668516,2.158665681
"CAN",1965,1965,4,0.25,"tv_gdp",1.65088914843148,2.45084687
"CAN",1965,1966,1,0.5,"tv_gdp",1.60022554021518,1.945879533
"CAN",1965,1966,2,0.75,"tv_gdp",1.61027917986392,2.158665681
"CAN",1965,1966,3,1,"tv_gdp",1.60828414489217,-0.047768976
"CAN",1965,1966,1,0.25,"tv_gdp",1.48302406854151,1.945879533
"CAN",1965,1966,2,0.5,"tv_gdp",1.68313041005455,2.158665681
"CAN",1965,1966,3,0.75,"tv_gdp",1.64175656780431,-0.047768976
"CAN",1965,1966,4,1,"tv_gdp",1.65031099346421,1.239297635
"CAN",1966,1966,2,0.25,"tv_gdp",1.61485314713828,2.158665681
"CAN",1966,1966,3,0.5,"tv_gdp",1.67511600439272,-0.047768976
"CAN",1966,1966,4,0.75,"tv_gdp",1.66414524157871,1.239297635
"CAN",1966,1967,1,1,"tv_gdp",1.66614245250107,-0.225331116
"CAN",1966,1966,3,0.25,"tv_gdp",1.60834887195909,-0.047768976
"CAN",1966,1966,4,0.5,"tv_gdp",1.70240076416407,1.239297635
"CAN",1966,1967,1,0.75,"tv_gdp",1.68632682587613,-0.225331116
"CAN",1966,1967,2,1,"tv_gdp",1.68907394223953,2.083321361
"CAN",1966,1966,4,0.25,"tv_gdp",1.98917534891891,1.239297635
"CAN",1966,1967,1,0.5,"tv_gdp",1.53555546974752,-0.225331116
"CAN",1966,1967,2,0.75,"tv_gdp",1.63657491945077,2.083321361
"CAN",1966,1967,3,1,"tv_gdp",1.61407826600386,0.315240174
"CAN",1966,1967,1,0.25,"tv_gdp",1.65224966099717,-0.225331116
"CAN",1966,1967,2,0.5,"tv_gdp",1.58737784430316,2.083321361
"CAN",1966,1967,3,0.75,"tv_gdp",1.5975687438175,0.315240174
"CAN",1966,1967,4,1,"tv_gdp",1.59596782622024,0.43564712
"CAN",1967,1967,2,0.25,"tv_gdp",1.74198592786118,2.083321361
"CAN",1967,1967,3,0.5,"tv_gdp",1.49639074403322,0.315240174
"CAN",1967,1967,4,0.75,"tv_gdp",1.52705026305061,0.43564712
"CAN",1967,1968,1,1,"tv_gdp",1.52322280156816,0.85242934
"CAN",1967,1967,3,0.25,"tv_gdp",1.45830165666512,0.315240174
"CAN",1967,1967,4,0.5,"tv_gdp",1.55249517348326,0.43564712
"CAN",1967,1968,1,0.75,"tv_gdp",1.53829975124452,0.85242934
"CAN",1967,1968,2,1,"tv_gdp",1.54043907058775,2.688393446
"CAN",1967,1967,4,0.25,"tv_gdp",1.71176109287781,0.43564712
"CAN",1967,1968,1,0.5,"tv_gdp",1.46038623849378,0.85242934
"CAN",1967,1968,2,0.75,"tv_gdp",1.50563390830124,2.688393446
"CAN",1967,1968,3,1,"tv_gdp",1.49748929245245,1.392807753
"CAN",1967,1968,1,0.25,"tv_gdp",1.5791810560557,0.85242934
"CAN",1967,1968,2,0.5,"tv_gdp",1.44354880986297,2.688393446
"CAN",1967,1968,3,0.75,"tv_gdp",1.45963587612944,1.392807753
"CAN",1967,1968,4,1,"tv_gdp",1.45772782175206,1.384671595
"CAN",1968,1968,2,0.25,"tv_gdp",1.48731225772687,2.688393446
"CAN",1968,1968,3,0.5,"tv_gdp",1.43024714827046,1.392807753
"CAN",1968,1968,4,0.75,"tv_gdp",1.43537632504676,1.384671595
"CAN",1968,1969,1,1,"tv_gdp",1.43491529983094,1.369084169
"CAN",1968,1968,3,0.25,"tv_gdp",1.33409802475886,1.392807753
"CAN",1968,1968,4,0.5,"tv_gdp",1.49033252257795,1.384671595
"CAN",1968,1969,1,0.75,"tv_gdp",1.47230896735806,1.369084169
"CAN",1968,1969,2,1,"tv_gdp",1.47438820432108,0.411425337
"CAN",1968,1968,4,0.25,"tv_gdp",1.48371988724408,1.384671595
"CAN",1968,1969,1,0.5,"tv_gdp",1.47346118496902,1.369084169
"CAN",1968,1969,2,0.75,"tv_gdp",1.47461879691206,0.411425337
"CAN",1968,1969,3,1,"tv_gdp",1.47448816972601,1.109424869
"CAN",1968,1969,1,0.25,"tv_gdp",1.48141753023649,1.369084169
"CAN",1968,1969,2,0.5,"tv_gdp",1.4705186149743,0.411425337
"CAN",1968,1969,3,0.75,"tv_gdp",1.47174643249038,1.109424869
"CAN",1968,1969,4,1,"tv_gdp",1.47160811268363,1.413083388
"CAN",1969,1969,2,0.25,"tv_gdp",1.47962416155611,0.411425337
"CAN",1969,1969,3,0.5,"tv_gdp",1.46719744994389,1.109424869
"CAN",1969,1969,4,0.75,"tv_gdp",1.46859443901474,1.413083388
"CAN",1969,1970,1,1,"tv_gdp",1.46843739195958,0.618000976
"CAN",1969,1969,3,0.25,"tv_gdp",1.55118255319186,1.109424869
"CAN",1969,1969,4,0.5,"tv_gdp",1.42615274798871,1.413083388
"CAN",1969,1970,1,0.75,"tv_gdp",1.43986834633461,0.618000976
"CAN",1969,1970,2,1,"tv_gdp",1.43836376398579,0.008329335
"CAN",1969,1969,4,0.25,"tv_gdp",1.45705761628283,1.413083388
"CAN",1969,1970,1,0.5,"tv_gdp",1.42441879319059,0.618000976
"CAN",1969,1970,2,0.75,"tv_gdp",1.42748321327521,0.008329335
"CAN",1969,1970,3,1,"tv_gdp",1.42719549853658,1.034916997
"CAN",1969,1970,1,0.25,"tv_gdp",1.42746030676812,0.618000976
"CAN",1969,1970,2,0.5,"tv_gdp",1.42611737063497,0.008329335
"CAN",1969,1970,3,0.75,"tv_gdp",1.42624281319236,1.034916997
"CAN",1969,1970,4,1,"tv_gdp",1.42623109570646,0.151842137
"CAN",1970,1970,2,0.25,"tv_gdp",1.47920163711655,0.008329335
"CAN",1970,1970,3,0.5,"tv_gdp",1.39834974432625,1.034916997
"CAN",1970,1970,4,0.75,"tv_gdp",1.4059403429671,0.151842137
"CAN",1970,1971,1,1,"tv_gdp",1.40522771663594,-0.514427002
"CAN",1970,1970,3,0.25,"tv_gdp",1.44270249830636,1.034916997
"CAN",1970,1970,4,0.5,"tv_gdp",1.36355204976535,0.151842137
"CAN",1970,1971,1,0.75,"tv_gdp",1.36791966738711,-0.514427002
"CAN",1970,1971,2,1,"tv_gdp",1.36767865695645,2.919845718
"CAN",1970,1970,4,0.25,"tv_gdp",1.36969284840322,0.151842137
"CAN",1970,1971,1,0.5,"tv_gdp",1.35713536936386,-0.514427002
"CAN",1970,1971,2,0.75,"tv_gdp",1.35760640178499,2.919845718
"CAN",1970,1971,3,1,"tv_gdp",1.35758873330702,2.763535924
"CAN",1970,1971,1,0.25,"tv_gdp",1.35761085303382,-0.514427002
"CAN",1970,1971,2,0.5,"tv_gdp",1.32630652426918,2.919845718
"CAN",1970,1971,3,0.75,"tv_gdp",1.32711925144179,2.763535924
"CAN",1970,1971,4,1,"tv_gdp",1.32709815131017,1.092959439
"CAN",1971,1971,2,0.25,"tv_gdp",1.20658308346564,2.919845718
"CAN",1971,1971,3,0.5,"tv_gdp",1.27578306469381,2.763535924
"CAN",1971,1971,4,0.75,"tv_gdp",1.27856552218341,1.092959439
"CAN",1971,1972,1,1,"tv_gdp",1.27867740183343,-0.334587909
"CAN",1971,1971,3,0.25,"tv_gdp",1.24751222650075,2.763535924
"CAN",1971,1971,4,0.5,"tv_gdp",1.32195953692985,1.092959439
"CAN",1971,1972,1,0.75,"tv_gdp",1.31864536421352,-0.334587909
"CAN",1971,1972,2,1,"tv_gdp",1.31879290132037,2.834911476
"CAN",1971,1971,4,0.25,"tv_gdp",1.38313883421464,1.092959439
"CAN",1971,1972,1,0.5,"tv_gdp",1.35593459221552,-0.334587909
"CAN",1971,1972,2,0.75,"tv_gdp",1.35539846330868,2.834911476
"CAN",1971,1972,3,1,"tv_gdp",1.35538789752248,0.296709917
"CAN",1971,1972,1,0.25,"tv_gdp",1.34618464703033,-0.334587909
"CAN",1971,1972,2,0.5,"tv_gdp",1.3485706616958,2.834911476
"CAN",1971,1972,3,0.75,"tv_gdp",1.34859314392034,0.296709917
"CAN",1971,1972,4,1,"tv_gdp",1.34859335575911,2.348892248
"CAN",1972,1972,2,0.25,"tv_gdp",1.27806760028594,2.834911476
"CAN",1972,1972,3,0.5,"tv_gdp",1.30957439297189,0.296709917
"CAN",1972,1972,4,0.75,"tv_gdp",1.31018994786234,2.348892248
"CAN",1972,1973,1,1,"tv_gdp",1.31020197408878,2.566523984
"CAN",1972,1972,3,0.25,"tv_gdp",1.19651858029644,0.296709917
"CAN",1972,1972,4,0.5,"tv_gdp",1.32192143124139,2.348892248
"CAN",1972,1973,1,0.75,"tv_gdp",1.31232307722853,2.566523984
"CAN",1972,1973,2,1,"tv_gdp",1.31305773676028,0.953995394
"CAN",1972,1972,4,0.25,"tv_gdp",1.37864676176914,2.348892248
"CAN",1972,1973,1,0.5,"tv_gdp",1.25875898985969,2.566523984
"CAN",1972,1973,2,0.75,"tv_gdp",1.27204357104657,0.953995394
"CAN",1972,1973,3,1,"tv_gdp",1.27057152686308,0.464961005
"CAN",1972,1973,1,0.25,"tv_gdp",1.13448664074437,2.566523984
"CAN",1972,1973,2,0.5,"tv_gdp",1.30542371453632,0.953995394
"CAN",1972,1973,3,0.75,"tv_gdp",1.2813629863727,0.464961005
"CAN",1972,1973,4,1,"tv_gdp",1.28474972177726,1.844449189
"CAN",1973,1973,2,0.25,"tv_gdp",1.17209133839429,0.953995394
"CAN",1973,1973,3,0.5,"tv_gdp",1.29797536109191,0.464961005
"CAN",1973,1973,4,0.75,"tv_gdp",1.28661103509132,1.844449189
"CAN",1973,1974,1,1,"tv_gdp",1.28763696278794,0.827632743
"CAN",1973,1973,3,0.25,"tv_gdp",1.32618389031524,0.464961005
"CAN",1973,1973,4,0.5,"tv_gdp",1.29018468306094,1.844449189
"CAN",1973,1974,1,0.75,"tv_gdp",1.29366663625339,0.827632743
"CAN",1973,1974,2,1,"tv_gdp",1.29332985111396,1.025739182
"CAN",1973,1973,4,0.25,"tv_gdp",1.34817653586142,1.844449189
"CAN",1973,1974,1,0.5,"tv_gdp",1.26765461423954,0.827632743
"CAN",1973,1974,2,0.75,"tv_gdp",1.27499572140435,1.025739182
"CAN",1973,1974,3,1,"tv_gdp",1.27432643963214,0.01921879
"CAN",1973,1974,1,0.25,"tv_gdp",1.21938187523679,0.827632743
"CAN",1973,1974,2,0.5,"tv_gdp",1.27635651012507,1.025739182
"CAN",1973,1974,3,0.75,"tv_gdp",1.27116329501179,0.01921879
"CAN",1973,1974,4,1,"tv_gdp",1.27163665448597,-0.520988065
"CAN",1974,1974,2,0.25,"tv_gdp",1.31844654310355,1.025739182
"CAN",1974,1974,3,0.5,"tv_gdp",1.27246094824092,0.01921879
"CAN",1974,1974,4,0.75,"tv_gdp",1.27676945573281,-0.520988065
"CAN",1974,1975,1,1,"tv_gdp",1.27636578069364,-0.544813179
"CAN",1974,1974,3,0.25,"tv_gdp",1.28909018251597,0.01921879
"CAN",1974,1974,4,0.5,"tv_gdp",1.26560294413563,-0.520988065
"CAN",1974,1975,1,0.75,"tv_gdp",1.2676976784091,-0.544813179
"CAN",1974,1975,2,1,"tv_gdp",1.26751085731054,1.282923644
"CAN",1974,1974,4,0.25,"tv_gdp",1.330719641424,-0.520988065
"CAN",1974,1975,1,0.5,"tv_gdp",1.24284887365613,-0.544813179
"CAN",1974,1975,2,0.75,"tv_gdp",1.24873622921502,1.282923644
"CAN",1974,1975,3,1,"tv_gdp",1.24834177544664,1.918505342
"CAN",1974,1975,1,0.25,"tv_gdp",1.29926419593436,-0.544813179
"CAN",1974,1975,2,0.5,"tv_gdp",1.15653323381401,1.282923644
"CAN",1974,1975,3,0.75,"tv_gdp",1.16772515923283,1.918505342
"CAN",1974,1975,4,1,"tv_gdp",1.16684756972653,1.157163082
"CAN",1975,1975,2,0.25,"tv_gdp",1.06988929795962,1.282923644
"CAN",1975,1975,3,0.5,"tv_gdp",1.09575802758454,1.918505342
"CAN",1975,1975,4,0.75,"tv_gdp",1.09617246379304,1.157163082
"CAN",1975,1976,1,1,"tv_gdp",1.09617910336806,1.742666777
"CAN",1975,1975,3,0.25,"tv_gdp",1.1189745302875,1.918505342
"CAN",1975,1975,4,0.5,"tv_gdp",1.11772897768012,1.157163082
"CAN",1975,1976,1,0.75,"tv_gdp",1.11771951498,1.742666777
"CAN",1975,1976,2,1,"tv_gdp",1.11771944309006,2.156483453
"CAN",1975,1975,4,0.25,"tv_gdp",1.14456547341571,1.157163082
"CAN",1975,1976,1,0.5,"tv_gdp",1.13714887579428,1.742666777
"CAN",1975,1976,2,0.75,"tv_gdp",1.13707780319225,2.156483453
"CAN",1975,1976,3,1,"tv_gdp",1.13707712210976,0.461713212
"CAN",1975,1976,1,0.25,"tv_gdp",1.15410988765359,1.742666777
"CAN",1975,1976,2,0.5,"tv_gdp",1.15398110495878,2.156483453
"CAN",1975,1976,3,0.75,"tv_gdp",1.15397567294869,0.461713212
"CAN",1975,1976,4,1,"tv_gdp",1.15397544382836,0.161577012
"CAN",1976,1976,2,0.25,"tv_gdp",1.15242071429138,2.156483453
"CAN",1976,1976,3,0.5,"tv_gdp",1.12148988786676,0.461713212
"CAN",1976,1976,4,0.75,"tv_gdp",1.11986901128027,0.161577012
"CAN",1976,1977,1,1,"tv_gdp",1.11978407203964,1.533829769
"CAN",1976,1976,3,0.25,"tv_gdp",1.21868137917515,0.461713212
"CAN",1976,1976,4,0.5,"tv_gdp",1.15430103720977,0.161577012
"CAN",1976,1977,1,0.75,"tv_gdp",1.14988131097193,1.533829769
"CAN",1976,1977,2,1,"tv_gdp",1.14957789568365,0.510302318
"CAN",1976,1976,4,0.25,"tv_gdp",1.09729170963735,0.161577012
"CAN",1976,1977,1,0.5,"tv_gdp",1.12560987852024,1.533829769
"CAN",1976,1977,2,0.75,"tv_gdp",1.12687159315008,0.510302318
"CAN",1976,1977,3,1,"tv_gdp",1.12692780878372,0.587798364
"CAN",1976,1977,1,0.25,"tv_gdp",1.04554754477599,1.533829769
"CAN",1976,1977,2,0.5,"tv_gdp",1.07327543963597,0.510302318
"CAN",1976,1977,3,0.75,"tv_gdp",1.07414519278369,0.587798364
"CAN",1976,1977,4,1,"tv_gdp",1.07417247471554,1.584637482
"CAN",1977,1977,2,0.25,"tv_gdp",1.0637135701558,0.510302318
"CAN",1977,1977,3,0.5,"tv_gdp",1.06476198773865,0.587798364
"CAN",1977,1977,4,0.75,"tv_gdp",1.06475964963707,1.584637482
"CAN",1977,1978,1,1,"tv_gdp",1.06475965485132,0.863597549
"CAN",1977,1977,3,0.25,"tv_gdp",1.01533938134636,0.587798364
"CAN",1977,1977,4,0.5,"tv_gdp",1.02632747842038,1.584637482
"CAN",1977,1978,1,0.75,"tv_gdp",1.02656654657215,0.863597549
"CAN",1977,1978,2,1,"tv_gdp",1.02657174798062,0.680645726
"CAN",1977,1977,4,0.25,"tv_gdp",1.02679072794605,1.584637482
"CAN",1977,1978,1,0.5,"tv_gdp",1.04113909691902,0.863597549
"CAN",1977,1978,2,0.75,"tv_gdp",1.04160807020669,0.680645726
"CAN",1977,1978,3,1,"tv_gdp",1.04162339849557,0.932836265
"CAN",1977,1978,1,0.25,"tv_gdp",1.06716537279659,0.863597549
"CAN",1977,1978,2,0.5,"tv_gdp",1.04969301601617,0.680645726
"CAN",1977,1978,3,0.75,"tv_gdp",1.04910306489411,0.932836265
"CAN",1977,1978,4,1,"tv_gdp",1.04908314529592,0.948169861
"CAN",1978,1978,2,0.25,"tv_gdp",1.06158978463925,0.680645726
"CAN",1978,1978,3,0.5,"tv_gdp",1.0747671278758,0.932836265
"CAN",1978,1978,4,0.75,"tv_gdp",1.07564414395784,0.948169861
"CAN",1978,1979,1,1,"tv_gdp",1.07570251363026,0.797819177
"CAN",1978,1978,3,0.25,"tv_gdp",1.00772442361654,0.932836265
"CAN",1978,1978,4,0.5,"tv_gdp",1.03718342629632,0.948169861
"CAN",1978,1979,1,0.75,"tv_gdp",1.039836710797,0.797819177
"CAN",1978,1979,2,1,"tv_gdp",1.04007568421772,1.326596172
"CAN",1978,1978,4,0.25,"tv_gdp",1.04542024761591,0.948169861
"CAN",1978,1979,1,0.5,"tv_gdp",1.05435240619181,0.797819177
"CAN",1978,1979,2,0.75,"tv_gdp",1.05506106345345,1.326596172
"CAN",1978,1979,3,1,"tv_gdp",1.05511728671798,0.733071541
"CAN",1978,1979,1,0.25,"tv_gdp",1.05850993050197,0.797819177
"CAN",1978,1979,2,0.5,"tv_gdp",1.06690554637313,1.326596172
"CAN",1978,1979,3,0.75,"tv_gdp",1.06754435660929,0.733071541
"CAN",1978,1979,4,1,"tv_gdp",1.06759296275374,0.670926663
"CAN",1979,1979,2,0.25,"tv_gdp",1.04477981606877,1.326596172
"CAN",1979,1979,3,0.5,"tv_gdp",1.06776261084706,0.733071541
"CAN",1979,1979,4,0.75,"tv_gdp",1.06990144907574,0.670926663
"CAN",1979,1980,1,1,"tv_gdp",1.07010049488425,0.694332365
"CAN",1979,1979,3,0.25,"tv_gdp",1.05866173641408,0.733071541
"CAN",1979,1979,4,0.5,"tv_gdp",1.03879671229201,0.670926663
"CAN",1979,1980,1,0.75,"tv_gdp",1.03732389233699,0.694332365
"CAN",1979,1980,2,1,"tv_gdp",1.03721469545876,-0.043713005
"CAN",1979,1979,4,0.25,"tv_gdp",1.0016628769298,0.670926663
"CAN",1979,1980,1,0.5,"tv_gdp",1.01984267414211,0.694332365
"CAN",1979,1980,2,0.75,"tv_gdp",1.02107318675539,-0.043713005
"CAN",1979,1980,3,1,"tv_gdp",1.02115647488418,-0.083091031
"CAN",1979,1980,1,0.25,"tv_gdp",0.982597405067414,0.694332365
"CAN",1979,1980,2,0.5,"tv_gdp",1.00338083312811,-0.043713005
"CAN",1979,1980,3,0.75,"tv_gdp",1.00476675366428,-0.083091031
"CAN",1979,1980,4,1,"tv_gdp",1.00485917228391,1.383645399
"CAN",1980,1980,2,0.25,"tv_gdp",0.965322281428385,-0.043713005
"CAN",1980,1980,3,0.5,"tv_gdp",0.986111224218381,-0.083091031
"CAN",1980,1980,4,0.75,"tv_gdp",0.987706044232431,1.383645399
"CAN",1980,1981,1,1,"tv_gdp",0.987828390563503,2.154351265
"CAN",1980,1980,3,0.25,"tv_gdp",0.887708351578499,-0.083091031
"CAN",1980,1980,4,0.5,"tv_gdp",0.969352646064956,1.383645399
"CAN",1980,1981,1,0.75,"tv_gdp",0.976509225388708,2.154351265
"CAN",1980,1981,2,1,"tv_gdp",0.97713653961733,1.093360409
"CAN",1980,1980,4,0.25,"tv_gdp",0.831998892430567,1.383645399
"CAN",1980,1981,1,0.5,"tv_gdp",0.936801754396526,2.154351265
"CAN",1980,1981,2,0.75,"tv_gdp",0.948804552804664,1.093360409
"CAN",1980,1981,3,1,"tv_gdp",0.950179201997672,-0.899099935
"CAN",1980,1981,1,0.25,"tv_gdp",0.996229632437297,2.154351265
"CAN",1980,1981,2,0.5,"tv_gdp",0.956228720514206,1.093360409
"CAN",1980,1981,3,0.75,"tv_gdp",0.952098602194874,-0.899099935
"CAN",1980,1981,4,1,"tv_gdp",0.95167216498353,-0.459901898
"CAN",1981,1981,2,0.25,"tv_gdp",1.11512926145112,1.093360409
"CAN",1981,1981,3,0.5,"tv_gdp",1.00091544122703,-0.899099935
"CAN",1981,1981,4,0.75,"tv_gdp",0.988362977282237,-0.459901898
"CAN",1981,1982,1,1,"tv_gdp",0.98698342136881,-1.144418136
"CAN",1981,1981,3,0.25,"tv_gdp",1.02027438673626,-0.899099935
"CAN",1981,1981,4,0.5,"tv_gdp",1.01223381734086,-0.459901898
"CAN",1981,1982,1,0.75,"tv_gdp",1.0113492329265,-1.144418136
"CAN",1981,1982,2,1,"tv_gdp",1.01125191524318,-1.151291383
"CAN",1981,1981,4,0.25,"tv_gdp",0.756631259138578,-0.459901898
"CAN",1981,1982,1,0.5,"tv_gdp",0.937404455343863,-1.144418136
"CAN",1981,1982,2,0.75,"tv_gdp",0.95714132361207,-1.151291383
"CAN",1981,1982,3,1,"tv_gdp",0.959296200425745,-0.886813665
"CAN",1981,1982,1,0.25,"tv_gdp",0.738434057237632,-1.144418136
"CAN",1981,1982,2,0.5,"tv_gdp",0.912474409052877,-1.151291383
"CAN",1981,1982,3,0.75,"tv_gdp",0.937751163812329,-0.886813665
"CAN",1981,1982,4,1,"tv_gdp",0.941422233909036,-0.922796955
"CAN",1982,1982,2,0.25,"tv_gdp",0.278523719619226,-1.151291383
"CAN",1982,1982,3,0.5,"tv_gdp",0.729017543759339,-0.886813665
"CAN",1982,1982,4,0.75,"tv_gdp",0.871640859523754,-0.922796955
"CAN",1982,1983,1,1,"tv_gdp",0.916794442346921,1.634267065
"CAN",1982,1982,3,0.25,"tv_gdp",0.204010038371694,-0.886813665
"CAN",1982,1982,4,0.5,"tv_gdp",0.639366647145974,-0.922796955
"CAN",1982,1983,1,0.75,"tv_gdp",0.779214044791003,1.634267065
"CAN",1982,1983,2,1,"tv_gdp",0.824136515781278,1.972771607
"CAN",1982,1982,4,0.25,"tv_gdp",0.15713635790219,-0.922796955
"CAN",1982,1983,1,0.5,"tv_gdp",0.533937857547486,1.634267065
"CAN",1982,1983,2,0.75,"tv_gdp",0.669939933336747,1.972771607
"CAN",1982,1983,3,1,"tv_gdp",0.71902828525785,1.123439591
"CAN",1982,1983,1,0.25,"tv_gdp",-0.00189458070930282,1.634267065
"CAN",1982,1983,2,0.5,"tv_gdp",0.387907972187209,1.972771607
"CAN",1982,1983,3,0.75,"tv_gdp",0.552904864894399,1.123439591
"CAN",1982,1983,4,1,"tv_gdp",0.622745286412252,1.243210478
"CAN",1983,1983,2,0.25,"tv_gdp",1.1929547831161,1.972771607
"CAN",1983,1983,3,0.5,"tv_gdp",0.989970595181808,1.123439591
"CAN",1983,1983,4,0.75,"tv_gdp",0.896606820270637,1.243210478
"CAN",1983,1984,1,1,"tv_gdp",0.853663601124496,1.731993046
"CAN",1983,1983,3,0.25,"tv_gdp",1.36928093079342,1.123439591
"CAN",1983,1983,4,0.5,"tv_gdp",1.06605308571629,1.243210478
"CAN",1983,1984,1,0.75,"tv_gdp",0.913694267833501,1.731993046
"CAN",1983,1984,2,1,"tv_gdp",0.837140581344926,1.940640467
"CAN",1983,1983,4,0.25,"tv_gdp",0.982263933479676,1.243210478
"CAN",1983,1984,1,0.5,"tv_gdp",0.905094798856151,1.731993046
"CAN",1983,1984,2,0.75,"tv_gdp",0.862912772272096,1.940640467
"CAN",1983,1984,3,1,"tv_gdp",0.839855323521136,0.429949956
"CAN",1983,1984,1,0.25,"tv_gdp",1.02644187202711,1.731993046
"CAN",1983,1984,2,0.5,"tv_gdp",0.913631248084414,1.940640467
"CAN",1983,1984,3,0.75,"tv_gdp",0.854922392079992,0.429949956
"CAN",1983,1984,4,1,"tv_gdp",0.824369154690768,1.560682803
"CAN",1984,1984,2,0.25,"tv_gdp",1.25912419640887,1.940640467
"CAN",1984,1984,3,0.5,"tv_gdp",1.013194305889,0.429949956
"CAN",1984,1984,4,0.75,"tv_gdp",0.885290953609802,1.560682803
"CAN",1984,1985,1,1,"tv_gdp",0.818770908040411,1.536397114
"CAN",1984,1984,3,0.25,"tv_gdp",1.39963136352411,0.429949956
"CAN",1984,1984,4,0.5,"tv_gdp",1.10721208377184,1.560682803
"CAN",1984,1985,1,0.75,"tv_gdp",0.94915737707382,1.536397114
"CAN",1984,1985,2,1,"tv_gdp",0.863727680610031,0.321648526
"CAN",1984,1984,4,0.25,"tv_gdp",0.582708821797732,1.560682803
"CAN",1984,1985,1,0.5,"tv_gdp",0.66450167207393,1.536397114
"CAN",1984,1985,2,0.75,"tv_gdp",0.708296644767448,0.321648526
"CAN",1984,1985,3,1,"tv_gdp",0.731746122646618,1.269493817
"CAN",1984,1985,1,0.25,"tv_gdp",1.17787774643226,1.536397114
"CAN",1984,1985,2,0.5,"tv_gdp",0.976861281804929,0.321648526
"CAN",1984,1985,3,0.75,"tv_gdp",0.871304632648915,1.269493817
"CAN",1984,1985,4,1,"tv_gdp",0.815875311465186,1.524600169
"CAN",1985,1985,2,0.25,"tv_gdp",1.181001256656,0.321648526
"CAN",1985,1985,3,0.5,"tv_gdp",0.991469191707775,1.269493817
"CAN",1985,1985,4,0.75,"tv_gdp",0.890392032530959,1.524600169
"CAN",1985,1986,1,1,"tv_gdp",0.836487738763854,-0.050673397
"CAN",1985,1985,3,0.25,"tv_gdp",0.502609245086703,1.269493817
"CAN",1985,1985,4,0.5,"tv_gdp",0.598228365204759,1.524600169
"CAN",1985,1986,1,0.75,"tv_gdp",0.648753231475711,-0.050673397
"CAN",1985,1986,2,1,"tv_gdp",0.675450424553266,0.574750312
"CAN",1985,1985,4,0.25,"tv_gdp",1.01550034035348,1.524600169
"CAN",1985,1986,1,0.5,"tv_gdp",0.884044395929598,-0.050673397
"CAN",1985,1986,2,0.75,"tv_gdp",0.816008533148665,0.574750312
"CAN",1985,1986,3,1,"tv_gdp",0.780796138268902,0.125735895
"CAN",1985,1986,1,0.25,"tv_gdp",1.16006134611815,-0.050673397
"CAN",1985,1986,2,0.5,"tv_gdp",0.977317034699544,0.574750312
"CAN",1985,1986,3,0.75,"tv_gdp",0.885706810329335,0.125735895
"CAN",1985,1986,4,1,"tv_gdp",0.83978235367177,-0.723892076
"CAN",1986,1986,2,0.25,"tv_gdp",0.381066535952329,0.574750312
"CAN",1986,1986,3,0.5,"tv_gdp",0.596226687412296,0.125735895
"CAN",1986,1986,4,0.75,"tv_gdp",0.703453022626897,-0.723892076
"CAN",1986,1987,1,1,"tv_gdp",0.756889901554235,2.311401978
"CAN",1986,1986,3,0.25,"tv_gdp",0.699121466116885,0.125735895
"CAN",1986,1986,4,0.5,"tv_gdp",0.760849490461925,-0.723892076
"CAN",1986,1987,1,0.75,"tv_gdp",0.791486409581938,2.311401978
"CAN",1986,1987,2,1,"tv_gdp",0.806692158075032,1.281026782
"CAN",1986,1986,4,0.25,"tv_gdp",0.447912547822943,-0.723892076
"CAN",1986,1987,1,0.5,"tv_gdp",0.605624627015824,2.311401978
"CAN",1986,1987,2,0.75,"tv_gdp",0.682827924354104,1.281026782
"CAN",1986,1987,3,1,"tv_gdp",0.720620521791193,1.527856089
"CAN",1986,1987,1,0.25,"tv_gdp",-0.0238896406613069,2.311401978
"CAN",1986,1987,2,0.5,"tv_gdp",0.334289179528193,1.281026782
"CAN",1986,1987,3,0.75,"tv_gdp",0.517562923669196,1.527856089
"CAN",1986,1987,4,1,"tv_gdp",0.611340845193675,1.291886418
"CAN",1987,1987,2,0.25,"tv_gdp",1.39598156713897,1.281026782
"CAN",1987,1987,3,0.5,"tv_gdp",1.02664906444833,1.527856089
"CAN",1987,1987,4,0.75,"tv_gdp",0.877639389849277,1.291886418
"CAN",1987,1988,1,1,"tv_gdp",0.817520437516741,1.456990551
"CAN",1987,1987,3,0.25,"tv_gdp",0.94780051953957,1.527856089
"CAN",1987,1987,4,0.5,"tv_gdp",0.811454263406496,1.291886418
"CAN",1987,1988,1,0.75,"tv_gdp",0.755665438647482,1.456990551
"CAN",1987,1988,2,1,"tv_gdp",0.732838314117167,0.887376092
"CAN",1987,1987,4,0.25,"tv_gdp",1.06862032822446,1.291886418
"CAN",1987,1988,1,0.5,"tv_gdp",0.877007184331579,1.456990551
"CAN",1987,1988,2,0.75,"tv_gdp",0.797057842297525,0.887376092
"CAN",1987,1988,3,1,"tv_gdp",0.763699497656765,0.014849555
"CAN",1987,1988,1,0.25,"tv_gdp",1.00881801204231,1.456990551
"CAN",1987,1988,2,0.5,"tv_gdp",0.883730182544091,0.887376092
"CAN",1987,1988,3,0.75,"tv_gdp",0.828453914478645,0.014849555
"CAN",1987,1988,4,1,"tv_gdp",0.80402735097123,0.686248083
"CAN",1988,1988,2,0.25,"tv_gdp",1.0811921265084,0.887376092
"CAN",1988,1988,3,0.5,"tv_gdp",0.910510521248457,0.014849555
"CAN",1988,1988,4,0.75,"tv_gdp",0.832989679021615,0.686248083
"CAN",1988,1989,1,1,"tv_gdp",0.79778095825521,1.15546661
"CAN",1988,1988,3,0.25,"tv_gdp",0.821583011339812,0.014849555
"CAN",1988,1988,4,0.5,"tv_gdp",0.791988122082293,0.686248083
"CAN",1988,1989,1,0.75,"tv_gdp",0.778675818396614,1.15546661
"CAN",1988,1989,2,1,"tv_gdp",0.772687709170129,0.388999379
"CAN",1988,1988,4,0.25,"tv_gdp",0.416614791916288,0.686248083
"CAN",1988,1989,1,0.5,"tv_gdp",0.60103577073451,1.15546661
"CAN",1988,1989,2,0.75,"tv_gdp",0.685689927697717,0.388999379
"CAN",1988,1989,3,1,"tv_gdp",0.724548447683206,0.361042659
"CAN",1988,1989,1,0.25,"tv_gdp",0.714035764069298,1.15546661
"CAN",1988,1989,2,0.5,"tv_gdp",0.72657948581064,0.388999379
"CAN",1988,1989,3,0.75,"tv_gdp",0.732241885444917,0.361042659
"CAN",1988,1989,4,1,"tv_gdp",0.734797966509167,-0.199034712
"CAN",1989,1989,2,0.25,"tv_gdp",0.932011441489081,0.388999379
"CAN",1989,1989,3,0.5,"tv_gdp",0.8312317591038,0.361042659
"CAN",1989,1989,4,0.75,"tv_gdp",0.785779490313776,-0.199034712
"CAN",1989,1990,1,1,"tv_gdp",0.765280232038061,0.961690311
"CAN",1989,1989,3,0.25,"tv_gdp",0.579590754394269,0.361042659
"CAN",1989,1989,4,0.5,"tv_gdp",0.664540087263825,-0.199034712
"CAN",1989,1990,1,0.75,"tv_gdp",0.702403233694529,0.961690311
"CAN",1989,1990,2,1,"tv_gdp",0.719279385739588,-0.401218185
"CAN",1989,1989,4,0.25,"tv_gdp",0.559577078136826,-0.199034712
"CAN",1989,1990,1,0.5,"tv_gdp",0.648328739178286,0.961690311
"CAN",1989,1990,2,0.75,"tv_gdp",0.688003760627286,-0.401218185
"CAN",1989,1990,3,1,"tv_gdp",0.705739849265032,-0.716674548
"CAN",1989,1990,1,0.25,"tv_gdp",0.282465222931732,0.961690311
"CAN",1989,1990,2,0.5,"tv_gdp",0.500813103533212,-0.401218185
"CAN",1989,1990,3,0.75,"tv_gdp",0.599828271562088,-0.716674548
"CAN",1989,1990,4,1,"tv_gdp",0.644729112700456,-0.890402907
"CAN",1990,1990,2,0.25,"tv_gdp",0.824010207267563,-0.401218185
"CAN",1990,1990,3,0.5,"tv_gdp",0.763324258260921,-0.716674548
"CAN",1990,1990,4,0.75,"tv_gdp",0.736575408521574,-0.890402907
"CAN",1990,1991,1,1,"tv_gdp",0.724785184028258,-1.438612374
"CAN",1990,1990,3,0.25,"tv_gdp",0.193899862714801,-0.716674548
"CAN",1990,1990,4,0.5,"tv_gdp",0.450305253356229,-0.890402907
"CAN",1990,1991,1,0.75,"tv_gdp",0.560776990186314,-1.438612374
"CAN",1990,1991,2,1,"tv_gdp",0.608373511490822,0.479959225
"CAN",1990,1990,4,0.25,"tv_gdp",0.00345096375590692,-0.890402907
"CAN",1990,1991,1,0.5,"tv_gdp",0.330955355533391,-1.438612374
"CAN",1990,1991,2,0.75,"tv_gdp",0.479900400365931,0.479959225
"CAN",1990,1991,3,1,"tv_gdp",0.547638809184706,0.132626462
"CAN",1990,1991,1,0.25,"tv_gdp",-0.138554972027439,-1.438612374
"CAN",1990,1991,2,0.5,"tv_gdp",0.224705632477355,0.479959225
"CAN",1990,1991,3,0.75,"tv_gdp",0.400217542063173,0.132626462
"CAN",1990,1991,4,1,"tv_gdp",0.485017352514554,0.175721575
"CAN",1991,1991,2,0.25,"tv_gdp",-0.542337442424934,0.479959225
"CAN",1991,1991,3,0.5,"tv_gdp",-0.0646288555491663,0.132626462
"CAN",1991,1991,4,0.75,"tv_gdp",0.189986649063694,0.175721575
"CAN",1991,1992,1,1,"tv_gdp",0.325695022265118,0.070586748
"CAN",1991,1991,3,0.25,"tv_gdp",0.511352300426377,0.132626462
"CAN",1991,1991,4,0.5,"tv_gdp",0.526626449396538,0.175721575
"CAN",1991,1992,1,0.75,"tv_gdp",0.534058012682199,0.070586748
"CAN",1991,1992,2,1,"tv_gdp",0.537673803845208,0.113964563
"CAN",1991,1991,4,0.25,"tv_gdp",0.34854165586574,0.175721575
"CAN",1991,1992,1,0.5,"tv_gdp",0.457753992171823,0.070586748
"CAN",1991,1992,2,0.75,"tv_gdp",0.512994821628455,0.113964563
"CAN",1991,1992,3,1,"tv_gdp",0.540936255190541,0.541657502
"CAN",1991,1992,1,0.25,"tv_gdp",0.365987103451791,0.070586748
"CAN",1991,1992,2,0.5,"tv_gdp",0.462414039266307,0.113964563
"CAN",1991,1992,3,0.75,"tv_gdp",0.511283395824149,0.541657502
"CAN",1991,1992,4,1,"tv_gdp",0.536050479732854,0.569768536
"CAN",1992,1992,2,0.25,"tv_gdp",0.283980428900813,0.113964563
"CAN",1992,1992,3,0.5,"tv_gdp",0.388796985640054,0.541657502
"CAN",1992,1992,4,0.75,"tv_gdp",0.440281689968188,0.569768536
"CAN",1992,1993,1,1,"tv_gdp",0.46557039303396,0.634920635
"CAN",1992,1992,3,0.25,"tv_gdp",0.256357607831991,0.541657502
"CAN",1992,1992,4,0.5,"tv_gdp",0.332702114578268,0.569768536
