isdrw/probabilistic-benchmark-forecasts/data/processed/point predictions/point_predictions_arima1_1_0.csv
"country","forecast_year","forecast_quarter","target_year","target_quarter","horizon","target","prediction","truth_value"
"CAN",1957,2,1957,3,0.25,"tv_cpi",0.316666484065763,0.909128943201409
"CAN",1957,2,1957,4,0.5,"tv_cpi",0.305421811919652,1.12484646221676
"CAN",1957,2,1958,1,0.75,"tv_cpi",0.306856181257141,0.446402637773557
"CAN",1957,2,1958,2,1,"tv_cpi",0.3066732132373,0.444502928237078
"CAN",1957,3,1957,4,0.25,"tv_cpi",0.87299981807624,1.12484646221676
"CAN",1957,3,1958,1,0.5,"tv_cpi",0.874917663776606,0.446402637773557
"CAN",1957,3,1958,2,0.75,"tv_cpi",0.874815858595393,0.444502928237078
"CAN",1957,3,1958,3,1,"tv_cpi",0.874821262729271,0.442452021284723
"CAN",1957,4,1958,1,0.25,"tv_cpi",1.10539876644201,0.446402637773557
"CAN",1957,4,1958,2,0.5,"tv_cpi",1.1071520448622,0.444502928237078
"CAN",1957,4,1958,3,0.75,"tv_cpi",1.10699398062393,0.442452021284723
"CAN",1957,4,1958,4,1,"tv_cpi",1.10700823067294,0.440503003675596
"CAN",1958,1,1958,2,0.25,"tv_cpi",0.469170775058648,0.444502928237078
"CAN",1958,1,1958,3,0.5,"tv_cpi",0.468406691052344,0.442452021284723
"CAN",1958,1,1958,4,0.75,"tv_cpi",0.468432333218911,0.440503003675596
"CAN",1958,1,1959,1,1,"tv_cpi",0.468431472684335,0.875309836767935
"CAN",1958,2,1958,3,0.25,"tv_cpi",0.444549969461967,0.442452021284723
"CAN",1958,2,1958,4,0.5,"tv_cpi",0.444548804611869,0.440503003675596
"CAN",1958,2,1959,1,0.75,"tv_cpi",0.444548833456266,0.875309836767935
"CAN",1958,2,1959,2,1,"tv_cpi",0.444548832742012,-0.218130951759887
"CAN",1958,3,1958,4,0.25,"tv_cpi",0.442496145198826,0.440503003675596
"CAN",1958,3,1959,1,0.5,"tv_cpi",0.442495195901837,0.875309836767935
"CAN",1958,3,1959,2,0.75,"tv_cpi",0.442495216325337,-0.218130951759887
"CAN",1958,3,1959,3,1,"tv_cpi",0.442495215885939,-0.437611279785477
"CAN",1958,4,1959,1,0.25,"tv_cpi",0.440405408959874,0.875309836767935
"CAN",1958,4,1959,2,0.5,"tv_cpi",0.44040052202171,-0.218130951759887
"CAN",1958,4,1959,3,0.75,"tv_cpi",0.440400277314151,-0.437611279785477
"CAN",1958,4,1959,4,1,"tv_cpi",0.440400265060714,1.09049950588749
"CAN",1959,1,1959,2,0.25,"tv_cpi",0.879364569291497,-0.218130951759887
"CAN",1959,1,1959,3,0.5,"tv_cpi",0.879402381153193,-0.437611279785477
"CAN",1959,1,1959,4,0.75,"tv_cpi",0.879402733762614,1.09049950588749
"CAN",1959,1,1960,1,1,"tv_cpi",0.879402737050826,0.863966547929484
"CAN",1959,2,1959,3,0.25,"tv_cpi",-0.210276322381079,-0.437611279785477
"CAN",1959,2,1959,4,0.5,"tv_cpi",-0.210332745374739,1.09049950588749
"CAN",1959,2,1960,1,0.75,"tv_cpi",-0.210332340065454,0.863966547929484
"CAN",1959,2,1960,2,1,"tv_cpi",-0.210332342976956,-0.215313317344057
"CAN",1959,3,1959,4,0.25,"tv_cpi",-0.437120527068998,1.09049950588749
"CAN",1959,3,1960,1,0.5,"tv_cpi",-0.437121624380228,0.863966547929484
"CAN",1959,3,1960,2,0.75,"tv_cpi",-0.437121621926666,-0.215313317344057
"CAN",1959,3,1960,3,1,"tv_cpi",-0.437121621932152,0.215313317344057
"CAN",1959,4,1960,1,0.25,"tv_cpi",0.990652602351216,0.863966547929484
"CAN",1959,4,1960,2,0.5,"tv_cpi",0.997176608489548,-0.215313317344057
"CAN",1959,4,1960,3,0.75,"tv_cpi",0.996750329310269,0.215313317344057
"CAN",1959,4,1960,4,1,"tv_cpi",0.996778182432237,0
"CAN",1960,1,1960,2,0.25,"tv_cpi",0.880110901364394,-0.215313317344057
"CAN",1960,1,1960,3,0.5,"tv_cpi",0.878960339652841,0.215313317344057
"CAN",1960,1,1960,4,0.75,"tv_cpi",0.87904233688224,0
"CAN",1960,1,1961,1,1,"tv_cpi",0.879036493175152,1.28207300371712
"CAN",1960,2,1960,3,0.25,"tv_cpi",-0.145889270077796,0.215313317344057
"CAN",1960,2,1960,4,0.5,"tv_cpi",-0.150354931389477,0
"CAN",1960,2,1961,1,0.75,"tv_cpi",-0.150067680332589,1.28207300371712
"CAN",1960,2,1961,2,1,"tv_cpi",-0.150086157589131,0
"CAN",1960,3,1960,4,0.25,"tv_cpi",0.180744532457116,0
"CAN",1960,3,1961,1,0.5,"tv_cpi",0.18351956027077,1.28207300371712
"CAN",1960,3,1961,2,0.75,"tv_cpi",0.183296793419354,0
"CAN",1960,3,1961,3,1,"tv_cpi",0.183314676148257,0
"CAN",1960,4,1961,1,0.25,"tv_cpi",0.0163533357550751,1.28207300371712
"CAN",1960,4,1961,2,0.5,"tv_cpi",0.0151112779315412,0
"CAN",1960,4,1961,3,0.75,"tv_cpi",0.0152056138921126,0
"CAN",1960,4,1961,4,1,"tv_cpi",0.015198448949154,0
"CAN",1961,1,1961,2,0.25,"tv_cpi",1.24527606642769,0
"CAN",1961,1,1961,3,0.5,"tv_cpi",1.24633217991729,0
"CAN",1961,1,1961,4,0.75,"tv_cpi",1.24630186827222,0
"CAN",1961,1,1962,1,1,"tv_cpi",1.24630273825053,0
"CAN",1961,2,1961,3,0.25,"tv_cpi",0.163855300497374,0
"CAN",1961,2,1961,4,0.5,"tv_cpi",0.142913778896621,0
"CAN",1961,2,1962,1,0.75,"tv_cpi",0.145590209415644,0
"CAN",1961,2,1962,2,1,"tv_cpi",0.145248148296126,0
"CAN",1961,3,1961,4,0.25,"tv_cpi",3.88889064558926e-23,0
"CAN",1961,3,1962,1,0.5,"tv_cpi",3.88889064558926e-23,0
"CAN",1961,3,1962,2,0.75,"tv_cpi",3.88889064558926e-23,0
"CAN",1961,3,1962,3,1,"tv_cpi",3.88889064558926e-23,0.845700362908408
"CAN",1961,4,1962,1,0.25,"tv_cpi",1.53056693862912e-19,0
"CAN",1961,4,1962,2,0.5,"tv_cpi",1.30226119254405e-19,0
"CAN",1961,4,1962,3,0.75,"tv_cpi",1.33631622952411e-19,0.845700362908408
"CAN",1961,4,1962,4,1,"tv_cpi",1.33123643821968e-19,0.629594685231627
"CAN",1962,1,1962,2,0.25,"tv_cpi",9.80686869565688e-45,0
"CAN",1962,1,1962,3,0.5,"tv_cpi",9.80686869565688e-45,0.845700362908408
"CAN",1962,1,1962,4,0.75,"tv_cpi",9.80686869565688e-45,0.629594685231627
"CAN",1962,1,1963,1,1,"tv_cpi",9.80686869565688e-45,0.417511986589947
"CAN",1962,2,1962,3,0.25,"tv_cpi",7.25598245248956e-47,0.845700362908408
"CAN",1962,2,1962,4,0.5,"tv_cpi",6.4524550474849e-47,0.629594685231627
"CAN",1962,2,1963,1,0.75,"tv_cpi",6.54143766215095e-47,0.417511986589947
"CAN",1962,2,1963,2,1,"tv_cpi",6.53158372852841e-47,0
"CAN",1962,3,1962,4,0.25,"tv_cpi",0.74109018716426,0.629594685231627
"CAN",1962,3,1963,1,0.5,"tv_cpi",0.754030099867604,0.417511986589947
"CAN",1962,3,1963,2,0.75,"tv_cpi",0.752429477943598,0
"CAN",1962,3,1963,3,1,"tv_cpi",0.752627469274942,0
"CAN",1962,4,1963,1,0.25,"tv_cpi",0.663523741742592,0.417511986589947
"CAN",1962,4,1963,2,0.5,"tv_cpi",0.658196806846203,0
"CAN",1962,4,1963,3,0.75,"tv_cpi",0.659033147089887,0
"CAN",1962,4,1963,4,1,"tv_cpi",0.658901839871607,1.44783245519062
"CAN",1963,1,1963,2,0.25,"tv_cpi",0.472920022965752,0
"CAN",1963,1,1963,3,0.5,"tv_cpi",0.458444299511245,0
"CAN",1963,1,1963,4,0.75,"tv_cpi",0.462226179961043,1.44783245519062
"CAN",1963,1,1964,1,1,"tv_cpi",0.461238138169453,0.205076991295838
"CAN",1963,2,1963,3,0.25,"tv_cpi",0.0886033170159255,0
"CAN",1963,2,1963,4,0.5,"tv_cpi",0.0698001495898969,1.44783245519062
"CAN",1963,2,1964,1,0.75,"tv_cpi",0.0737905092870142,0.205076991295838
"CAN",1963,2,1964,2,1,"tv_cpi",0.0729436854433709,0.204734934426165
"CAN",1963,3,1963,4,0.25,"tv_cpi",1.0289388590159e-17,1.44783245519062
"CAN",1963,3,1964,1,0.5,"tv_cpi",7.58933112435498e-18,0.205076991295838
"CAN",1963,3,1964,2,0.75,"tv_cpi",8.18481416057693e-18,0.204734934426165
"CAN",1963,3,1964,3,1,"tv_cpi",8.05348360523909e-18,0.611624595603377
"CAN",1963,4,1964,1,0.25,"tv_cpi",1.13265522828254,0.205076991295838
"CAN",1963,4,1964,2,0.5,"tv_cpi",1.20126584963264,0.204734934426165
"CAN",1963,4,1964,3,0.75,"tv_cpi",1.18633007077505,0.611624595603377
"CAN",1963,4,1964,4,1,"tv_cpi",1.18958142582319,0.607906478542075
"CAN",1964,1,1964,2,0.25,"tv_cpi",0.540387657514594,0.204734934426165
"CAN",1964,1,1964,3,0.5,"tv_cpi",0.449916727274061,0.611624595603377
"CAN",1964,1,1964,4,0.75,"tv_cpi",0.474326893854469,0.607906478542075
"CAN",1964,1,1965,1,1,"tv_cpi",0.467740731526978,0.20176599927848
"CAN",1964,2,1964,3,0.25,"tv_cpi",0.20483179996114,0.611624595603377
"CAN",1964,2,1964,4,0.5,"tv_cpi",0.204804369049213,0.607906478542075
"CAN",1964,2,1965,1,0.75,"tv_cpi",0.204812137084865,0.20176599927848
"CAN",1964,2,1965,2,1,"tv_cpi",0.204809937290048,0.402467294680608
"CAN",1964,3,1964,4,0.25,"tv_cpi",0.502631613804661,0.607906478542075
"CAN",1964,3,1965,1,0.5,"tv_cpi",0.531827416045017,0.20176599927848
"CAN",1964,3,1965,2,0.75,"tv_cpi",0.524006776088289,0.402467294680608
"CAN",1964,3,1965,3,1,"tv_cpi",0.52610168030874,0.998987176760613
"CAN",1964,4,1965,1,0.25,"tv_cpi",0.60900226804527,0.20176599927848
"CAN",1964,4,1965,2,0.5,"tv_cpi",0.608679321076276,0.402467294680608
"CAN",1964,4,1965,3,0.75,"tv_cpi",0.608774498794696,0.998987176760613
"CAN",1964,4,1965,4,1,"tv_cpi",0.608746448374803,0.792110893736009
"CAN",1965,1,1965,2,0.25,"tv_cpi",0.316975888498864,0.402467294680608
"CAN",1965,1,1965,3,0.5,"tv_cpi",0.28429429370132,0.998987176760613
"CAN",1965,1,1965,4,0.75,"tv_cpi",0.293565083264078,0.792110893736009
"CAN",1965,1,1966,1,1,"tv_cpi",0.29093523794443,0.589973974871771
"CAN",1965,2,1965,3,0.25,"tv_cpi",0.33900599745257,0.998987176760613
"CAN",1965,2,1965,4,0.5,"tv_cpi",0.359072316595135,0.792110893736009
"CAN",1965,2,1966,1,0.75,"tv_cpi",0.352727391711479,0.589973974871771
"CAN",1965,2,1966,2,1,"tv_cpi",0.354733642658313,1.16960743915446
"CAN",1965,3,1965,4,0.25,"tv_cpi",0.8377356628081,0.792110893736009
"CAN",1965,3,1966,1,0.5,"tv_cpi",0.881325242188608,0.589973974871771
"CAN",1965,3,1966,2,0.75,"tv_cpi",0.869542088133204,1.16960743915446
"CAN",1965,3,1966,3,1,"tv_cpi",0.872727315461997,1.34742539763972
"CAN",1965,4,1966,1,0.25,"tv_cpi",0.85333519310298,0.589973974871771
"CAN",1965,4,1966,2,0.5,"tv_cpi",0.835216079697744,1.16960743915446
"CAN",1965,4,1966,3,0.75,"tv_cpi",0.840578366795943,1.34742539763972
"CAN",1965,4,1966,4,1,"tv_cpi",0.838991417021943,0.761935035640349
"CAN",1966,1,1966,2,0.25,"tv_cpi",0.647761685441433,1.16960743915446
"CAN",1966,1,1966,3,0.5,"tv_cpi",0.631241103690972,1.34742539763972
"CAN",1966,1,1966,4,0.75,"tv_cpi",0.635964073656094,0.761935035640349
"CAN",1966,1,1967,1,1,"tv_cpi",0.634613852118597,0.378765586440188
"CAN",1966,2,1966,3,0.25,"tv_cpi",0.997449322224909,1.34742539763972
"CAN",1966,2,1966,4,0.5,"tv_cpi",1.04858235551416,0.761935035640349
"CAN",1966,2,1967,1,0.75,"tv_cpi",1.03339522905163,0.378765586440188
"CAN",1966,2,1967,2,1,"tv_cpi",1.03790598844437,0.56550763720149
"CAN",1966,3,1966,4,0.25,"tv_cpi",1.29571230181481,0.761935035640349
"CAN",1966,3,1967,1,0.5,"tv_cpi",1.31075152677598,0.378765586440188
"CAN",1966,3,1967,2,0.75,"tv_cpi",1.30637781284869,0.56550763720149
"CAN",1966,3,1967,3,1,"tv_cpi",1.30764977823036,1.4925465177654
"CAN",1966,4,1967,1,0.25,"tv_cpi",0.93593760832745,0.378765586440188
"CAN",1966,4,1967,2,0.5,"tv_cpi",0.884225578092933,0.56550763720149
"CAN",1966,4,1967,3,0.75,"tv_cpi",0.899593937477965,1.4925465177654
"CAN",1966,4,1967,4,1,"tv_cpi",0.89502659658811,1.4706660636532
"CAN",1967,1,1967,2,0.25,"tv_cpi",0.476691122472607,0.56550763720149
"CAN",1967,1,1967,3,0.5,"tv_cpi",0.451664569266829,1.4925465177654
"CAN",1967,1,1967,4,0.75,"tv_cpi",0.458060534923369,1.4706660636532
"CAN",1967,1,1968,1,1,"tv_cpi",0.456425936009836,0.364277207547525
"CAN",1967,2,1967,3,0.25,"tv_cpi",0.49800653780682,1.4925465177654
"CAN",1967,2,1967,4,0.5,"tv_cpi",0.522405961508733,1.4706660636532
"CAN",1967,2,1968,1,0.75,"tv_cpi",0.513586373645362,0.364277207547525
"CAN",1967,2,1968,2,1,"tv_cpi",0.51677436410899,1.08500507905789
"CAN",1967,3,1967,4,0.25,"tv_cpi",1.23441444344398,1.4706660636532
"CAN",1967,3,1968,1,0.5,"tv_cpi",1.30629078993869,0.364277207547525
"CAN",1967,3,1968,2,0.75,"tv_cpi",1.28627696872329,1.08500507905789
"CAN",1967,3,1968,3,1,"tv_cpi",1.2918497761791,0.538119600789955
"CAN",1967,4,1968,1,0.25,"tv_cpi",1.47749465024277,0.364277207547525
"CAN",1967,4,1968,2,0.5,"tv_cpi",1.4753635429736,1.08500507905789
"CAN",1967,4,1968,3,0.75,"tv_cpi",1.47602863202726,0.538119600789955
"CAN",1967,4,1968,4,1,"tv_cpi",1.47582106694797,1.77305718058687
"CAN",1968,1,1968,2,0.25,"tv_cpi",0.68583093090536,1.08500507905789
"CAN",1968,1,1968,3,0.5,"tv_cpi",0.59237663006467,0.538119600789955
"CAN",1968,1,1968,4,0.75,"tv_cpi",0.619537585485805,1.77305718058687
"CAN",1968,1,1969,1,1,"tv_cpi",0.611643700530778,0.874943419379193
"CAN",1968,2,1968,3,0.25,"tv_cpi",0.851131840047101,0.538119600789955
"CAN",1968,2,1968,4,0.5,"tv_cpi",0.927022747125212,1.77305718058687
"CAN",1968,2,1969,1,0.75,"tv_cpi",0.902396458963731,0.874943419379193
"CAN",1968,2,1969,2,1,"tv_cpi",0.910387588493756,0.521288623874838
"CAN",1968,3,1968,4,0.25,"tv_cpi",0.722520987348894,1.77305718058687
"CAN",1968,3,1969,1,0.5,"tv_cpi",0.660343671043926,0.874943419379193
"CAN",1968,3,1969,2,0.75,"tv_cpi",0.681308907450391,0.521288623874838
"CAN",1968,3,1969,3,1,"tv_cpi",0.674239751627983,2.0583979709349
"CAN",1968,4,1969,1,0.25,"tv_cpi",1.31816659736074,0.874943419379193
"CAN",1968,4,1969,2,0.5,"tv_cpi",1.48572603201803,0.521288623874838
"CAN",1968,4,1969,3,0.75,"tv_cpi",1.42400533438663,2.0583979709349
"CAN",1968,4,1969,4,1,"tv_cpi",1.44674021961645,1.18140940266898
"CAN",1969,1,1969,2,0.25,"tv_cpi",1.23042420726992,0.521288623874838
"CAN",1969,1,1969,3,0.5,"tv_cpi",1.0897219977976,2.0583979709349
"CAN",1969,1,1969,4,0.75,"tv_cpi",1.14541308554347,1.18140940266898
"CAN",1969,1,1970,1,1,"tv_cpi",1.12337009655311,0.502094806727849
"CAN",1969,2,1969,3,0.25,"tv_cpi",0.650292308790044,2.0583979709349
"CAN",1969,2,1969,4,0.5,"tv_cpi",0.603235260693274,1.18140940266898
"CAN",1969,2,1970,1,0.75,"tv_cpi",0.62040039653445,0.502094806727849
"CAN",1969,2,1970,2,1,"tv_cpi",0.614139020176118,1.16186358612742
"CAN",1969,3,1969,4,0.25,"tv_cpi",1.45706496714945,1.18140940266898
"CAN",1969,3,1970,1,0.5,"tv_cpi",1.69231263000001,0.502094806727849
"CAN",1969,3,1970,2,0.75,"tv_cpi",1.60028132200881,1.16186358612742
"CAN",1969,3,1970,3,1,"tv_cpi",1.63628491731743,0.493829707328164
"CAN",1969,4,1970,1,0.25,"tv_cpi",1.54112411117337,0.502094806727849
"CAN",1969,4,1970,2,0.5,"tv_cpi",1.39357980307566,1.16186358612742
"CAN",1969,4,1970,3,0.75,"tv_cpi",1.45409810365487,0.493829707328164
"CAN",1969,4,1970,4,1,"tv_cpi",1.42927529108951,0.817647968865298
"CAN",1970,1,1970,2,0.25,"tv_cpi",0.761266618743089,1.16186358612742
"CAN",1970,1,1970,3,0.5,"tv_cpi",0.662387500666427,0.493829707328164
"CAN",1970,1,1970,4,0.75,"tv_cpi",0.700111819200896,0.817647968865298
"CAN",1970,1,1971,1,1,"tv_cpi",0.685719253444123,-0.489798516943107
"CAN",1970,2,1970,3,0.25,"tv_cpi",0.883818561810102,0.493829707328164
"CAN",1970,2,1970,4,0.5,"tv_cpi",1.00099451490381,0.817647968865298
"CAN",1970,2,1971,1,0.75,"tv_cpi",0.951613289625169,-0.489798516943107
"CAN",1970,2,1971,2,1,"tv_cpi",0.97242391967031,0.489798516943107
"CAN",1970,3,1970,4,0.25,"tv_cpi",0.773945671877569,0.817647968865298
"CAN",1970,3,1971,1,0.5,"tv_cpi",0.656489123511371,-0.489798516943107
"CAN",1970,3,1971,2,0.75,"tv_cpi",0.705740299810064,0.489798516943107
"CAN",1970,3,1971,3,1,"tv_cpi",0.685088591577993,1.29450035286163
"CAN",1970,4,1971,1,0.25,"tv_cpi",0.669664972700982,-0.489798516943107
"CAN",1970,4,1971,2,0.5,"tv_cpi",0.737292311103133,0.489798516943107
"CAN",1970,4,1971,3,0.75,"tv_cpi",0.706387024564126,1.29450035286163
"CAN",1970,4,1971,4,1,"tv_cpi",0.720510554465278,1.75307894124619
"CAN",1971,1,1971,2,0.25,"tv_cpi",0.106915645936443,0.489798516943107
"CAN",1971,1,1971,3,0.5,"tv_cpi",-0.16542268381239,1.29450035286163
"CAN",1971,1,1971,4,0.75,"tv_cpi",-0.0411283893842631,1.75307894124619
"CAN",1971,1,1972,1,1,"tv_cpi",-0.0978558858098817,0.629885487777981
"CAN",1971,2,1971,3,0.25,"tv_cpi",0.0236691512133721,1.29450035286163
"CAN",1971,2,1971,4,0.5,"tv_cpi",0.245471155588207,1.75307894124619
"CAN",1971,2,1972,1,0.75,"tv_cpi",0.139929362340153,0.629885487777981
"CAN",1971,2,1972,2,1,"tv_cpi",0.19015014439941,1.24805068908862
"CAN",1971,3,1971,4,0.25,"tv_cpi",0.940130554844272,1.75307894124619
"CAN",1971,3,1972,1,0.5,"tv_cpi",1.09618581424793,0.629885487777981
"CAN",1971,3,1972,2,0.75,"tv_cpi",1.02746312929059,1.24805068908862
"CAN",1971,3,1972,3,1,"tv_cpi",1.05772681566549,0.925935796665911
"CAN",1971,4,1972,1,0.25,"tv_cpi",1.58670451661579,0.629885487777981
"CAN",1971,4,1972,2,0.5,"tv_cpi",1.64706592439239,1.24805068908862
"CAN",1971,4,1972,3,0.75,"tv_cpi",1.6251665275538,0.925935796665911
"CAN",1971,4,1972,4,1,"tv_cpi",1.6331117296218,2.12778527734403
"CAN",1972,1,1972,2,0.25,"tv_cpi",1.06190198120613,1.24805068908862
"CAN",1972,1,1972,3,0.5,"tv_cpi",0.895734479056211,0.925935796665911
"CAN",1972,1,1972,4,0.75,"tv_cpi",0.959647869379898,2.12778527734403
"CAN",1972,1,1973,1,1,"tv_cpi",0.935064714371752,0.749050554917297
"CAN",1972,2,1972,3,0.25,"tv_cpi",1.00434294422193,0.925935796665911
"CAN",1972,2,1972,4,0.5,"tv_cpi",1.1004231907031,2.12778527734403
"CAN",1972,2,1973,1,0.75,"tv_cpi",1.06254415748266,0.749050554917297
"CAN",1972,2,1973,2,1,"tv_cpi",1.07747772822445,1.77520019638968
"CAN",1972,3,1972,4,0.25,"tv_cpi",1.05363274827751,2.12778527734403
"CAN",1972,3,1973,1,0.5,"tv_cpi",1.00300947119693,0.749050554917297
"CAN",1972,3,1973,2,0.75,"tv_cpi",1.02307820541521,1.77520019638968
"CAN",1972,3,1973,3,1,"tv_cpi",1.01512229824462,2.17558208127699
"CAN",1972,4,1973,1,0.25,"tv_cpi",1.63334023968807,0.749050554917297
"CAN",1972,4,1973,2,0.5,"tv_cpi",1.83675664015501,1.77520019638968
"CAN",1972,4,1973,3,0.75,"tv_cpi",1.75307042869036,2.17558208127699
"CAN",1972,4,1973,4,1,"tv_cpi",1.78749922584354,2.96842485757458
"CAN",1973,1,1973,2,0.25,"tv_cpi",1.39684096604767,1.77520019638968
"CAN",1973,1,1973,3,0.5,"tv_cpi",1.09248044627063,2.17558208127699
"CAN",1973,1,1973,4,0.75,"tv_cpi",1.23548244878145,2.96842485757458
"CAN",1973,1,1974,1,1,"tv_cpi",1.1682937978451,1.79435977109055
"CAN",1973,2,1973,3,0.25,"tv_cpi",1.27804093345829,2.17558208127699
"CAN",1973,2,1973,4,0.5,"tv_cpi",1.51890963596432,2.96842485757458
"CAN",1973,2,1974,1,0.75,"tv_cpi",1.40221115285682,1.79435977109055
"CAN",1973,2,1974,2,1,"tv_cpi",1.45875040356853,2.29894237836987
"CAN",1973,3,1973,4,0.25,"tv_cpi",1.99487026704098,2.96842485757458
"CAN",1973,3,1974,1,0.5,"tv_cpi",2.07643429637678,1.79435977109055
"CAN",1973,3,1974,2,0.75,"tv_cpi",2.03962048367938,2.29894237836987
"CAN",1973,3,1974,3,1,"tv_cpi",2.05623634751489,3.41688457713851
"CAN",1973,4,1974,1,0.25,"tv_cpi",2.61767580371058,1.79435977109055
"CAN",1973,4,1974,2,0.5,"tv_cpi",2.77284515438688,2.29894237836987
"CAN",1973,4,1974,3,0.75,"tv_cpi",2.70419913204112,3.41688457713851
"CAN",1973,4,1974,4,1,"tv_cpi",2.73456773488283,2.92832219067054
"CAN",1974,1,1974,2,0.25,"tv_cpi",2.34220626264809,2.29894237836987
"CAN",1974,1,1974,3,0.5,"tv_cpi",2.08656815385233,3.41688457713851
"CAN",1974,1,1974,4,0.75,"tv_cpi",2.20585493158249,2.92832219067054
"CAN",1974,1,1975,1,1,"tv_cpi",2.15019290447599,2.84495917493341
"CAN",1974,2,1974,3,0.25,"tv_cpi",2.0453889702093,3.41688457713851
"CAN",1974,2,1974,4,0.5,"tv_cpi",2.17279988343218,2.92832219067054
"CAN",1974,2,1975,1,0.75,"tv_cpi",2.10877573591211,2.84495917493341
"CAN",1974,2,1975,2,1,"tv_cpi",2.14094795226301,1.81269853169406
"CAN",1974,3,1974,4,0.25,"tv_cpi",2.93337346308779,2.92832219067054
"CAN",1974,3,1975,1,0.5,"tv_cpi",3.14249250132435,2.84495917493341
"CAN",1974,3,1975,2,0.75,"tv_cpi",3.0520483090769,1.81269853169406
"CAN",1974,3,1975,3,1,"tv_cpi",3.09116551227502,2.3670121698423
"CAN",1974,4,1975,1,0.25,"tv_cpi",3.14010230516314,2.84495917493341
"CAN",1974,4,1975,2,0.5,"tv_cpi",3.04830068854925,1.81269853169406
"CAN",1974,4,1975,3,0.75,"tv_cpi",3.08809449465382,2.3670121698423
"CAN",1974,4,1975,4,1,"tv_cpi",3.07084483105641,3.22235435686844
"CAN",1975,1,1975,2,0.25,"tv_cpi",2.88085926436227,1.81269853169406
"CAN",1975,1,1975,3,0.5,"tv_cpi",2.86539897409321,2.3670121698423
"CAN",1975,1,1975,4,0.75,"tv_cpi",2.87205691224897,3.22235435686844
"CAN",1975,1,1976,1,1,"tv_cpi",2.86918968662032,2.01801228662699
"CAN",1975,2,1975,3,0.25,"tv_cpi",2.25315849965682,2.3670121698423
"CAN",1975,2,1975,4,0.5,"tv_cpi",2.06521664151434,3.22235435686844
"CAN",1975,2,1976,1,0.75,"tv_cpi",2.14541040397003,2.01801228662699
"CAN",1975,2,1976,2,1,"tv_cpi",2.11119216434869,1.43254982749603
"CAN",1975,3,1975,4,0.25,"tv_cpi",2.12657322814869,3.22235435686844
"CAN",1975,3,1976,1,0.5,"tv_cpi",2.23086596190835,2.01801228662699
"CAN",1975,3,1976,2,0.75,"tv_cpi",2.18562797242775,1.43254982749603
"CAN",1975,3,1976,3,1,"tv_cpi",2.20525039115697,1.41227637672539
"CAN",1975,4,1976,1,0.25,"tv_cpi",2.87293113590431,2.01801228662699
"CAN",1975,4,1976,2,0.5,"tv_cpi",3.01567703246,1.43254982749603
"CAN",1975,4,1976,3,0.75,"tv_cpi",2.95736267393722,1.41227637672539
"CAN",1975,4,1976,4,1,"tv_cpi",2.98118517596337,1.49894882688582
"CAN",1976,1,1976,2,0.25,"tv_cpi",2.55332462268291,1.43254982749603
"CAN",1976,1,1976,3,0.5,"tv_cpi",2.31538616299247,1.41227637672539
"CAN",1976,1,1976,4,0.75,"tv_cpi",2.42114630858707,1.49894882688582
"CAN",1976,1,1977,1,1,"tv_cpi",2.37413747945225,1.3720710353391
"CAN",1976,2,1976,3,0.25,"tv_cpi",1.66315087801453,1.41227637672539
"CAN",1976,2,1976,4,0.5,"tv_cpi",1.57232209186286,1.49894882688582
"CAN",1976,2,1977,1,0.75,"tv_cpi",1.60809759407864,1.3720710353391
"CAN",1976,2,1977,2,1,"tv_cpi",1.59400639443788,2.07475676302611
"CAN",1976,3,1976,4,0.25,"tv_cpi",1.42020004290579,1.49894882688582
"CAN",1976,3,1977,1,0.5,"tv_cpi",1.417103160858,1.3720710353391
"CAN",1976,3,1977,2,0.75,"tv_cpi",1.41831354481406,2.07475676302611
"CAN",1976,3,1977,3,1,"tv_cpi",1.41784047890503,2.5343682996434
"CAN",1976,4,1977,1,0.25,"tv_cpi",1.46502672895669,1.3720710353391
"CAN",1976,4,1977,2,0.5,"tv_cpi",1.47830325137856,2.07475676302611
"CAN",1976,4,1977,3,0.75,"tv_cpi",1.47310705012984,2.5343682996434
"CAN",1976,4,1977,4,1,"tv_cpi",1.47514075342647,2.0802817976298
"CAN",1977,1,1977,2,0.25,"tv_cpi",1.42229185441812,2.07475676302611
"CAN",1977,1,1977,3,0.5,"tv_cpi",1.40241342937445,2.5343682996434
"CAN",1977,1,1977,4,0.75,"tv_cpi",1.41028171566415,2.0802817976298
"CAN",1977,1,1978,1,1,"tv_cpi",1.4071672873832,2.03792299218417
"CAN",1977,2,1977,3,0.25,"tv_cpi",1.79391694196494,2.5343682996434
"CAN",1977,2,1977,4,0.5,"tv_cpi",1.90615916062119,2.0802817976298
"CAN",1977,2,1978,1,0.75,"tv_cpi",1.86129972579719,2.03792299218417
"CAN",1977,2,1978,2,1,"tv_cpi",1.87922853116847,1.99721980992398
"CAN",1977,3,1977,4,0.25,"tv_cpi",2.35445394776575,2.0802817976298
"CAN",1977,3,1978,1,0.5,"tv_cpi",2.42488119215085,2.03792299218417
"CAN",1977,3,1978,2,0.75,"tv_cpi",2.39731253684395,1.99721980992398
"CAN",1977,3,1978,3,1,"tv_cpi",2.40810425192618,2.3267526452325
"CAN",1977,4,1978,1,0.25,"tv_cpi",2.25910164174201,2.03792299218417
"CAN",1977,4,1978,2,0.5,"tv_cpi",2.18868215887582,1.99721980992398
"CAN",1977,4,1978,3,0.75,"tv_cpi",2.21641344111556,2.3267526452325
"CAN",1977,4,1978,4,1,"tv_cpi",2.20549282677192,2.45356152061698
"CAN",1978,1,1978,2,0.25,"tv_cpi",2.055221351133,1.99721980992398
"CAN",1978,1,1978,3,0.5,"tv_cpi",2.04815710040226,2.3267526452325
"CAN",1978,1,1978,4,0.75,"tv_cpi",2.05104197743218,2.45356152061698
"CAN",1978,1,1979,1,1,"tv_cpi",2.04986386020574,1.69120075030964
"CAN",1978,2,1978,3,0.25,"tv_cpi",2.0138234461126,2.3267526452325
"CAN",1978,2,1978,4,0.5,"tv_cpi",2.007050493253,2.45356152061698
"CAN",1978,2,1979,1,0.75,"tv_cpi",2.00981331519858,1.69120075030964
"CAN",1978,2,1979,2,1,"tv_cpi",2.0086863052723,2.09612028715123
"CAN",1978,3,1978,4,0.25,"tv_cpi",2.18580903228755,2.45356152061698
"CAN",1978,3,1979,1,0.5,"tv_cpi",2.24609165028942,1.69120075030964
"CAN",1978,3,1979,2,0.75,"tv_cpi",2.22030833200185,2.09612028715123
"CAN",1978,3,1979,3,1,"tv_cpi",2.2313360465231,2.72824736605242
"CAN",1978,4,1979,1,0.25,"tv_cpi",2.40243711062786,1.69120075030964
"CAN",1978,4,1979,2,0.5,"tv_cpi",2.42304848572926,2.09612028715123
"CAN",1978,4,1979,3,0.75,"tv_cpi",2.41473878037205,2.72824736605242
"CAN",1978,4,1979,4,1,"tv_cpi",2.41808893060627,1.91592240920695
"CAN",1979,1,1979,2,0.25,"tv_cpi",1.99318380546097,2.09612028715123
"CAN",1979,1,1979,3,0.5,"tv_cpi",1.87356358213578,2.72824736605242
"CAN",1979,1,1979,4,0.75,"tv_cpi",1.92094702827383,1.91592240920695
"CAN",1979,1,1980,1,1,"tv_cpi",1.90217770227271,2.28393585715518
"CAN",1979,2,1979,3,0.25,"tv_cpi",1.93561216171535,2.72824736605242
"CAN",1979,2,1979,4,0.5,"tv_cpi",1.99923679818484,1.91592240920695
"CAN",1979,2,1980,1,0.75,"tv_cpi",1.97401630324179,2.28393585715518
"CAN",1979,2,1980,2,1,"tv_cpi",1.98401358417678,2.15405913261506
"CAN",1979,3,1979,4,0.25,"tv_cpi",2.50593515128794,1.91592240920695
"CAN",1979,3,1980,1,0.5,"tv_cpi",2.58411993799158,2.28393585715518
"CAN",1979,3,1980,2,0.75,"tv_cpi",2.55662319932443,2.15405913261506
"CAN",1979,3,1980,3,1,"tv_cpi",2.56629350309076,2.72496311689348
"CAN",1979,4,1980,1,0.25,"tv_cpi",2.22567195782722,2.28393585715518
"CAN",1979,4,1980,2,0.5,"tv_cpi",2.10756062558027,2.15405913261506
"CAN",1979,4,1980,3,0.75,"tv_cpi",2.15259793674759,2.72496311689348
"CAN",1979,4,1980,4,1,"tv_cpi",2.13542465321421,2.80214225188988
"CAN",1980,1,1980,2,0.25,"tv_cpi",2.13722421290816,2.15405913261506
"CAN",1980,1,1980,3,0.5,"tv_cpi",2.1957120390397,2.72496311689348
"CAN",1980,1,1980,4,0.75,"tv_cpi",2.17239537714043,2.80214225188988
"CAN",1980,1,1981,1,1,"tv_cpi",2.18169075975394,2.72578537427455
"CAN",1980,2,1980,3,0.25,"tv_cpi",2.1999206247565,2.72496311689348
"CAN",1980,2,1980,4,0.5,"tv_cpi",2.18372621833851,2.80214225188988
"CAN",1980,2,1981,1,0.75,"tv_cpi",2.18944471520778,2.72578537427455
"CAN",1980,2,1981,2,1,"tv_cpi",2.18742542499116,3.35865939464655
"CAN",1980,3,1980,4,0.25,"tv_cpi",2.50182548203439,2.80214225188988
"CAN",1980,3,1981,1,0.5,"tv_cpi",2.58903875337535,2.72578537427455
"CAN",1980,3,1981,2,0.75,"tv_cpi",2.55495147489902,3.35865939464655
"CAN",1980,3,1981,3,1,"tv_cpi",2.56827447650253,2.90877534275418
"CAN",1980,4,1981,1,0.25,"tv_cpi",2.77354553820467,2.72578537427455
"CAN",1980,4,1981,2,0.5,"tv_cpi",2.78414130393374,3.35865939464655
"CAN",1980,4,1981,3,0.75,"tv_cpi",2.78021531954892,2.90877534275418
"CAN",1980,4,1981,4,1,"tv_cpi",2.78166999057355,2.95919491678953
"CAN",1981,1,1981,2,0.25,"tv_cpi",2.75312253188266,3.35865939464655
"CAN",1981,1,1981,3,0.5,"tv_cpi",2.74333532987244,2.90877534275418
"CAN",1981,1,1981,4,0.75,"tv_cpi",2.7468393270532,2.95919491678953
"CAN",1981,1,1982,1,1,"tv_cpi",2.74558483202695,2.42236849316555
"CAN",1981,2,1981,3,0.25,"tv_cpi",3.13600053586924,2.90877534275418
"CAN",1981,2,1981,4,0.5,"tv_cpi",3.21433676993186,2.95919491678953
"CAN",1981,2,1982,1,0.75,"tv_cpi",3.18677637731685,2.42236849316555
"CAN",1981,2,1982,2,1,"tv_cpi",3.19647272346091,2.49135397543214
"CAN",1981,3,1981,4,0.25,"tv_cpi",3.07422336212089,2.95919491678953
"CAN",1981,3,1982,1,0.5,"tv_cpi",3.01337869115017,2.42236849316555
"CAN",1981,3,1982,2,0.75,"tv_cpi",3.03575474617764,2.49135397543214
"CAN",1981,3,1982,3,1,"tv_cpi",3.0275257948068,3.0446532371057
"CAN",1981,4,1982,1,0.25,"tv_cpi",2.94317875643699,2.42236849316555
"CAN",1981,4,1982,2,0.5,"tv_cpi",2.94826641132789,2.49135397543214
"CAN",1981,4,1982,3,0.75,"tv_cpi",2.94665027913895,3.0446532371057
"CAN",1981,4,1982,4,1,"tv_cpi",2.94716365579443,2.1193642255005
"CAN",1982,1,1982,2,0.25,"tv_cpi",2.62251876612384,2.49135397543214
"CAN",1982,1,1982,3,0.5,"tv_cpi",2.5478947722175,3.0446532371057
"CAN",1982,1,1982,4,0.75,"tv_cpi",2.57571756947991,2.1193642255005
"CAN",1982,1,1983,1,1,"tv_cpi",2.56534412245593,1.54582966761603
"CAN",1982,2,1982,3,0.25,"tv_cpi",2.46421341416764,3.0446532371057
"CAN",1982,2,1982,4,0.5,"tv_cpi",2.4748911689872,2.1193642255005
"CAN",1982,2,1983,1,0.75,"tv_cpi",2.47069028136091,1.54582966761603
"CAN",1982,2,1983,2,1,"tv_cpi",2.47234301240287,0.705450258972062
"CAN",1982,3,1982,4,0.25,"tv_cpi",2.8289406515484,2.1193642255005
"CAN",1982,3,1983,1,0.5,"tv_cpi",2.9130396605134,1.54582966761603
"CAN",1982,3,1983,2,0.75,"tv_cpi",2.88025231391226,0.705450258972062
"CAN",1982,3,1983,3,1,"tv_cpi",2.89303498650702,1.33841553760603
"CAN",1982,4,1983,1,0.25,"tv_cpi",2.47216013272154,1.54582966761603
"CAN",1982,4,1983,2,0.5,"tv_cpi",2.33764545612769,0.705450258972062
"CAN",1982,4,1983,3,0.75,"tv_cpi",2.38893346103023,1.33841553760603
"CAN",1982,4,1983,4,1,"tv_cpi",2.36937827557768,1.6055296868895
"CAN",1983,1,1983,2,0.25,"tv_cpi",1.73225234850601,0.705450258972062
"CAN",1983,1,1983,3,0.5,"tv_cpi",1.67165719260399,1.33841553760603
"CAN",1983,1,1983,4,0.75,"tv_cpi",1.69135314859637,1.6055296868895
"CAN",1983,1,1984,1,1,"tv_cpi",1.68495114043781,0.906018518969942
"CAN",1983,2,1983,3,0.25,"tv_cpi",0.953210466376923,1.33841553760603
"CAN",1983,2,1983,4,0.5,"tv_cpi",0.880165934654816,1.6055296868895
"CAN",1983,2,1984,1,0.75,"tv_cpi",0.901700884396697,0.906018518969942
"CAN",1983,2,1984,2,1,"tv_cpi",0.895351962041364,1.17679632467897
"CAN",1983,3,1983,4,0.25,"tv_cpi",1.18260174495891,1.6055296868895
"CAN",1983,3,1984,1,0.5,"tv_cpi",1.22095762133727,0.906018518969942
"CAN",1983,3,1984,2,0.75,"tv_cpi",1.21151575340146,1.17679632467897
"CAN",1983,3,1984,3,1,"tv_cpi",1.2138400092531,0.832185080159764
"CAN",1983,4,1984,1,0.25,"tv_cpi",1.56486396199264,0.906018518969942
"CAN",1983,4,1984,2,0.5,"tv_cpi",1.57105495257035,1.17679632467897
"CAN",1983,4,1984,3,0.75,"tv_cpi",1.57011242998086,0.832185080159764
"CAN",1983,4,1984,4,1,"tv_cpi",1.57025592056133,0.825316876936055
"CAN",1984,1,1984,2,0.25,"tv_cpi",1.04123733180671,1.17679632467897
"CAN",1984,1,1984,3,0.5,"tv_cpi",1.01509889659149,0.832185080159764
"CAN",1984,1,1984,4,0.75,"tv_cpi",1.02015157958114,0.825316876936055
"CAN",1984,1,1985,1,1,"tv_cpi",1.01917487209335,0.764191457831176
"CAN",1984,2,1984,3,0.25,"tv_cpi",1.11467649824081,0.832185080159764
"CAN",1984,2,1984,4,0.5,"tv_cpi",1.12892756592563,0.825316876936055
"CAN",1984,2,1985,1,0.75,"tv_cpi",1.12565819217167,0.764191457831176
"CAN",1984,2,1985,2,1,"tv_cpi",1.126408227536,1.13545794008982
"CAN",1984,3,1984,4,0.25,"tv_cpi",0.897548819113379,0.825316876936055
"CAN",1984,3,1985,1,0.5,"tv_cpi",0.885151027578871,0.764191457831176
"CAN",1984,3,1985,2,0.75,"tv_cpi",0.887502564339065,1.13545794008982
"CAN",1984,3,1985,3,1,"tv_cpi",0.887056539325727,1.17584571170664
"CAN",1984,4,1985,1,0.25,"tv_cpi",0.826329161981213,0.764191457831176
"CAN",1984,4,1985,2,0.5,"tv_cpi",0.826179964151843,1.13545794008982
"CAN",1984,4,1985,3,0.75,"tv_cpi",0.82620195399788,1.17584571170664
"CAN",1984,4,1985,4,1,"tv_cpi",0.826198712976675,0.951907670712382
"CAN",1985,1,1985,2,0.25,"tv_cpi",0.776996811437943,1.13545794008982
"CAN",1985,1,1985,3,0.5,"tv_cpi",0.774314178199666,1.17584571170664
"CAN",1985,1,1985,4,0.75,"tv_cpi",0.774876171355974,0.951907670712382
"CAN",1985,1,1986,1,1,"tv_cpi",0.774758437666839,0.786376098391628
"CAN",1985,2,1985,3,0.25,"tv_cpi",1.07243644657671,1.17584571170664
"CAN",1985,2,1985,4,0.5,"tv_cpi",1.08313417673662,0.951907670712382
"CAN",1985,2,1986,1,0.75,"tv_cpi",1.0813182656213,0.786376098391628
"CAN",1985,2,1986,2,1,"tv_cpi",1.08162651168186,1.29702599916377
"CAN",1985,3,1985,4,0.25,"tv_cpi",1.16897477630681,0.951907670712382
"CAN",1985,3,1986,1,0.5,"tv_cpi",1.17014368836555,0.786376098391628
"CAN",1985,3,1986,2,0.75,"tv_cpi",1.16994482819273,1.29702599916377
"CAN",1985,3,1986,3,1,"tv_cpi",1.16997865911101,0.821349527320425
"CAN",1985,4,1986,1,0.25,"tv_cpi",0.995694155632176,0.786376098391628
"CAN",1985,4,1986,2,0.5,"tv_cpi",0.987132607745453,1.29702599916377
"CAN",1985,4,1986,3,0.75,"tv_cpi",0.988806642606916,0.821349527320425
"CAN",1985,4,1986,4,1,"tv_cpi",0.988479319469269,1.16900694062392
"CAN",1986,1,1986,2,0.25,"tv_cpi",0.810066766845183,1.29702599916377
"CAN",1986,1,1986,3,0.5,"tv_cpi",0.806676188456374,0.821349527320425
"CAN",1986,1,1986,4,0.75,"tv_cpi",0.807161443730331,1.16900694062392
"CAN",1986,1,1987,1,1,"tv_cpi",0.807091994611656,1.00555488009815
"CAN",1986,2,1986,3,0.25,"tv_cpi",1.18981639528684,0.821349527320425
"CAN",1986,2,1986,4,0.5,"tv_cpi",1.21232476970553,1.16900694062392
"CAN",1986,2,1987,1,0.75,"tv_cpi",1.2075991956837,1.00555488009815
"CAN",1986,2,1987,2,1,"tv_cpi",1.20859131752335,0.945977078179228
"CAN",1986,3,1986,4,0.25,"tv_cpi",0.891854879340531,1.16900694062392
"CAN",1986,3,1987,1,0.5,"tv_cpi",0.881404489300815,1.00555488009815
"CAN",1986,3,1987,2,0.75,"tv_cpi",0.882953458972664,0.945977078179228
"CAN",1986,3,1987,3,1,"tv_cpi",0.882723868781754,1.42683691216376
"CAN",1986,4,1987,1,0.25,"tv_cpi",1.08105971854565,1.00555488009815
"CAN",1986,4,1987,2,0.5,"tv_cpi",1.10330780984273,0.945977078179228
"CAN",1986,4,1987,3,0.75,"tv_cpi",1.09767968931014,1.42683691216376
"CAN",1986,4,1987,4,1,"tv_cpi",1.09910344024259,1.06901881020494
"CAN",1987,1,1987,2,0.25,"tv_cpi",1.04766564458641,0.945977078179228
"CAN",1987,1,1987,3,0.5,"tv_cpi",1.03681649113994,1.42683691216376
"CAN",1987,1,1987,4,0.75,"tv_cpi",1.03961159904015,1.06901881020494
"CAN",1987,1,1988,1,1,"tv_cpi",1.03889148495822,0.674372413337654
"CAN",1987,2,1987,3,0.25,"tv_cpi",0.961212998848211,1.42683691216376
"CAN",1987,2,1987,4,0.5,"tv_cpi",0.957316693997162,1.06901881020494
"CAN",1987,2,1988,1,0.75,"tv_cpi",0.958313101882326,0.674372413337654
"CAN",1987,2,1988,2,1,"tv_cpi",0.958058288998948,0.860428717407213
"CAN",1987,3,1987,4,0.25,"tv_cpi",1.30278397561419,1.06901881020494
"CAN",1987,3,1988,1,0.5,"tv_cpi",1.33478733704917,0.674372413337654
"CAN",1987,3,1988,2,0.75,"tv_cpi",1.3265310621747,0.860428717407213
"CAN",1987,3,1988,3,1,"tv_cpi",1.32866102827033,1.2769190126444
"CAN",1987,4,1988,1,0.25,"tv_cpi",1.16772195136427,0.674372413337654
"CAN",1987,4,1988,2,0.5,"tv_cpi",1.14049496083085,0.860428717407213
"CAN",1987,4,1988,3,0.75,"tv_cpi",1.1480054514272,1.2769190126444
"CAN",1987,4,1988,4,1,"tv_cpi",1.14593370321365,1.07502536716426
"CAN",1988,1,1988,2,0.25,"tv_cpi",0.793084639988105,0.860428717407213
"CAN",1988,1,1988,3,0.5,"tv_cpi",0.757375222980436,1.2769190126444
"CAN",1988,1,1988,4,0.75,"tv_cpi",0.768116850014207,1.07502536716426
"CAN",1988,1,1989,1,1,"tv_cpi",0.764885698094033,0.787219982743181
"CAN",1988,2,1988,3,0.25,"tv_cpi",0.807144627593141,1.2769190126444
"CAN",1988,2,1988,4,0.5,"tv_cpi",0.822404493371473,1.07502536716426
"CAN",1988,2,1989,1,0.75,"tv_cpi",0.818034267580148,0.787219982743181
"CAN",1988,2,1989,2,1,"tv_cpi",0.819285843035961,1.23770024456311
"CAN",1988,3,1988,4,0.25,"tv_cpi",1.16103609420867,1.07502536716426
"CAN",1988,3,1989,1,0.5,"tv_cpi",1.19327898423215,0.787219982743181
"CAN",1988,3,1989,2,0.75,"tv_cpi",1.18430782635056,1.23770024456311
"CAN",1988,3,1989,3,1,"tv_cpi",1.18680393242783,1.71639236195382
"CAN",1988,4,1989,1,0.25,"tv_cpi",1.13210425321459,0.787219982743181
"CAN",1988,4,1989,2,0.5,"tv_cpi",1.11596704778151,1.23770024456311
"CAN",1988,4,1989,3,0.75,"tv_cpi",1.12052931970391,1.71639236195382
"CAN",1988,4,1989,4,1,"tv_cpi",1.11923948515478,1.42287750412482
"CAN",1989,1,1989,2,0.25,"tv_cpi",0.866767836016928,1.23770024456311
"CAN",1989,1,1989,3,0.5,"tv_cpi",0.844781239160201,1.71639236195382
"CAN",1989,1,1989,4,0.75,"tv_cpi",0.850858215740281,1.42287750412482
"CAN",1989,1,1990,1,1,"tv_cpi",0.84917857224677,0.703909573446548
"CAN",1989,2,1989,3,0.25,"tv_cpi",1.10506218478156,1.71639236195382
"CAN",1989,2,1989,4,0.5,"tv_cpi",1.14411573805277,1.42287750412482
"CAN",1989,2,1990,1,0.75,"tv_cpi",1.13261692673407,0.703909573446548
"CAN",1989,2,1990,2,1,"tv_cpi",1.13600260231716,1.43637321563084
"CAN",1989,3,1989,4,0.25,"tv_cpi",1.58746695465196,1.42287750412482
"CAN",1989,3,1990,1,0.5,"tv_cpi",1.62219023511573,0.703909573446548
"CAN",1989,3,1990,2,0.75,"tv_cpi",1.61283826771537,1.43637321563084
"CAN",1989,3,1990,3,1,"tv_cpi",1.61535701862511,0.946235822452035
"CAN",1989,4,1990,1,0.25,"tv_cpi",1.49534147533675,0.703909573446548
"CAN",1989,4,1990,2,0.5,"tv_cpi",1.47745131753471,1.43637321563084
"CAN",1989,4,1990,3,0.75,"tv_cpi",1.48186810205299,0.946235822452035
"CAN",1989,4,1990,4,1,"tv_cpi",1.48077767089543,0.979771403063978
"CAN",1990,1,1990,2,0.25,"tv_cpi",0.892441894508924,1.43637321563084
"CAN",1990,1,1990,3,0.5,"tv_cpi",0.843003756076749,0.946235822452035
"CAN",1990,1,1990,4,0.75,"tv_cpi",0.855967737625728,0.979771403063978
"CAN",1990,1,1991,1,1,"tv_cpi",0.852568240336144,1.47279610793536
"CAN",1990,2,1990,3,0.25,"tv_cpi",1.23956984157432,0.946235822452035
"CAN",1990,2,1990,4,0.5,"tv_cpi",1.29244832701631,0.979771403063978
"CAN",1990,2,1991,1,0.75,"tv_cpi",1.27824057150377,1.47279610793536
"CAN",1990,2,1991,2,1,"tv_cpi",1.28205800906872,2.84144467061074
"CAN",1990,3,1990,4,0.25,"tv_cpi",1.0752159246673,0.979771403063978
"CAN",1990,3,1991,1,0.5,"tv_cpi",1.0412746930882,1.47279610793536
"CAN",1990,3,1991,2,0.75,"tv_cpi",1.05020635914614,2.84144467061074
"CAN",1990,3,1991,3,1,"tv_cpi",1.04785598307376,0.728160905900221
"CAN",1990,4,1991,1,0.25,"tv_cpi",0.971307074417232,1.47279610793536
"CAN",1990,4,1991,2,0.5,"tv_cpi",0.973443457868265,2.84144467061074
"CAN",1990,4,1991,3,0.75,"tv_cpi",0.972904237991494,0.728160905900221
"CAN",1990,4,1991,4,1,"tv_cpi",0.973040336253894,0.602776511185432
"CAN",1991,1,1991,2,0.25,"tv_cpi",1.34899088039871,2.84144467061074
"CAN",1991,1,1991,3,0.5,"tv_cpi",1.38008006155729,0.728160905900221
"CAN",1991,1,1991,4,0.75,"tv_cpi",1.37227314415693,0.602776511185432
"CAN",1991,1,1992,1,1,"tv_cpi",1.37423356759122,-0.160390549892142
"CAN",1991,2,1991,3,0.25,"tv_cpi",2.61382532415387,0.728160905900221
"CAN",1991,2,1991,4,0.5,"tv_cpi",2.65168059854233,0.602776511185432
"CAN",1991,2,1992,1,0.75,"tv_cpi",2.64538490434352,-0.160390549892142
"CAN",1991,2,1992,2,1,"tv_cpi",2.64643193850415,0.400487469734934
"CAN",1991,3,1991,4,0.25,"tv_cpi",1.60725191001826,0.602776511185432
"CAN",1991,3,1992,1,0.5,"tv_cpi",1.24156462919674,-0.160390549892142
"CAN",1991,3,1992,2,0.75,"tv_cpi",1.3936844742733,0.400487469734934
"CAN",1991,3,1992,3,1,"tv_cpi",1.3304051411389,0.518230733074621
"CAN",1991,4,1992,1,0.25,"tv_cpi",0.637406117706169,-0.160390549892142
"CAN",1991,4,1992,2,0.5,"tv_cpi",0.627841852148968,0.400487469734934
"CAN",1991,4,1992,3,0.75,"tv_cpi",0.630483383048081,0.518230733074621
"CAN",1991,4,1992,4,1,"tv_cpi",0.629753825148498,0.436433483245668
"CAN",1992,1,1992,2,0.25,"tv_cpi",0.0325165441293121,0.400487469734934
"CAN",1992,1,1992,3,0.5,"tv_cpi",-0.0162449247832194,0.518230733074621
"CAN",1992,1,1992,4,0.75,"tv_cpi",-0.00391940164697156,0.436433483245668
"CAN",1992,1,1993,1,1,"tv_cpi",-0.00703494603007235,0.43452204872283
"CAN",1992,2,1992,3,0.25,"tv_cpi",0.248845225435006,0.518230733074621
"CAN",1992,2,1992,4,0.5,"tv_cpi",0.289844104784225,0.436433483245668
"CAN",1992,2,1993,1,0.75,"tv_cpi",0.278759409251975,0.43452204872283
"CAN",1992,2,1993,2,1,"tv_cpi",0.281756332021402,0.706981692162945
"CAN",1992,3,1992,4,0.25,"tv_cpi",0.487199968143501,0.436433483245668
"CAN",1992,3,1993,1,0.5,"tv_cpi",0.495378001815223,0.43452204872283
"CAN",1992,3,1993,2,0.75,"tv_cpi",0.493222713832981,0.706981692162945
"CAN",1992,3,1993,3,1,"tv_cpi",0.493790731338517,0.195514019837706
"CAN",1992,4,1993,1,0.25,"tv_cpi",0.457835393696784,0.43452204872283
"CAN",1992,4,1993,2,0.5,"tv_cpi",0.452235672778105,0.706981692162945
"CAN",1992,4,1993,3,0.75,"tv_cpi",0.453700816482856,0.195514019837706
"CAN",1992,4,1993,4,1,"tv_cpi",0.453317467721954,0.389855442450138
"CAN",1993,1,1993,2,0.25,"tv_cpi",0.435037586827683,0.706981692162945
"CAN",1993,1,1993,3,0.5,"tv_cpi",0.43489853966997,0.195514019837706
"CAN",1993,1,1993,4,0.75,"tv_cpi",0.434936042449854,0.389855442450138
"CAN",1993,1,1994,1,1,"tv_cpi",0.434925927475034,0.504568081301926
"CAN",1993,2,1993,3,0.25,"tv_cpi",0.639112016825292,0.195514019837706
"CAN",1993,2,1993,4,0.5,"tv_cpi",0.656018347510742,0.389855442450138
"CAN",1993,2,1994,1,0.75,"tv_cpi",0.651806981892389,0.504568081301926
"CAN",1993,2,1994,2,1,"tv_cpi",0.652856032730293,-0.543476434298906
"CAN",1993,3,1993,4,0.25,"tv_cpi",0.351300767301877,0.389855442450138
"CAN",1993,3,1994,1,0.5,"tv_cpi",0.303850044609803,0.504568081301926
"CAN",1993,3,1994,2,0.75,"tv_cpi",0.31830294975514,-0.543476434298906
"CAN",1993,3,1994,3,1,"tv_cpi",0.313900773027598,-0.350947089453157
"CAN",1993,4,1994,1,0.25,"tv_cpi",0.319776794941213,0.504568081301926
"CAN",1993,4,1994,2,0.5,"tv_cpi",0.345046841700488,-0.543476434298906
"CAN",1993,4,1994,3,0.75,"tv_cpi",0.33593457589749,-0.350947089453157
"CAN",1993,4,1994,4,1,"tv_cpi",0.339220418177699,0.545381899008923
"CAN",1994,1,1994,2,0.25,"tv_cpi",0.467046795386913,-0.543476434298906
"CAN",1994,1,1994,3,0.5,"tv_cpi",0.479319609531962,-0.350947089453157
"CAN",1994,1,1994,4,0.75,"tv_cpi",0.475305302362957,0.545381899008923
"CAN",1994,1,1995,1,1,"tv_cpi",0.476618339605815,0.31031442868148
"CAN",1994,2,1994,3,0.25,"tv_cpi",-0.17514934028122,-0.350947089453157
"CAN",1994,2,1994,4,0.5,"tv_cpi",-0.304595032871614,0.545381899008923
"CAN",1994,2,1995,1,0.75,"tv_cpi",-0.259102350952857,0.31031442868148
"CAN",1994,2,1995,2,1,"tv_cpi",-0.27509040020151,1.0019481442165
"CAN",1994,3,1994,4,0.25,"tv_cpi",-0.415680108784025,0.545381899008923
"CAN",1994,3,1995,1,0.5,"tv_cpi",-0.393915303034295,0.31031442868148
"CAN",1994,3,1995,2,0.75,"tv_cpi",-0.401233156800736,1.0019481442165
"CAN",1994,3,1995,3,1,"tv_cpi",-0.398772717485872,0.801992688062469
"CAN",1994,4,1995,1,0.25,"tv_cpi",0.268337891085422,0.31031442868148
"CAN",1994,4,1995,2,0.5,"tv_cpi",0.353968706683621,1.0019481442165
"CAN",1994,4,1995,3,0.75,"tv_cpi",0.327501299447593,0.801992688062469
"CAN",1994,4,1995,4,1,"tv_cpi",0.335682041869629,0.189987130897684
"CAN",1995,1,1995,2,0.25,"tv_cpi",0.381361803971546,1.0019481442165
"CAN",1995,1,1995,3,0.5,"tv_cpi",0.35988826903889,0.801992688062469
"CAN",1995,1,1995,4,0.75,"tv_cpi",0.366378483499613,0.189987130897684
"CAN",1995,1,1996,1,1,"tv_cpi",0.36441686498276,0.0379627963394746
"CAN",1995,2,1995,3,0.25,"tv_cpi",0.78557993346452,0.801992688062469
"CAN",1995,2,1995,4,0.5,"tv_cpi",0.853267788426592,0.189987130897684
"CAN",1995,2,1996,1,0.75,"tv_cpi",0.832092562669337,0.0379627963394746
"CAN",1995,2,1996,2,1,"tv_cpi",0.838716944341971,0.416584944468834
"CAN",1995,3,1995,4,0.25,"tv_cpi",0.864409382850509,0.189987130897684
"CAN",1995,3,1996,1,0.5,"tv_cpi",0.844925824546092,0.0379627963394746
"CAN",1995,3,1996,2,0.75,"tv_cpi",0.851007675651645,0.416584944468834
"CAN",1995,3,1996,3,1,"tv_cpi",0.849109207605296,0.79052054952351
"CAN",1995,4,1996,1,0.25,"tv_cpi",0.375932194732268,0.0379627963394746
"CAN",1995,4,1996,2,0.5,"tv_cpi",0.319436683605499,0.416584944468834
"CAN",1995,4,1996,3,0.75,"tv_cpi",0.33660166078561,0.79052054952351
"CAN",1995,4,1996,4,1,"tv_cpi",0.331386442165274,0.149874121723226
"CAN",1996,1,1996,2,0.25,"tv_cpi",0.0821567343486218,0.416584944468834
"CAN",1996,1,1996,3,0.5,"tv_cpi",0.0693094216967877,0.79052054952351
"CAN",1996,1,1996,4,0.75,"tv_cpi",0.0730441746925451,0.149874121723226
"CAN",1996,1,1997,1,1,"tv_cpi",0.0719584705988312,0.597246179584676
"CAN",1996,2,1996,3,0.25,"tv_cpi",0.305070513437368,0.79052054952351
"CAN",1996,2,1996,4,0.5,"tv_cpi",0.337914520027344,0.149874121723226
"CAN",1996,2,1997,1,0.75,"tv_cpi",0.328241074546749,0.597246179584676
"CAN",1996,2,1997,2,1,"tv_cpi",0.331090165056145,0.556692742458331
"CAN",1996,3,1996,4,0.25,"tv_cpi",0.683956764442868,0.149874121723226
"CAN",1996,3,1997,1,0.5,"tv_cpi",0.714325202583582,0.597246179584676
"CAN",1996,3,1997,2,0.75,"tv_cpi",0.705670836239439,0.556692742458331
"CAN",1996,3,1997,3,1,"tv_cpi",0.708137148681047,0.295635791469806
"CAN",1996,4,1997,1,0.25,"tv_cpi",0.340705700120386,0.597246179584676
"CAN",1996,4,1997,2,0.5,"tv_cpi",0.283862034514396,0.556692742458331
"CAN",1996,4,1997,3,0.75,"tv_cpi",0.300794254782473,0.295635791469806
"CAN",1996,4,1997,4,1,"tv_cpi",0.295750595473203,0.25797503179863
"CAN",1997,1,1997,2,0.25,"tv_cpi",0.464308659054456,0.556692742458331
"CAN",1997,1,1997,3,0.5,"tv_cpi",0.503811314739304,0.295635791469806
"CAN",1997,1,1997,4,0.75,"tv_cpi",0.492073019937868,0.25797503179863
"CAN",1997,1,1998,1,1,"tv_cpi",0.49556107820779,-0.073647259255516
"CAN",1997,2,1997,3,0.25,"tv_cpi",0.568277913722909,0.295635791469806
"CAN",1997,2,1997,4,0.5,"tv_cpi",0.56496830046346,0.25797503179863
"CAN",1997,2,1998,1,0.75,"tv_cpi",0.565913779790176,-0.073647259255516
"CAN",1997,2,1998,2,1,"tv_cpi",0.56564367839549,0.550953440040391
"CAN",1997,3,1997,4,0.25,"tv_cpi",0.369150418265096,0.25797503179863
"CAN",1997,3,1998,1,0.5,"tv_cpi",0.348448420741619,-0.073647259255516
"CAN",1997,3,1998,2,0.75,"tv_cpi",0.354278181704093,0.550953440040391
"CAN",1997,3,1998,3,1,"tv_cpi",0.352636498922466,0.256087564166396
"CAN",1997,4,1998,1,0.25,"tv_cpi",0.26853437483671,-0.073647259255516
"CAN",1997,4,1998,2,0.5,"tv_cpi",0.265573740840758,0.550953440040391
"CAN",1997,4,1998,3,0.75,"tv_cpi",0.266403844913178,0.256087564166396
"CAN",1997,4,1998,4,1,"tv_cpi",0.266171099909239,0.109549393622732
"CAN",1998,1,1998,2,0.25,"tv_cpi",0.0198442644576351,0.550953440040391
"CAN",1998,1,1998,3,0.5,"tv_cpi",-0.00651302587535869,0.256087564166396
"CAN",1998,1,1998,4,0.75,"tv_cpi",0.000917666513709801,0.109549393622732
"CAN",1998,1,1999,1,1,"tv_cpi",-0.00117720699883191,0.182311442729333
"CAN",1998,2,1998,3,0.25,"tv_cpi",0.373187139992919,0.256087564166396
"CAN",1998,2,1998,4,0.5,"tv_cpi",0.423780835242045,0.109549393622732
"CAN",1998,2,1999,1,0.75,"tv_cpi",0.409381469342671,0.182311442729333
"CAN",1998,2,1999,2,1,"tv_cpi",0.413479642786676,0.218341422147095
"CAN",1998,3,1998,4,0.25,"tv_cpi",0.345185042817694,0.109549393622732
"CAN",1998,3,1999,1,0.5,"tv_cpi",0.318263105246963,0.182311442729333
"CAN",1998,3,1999,2,0.75,"tv_cpi",0.326397911456227,0.218341422147095
"CAN",1998,3,1999,3,1,"tv_cpi",0.323939876187093,1.0846129043383
"CAN",1998,4,1999,1,0.25,"tv_cpi",0.152527699651918,0.182311442729333
"CAN",1998,4,1999,2,0.5,"tv_cpi",0.139922555324775,0.218341422147095
"CAN",1998,4,1999,3,0.75,"tv_cpi",0.143619528942121,1.0846129043383
"CAN",1998,4,1999,4,1,"tv_cpi",0.142535240371309,0.680890936718725
"CAN",1999,1,1999,2,0.25,"tv_cpi",0.16031152849636,0.218341422147095
"CAN",1999,1,1999,3,0.5,"tv_cpi",0.166963295897098,1.0846129043383
"CAN",1999,1,1999,4,0.75,"tv_cpi",0.164952105804038,0.680890936718725
"CAN",1999,1,2000,1,1,"tv_cpi",0.165560197660944,0.356498750269996
"CAN",1999,2,1999,3,0.25,"tv_cpi",0.2076316853577,1.0846129043383
"CAN",1999,2,1999,4,0.5,"tv_cpi",0.210815102721563,0.680890936718725
"CAN",1999,2,2000,1,0.75,"tv_cpi",0.209868847336222,0.356498750269996
"CAN",1999,2,2000,2,1,"tv_cpi",0.210150117164191,0.496980776755063
"CAN",1999,3,1999,4,0.25,"tv_cpi",0.824397093029722,0.680890936718725
"CAN",1999,3,2000,1,0.5,"tv_cpi",0.902562275477729,0.356498750269996
"CAN",1999,3,2000,2,0.75,"tv_cpi",0.879082550258861,0.496980776755063
"CAN",1999,3,2000,3,1,"tv_cpi",0.886135530615176,0.881380941246768
"CAN",1999,4,2000,1,0.25,"tv_cpi",0.803644022916726,0.356498750269996
"CAN",1999,4,2000,2,0.5,"tv_cpi",0.766320514711365,0.496980776755063
"CAN",1999,4,2000,3,0.75,"tv_cpi",0.77766885883779,0.881380941246768
"CAN",1999,4,2000,4,1,"tv_cpi",0.774218354836313,0.943241478863577
"CAN",2000,1,2000,2,0.25,"tv_cpi",0.457407714953476,0.496980776755063
"CAN",2000,1,2000,3,0.5,"tv_cpi",0.426017873955869,0.881380941246768
"CAN",2000,1,2000,4,0.75,"tv_cpi",0.435782339590272,0.943241478863577
"CAN",2000,1,2001,1,1,"tv_cpi",0.432744898619077,0.693001314700403
"CAN",2000,2,2000,3,0.25,"tv_cpi",0.45420689176751,0.881380941246768
"CAN",2000,2,2000,4,0.5,"tv_cpi",0.467230659168266,0.943241478863577
"CAN",2000,2,2001,1,0.75,"tv_cpi",0.463265190112595,0.693001314700403
"CAN",2000,2,2001,2,1,"tv_cpi",0.464472593803678,0.206968662514129
"CAN",2000,3,2000,4,0.25,"tv_cpi",0.756215671116148,0.943241478863577
"CAN",2000,3,2001,1,0.5,"tv_cpi",0.796970973257048,0.693001314700403
"CAN",2000,3,2001,2,0.75,"tv_cpi",0.783700561657547,0.206968662514129
"CAN",2000,3,2001,3,1,"tv_cpi",0.788021565668543,1.67439093095751
"CAN",2000,4,2001,1,0.25,"tv_cpi",0.924934041477504,0.693001314700403
"CAN",2000,4,2001,2,0.5,"tv_cpi",0.930352071720324,0.206968662514129
"CAN",2000,4,2001,3,0.75,"tv_cpi",0.928748622199069,1.67439093095751
"CAN",2000,4,2001,4,1,"tv_cpi",0.929223158193146,0.101609145874004
"CAN",2001,1,2001,2,0.25,"tv_cpi",0.762196892409783,0.206968662514129
"CAN",2001,1,2001,3,0.5,"tv_cpi",0.743063161457574,1.67439093095751
"CAN",2001,1,2001,4,0.75,"tv_cpi",0.74835395708745,0.101609145874004
"CAN",2001,1,2002,1,1,"tv_cpi",0.746890963881001,-0.918220643692003
"CAN",2001,2,2001,3,0.25,"tv_cpi",0.335970418352795,1.67439093095751
"CAN",2001,2,2001,4,0.5,"tv_cpi",0.301731045885529,0.101609145874004
"CAN",2001,2,2002,1,0.75,"tv_cpi",0.310818787516103,-0.918220643692003
"CAN",2001,2,2002,2,1,"tv_cpi",0.308406738404425,0.680980424390487
"CAN",2001,3,2001,4,0.25,"tv_cpi",1.20984444245562,0.101609145874004
"CAN",2001,3,2002,1,0.5,"tv_cpi",1.3569073871991,-0.918220643692003
"CAN",2001,3,2002,2,0.75,"tv_cpi",1.31035120767363,0.680980424390487
"CAN",2001,3,2002,3,1,"tv_cpi",1.32508964403357,1.481995338166
"CAN",2001,4,2002,1,0.25,"tv_cpi",0.913520319759554,-0.918220643692003
"CAN",2001,4,2002,2,0.5,"tv_cpi",0.494390494800898,0.680980424390487
"CAN",2001,4,2002,3,0.75,"tv_cpi",0.710756294188993,1.481995338166
"CAN",2001,4,2002,4,1,"tv_cpi",0.59906259844814,1.0642054824225
"CAN",2002,1,2002,2,0.25,"tv_cpi",-0.676588294916392,0.680980424390487
"CAN",2002,1,2002,3,0.5,"tv_cpi",-0.733839213228618,1.481995338166
"CAN",2002,1,2002,4,0.75,"tv_cpi",-0.720274524294369,1.0642054824225
"CAN",2002,1,2003,1,1,"tv_cpi",-0.723488460267928,0.494970408705875
"CAN",2002,2,2002,3,0.25,"tv_cpi",0.102293839011516,1.481995338166
"CAN",2002,2,2002,4,0.5,"tv_cpi",0.311697253492164,1.0642054824225
"CAN",2002,2,2003,1,0.75,"tv_cpi",0.235922574928572,0.494970408705875
"CAN",2002,2,2003,2,1,"tv_cpi",0.263342385277206,1.34053425049219
"CAN",2002,3,2002,4,0.25,"tv_cpi",1.29176718703702,1.0642054824225
"CAN",2002,3,2003,1,0.5,"tv_cpi",1.33694331155059,0.494970408705875
"CAN",2002,3,2003,2,0.75,"tv_cpi",1.326214709007,1.34053425049219
"CAN",2002,3,2003,3,1,"tv_cpi",1.32876257945356,-0.162518800159273
"CAN",2002,4,2003,1,0.25,"tv_cpi",1.15891431992967,0.494970408705875
"CAN",2002,4,2003,2,0.5,"tv_cpi",1.13744476106258,1.34053425049219
"CAN",2002,4,2003,3,0.75,"tv_cpi",1.14231169819411,-0.162518800159273
"CAN",2002,4,2003,4,1,"tv_cpi",1.14120841157379,0.389612147274132
"CAN",2003,1,2003,2,0.25,"tv_cpi",0.616498685419402,1.34053425049219
"CAN",2003,1,2003,3,0.5,"tv_cpi",0.5905531266812,-0.162518800159273
"CAN",2003,1,2003,4,0.75,"tv_cpi",0.596092347975552,0.389612147274132
"CAN",2003,1,2004,1,1,"tv_cpi",0.594909757426726,0.161887350326229
"CAN",2003,2,2003,3,0.25,"tv_cpi",1.13900021678062,-0.162518800159273
"CAN",2003,2,2003,4,0.5,"tv_cpi",1.18703439792329,0.389612147274132
"CAN",2003,2,2004,1,0.75,"tv_cpi",1.17558579782556,0.161887350326229
"CAN",2003,2,2004,2,1,"tv_cpi",1.17831448895924,0.516302486589382
"CAN",2003,3,2003,4,0.25,"tv_cpi",0.292528161202393,0.389612147274132
"CAN",2003,3,2004,1,0.5,"tv_cpi",0.154763405025133,0.161887350326229
"CAN",2003,3,2004,2,0.75,"tv_cpi",0.196471469590134,0.516302486589382
"CAN",2003,3,2004,3,1,"tv_cpi",0.183844418245304,1.12019049884955
"CAN",2003,4,2004,1,0.25,"tv_cpi",0.217617706010108,0.161887350326229
"CAN",2003,4,2004,2,0.5,"tv_cpi",0.27119573485134,0.516302486589382
"CAN",2003,4,2004,3,0.75,"tv_cpi",0.254505630488576,1.12019049884955
"CAN",2003,4,2004,4,1,"tv_cpi",0.259704768823161,0.190779686386655
"CAN",2004,1,2004,2,0.25,"tv_cpi",0.2325055299433,0.516302486589382
"CAN",2004,1,2004,3,0.5,"tv_cpi",0.210606609143868,1.12019049884955
"CAN",2004,1,2004,4,0.75,"tv_cpi",0.217397533729863,0.190779686386655
"CAN",2004,1,2005,1,1,"tv_cpi",0.215291646542314,0.443738244572423
"CAN",2004,2,2004,3,0.25,"tv_cpi",0.406804501557132,1.12019049884955
"CAN",2004,2,2004,4,0.5,"tv_cpi",0.440634345430449,0.190779686386655
"CAN",2004,2,2005,1,0.75,"tv_cpi",0.430182478794219,0.443738244572423
"CAN",2004,2,2005,2,1,"tv_cpi",0.433411625124028,0.347274516510243
"CAN",2004,3,2004,4,0.25,"tv_cpi",0.940802849499676,0.190779686386655
"CAN",2004,3,2005,1,0.5,"tv_cpi",0.994090757333504,0.443738244572423
"CAN",2004,3,2005,2,0.75,"tv_cpi",0.978261344708958,0.347274516510243
"CAN",2004,3,2005,3,1,"tv_cpi",0.982963542904081,0.909809206981915
"CAN",2004,4,2005,1,0.25,"tv_cpi",0.499553214715845,0.443738244572423
"CAN",2004,4,2005,2,0.5,"tv_cpi",0.396970922237229,0.347274516510243
"CAN",2004,4,2005,3,0.75,"tv_cpi",0.431051326691297,0.909809206981915
"CAN",2004,4,2005,4,1,"tv_cpi",0.419728963545679,0.870659028490195
"CAN",2005,1,2005,2,0.25,"tv_cpi",0.362730440031653,0.347274516510243
"CAN",2005,1,2005,3,0.5,"tv_cpi",0.388672493321253,0.909809206981915
"CAN",2005,1,2005,4,0.75,"tv_cpi",0.380364773679971,0.870659028490195
"CAN",2005,1,2006,1,1,"tv_cpi",0.383025249505368,0.0618966252139863
"CAN",2005,2,2005,3,0.25,"tv_cpi",0.38041443094764,0.909809206981915
"CAN",2005,2,2005,4,0.5,"tv_cpi",0.369029281824956,0.870659028490195
"CAN",2005,2,2006,1,0.75,"tv_cpi",0.372940626279107,0.0618966252139863
"CAN",2005,2,2006,2,1,"tv_cpi",0.371596891974517,0.493821971686703
"CAN",2005,3,2005,4,0.25,"tv_cpi",0.720689004080433,0.870659028490195
"CAN",2005,3,2006,1,0.5,"tv_cpi",0.78426988495999,0.0618966252139863
"CAN",2005,3,2006,2,0.75,"tv_cpi",0.762894440394047,0.493821971686703
"CAN",2005,3,2006,3,1,"tv_cpi",0.770080714381934,1.10228056003638
"CAN",2005,4,2006,1,0.25,"tv_cpi",0.883638153008755,0.0618966252139863
"CAN",2005,4,2006,2,0.5,"tv_cpi",0.879335294637269,0.493821971686703
"CAN",2005,4,2006,3,0.75,"tv_cpi",0.880761784547169,1.10228056003638
"CAN",2005,4,2006,4,1,"tv_cpi",0.880288872522797,0.0608907052648711
"CAN",2006,1,2006,2,0.25,"tv_cpi",0.323017112034838,0.493821971686703
"CAN",2006,1,2006,3,0.5,"tv_cpi",0.238710635421493,1.10228056003638
"CAN",2006,1,2006,4,0.75,"tv_cpi",0.265930184854368,0.0608907052648711
"CAN",2006,1,2007,1,1,"tv_cpi",0.257141964766287,-0.304790201733152
"CAN",2006,2,2006,3,0.25,"tv_cpi",0.345543232777461,1.10228056003638
"CAN",2006,2,2006,4,0.5,"tv_cpi",0.39644690071931,0.0608907052648711
"CAN",2006,2,2007,1,0.75,"tv_cpi",0.378971816772717,-0.304790201733152
"CAN",2006,2,2007,2,1,"tv_cpi",0.384970963224979,0.941833670279557
"CAN",2006,3,2006,4,0.25,"tv_cpi",0.900709159710372,0.0608907052648711
"CAN",2006,3,2007,1,0.5,"tv_cpi",0.967486143727627,-0.304790201733152
"CAN",2006,3,2007,2,0.75,"tv_cpi",0.945364128465399,0.941833670279557
"CAN",2006,3,2007,3,1,"tv_cpi",0.95269275473483,1.47083255589164
"CAN",2006,4,2007,1,0.25,"tv_cpi",0.43279328546426,-0.304790201733152
"CAN",2006,4,2007,2,0.5,"tv_cpi",0.299978923460215,0.941833670279557
"CAN",2006,4,2007,3,0.75,"tv_cpi",0.34740977146639,1.47083255589164
"CAN",2006,4,2007,4,1,"tv_cpi",0.330471201656324,0
"CAN",2007,1,2007,2,0.25,"tv_cpi",-0.18473043674609,0.941833670279557
"CAN",2007,1,2007,3,0.5,"tv_cpi",-0.22414826494795,1.47083255589164
"CAN",2007,1,2007,4,0.75,"tv_cpi",-0.211206667233522,0
"CAN",2007,1,2008,1,1,"tv_cpi",-0.215455631700676,-0.0298056861587348
"CAN",2007,2,2007,3,0.25,"tv_cpi",0.513930840801177,1.47083255589164
"CAN",2007,2,2007,4,0.5,"tv_cpi",0.660808207412152,0
"CAN",2007,2,2008,1,0.75,"tv_cpi",0.61039264729802,-0.0298056861587348
"CAN",2007,2,2008,2,1,"tv_cpi",0.62769775536381,0.327329834585477
"CAN",2007,3,2007,4,0.25,"tv_cpi",1.32458314770506,0
"CAN",2007,3,2008,1,0.5,"tv_cpi",1.36501591604667,-0.0298056861587348
"CAN",2007,3,2008,2,0.75,"tv_cpi",1.3538376912864,0.327329834585477
"CAN",2007,3,2008,3,1,"tv_cpi",1.35692807351637,2.02918956180236
"CAN",2007,4,2008,1,0.25,"tv_cpi",0.452606872642369,-0.0298056861587348
"CAN",2007,4,2008,2,0.5,"tv_cpi",0.313329984635956,0.327329834585477
"CAN",2007,4,2008,3,0.75,"tv_cpi",0.356188484374378,2.02918956180236
"CAN",2007,4,2008,4,1,"tv_cpi",0.343000000440535,1.04258444528922
"CAN",2008,1,2008,2,0.25,"tv_cpi",-0.0214917078239074,0.327329834585477
"CAN",2008,1,2008,3,0.5,"tv_cpi",-0.0238108034281441,2.02918956180236
"CAN",2008,1,2008,4,0.75,"tv_cpi",-0.0231639164379458,1.04258444528922
"CAN",2008,1,2009,1,1,"tv_cpi",-0.0233443586660813,-1.50947114900948
"CAN",2008,2,2008,3,0.25,"tv_cpi",0.227403480850497,2.02918956180236
"CAN",2008,2,2008,4,0.5,"tv_cpi",0.255362828467224,1.04258444528922
"CAN",2008,2,2009,1,0.75,"tv_cpi",0.247539815919141,-1.50947114900948
"CAN",2008,2,2009,2,1,"tv_cpi",0.249728691216462,-0.322247506666695
"CAN",2008,3,2008,4,0.25,"tv_cpi",1.59775343109391,1.04258444528922
"CAN",2008,3,2009,1,0.5,"tv_cpi",1.70712621423455,-1.50947114900948
"CAN",2008,3,2009,2,0.75,"tv_cpi",1.67939926964072,-0.322247506666695
"CAN",2008,3,2009,3,1,"tv_cpi",1.68642828942456,0.847337933786196
"CAN",2008,4,2009,1,0.25,"tv_cpi",1.32412951484649,-1.50947114900948
"CAN",2008,4,2009,2,0.5,"tv_cpi",1.24378569251547,-0.322247506666695
"CAN",2008,4,2009,3,0.75,"tv_cpi",1.26671321100091,0.847337933786196
"CAN",2008,4,2009,4,1,"tv_cpi",1.26017044158007,0.116316949660789
"CAN",2009,1,2009,2,0.25,"tv_cpi",-1.06284610390531,-0.322247506666695
"CAN",2009,1,2009,3,0.5,"tv_cpi",-1.14100816720829,0.847337933786196
"CAN",2009,1,2009,4,0.75,"tv_cpi",-1.12732933704248,0.116316949660789
"CAN",2009,1,2010,1,1,"tv_cpi",-1.12972321441467,0.145197920492812
"CAN",2009,2,2009,3,0.25,"tv_cpi",-0.598151167401602,0.847337933786196
"CAN",2009,2,2009,4,0.5,"tv_cpi",-0.534032809838652,0.116316949660789
"CAN",2009,2,2010,1,0.75,"tv_cpi",-0.548933531944403,0.145197920492812
"CAN",2009,2,2010,2,1,"tv_cpi",-0.545470693410917,0.492110663284873
"CAN",2009,3,2009,4,0.25,"tv_cpi",0.633263340893959,0.116316949660789
"CAN",2009,3,2010,1,0.5,"tv_cpi",0.672446396476655,0.145197920492812
"CAN",2009,3,2010,2,0.75,"tv_cpi",0.665274541918606,0.492110663284873
"CAN",2009,3,2010,3,1,"tv_cpi",0.666587239385327,0.633283564390474
"CAN",2009,4,2010,1,0.25,"tv_cpi",0.262248821151498,0.145197920492812
"CAN",2009,4,2010,2,0.5,"tv_cpi",0.233116810471587,0.492110663284873
"CAN",2009,4,2010,3,0.75,"tv_cpi",0.238932360135859,0.633283564390474
"CAN",2009,4,2010,4,1,"tv_cpi",0.237771416654504,0.543707395001736
"CAN",2010,1,2010,2,0.25,"tv_cpi",0.139356502411703,0.492110663284873
"CAN",2010,1,2010,3,0.5,"tv_cpi",0.14053797811059,0.633283564390474
"CAN",2010,1,2010,4,0.75,"tv_cpi",0.140299014761677,0.543707395001736
"CAN",2010,1,2011,1,1,"tv_cpi",0.14034734709909,0.569151753397001
"CAN",2010,2,2010,3,0.25,"tv_cpi",0.425058166546066,0.633283564390474
"CAN",2010,2,2010,4,0.5,"tv_cpi",0.438018305406121,0.543707395001736
"CAN",2010,2,2011,1,0.75,"tv_cpi",0.435513324869361,0.569151753397001
"CAN",2010,2,2011,2,1,"tv_cpi",0.435997496185526,0.819570688633764
"CAN",2010,3,2010,4,0.25,"tv_cpi",0.605685359320135,0.543707395001736
"CAN",2010,3,2011,1,0.5,"tv_cpi",0.611080593937682,0.569151753397001
"CAN",2010,3,2011,2,0.75,"tv_cpi",0.610025867497894,0.819570688633764
"CAN",2010,3,2011,3,1,"tv_cpi",0.610232058320286,1.36967971541564
"CAN",2010,4,2011,1,0.25,"tv_cpi",0.561138161323306,0.569151753397001
"CAN",2010,4,2011,2,0.5,"tv_cpi",0.557746281355335,0.819570688633764
"CAN",2010,4,2011,3,0.75,"tv_cpi",0.558406312561358,1.36967971541564
"CAN",2010,4,2011,4,1,"tv_cpi",0.55827787606094,0.19415203830313
"CAN",2011,1,2011,2,0.25,"tv_cpi",0.564141384311487,0.819570688633764
"CAN",2011,1,2011,3,0.5,"tv_cpi",0.565127999811202,1.36967971541564
"CAN",2011,1,2011,4,0.75,"tv_cpi",0.564933720681728,0.19415203830313
"CAN",2011,1,2012,1,1,"tv_cpi",0.564971977104985,0.276706290589956
"CAN",2011,2,2011,3,0.25,"tv_cpi",0.770131049568444,1.36967971541564
"CAN",2011,2,2011,4,0.5,"tv_cpi",0.779891804715007,0.19415203830313
"CAN",2011,2,2012,1,0.75,"tv_cpi",0.777964761095104,0.276706290589956
"CAN",2011,2,2012,2,1,"tv_cpi",0.778345212920526,0.468641196763109
"CAN",2011,3,2011,4,0.25,"tv_cpi",1.2634392815828,0.19415203830313
"CAN",2011,3,2012,1,0.5,"tv_cpi",1.28395708665685,0.276706290589956
"CAN",2011,3,2012,2,0.75,"tv_cpi",1.27999456212764,0.468641196763109
"CAN",2011,3,2012,3,1,"tv_cpi",1.28075982920119,0.630569548036597
"CAN",2011,4,2012,1,0.25,"tv_cpi",0.445604538099175,0.276706290589956
"CAN",2011,4,2012,2,0.5,"tv_cpi",0.391817323314926,0.468641196763109
"CAN",2011,4,2012,3,0.75,"tv_cpi",0.403322734780684,0.630569548036597
"CAN",2011,4,2012,4,1,"tv_cpi",0.400861657486993,-0.164114356447964
"CAN",2012,1,2012,2,0.25,"tv_cpi",0.260100543043208,0.468641196763109
"CAN",2012,1,2012,3,0.5,"tv_cpi",0.263440781055761,0.630569548036597
"CAN",2012,1,2012,4,0.75,"tv_cpi",0.26276889381015,-0.164114356447964
"CAN",2012,1,2013,1,1,"tv_cpi",0.262904043601607,0
"CAN",2012,2,2012,3,0.25,"tv_cpi",0.440680097848391,0.630569548036597
"CAN",2012,2,2012,4,0.5,"tv_cpi",0.444753473911698,-0.164114356447964
"CAN",2012,2,2013,1,0.75,"tv_cpi",0.444160064024492,0
"CAN",2012,2,2013,2,1,"tv_cpi",0.444246512044209,0.437034277020132
"CAN",2012,3,2012,4,0.25,"tv_cpi",0.598158012402555,-0.164114356447964
"CAN",2012,3,2013,1,0.5,"tv_cpi",0.604645496736799,0
"CAN",2012,3,2013,2,0.75,"tv_cpi",0.60334696360149,0.437034277020132
"CAN",2012,3,2013,3,1,"tv_cpi",0.603606877647771,0.489399004633917
"CAN",2012,4,2013,1,0.25,"tv_cpi",-0.0321302934148726,0
"CAN",2012,4,2013,2,0.5,"tv_cpi",-0.0540506982405141,0.437034277020132
"CAN",2012,4,2013,3,0.75,"tv_cpi",-0.0504100757541497,0.489399004633917
"CAN",2012,4,2013,4,1,"tv_cpi",-0.0510147238979065,0.216751079013466
"CAN",2013,1,2013,2,0.25,"tv_cpi",-0.0352832843592024,0.437034277020132
"CAN",2013,1,2013,3,0.5,"tv_cpi",-0.0276976582012187,0.489399004633917
"CAN",2013,1,2013,4,0.75,"tv_cpi",-0.0293285076318693,0.216751079013466
"CAN",2013,1,2014,1,1,"tv_cpi",-0.0289778879453647,-0.216751079013466
"CAN",2013,2,2013,3,0.25,"tv_cpi",0.348698450274231,0.489399004633917
"CAN",2013,2,2013,4,0.5,"tv_cpi",0.366553384537253,0.216751079013466
"CAN",2013,2,2014,1,0.75,"tv_cpi",0.36294444477543,-0.216751079013466
"CAN",2013,2,2014,2,1,"tv_cpi",0.363673903983322,0.891057826706287
"CAN",2013,3,2013,4,0.25,"tv_cpi",0.478373590771701,0.216751079013466
"CAN",2013,3,2014,1,0.5,"tv_cpi",0.480694995968912,-0.216751079013466
"CAN",2013,3,2014,2,0.75,"tv_cpi",0.480206223197478,0.891057826706287
"CAN",2013,3,2014,3,1,"tv_cpi",0.480309134495507,1.30860213016817
"CAN",2013,4,2014,1,0.25,"tv_cpi",0.271089717320221,-0.216751079013466
"CAN",2013,4,2014,2,0.5,"tv_cpi",0.260260045294245,0.891057826706287
"CAN",2013,4,2014,3,0.75,"tv_cpi",0.262418395224328,1.30860213016817
"CAN",2013,4,2014,4,1,"tv_cpi",0.261988236821607,0.0795653103605076
"CAN",2014,1,2014,2,0.25,"tv_cpi",-0.146286255133856,0.891057826706287
"CAN",2014,1,2014,3,0.5,"tv_cpi",-0.157740157524986,1.30860213016817
"CAN",2014,1,2014,4,0.75,"tv_cpi",-0.155878350842411,0.0795653103605076
"CAN",2014,1,2015,1,1,"tv_cpi",-0.156180983430407,-0.371844235092489
"CAN",2014,2,2014,3,0.25,"tv_cpi",0.725039894017361,1.30860213016817
"CAN",2014,2,2014,4,0.5,"tv_cpi",0.749919594687756,0.0795653103605076
"CAN",2014,2,2015,1,0.75,"tv_cpi",0.746191084788718,-0.371844235092489
"CAN",2014,2,2015,2,1,"tv_cpi",0.746749844970418,0.0532024486886939
"CAN",2014,3,2014,4,0.25,"tv_cpi",1.25787705244604,0.0795653103605076
"CAN",2014,3,2015,1,0.5,"tv_cpi",1.26403935304165,-0.371844235092489
"CAN",2014,3,2015,2,0.75,"tv_cpi",1.26329073026302,0.0532024486886939
"CAN",2014,3,2015,3,1,"tv_cpi",1.26338167617778,1.13711424398018
"CAN",2014,4,2015,1,0.25,"tv_cpi",0.248098085949,-0.371844235092489
"CAN",2014,4,2015,2,0.5,"tv_cpi",0.224987878028617,0.0532024486886939
"CAN",2014,4,2015,3,0.75,"tv_cpi",0.228156886005009,1.13711424398018
"CAN",2014,4,2015,4,1,"tv_cpi",0.227722332945641,0.367442475515478
"CAN",2015,1,2015,2,0.25,"tv_cpi",-0.317931588107882,0.0532024486886939
"CAN",2015,1,2015,3,0.5,"tv_cpi",-0.324370471676394,1.13711424398018
"CAN",2015,1,2015,4,0.75,"tv_cpi",-0.323601464329737,0.367442475515478
"CAN",2015,1,2016,1,1,"tv_cpi",-0.323693308248473,-0.236036608597434
"CAN",2015,2,2015,3,0.25,"tv_cpi",0.00692394769576291,1.13711424398018
"CAN",2015,2,2015,4,0.5,"tv_cpi",0.0119626875233515,0.367442475515478
"CAN",2015,2,2016,1,0.75,"tv_cpi",0.0114140764295305,-0.236036608597434
"CAN",2015,2,2016,2,1,"tv_cpi",0.0114738084543149,0.262294840554755
"CAN",2015,3,2015,4,0.25,"tv_cpi",1.04694574240289,0.367442475515478
"CAN",2015,3,2016,1,0.5,"tv_cpi",1.05444668363446,-0.236036608597434
"CAN",2015,3,2016,2,0.75,"tv_cpi",1.053822695009,0.262294840554755
"CAN",2015,3,2016,3,1,"tv_cpi",1.05387460340192,1.14583608493746
"CAN",2015,4,2016,1,0.25,"tv_cpi",0.450503074179577,-0.236036608597434
"CAN",2015,4,2016,2,0.5,"tv_cpi",0.441539431061679,0.262294840554755
"CAN",2015,4,2016,3,0.75,"tv_cpi",0.442506759725779,1.14583608493746
"CAN",2015,4,2016,4,1,"tv_cpi",0.442402368605775,0.0517013286766677
"CAN",2016,1,2016,2,0.25,"tv_cpi",-0.182315979616829,0.262294840554755
"CAN",2016,1,2016,3,0.5,"tv_cpi",-0.187098093950276,1.14583608493746
"CAN",2016,1,2016,4,0.75,"tv_cpi",-0.18667239868326,0.0517013286766677
"CAN",2016,1,2017,1,1,"tv_cpi",-0.18671029331474,-0.0776603627136829
"CAN",2016,2,2016,3,0.25,"tv_cpi",0.21375942523538,1.14583608493746
"CAN",2016,2,2016,4,0.5,"tv_cpi",0.218486573289616,0.0517013286766677
"CAN",2016,2,2017,1,0.75,"tv_cpi",0.21802616868445,-0.0776603627136829
"CAN",2016,2,2017,2,1,"tv_cpi",0.218071010182543,0.774000477482861
"CAN",2016,3,2016,4,0.25,"tv_cpi",1.07106549286441,0.0517013286766677
"CAN",2016,3,2017,1,0.5,"tv_cpi",1.0773930315894,-0.0776603627136829
"CAN",2016,3,2017,2,0.75,"tv_cpi",1.07685755707721,0.774000477482861
"CAN",2016,3,2017,3,1,"tv_cpi",1.0769028721619,0.563810483539395
"CAN",2016,4,2017,1,0.25,"tv_cpi",0.165180130666021,-0.0776603627136829
"CAN",2016,4,2017,2,0.5,"tv_cpi",0.153410612855484,0.774000477482861
"CAN",2016,4,2017,3,0.75,"tv_cpi",0.154631295018709,0.563810483539395
"CAN",2016,4,2017,4,1,"tv_cpi",0.154504691281189,0.102223218225461
"CAN",2017,1,2017,2,0.25,"tv_cpi",-0.0640909413168356,0.774000477482861
"CAN",2017,1,2017,3,0.5,"tv_cpi",-0.0655143085831896,0.563810483539395
"CAN",2017,1,2017,4,0.75,"tv_cpi",-0.065365004179142,0.102223218225461
"CAN",2017,1,2018,1,1,"tv_cpi",-0.0653806654955112,0.331360700207561
"CAN",2017,2,2017,3,0.25,"tv_cpi",0.696604546566711,0.563810483539395
"CAN",2017,2,2017,4,0.5,"tv_cpi",0.703638015571809,0.102223218225461
"CAN",2017,2,2018,1,0.75,"tv_cpi",0.702998838735765,0.331360700207561
"CAN",2017,2,2018,2,1,"tv_cpi",0.703056924870421,1.0378524321518
"CAN",2017,3,2017,4,0.25,"tv_cpi",0.58647516397334,0.102223218225461
"CAN",2017,3,2018,1,0.5,"tv_cpi",0.584031242978171,0.331360700207561
"CAN",2017,3,2018,2,0.75,"tv_cpi",0.58429476973947,1.0378524321518
"CAN",2017,3,2018,3,1,"tv_cpi",0.584266353782465,0.802545545231759
"CAN",2017,4,2018,1,0.25,"tv_cpi",0.145668755841727,0.331360700207561
"CAN",2017,4,2018,2,0.5,"tv_cpi",0.141579572970786,1.0378524321518
"CAN",2017,4,2018,3,0.75,"tv_cpi",0.141964455227272,0.802545545231759
"CAN",2017,4,2018,4,1,"tv_cpi",0.141928229321991,0.473525968673538
"CAN",2018,1,2018,2,0.25,"tv_cpi",0.303536300314045,1.0378524321518
"CAN",2018,1,2018,3,0.5,"tv_cpi",0.306915045784831,0.802545545231759
"CAN",2018,1,2018,4,0.75,"tv_cpi",0.306504761250392,0.473525968673538
"CAN",2018,1,2019,1,1,"tv_cpi",0.306554582523008,-0.298768182590425
"CAN",2018,2,2018,3,0.25,"tv_cpi",0.970468061057823,0.802545545231759
"CAN",2018,2,2018,4,0.5,"tv_cpi",0.97689510508739,0.473525968673538
"CAN",2018,2,2019,1,0.75,"tv_cpi",0.976282100999241,-0.298768182590425
"CAN",2018,2,2019,2,1,"tv_cpi",0.976340568626093,0.62149231230304
"CAN",2018,3,2018,4,0.25,"tv_cpi",0.826462362940023,0.473525968673538
"CAN",2018,3,2019,1,0.5,"tv_cpi",0.824031434645584,-0.298768182590425
"CAN",2018,3,2019,2,0.75,"tv_cpi",0.824278516529335,0.62149231230304
"CAN",2018,3,2019,3,1,"tv_cpi",0.824253402889654,1.3294368873602
"CAN",2018,4,2019,1,0.25,"tv_cpi",0.505967946740076,-0.298768182590425
"CAN",2018,4,2019,2,0.5,"tv_cpi",0.502769103826595,0.62149231230304
"CAN",2018,4,2019,3,0.75,"tv_cpi",0.503084516036176,1.3294368873602
"CAN",2018,4,2019,4,1,"tv_cpi",0.503053415771285,0.268650967925055
"CAN",2019,1,2019,2,0.25,"tv_cpi",-0.202319082461101,0.62149231230304
"CAN",2019,1,2019,3,0.5,"tv_cpi",-0.214364271331859,1.3294368873602
"CAN",2019,1,2019,4,0.75,"tv_cpi",-0.212859990060829,0.268650967925055
"CAN",2019,1,2020,1,1,"tv_cpi",-0.213047854457698,-0.146430550441412
"CAN",2019,2,2019,3,0.25,"tv_cpi",0.542488630304445,1.3294368873602
"CAN",2019,2,2019,4,0.5,"tv_cpi",0.549271037898784,0.268650967925055
"CAN",2019,2,2020,1,0.75,"tv_cpi",0.548688773229441,-0.146430550441412
"CAN",2019,2,2020,2,1,"tv_cpi",0.548738760220115,0.341369149172444
"CAN",2019,3,2019,4,0.25,"tv_cpi",1.17493977049114,0.268650967925055
"CAN",2019,3,2020,1,0.5,"tv_cpi",1.20865619401049,-0.146430550441412
"CAN",2019,3,2020,2,0.75,"tv_cpi",1.20129814592536,0.341369149172444
"CAN",2019,3,2020,3,1,"tv_cpi",1.20290391741509,-0.439170664447541
"CAN",2019,4,2020,1,0.25,"tv_cpi",0.370087620199767,-0.146430550441412
"CAN",2019,4,2020,2,0.5,"tv_cpi",0.360387836071618,0.341369149172444
"CAN",2019,4,2020,3,0.75,"tv_cpi",0.361315368773287,-0.439170664447541
"CAN",2019,4,2020,4,1,"tv_cpi",0.361226674334184,0.512163233534135
"CAN",2020,1,2020,2,0.25,"tv_cpi",-0.0821775009522696,0.341369149172444
"CAN",2020,1,2020,3,0.5,"tv_cpi",-0.0921236300521667,-0.439170664447541
"CAN",2020,1,2020,4,0.75,"tv_cpi",-0.0905840068769502,0.512163233534135
"CAN",2020,1,2021,1,1,"tv_cpi",-0.0908223347226734,0.364165790699822
"CAN",2020,2,2020,3,0.25,"tv_cpi",0.283834135640723,-0.439170664447541
"CAN",2020,2,2020,4,0.5,"tv_cpi",0.290620277134282,0.512163233534135
"CAN",2020,2,2021,1,0.75,"tv_cpi",0.289819865114822,0.364165790699822
"CAN",2020,2,2021,2,1,"tv_cpi",0.289914272135587,0.988794242900592
"CAN",2020,3,2020,4,0.25,"tv_cpi",-0.331248367605218,0.512163233534135
"CAN",2020,3,2021,1,0.5,"tv_cpi",-0.34617037664625,0.364165790699822
"CAN",2020,3,2021,2,0.75,"tv_cpi",-0.34410716672267,0.988794242900592
"CAN",2020,3,2021,3,1,"tv_cpi",-0.344392438979043,1.42962195873286
"CAN",2020,4,2021,1,0.25,"tv_cpi",0.342058424858175,0.364165790699822
"CAN",2020,4,2021,2,0.5,"tv_cpi",0.37247429251103,0.988794242900592
"CAN",2020,4,2021,3,0.75,"tv_cpi",0.367035733705568,1.42962195873286
"CAN",2020,4,2021,4,1,"tv_cpi",0.368008184079763,1.19933971089061
"CAN",2021,1,2021,2,0.25,"tv_cpi",0.390896571754517,0.988794242900592
"CAN",2021,1,2021,3,0.5,"tv_cpi",0.386068551471802,1.42962195873286
"CAN",2021,1,2021,4,0.75,"tv_cpi",0.386940571627241,1.19933971089061
"CAN",2021,1,2022,1,1,"tv_cpi",0.386783070393409,1.00014831239861
"CAN",2021,2,2021,3,0.25,"tv_cpi",0.873309172398667,1.42962195873286
"CAN",2021,2,2021,4,0.5,"tv_cpi",0.894660747822176,1.19933971089061
"CAN",2021,2,2022,1,0.75,"tv_cpi",0.890713139953173,1.00014831239861
"CAN",2021,2,2022,2,1,"tv_cpi",0.891442997473207,2.03873469150206
"CAN",2021,3,2021,4,0.25,"tv_cpi",1.3566436995168,1.19933971089061
"CAN",2021,3,2022,1,0.5,"tv_cpi",1.36872512300024,1.00014831239861
"CAN",2021,3,2022,2,0.75,"tv_cpi",1.36672506442178,2.03873469150206
"CAN",2021,3,2022,3,1,"tv_cpi",1.36705617062982,3.03732503687666
"CAN",2021,4,2022,1,0.25,"tv_cpi",1.23854635839816,1.00014831239861
"CAN",2021,4,2022,2,0.5,"tv_cpi",1.23187124026298,2.03873469150206
"CAN",2021,4,2022,3,0.75,"tv_cpi",1.23300771086047,3.03732503687666
"CAN",2021,4,2022,4,1,"tv_cpi",1.23281422133822,0.832433597551585
"CAN",2022,1,2022,2,0.25,"tv_cpi",1.03554903289287,2.03873469150206
"CAN",2022,1,2022,3,0.5,"tv_cpi",1.02925754128731,3.03732503687666
"CAN",2022,1,2022,4,0.75,"tv_cpi",1.03037567860401,0.832433597551585
"CAN",2022,1,2023,1,1,"tv_cpi",1.03017696085354,0.543881409523017
"CAN",2022,2,2022,3,0.25,"tv_cpi",1.86689856998216,3.03732503687666
"CAN",2022,2,2022,4,0.5,"tv_cpi",1.89532918803484,0.832433597551585
"CAN",2022,2,2023,1,0.75,"tv_cpi",1.89062528738981,0.543881409523017
"CAN",2022,2,2023,2,1,"tv_cpi",1.89140355683289,0.605649304378275
"CAN",2022,3,2022,4,0.25,"tv_cpi",2.9458222142587,0.832433597551585
"CAN",2022,3,2023,1,0.5,"tv_cpi",2.95420680017608,0.543881409523017
"CAN",2022,3,2023,2,0.75,"tv_cpi",2.95343850386571,0.605649304378275
"CAN",2022,3,2023,3,1,"tv_cpi",2.95350890438713,1.47704936687578
"CAN",2022,4,2023,1,0.25,"tv_cpi",1.28270286124025,0.543881409523017
"CAN",2022,4,2023,2,0.5,"tv_cpi",1.19075166300584,0.605649304378275
"CAN",2022,4,2023,3,0.75,"tv_cpi",1.20952936679019,1.47704936687578
"CAN",2022,4,2023,4,1,"tv_cpi",1.20569470050869,0.993835595806036
"CAN",2023,1,2023,2,0.25,"tv_cpi",0.583387573911992,0.605649304378275
"CAN",2023,1,2023,3,0.5,"tv_cpi",0.577978718635614,1.47704936687578
"CAN",2023,1,2023,4,0.75,"tv_cpi",0.5787192540901,0.993835595806036
"CAN",2023,1,2024,1,1,"tv_cpi",0.578617866138061,0.0840849858833259
"CAN",2023,2,2023,3,0.25,"tv_cpi",0.597288146504117,1.47704936687578
"CAN",2023,2,2023,4,0.5,"tv_cpi",0.598419947436631,0.993835595806036
"CAN",2023,2,2024,1,0.75,"tv_cpi",0.598266742178445,0.0840849858833259
"CAN",2023,2,2024,2,1,"tv_cpi",0.598287480676233,NA
"CAN",2023,3,2023,4,0.25,"tv_cpi",1.36594588793452,0.993835595806036
"CAN",2023,3,2024,1,0.5,"tv_cpi",1.38011157779857,0.0840849858833259
"CAN",2023,3,2024,2,0.75,"tv_cpi",1.37830545281277,NA
"CAN",2023,3,2024,3,1,"tv_cpi",1.3785357336883,NA
"CAN",2023,4,2024,1,0.25,"tv_cpi",1.06401892145372,0.0840849858833259
"CAN",2023,4,2024,2,0.5,"tv_cpi",1.05382529806409,NA
"CAN",2023,4,2024,3,0.75,"tv_cpi",1.0553058485631,NA
"CAN",2023,4,2024,4,1,"tv_cpi",1.05509080924917,NA
"CAN",1962,1,1962,2,0.25,"tv_gdp",1.05125712308462,2.660950188
"CAN",1962,1,1962,3,0.5,"tv_gdp",0.962138214498109,0.794766259
"CAN",1962,1,1962,4,0.75,"tv_gdp",0.936453904777389,1.278910818
"CAN",1962,1,1963,1,1,"tv_gdp",0.929051617470544,1.962242774
"CAN",1962,4,1963,1,0.25,"tv_gdp",0.953341857303579,1.962242774
"CAN",1962,4,1963,2,0.5,"tv_gdp",1.17227470741736,0.63408554
"CAN",1962,4,1963,3,0.75,"tv_gdp",1.02505062083241,1.454368266
"CAN",1962,4,1963,4,1,"tv_gdp",1.12405326780616,0.759938107
"CAN",1963,1,1963,2,0.25,"tv_gdp",1.54866624613512,0.63408554
"CAN",1963,1,1963,3,0.5,"tv_gdp",1.79897730344614,1.454368266
"CAN",1963,1,1963,4,0.75,"tv_gdp",1.64748024984007,0.759938107
"CAN",1963,1,1964,1,1,"tv_gdp",1.73917159379378,3.129534749
"CAN",1963,2,1963,3,0.25,"tv_gdp",1.51471203360281,1.454368266
"CAN",1963,2,1963,4,0.5,"tv_gdp",0.930818047723139,0.759938107
"CAN",1963,2,1964,1,0.75,"tv_gdp",1.31796536752683,3.129534749
"CAN",1963,2,1964,2,1,"tv_gdp",1.06126971582325,2.503381101
"CAN",1963,3,1963,4,0.25,"tv_gdp",0.919436563033236,0.759938107
"CAN",1963,3,1964,1,0.5,"tv_gdp",1.26828204980132,3.129534749
"CAN",1963,3,1964,2,0.75,"tv_gdp",1.04078913254937,2.503381101
"CAN",1963,3,1964,3,1,"tv_gdp",1.18914429081521,0.37449939
"CAN",1963,4,1964,1,0.25,"tv_gdp",1.21441329042389,3.129534749
"CAN",1963,4,1964,2,0.5,"tv_gdp",0.916978494899437,2.503381101
"CAN",1963,4,1964,3,0.75,"tv_gdp",1.11163699511101,0.37449939
"CAN",1963,4,1964,4,1,"tv_gdp",0.984241235520052,1.067302224
"CAN",1964,1,1964,2,0.25,"tv_gdp",1.30349392727205,2.503381101
"CAN",1964,1,1964,3,0.5,"tv_gdp",2.71066383269635,0.37449939
"CAN",1964,1,1964,4,0.75,"tv_gdp",1.62628109646701,1.067302224
"CAN",1964,1,1965,1,1,"tv_gdp",2.46192000126414,0.501631232
"CAN",1964,2,1964,3,0.25,"tv_gdp",2.8851404763212,0.37449939
"CAN",1964,2,1964,4,0.5,"tv_gdp",2.65238575052643,1.067302224
"CAN",1964,2,1965,1,0.75,"tv_gdp",2.79429388921777,0.501631232
"CAN",1964,2,1965,2,1,"tv_gdp",2.70777397105896,3.181038821
"CAN",1964,3,1964,4,0.25,"tv_gdp",1.45543388815445,1.067302224
"CAN",1964,3,1965,1,0.5,"tv_gdp",0.906592032233967,0.501631232
"CAN",1964,3,1965,2,0.75,"tv_gdp",1.18526514640004,3.181038821
"CAN",1964,3,1965,3,1,"tv_gdp",1.04376955213861,0.915536674
"CAN",1964,4,1965,1,0.25,"tv_gdp",0.7425962407872,0.501631232
"CAN",1964,4,1965,2,0.5,"tv_gdp",0.89478091781205,3.181038821
"CAN",1964,4,1965,3,0.75,"tv_gdp",0.823454311224762,0.915536674
"CAN",1964,4,1965,4,1,"tv_gdp",0.856883989604453,1.395578506
"CAN",1965,1,1965,2,0.25,"tv_gdp",0.769371520645411,3.181038821
"CAN",1965,1,1965,3,0.5,"tv_gdp",0.642646157001648,0.915536674
"CAN",1965,1,1965,4,0.75,"tv_gdp",0.702627110454315,1.395578506
"CAN",1965,1,1966,1,1,"tv_gdp",0.674237254835478,2.45084687
"CAN",1965,2,1965,3,0.25,"tv_gdp",1.75544058966108,0.915536674
"CAN",1965,2,1965,4,0.5,"tv_gdp",2.51394046311824,1.395578506
"CAN",1965,2,1966,1,0.75,"tv_gdp",2.11037510691393,2.45084687
"CAN",1965,2,1966,2,1,"tv_gdp",2.32509498021594,1.945879533
"CAN",1965,3,1965,4,0.25,"tv_gdp",2.28262486241883,1.395578506
"CAN",1965,3,1966,1,0.5,"tv_gdp",1.4576730443907,2.45084687
"CAN",1965,3,1966,2,0.75,"tv_gdp",1.95547962909613,1.945879533
"CAN",1965,3,1966,3,1,"tv_gdp",1.65508463588498,2.158665681
"CAN",1965,4,1966,1,0.25,"tv_gdp",1.13300236137276,2.45084687
"CAN",1965,4,1966,2,0.5,"tv_gdp",1.27662782717863,1.945879533
"CAN",1965,4,1966,3,0.75,"tv_gdp",1.19806671319306,2.158665681
"CAN",1965,4,1966,4,1,"tv_gdp",1.24103853992326,-0.047768976
"CAN",1966,1,1966,2,0.25,"tv_gdp",1.89182618935283,1.945879533
"CAN",1966,1,1966,3,0.5,"tv_gdp",2.18796329726979,2.158665681
"CAN",1966,1,1966,4,0.75,"tv_gdp",2.03108683505394,-0.047768976
"CAN",1966,1,1967,1,1,"tv_gdp",2.1141909909987,1.239297635
"CAN",1966,2,1966,3,0.25,"tv_gdp",2.21277838926285,2.158665681
"CAN",1966,2,1966,4,0.5,"tv_gdp",2.07170986016229,-0.047768976
"CAN",1966,2,1967,1,0.75,"tv_gdp",2.14627117594027,1.239297635
"CAN",1966,2,1967,2,1,"tv_gdp",2.1068620331216,-0.225331116
"CAN",1966,3,1966,4,0.25,"tv_gdp",2.04624223956905,-0.047768976
"CAN",1966,3,1967,1,0.5,"tv_gdp",2.10564004483962,1.239297635
"CAN",1966,3,1967,2,0.75,"tv_gdp",2.07425780617076,-0.225331116
"CAN",1966,3,1967,3,1,"tv_gdp",2.09083829932843,2.083321361
"CAN",1966,4,1967,1,0.25,"tv_gdp",1.1356083852751,1.239297635
"CAN",1966,4,1967,2,0.5,"tv_gdp",0.500927464752186,-0.225331116
"CAN",1966,4,1967,3,0.75,"tv_gdp",0.841325958130305,2.083321361
"CAN",1966,4,1967,4,1,"tv_gdp",0.658759993805072,0.315240174
"CAN",1967,1,1967,2,0.25,"tv_gdp",0.542582158226734,-0.225331116
"CAN",1967,1,1967,3,0.5,"tv_gdp",0.919728493487698,2.083321361
"CAN",1967,1,1967,4,0.75,"tv_gdp",0.715571469648446,0.315240174
"CAN",1967,1,1968,1,1,"tv_gdp",0.826085841620431,0.43564712
"CAN",1967,2,1967,3,0.25,"tv_gdp",0.597062053098916,2.083321361
"CAN",1967,2,1967,4,0.5,"tv_gdp",0.135285972219183,0.315240174
"CAN",1967,2,1968,1,0.75,"tv_gdp",0.394574542315511,0.43564712
"CAN",1967,2,1968,2,1,"tv_gdp",0.248983279869615,0.85242934
"CAN",1967,3,1967,4,0.25,"tv_gdp",0.681401406240457,0.315240174
"CAN",1967,3,1968,1,0.5,"tv_gdp",1.53271167451736,0.43564712
"CAN",1967,3,1968,2,0.75,"tv_gdp",1.01575692940996,0.85242934
"CAN",1967,3,1968,3,1,"tv_gdp",1.32967562444692,2.688393446
"CAN",1967,4,1968,1,0.25,"tv_gdp",1.41512014722153,0.43564712
"CAN",1967,4,1968,2,0.5,"tv_gdp",0.730911772409049,0.85242934
"CAN",1967,4,1968,3,0.75,"tv_gdp",1.1565410333841,2.688393446
"CAN",1967,4,1968,4,1,"tv_gdp",0.891767501712819,1.392807753
"CAN",1968,1,1968,2,0.25,"tv_gdp",0.364608100593875,0.85242934
"CAN",1968,1,1968,3,0.5,"tv_gdp",0.406520485600167,2.688393446
"CAN",1968,1,1968,4,0.75,"tv_gdp",0.381792553942312,1.392807753
"CAN",1968,1,1969,1,1,"tv_gdp",0.396381812081255,1.384671595
"CAN",1968,2,1968,3,0.25,"tv_gdp",0.607204192832705,2.688393446
"CAN",1968,2,1968,4,0.5,"tv_gdp",0.7514890733231,1.392807753
"CAN",1968,2,1969,1,0.75,"tv_gdp",0.666595142261759,1.384671595
"CAN",1968,2,1969,2,1,"tv_gdp",0.716544793996249,1.369084169
"CAN",1968,3,1968,4,0.25,"tv_gdp",1.63761733740609,1.392807753
"CAN",1968,3,1969,1,0.5,"tv_gdp",2.23900732470672,1.384671595
"CAN",1968,3,1969,2,0.75,"tv_gdp",1.89481419558294,1.369084169
"CAN",1968,3,1969,3,1,"tv_gdp",2.0918060189217,0.411425337
"CAN",1968,4,1969,1,0.25,"tv_gdp",2.14396724421676,1.384671595
"CAN",1968,4,1969,2,0.5,"tv_gdp",1.70845720092623,1.369084169
"CAN",1968,4,1969,3,0.75,"tv_gdp",1.96095883343531,0.411425337
"CAN",1968,4,1969,4,1,"tv_gdp",1.81456249791563,1.109424869
"CAN",1969,1,1969,2,0.25,"tv_gdp",1.38925644370899,1.369084169
"CAN",1969,1,1969,3,0.5,"tv_gdp",1.38667281176817,0.411425337
"CAN",1969,1,1969,4,0.75,"tv_gdp",1.38812872764006,1.109424869
"CAN",1969,1,1970,1,1,"tv_gdp",1.38730829691519,1.413083388
"CAN",1969,2,1969,3,0.25,"tv_gdp",1.37786694148216,0.411425337
"CAN",1969,2,1969,4,0.5,"tv_gdp",1.37291826730893,1.109424869
"CAN",1969,2,1970,1,0.75,"tv_gdp",1.37570660961457,1.413083388
"CAN",1969,2,1970,2,1,"tv_gdp",1.37413551146964,0.618000976
"CAN",1969,3,1969,4,0.25,"tv_gdp",0.949921678009836,1.109424869
"CAN",1969,3,1970,1,0.5,"tv_gdp",0.647122497767971,1.413083388
"CAN",1969,3,1970,2,0.75,"tv_gdp",0.817387988120617,0.618000976
"CAN",1969,3,1970,3,1,"tv_gdp",0.721646853082304,0.008329335
"CAN",1969,4,1970,1,0.25,"tv_gdp",0.715360570386306,1.413083388
"CAN",1969,4,1970,2,0.5,"tv_gdp",0.937834460872958,0.618000976
"CAN",1969,4,1970,3,0.75,"tv_gdp",0.812234064890913,0.008329335
"CAN",1969,4,1970,4,1,"tv_gdp",0.883143327260256,1.034916997
"CAN",1970,1,1970,2,0.25,"tv_gdp",1.24404884006806,0.618000976
"CAN",1970,1,1970,3,0.5,"tv_gdp",1.33814360970815,0.008329335
"CAN",1970,1,1970,4,0.75,"tv_gdp",1.2857648162488,1.034916997
"CAN",1970,1,1971,1,1,"tv_gdp",1.31492199485449,0.151842137
"CAN",1970,2,1970,3,0.25,"tv_gdp",1.06255845986097,0.008329335
"CAN",1970,2,1970,4,0.5,"tv_gdp",0.81399132584569,1.034916997
"CAN",1970,2,1971,1,0.75,"tv_gdp",0.952973622524092,0.151842137
"CAN",1970,2,1971,2,1,"tv_gdp",0.875263916989103,-0.514427002
"CAN",1970,3,1970,4,0.25,"tv_gdp",0.340554366237269,1.034916997
"CAN",1970,3,1971,1,0.5,"tv_gdp",0.159516797883972,0.151842137
"CAN",1970,3,1971,2,0.75,"tv_gdp",0.258168609378175,-0.514427002
"CAN",1970,3,1971,3,1,"tv_gdp",0.204410817558439,2.919845718
"CAN",1970,4,1971,1,0.25,"tv_gdp",0.469036625760989,0.151842137
"CAN",1970,4,1971,2,0.5,"tv_gdp",0.780963805880947,-0.514427002
"CAN",1970,4,1971,3,0.75,"tv_gdp",0.609021871431886,2.919845718
"CAN",1970,4,1971,4,1,"tv_gdp",0.703800495118081,2.763535924
"CAN",1971,1,1971,2,0.25,"tv_gdp",0.642462216625633,-0.514427002
"CAN",1971,1,1971,3,0.5,"tv_gdp",0.369882763359505,2.919845718
"CAN",1971,1,1971,4,0.75,"tv_gdp",0.521322872373297,2.763535924
"CAN",1971,1,1972,1,1,"tv_gdp",0.437185545280936,1.092959439
"CAN",1971,2,1971,3,0.25,"tv_gdp",-0.155398072574515,2.919845718
"CAN",1971,2,1971,4,0.5,"tv_gdp",-0.348866094157922,2.763535924
"CAN",1971,2,1972,1,0.75,"tv_gdp",-0.244613003925632,1.092959439
"CAN",1971,2,1972,2,1,"tv_gdp",-0.300791315638487,-0.334587909
"CAN",1971,3,1971,4,0.25,"tv_gdp",0.970421952861557,2.763535924
"CAN",1971,3,1972,1,0.5,"tv_gdp",2.07698899803395,1.092959439
"CAN",1971,3,1972,2,0.75,"tv_gdp",1.44885947208934,-0.334587909
"CAN",1971,3,1972,3,1,"tv_gdp",1.80540967217408,2.834911476
"CAN",1971,4,1972,1,0.25,"tv_gdp",2.8400322222393,1.092959439
"CAN",1971,4,1972,2,0.5,"tv_gdp",2.80259577315591,-0.334587909
"CAN",1971,4,1972,3,0.75,"tv_gdp",2.82091676060538,2.834911476
"CAN",1971,4,1972,4,1,"tv_gdp",2.81195067035532,0.296709917
"CAN",1972,1,1972,2,0.25,"tv_gdp",1.91842334638065,-0.334587909
"CAN",1972,1,1972,3,0.5,"tv_gdp",1.51054578524754,2.834911476
"CAN",1972,1,1972,4,0.75,"tv_gdp",1.71208591727318,0.296709917
"CAN",1972,1,1973,1,1,"tv_gdp",1.61250106954566,2.348892248
"CAN",1972,2,1972,3,0.25,"tv_gdp",0.300580958496189,2.834911476
"CAN",1972,2,1972,4,0.5,"tv_gdp",0.0179707243756802,0.296709917
"CAN",1972,2,1973,1,0.75,"tv_gdp",0.143714520264933,2.348892248
"CAN",1972,2,1973,2,1,"tv_gdp",0.0877664324193392,2.566523984
"CAN",1972,3,1972,4,0.25,"tv_gdp",1.26207313489159,0.296709917
"CAN",1972,3,1973,1,0.5,"tv_gdp",2.04258139400919,2.348892248
"CAN",1972,3,1973,2,0.75,"tv_gdp",1.65526050626844,2.566523984
"CAN",1972,3,1973,3,1,"tv_gdp",1.84746535269746,0.953995394
"CAN",1972,4,1973,1,0.25,"tv_gdp",1.62664825057066,2.348892248
"CAN",1972,4,1973,2,0.5,"tv_gdp",0.929802105776095,2.566523984
"CAN",1972,4,1973,3,0.75,"tv_gdp",1.29492771893991,0.953995394
"CAN",1972,4,1973,4,1,"tv_gdp",1.10361330271744,0.464961005
"CAN",1973,1,1973,2,0.25,"tv_gdp",1.24664976097386,2.566523984
"CAN",1973,1,1973,3,0.5,"tv_gdp",1.83867244913995,0.953995394
"CAN",1973,1,1973,4,0.75,"tv_gdp",1.52069263305698,0.464961005
"CAN",1973,1,1974,1,1,"tv_gdp",1.69148197180575,1.844449189
"CAN",1973,2,1973,3,0.25,"tv_gdp",2.45742014744825,0.953995394
"CAN",1973,2,1973,4,0.5,"tv_gdp",2.51211643103766,0.464961005
"CAN",1973,2,1974,1,0.75,"tv_gdp",2.48469591556317,1.844449189
"CAN",1973,2,1974,2,1,"tv_gdp",2.49844245590457,0.827632743
"CAN",1973,3,1973,4,0.25,"tv_gdp",1.77690227918183,0.464961005
"CAN",1973,3,1974,1,0.5,"tv_gdp",1.35695577660251,1.844449189
"CAN",1973,3,1974,2,0.75,"tv_gdp",1.57126321308682,0.827632743
"CAN",1973,3,1974,3,1,"tv_gdp",1.46189766997505,1.025739182
"CAN",1973,4,1974,1,0.25,"tv_gdp",0.703717831072825,1.844449189
"CAN",1973,4,1974,2,0.5,"tv_gdp",0.587151750489136,0.827632743
"CAN",1973,4,1974,3,0.75,"tv_gdp",0.64406175120467,1.025739182
"CAN",1973,4,1974,4,1,"tv_gdp",0.616277097511035,0.01921879
"CAN",1974,1,1974,2,0.25,"tv_gdp",1.17394459317983,0.827632743
"CAN",1974,1,1974,3,0.5,"tv_gdp",1.4998454731079,1.025739182
"CAN",1974,1,1974,4,0.75,"tv_gdp",1.34144031943707,0.01921879
"CAN",1974,1,1975,1,1,"tv_gdp",1.41843364549074,-0.520988065
"CAN",1974,2,1974,3,0.25,"tv_gdp",1.32335360562311,1.025739182
"CAN",1974,2,1974,4,0.5,"tv_gdp",1.08167854754699,0.01921879
"CAN",1974,2,1975,1,0.75,"tv_gdp",1.19950056816367,-0.520988065
"CAN",1974,2,1975,2,1,"tv_gdp",1.14205968596132,-0.544813179
"CAN",1974,3,1974,4,0.25,"tv_gdp",0.927483378917922,0.01921879
"CAN",1974,3,1975,1,0.5,"tv_gdp",0.976215782004043,-0.520988065
"CAN",1974,3,1975,2,0.75,"tv_gdp",0.952045737731295,-0.544813179
"CAN",1974,3,1975,3,1,"tv_gdp",0.964033470803153,1.282923644
"CAN",1974,4,1975,1,0.25,"tv_gdp",0.506997048062255,-0.520988065
"CAN",1974,4,1975,2,0.5,"tv_gdp",0.270610750348529,-0.544813179
"CAN",1974,4,1975,3,0.75,"tv_gdp",0.385167889423946,1.282923644
"CAN",1974,4,1975,4,1,"tv_gdp",0.329651396970406,1.918505342
"CAN",1975,1,1975,2,0.25,"tv_gdp",-0.243988511598432,-0.544813179
"CAN",1975,1,1975,3,0.5,"tv_gdp",-0.386024385217007,1.282923644
"CAN",1975,1,1975,4,0.75,"tv_gdp",-0.313193259148926,1.918505342
"CAN",1975,1,1976,1,1,"tv_gdp",-0.350538563466828,1.157163082
"CAN",1975,2,1975,3,0.25,"tv_gdp",-0.532954472977193,1.282923644
"CAN",1975,2,1975,4,0.5,"tv_gdp",-0.538857022217266,1.918505342
"CAN",1975,2,1976,1,0.75,"tv_gdp",-0.535919088899374,1.157163082
"CAN",1975,2,1976,2,1,"tv_gdp",-0.537381415062073,1.742666777
"CAN",1975,3,1975,4,0.25,"tv_gdp",0.378061970216703,1.918505342
"CAN",1975,3,1976,1,0.5,"tv_gdp",0.826033821731953,1.157163082
"CAN",1975,3,1976,2,0.75,"tv_gdp",0.604255415634867,1.742666777
"CAN",1975,3,1976,3,1,"tv_gdp",0.71405173708809,2.156483453
"CAN",1975,4,1976,1,0.25,"tv_gdp",1.60984699524666,1.157163082
"CAN",1975,4,1976,2,0.5,"tv_gdp",1.75974113996526,1.742666777
"CAN",1975,4,1976,3,0.75,"tv_gdp",1.68694785620263,2.156483453
"CAN",1975,4,1976,4,1,"tv_gdp",1.72229855099391,0.461713212
"CAN",1976,1,1976,2,0.25,"tv_gdp",1.49596408080703,1.742666777
"CAN",1976,1,1976,3,0.5,"tv_gdp",1.34519599288736,2.156483453
"CAN",1976,1,1976,4,0.75,"tv_gdp",1.41228852335508,0.461713212
"CAN",1976,1,1977,1,1,"tv_gdp",1.38243202184555,0.161577012
"CAN",1976,2,1976,3,0.25,"tv_gdp",1.48755310239856,2.156483453
"CAN",1976,2,1976,4,0.5,"tv_gdp",1.598710363274,0.461713212
"CAN",1976,2,1977,1,0.75,"tv_gdp",1.5502773003869,0.161577012
"CAN",1976,2,1977,2,1,"tv_gdp",1.57138038948923,1.533829769
"CAN",1976,3,1976,4,0.25,"tv_gdp",1.9730144327319,0.461713212
"CAN",1976,3,1977,1,0.5,"tv_gdp",2.05435692893942,0.161577012
"CAN",1976,3,1977,2,0.75,"tv_gdp",2.01829306551658,1.533829769
"CAN",1976,3,1977,3,1,"tv_gdp",2.03428227540833,0.510302318
"CAN",1976,4,1977,1,0.25,"tv_gdp",1.21706171894638,0.161577012
"CAN",1976,4,1977,2,0.5,"tv_gdp",0.880407609059797,1.533829769
"CAN",1976,4,1977,3,0.75,"tv_gdp",1.03045224231354,0.510302318
"CAN",1976,4,1977,4,1,"tv_gdp",0.963578286799274,0.587798364
"CAN",1977,1,1977,2,0.25,"tv_gdp",0.288441585137091,1.533829769
"CAN",1977,1,1977,3,0.5,"tv_gdp",0.234817197551534,0.510302318
"CAN",1977,1,1977,4,0.75,"tv_gdp",0.257483690433031,0.587798364
"CAN",1977,1,1978,1,1,"tv_gdp",0.247902790348583,1.584637482
"CAN",1977,2,1977,3,0.25,"tv_gdp",0.919185169869416,0.510302318
"CAN",1977,2,1977,4,0.5,"tv_gdp",1.19449012466966,0.587798364
"CAN",1977,2,1978,1,0.75,"tv_gdp",1.07117850972214,1.584637482
"CAN",1977,2,1978,2,1,"tv_gdp",1.12641091333797,0.863597549
"CAN",1977,3,1977,4,0.25,"tv_gdp",0.948881379858582,0.587798364
"CAN",1977,3,1978,1,0.5,"tv_gdp",0.760951302054783,1.584637482
"CAN",1977,3,1978,2,0.75,"tv_gdp",0.84147889038441,0.863597549
"CAN",1977,3,1978,3,1,"tv_gdp",0.806973011613073,0.680645726
"CAN",1977,4,1978,1,0.25,"tv_gdp",0.555945072680036,1.584637482
"CAN",1977,4,1978,2,0.5,"tv_gdp",0.569037768634027,0.863597549
"CAN",1977,4,1978,3,0.75,"tv_gdp",0.563656262351936,0.680645726
"CAN",1977,4,1978,4,1,"tv_gdp",0.5658682292353,0.932836265
"CAN",1978,1,1978,2,0.25,"tv_gdp",1.19290864088367,0.863597549
"CAN",1978,1,1978,3,0.5,"tv_gdp",1.34684670590485,0.680645726
"CAN",1978,1,1978,4,0.75,"tv_gdp",1.28635351424979,0.932836265
"CAN",1978,1,1979,1,1,"tv_gdp",1.31012558281589,0.948169861
"CAN",1978,2,1978,3,0.25,"tv_gdp",1.12063769588657,0.680645726
"CAN",1978,2,1978,4,0.5,"tv_gdp",1.02900665842575,0.932836265
"CAN",1978,2,1979,1,0.75,"tv_gdp",1.06167177758261,0.948169861
"CAN",1978,2,1979,2,1,"tv_gdp",1.05002714232474,0.797819177
"CAN",1978,3,1978,4,0.25,"tv_gdp",0.744538690401803,0.932836265
"CAN",1978,3,1979,1,0.5,"tv_gdp",0.722225106240086,0.948169861
"CAN",1978,3,1979,2,0.75,"tv_gdp",0.730017764521065,0.797819177
"CAN",1978,3,1979,3,1,"tv_gdp",0.727296304685478,1.326596172
"CAN",1978,4,1979,1,0.25,"tv_gdp",0.844227392084824,0.948169861
"CAN",1978,4,1979,2,0.5,"tv_gdp",0.875360726390033,0.797819177
"CAN",1978,4,1979,3,0.75,"tv_gdp",0.864421816176292,1.326596172
"CAN",1978,4,1979,4,1,"tv_gdp",0.868265277191139,0.733071541
"CAN",1979,1,1979,2,0.25,"tv_gdp",0.942328218295606,0.797819177
"CAN",1979,1,1979,3,0.5,"tv_gdp",0.944553709921041,1.326596172
"CAN",1979,1,1979,4,0.75,"tv_gdp",0.943705863993875,0.733071541
"CAN",1979,1,1980,1,1,"tv_gdp",0.944028868002516,0.670926663
"CAN",1979,2,1979,3,0.25,"tv_gdp",0.851035680411932,1.326596172
"CAN",1979,2,1979,4,0.5,"tv_gdp",0.832199741924335,0.733071541
"CAN",1979,2,1980,1,0.75,"tv_gdp",0.838866707169349,0.670926663
"CAN",1979,2,1980,2,1,"tv_gdp",0.83650694019477,0.694332365
"CAN",1979,3,1979,4,0.25,"tv_gdp",1.13863814871927,0.733071541
"CAN",1979,3,1980,1,0.5,"tv_gdp",1.20544933538143,0.670926663
"CAN",1979,3,1980,2,0.75,"tv_gdp",1.1817007633051,0.694332365
"CAN",1979,3,1980,3,1,"tv_gdp",1.19014238369596,-0.043713005
"CAN",1979,4,1980,1,0.25,"tv_gdp",0.946027653814882,0.670926663
"CAN",1979,4,1980,2,0.5,"tv_gdp",0.869619188830343,0.694332365
"CAN",1979,4,1980,3,0.75,"tv_gdp",0.897034478507276,-0.043713005
"CAN",1979,4,1980,4,1,"tv_gdp",0.887197896811488,-0.083091031
"CAN",1980,1,1980,2,0.25,"tv_gdp",0.693402271274671,0.694332365
"CAN",1980,1,1980,3,0.5,"tv_gdp",0.685273637289478,-0.043713005
"CAN",1980,1,1980,4,0.75,"tv_gdp",0.688213477210949,-0.083091031
"CAN",1980,1,1981,1,1,"tv_gdp",0.687150240905856,1.383645399
"CAN",1980,2,1980,3,0.25,"tv_gdp",0.68604919304562,-0.043713005
"CAN",1980,2,1980,4,0.5,"tv_gdp",0.688980570093222,-0.083091031
"CAN",1980,2,1981,1,0.75,"tv_gdp",0.687943169029652,1.383645399
"CAN",1980,2,1981,2,1,"tv_gdp",0.688310300568591,2.154351265
"CAN",1980,3,1980,4,0.25,"tv_gdp",0.220574683525074,-0.083091031
"CAN",1980,3,1981,1,0.5,"tv_gdp",0.125935539178262,1.383645399
"CAN",1980,3,1981,2,0.75,"tv_gdp",0.159825001425562,2.154351265
"CAN",1980,3,1981,3,1,"tv_gdp",0.147689476962213,1.093360409
"CAN",1980,4,1981,1,0.25,"tv_gdp",-0.0691412391152676,1.383645399
"CAN",1980,4,1981,2,0.5,"tv_gdp",-0.0740829975880602,2.154351265
"CAN",1980,4,1981,3,0.75,"tv_gdp",-0.0723323638147961,1.093360409
"CAN",1980,4,1981,4,1,"tv_gdp",-0.0729525314383184,-0.899099935
"CAN",1981,1,1981,2,0.25,"tv_gdp",0.848410691942122,2.154351265
"CAN",1981,1,1981,3,0.5,"tv_gdp",1.04372607770597,1.093360409
"CAN",1981,1,1981,4,0.75,"tv_gdp",0.972452486115139,-0.899099935
"CAN",1981,1,1982,1,1,"tv_gdp",0.998461317106047,-0.459901898
"CAN",1981,2,1981,3,0.25,"tv_gdp",1.89954549899403,1.093360409
"CAN",1981,2,1981,4,0.5,"tv_gdp",1.98378772583325,-0.899099935
"CAN",1981,2,1982,1,0.75,"tv_gdp",1.95593610813217,-0.459901898
"CAN",1981,2,1982,2,1,"tv_gdp",1.96514422901966,-1.144418136
"CAN",1981,3,1981,4,0.25,"tv_gdp",1.44366133736259,-0.899099935
"CAN",1981,3,1982,1,0.5,"tv_gdp",1.32800460034384,-0.459901898
"CAN",1981,3,1982,2,0.75,"tv_gdp",1.36619028509309,-1.144418136
"CAN",1981,3,1982,3,1,"tv_gdp",1.35358274871125,-1.151291383
"CAN",1981,4,1982,1,0.25,"tv_gdp",-0.297037261860326,-0.459901898
"CAN",1981,4,1982,2,0.5,"tv_gdp",-0.47896282112159,-1.144418136
"CAN",1981,4,1982,3,0.75,"tv_gdp",-0.423990289873426,-1.151291383
"CAN",1981,4,1982,4,1,"tv_gdp",-0.440601365327043,-0.886813665
"CAN",1982,1,1982,2,0.25,"tv_gdp",-0.600083137089439,-1.144418136
"CAN",1982,1,1982,3,0.5,"tv_gdp",-0.555340724471027,-1.151291383
"CAN",1982,1,1982,4,0.75,"tv_gdp",-0.569621404966646,-0.886813665
"CAN",1982,1,1983,1,1,"tv_gdp",-0.565063362083325,-0.922796955
"CAN",1982,2,1982,3,0.25,"tv_gdp",-0.928360647282011,-1.151291383
"CAN",1982,2,1982,4,0.5,"tv_gdp",-0.996556017734456,-0.886813665
"CAN",1982,2,1983,1,0.75,"tv_gdp",-0.975031151465106,-0.922796955
"CAN",1982,2,1983,2,1,"tv_gdp",-0.981825159105793,1.634267065
"CAN",1982,3,1982,4,0.25,"tv_gdp",-1.14899441826527,-0.886813665
"CAN",1982,3,1983,1,0.5,"tv_gdp",-1.14976203901171,-0.922796955
"CAN",1982,3,1983,2,0.75,"tv_gdp",-1.14950550846884,1.634267065
"CAN",1982,3,1983,3,1,"tv_gdp",-1.14959123819896,1.972771607
"CAN",1982,4,1983,1,0.25,"tv_gdp",-0.991179255678873,-0.922796955
"CAN",1982,4,1983,2,0.5,"tv_gdp",-0.949995534796382,1.634267065
"CAN",1982,4,1983,3,0.75,"tv_gdp",-0.966247048870075,1.972771607
"CAN",1982,4,1983,4,1,"tv_gdp",-0.959834036543165,1.123439591
"CAN",1983,1,1983,2,0.25,"tv_gdp",-0.909098144625087,1.634267065
"CAN",1983,1,1983,3,0.5,"tv_gdp",-0.914313271026476,1.972771607
"CAN",1983,1,1983,4,0.75,"tv_gdp",-0.912327876482124,1.123439591
"CAN",1983,1,1984,1,1,"tv_gdp",-0.913083714633179,1.243210478
"CAN",1983,2,1983,3,0.25,"tv_gdp",1.06452738394886,1.972771607
"CAN",1983,2,1983,4,0.5,"tv_gdp",1.19147113726336,1.123439591
"CAN",1983,2,1984,1,0.75,"tv_gdp",1.16318678733737,1.243210478
"CAN",1983,2,1984,2,1,"tv_gdp",1.1694888260738,1.731993046
"CAN",1983,3,1983,4,0.25,"tv_gdp",1.95771854584001,1.123439591
"CAN",1983,3,1984,1,0.5,"tv_gdp",1.95838794498292,1.243210478
"CAN",1983,3,1984,2,0.75,"tv_gdp",1.95835817726938,1.731993046
"CAN",1983,3,1984,3,1,"tv_gdp",1.95835950101886,1.940640467
"CAN",1983,4,1984,1,0.25,"tv_gdp",1.17818748102133,1.243210478
"CAN",1983,4,1984,2,0.5,"tv_gdp",1.17465843536507,1.731993046
"CAN",1983,4,1984,3,0.75,"tv_gdp",1.17488591743313,1.940640467
"CAN",1983,4,1984,4,1,"tv_gdp",1.17487125395288,0.429949956
"CAN",1984,1,1984,2,0.25,"tv_gdp",1.23592978272434,1.731993046
"CAN",1984,1,1984,3,0.5,"tv_gdp",1.23637236543392,1.940640467
"CAN",1984,1,1984,4,0.75,"tv_gdp",1.23634546148486,0.429949956
"CAN",1984,1,1985,1,1,"tv_gdp",1.23634709693617,1.560682803
"CAN",1984,2,1984,3,0.25,"tv_gdp",1.69172551946333,1.940640467
"CAN",1984,2,1984,4,0.5,"tv_gdp",1.6950428916438,0.429949956
"CAN",1984,2,1985,1,0.75,"tv_gdp",1.69476959553822,1.560682803
"CAN",1984,2,1985,2,1,"tv_gdp",1.69479211057641,1.536397114
"CAN",1984,3,1984,4,0.25,"tv_gdp",1.9275016265499,0.429949956
"CAN",1984,3,1985,1,0.5,"tv_gdp",1.92832899900217,1.560682803
"CAN",1984,3,1985,2,0.75,"tv_gdp",1.92827689812026,1.536397114
"CAN",1984,3,1985,3,1,"tv_gdp",1.92828017899079,0.321648526
"CAN",1984,4,1985,1,0.25,"tv_gdp",0.47657531557736,1.560682803
"CAN",1984,4,1985,2,0.5,"tv_gdp",0.47513628876155,1.536397114
"CAN",1984,4,1985,3,0.75,"tv_gdp",0.475180702320939,0.321648526
"CAN",1984,4,1985,4,1,"tv_gdp",0.475179331558257,1.269493817
"CAN",1985,1,1985,2,0.25,"tv_gdp",1.47825401252203,1.536397114
"CAN",1985,1,1985,3,0.5,"tv_gdp",1.48426295222665,0.321648526
"CAN",1985,1,1985,4,0.75,"tv_gdp",1.48382490920595,1.269493817
"CAN",1985,1,1986,1,1,"tv_gdp",1.48385684190913,1.524600169
"CAN",1985,2,1985,3,0.25,"tv_gdp",1.53803276841244,0.321648526
"CAN",1985,2,1985,4,0.5,"tv_gdp",1.53792260619481,1.269493817
"CAN",1985,2,1986,1,0.75,"tv_gdp",1.53793002568031,1.524600169
"CAN",1985,2,1986,2,1,"tv_gdp",1.53792952597391,-0.050673397
"CAN",1985,3,1985,4,0.25,"tv_gdp",0.422410460139114,1.269493817
"CAN",1985,3,1986,1,0.5,"tv_gdp",0.41405237891,1.524600169
"CAN",1985,3,1986,2,0.75,"tv_gdp",0.41474567169392,-0.050673397
"CAN",1985,3,1986,3,1,"tv_gdp",0.414688163891464,0.574750312
"CAN",1985,4,1986,1,0.25,"tv_gdp",1.16321260780795,1.524600169
"CAN",1985,4,1986,2,0.5,"tv_gdp",1.17512984317809,-0.050673397
"CAN",1985,4,1986,3,0.75,"tv_gdp",1.17379357216699,0.574750312
"CAN",1985,4,1986,4,1,"tv_gdp",1.17394340727217,0.125735895
"CAN",1986,1,1986,2,0.25,"tv_gdp",1.49608507987079,-0.050673397
"CAN",1986,1,1986,3,0.5,"tv_gdp",1.49927241841282,0.574750312
"CAN",1986,1,1986,4,0.75,"tv_gdp",1.49891614644273,0.125735895
"CAN",1986,1,1987,1,1,"tv_gdp",1.49895596954749,-0.723892076
"CAN",1986,2,1986,3,0.25,"tv_gdp",0.202262791750902,0.574750312
"CAN",1986,2,1986,4,0.5,"tv_gdp",0.16164970907074,0.125735895
"CAN",1986,2,1987,1,0.75,"tv_gdp",0.168170810273898,-0.723892076
"CAN",1986,2,1987,2,1,"tv_gdp",0.167123739771107,2.311401978
"CAN",1986,3,1986,4,0.25,"tv_gdp",0.470799130901505,0.125735895
"CAN",1986,3,1987,1,0.5,"tv_gdp",0.488076774675275,-0.723892076
"CAN",1986,3,1987,2,0.75,"tv_gdp",0.485205071138877,2.311401978
"CAN",1986,3,1987,3,1,"tv_gdp",0.485682374717359,1.281026782
"CAN",1986,4,1987,1,0.25,"tv_gdp",0.198154086279223,-0.723892076
"CAN",1986,4,1987,2,0.5,"tv_gdp",0.186474295542896,2.311401978
"CAN",1986,4,1987,3,0.75,"tv_gdp",0.188358042005417,1.281026782
"CAN",1986,4,1987,4,1,"tv_gdp",0.188054226567694,1.527856089
"CAN",1987,1,1987,2,0.25,"tv_gdp",-0.590411028693097,2.311401978
"CAN",1987,1,1987,3,0.5,"tv_gdp",-0.611381607108938,1.281026782
"CAN",1987,1,1987,4,0.75,"tv_gdp",-0.608087018341712,1.527856089
"CAN",1987,1,1988,1,1,"tv_gdp",-0.608604615659721,1.291886418
"CAN",1987,2,1987,3,0.25,"tv_gdp",1.63350137587337,1.281026782
"CAN",1987,2,1987,4,0.5,"tv_gdp",1.78490325595087,1.527856089
"CAN",1987,2,1988,1,0.75,"tv_gdp",1.75108925841334,1.291886418
"CAN",1987,2,1988,2,1,"tv_gdp",1.75864125465594,1.456990551
"CAN",1987,3,1987,4,0.25,"tv_gdp",1.55068746751811,1.527856089
"CAN",1987,3,1988,1,0.5,"tv_gdp",1.48011425729683,1.291886418
"CAN",1987,3,1988,2,0.75,"tv_gdp",1.49858405385382,1.456990551
"CAN",1987,3,1988,3,1,"tv_gdp",1.49375030201248,0.887376092
"CAN",1987,4,1988,1,0.25,"tv_gdp",1.46291478867523,1.291886418
"CAN",1987,4,1988,2,0.5,"tv_gdp",1.48000097888145,1.456990551
"CAN",1987,4,1988,3,0.75,"tv_gdp",1.47550556695863,0.887376092
"CAN",1987,4,1988,4,1,"tv_gdp",1.47668831911765,0.014849555
"CAN",1988,1,1988,2,0.25,"tv_gdp",1.34764880078842,1.456990551
"CAN",1988,1,1988,3,0.5,"tv_gdp",1.33447149998927,0.887376092
"CAN",1988,1,1988,4,0.75,"tv_gdp",1.33758544971072,0.014849555
"CAN",1988,1,1989,1,1,"tv_gdp",1.33684958710763,0.686248083
"CAN",1988,2,1988,3,0.25,"tv_gdp",1.41816444406893,0.887376092
"CAN",1988,2,1988,4,0.5,"tv_gdp",1.42729484287865,0.014849555
"CAN",1988,2,1989,1,0.75,"tv_gdp",1.42514772618285,0.686248083
"CAN",1988,2,1989,2,1,"tv_gdp",1.42565264499324,1.15546661
"CAN",1988,3,1988,4,0.25,"tv_gdp",1.02708807136444,0.014849555
"CAN",1988,3,1989,1,0.5,"tv_gdp",0.992820266414057,0.686248083
"CAN",1988,3,1989,2,0.75,"tv_gdp",1.0012252898162,1.15546661
"CAN",1988,3,1989,3,1,"tv_gdp",0.999163750756639,0.388999379
"CAN",1988,4,1989,1,0.25,"tv_gdp",0.202760726272646,0.686248083
"CAN",1988,4,1989,2,0.5,"tv_gdp",0.16229134592524,1.15546661
"CAN",1988,4,1989,3,0.75,"tv_gdp",0.171007010537467,0.388999379
"CAN",1988,4,1989,4,1,"tv_gdp",0.169129966486366,0.361042659
"CAN",1989,1,1989,2,0.25,"tv_gdp",0.532162533929006,1.15546661
"CAN",1989,1,1989,3,0.5,"tv_gdp",0.567525072633455,0.388999379
"CAN",1989,1,1989,4,0.75,"tv_gdp",0.559409391759011,0.361042659
"CAN",1989,1,1990,1,1,"tv_gdp",0.561271935526196,-0.199034712
"CAN",1989,2,1989,3,0.25,"tv_gdp",1.0530559338604,0.388999379
"CAN",1989,2,1989,4,0.5,"tv_gdp",1.07540787860228,0.361042659
"CAN",1989,2,1990,1,0.75,"tv_gdp",1.07052938885319,-0.199034712
"CAN",1989,2,1990,2,1,"tv_gdp",1.0715941580492,0.961690311
"CAN",1989,3,1989,4,0.25,"tv_gdp",0.562229473327374,0.361042659
"CAN",1989,3,1990,1,0.5,"tv_gdp",0.523077550887691,-0.199034712
"CAN",1989,3,1990,2,0.75,"tv_gdp",0.531926319553868,0.961690311
"CAN",1989,3,1990,3,1,"tv_gdp",0.52992639970247,-0.401218185
"CAN",1989,4,1990,1,0.25,"tv_gdp",0.367257811117875,-0.199034712
"CAN",1989,4,1990,2,0.5,"tv_gdp",0.365876099820973,0.961690311
"CAN",1989,4,1990,3,0.75,"tv_gdp",0.36618327269008,-0.401218185
"CAN",1989,4,1990,4,1,"tv_gdp",0.366114984060084,-0.716674548
"CAN",1990,1,1990,2,0.25,"tv_gdp",-0.0750020170390071,0.961690311
