isdrw/probabilistic-benchmark-forecasts/data/processed/point predictions/point_predictions_arima1_0_0.csv
"country","forecast_year","forecast_quarter","target_year","target_quarter","horizon","target","prediction","truth_value"
"CAN",1947,1,1947,2,0.5,"tv_cpi",0.165812522915147,3.36732374965898
"CAN",1947,1,1947,3,0.5,"tv_cpi",0.0801430536966068,3.25760696906405
"CAN",1947,1,1947,4,0.5,"tv_cpi",0.0387359708597163,5.00105036859821
"CAN",1947,1,1947,2,1.5,"tv_cpi",0.165812522915147,3.36732374965898
"CAN",1947,1,1947,3,1.5,"tv_cpi",0.0801430536966068,3.25760696906405
"CAN",1947,1,1947,4,1.5,"tv_cpi",0.0387359708597163,5.00105036859821
"CAN",1947,1,1948,1,1.5,"tv_cpi",0.0187224640094831,3.59318989114983
"CAN",1947,1,1948,2,1.5,"tv_cpi",0.00904922868348517,2.6126390029523
"CAN",1947,1,1948,3,1.5,"tv_cpi",0.00437381210745195,2.54610392783903
"CAN",1947,1,1948,4,1.5,"tv_cpi",0.00211401800312616,1.3869857798281
"CAN",1947,3,1947,4,0,"tv_cpi",2.15004400872159,5.00105036859821
"CAN",1947,3,1947,4,1,"tv_cpi",2.15004400872159,5.00105036859821
"CAN",1947,3,1948,1,1,"tv_cpi",1.41904449595641,3.59318989114983
"CAN",1947,3,1948,2,1,"tv_cpi",0.936579564574367,2.6126390029523
"CAN",1947,3,1948,3,1,"tv_cpi",0.618149242872828,2.54610392783903
"CAN",1947,3,1948,4,1,"tv_cpi",0.407982942311902,1.3869857798281
"CAN",1948,1,1948,2,0.5,"tv_cpi",2.85104156066774,2.6126390029523
"CAN",1948,1,1948,3,0.5,"tv_cpi",2.26217879569221,2.54610392783903
"CAN",1948,1,1948,4,0.5,"tv_cpi",1.79494153094032,1.3869857798281
"CAN",1948,1,1948,2,1.5,"tv_cpi",2.85104156066774,2.6126390029523
"CAN",1948,1,1948,3,1.5,"tv_cpi",2.26217879569221,2.54610392783903
"CAN",1948,1,1948,4,1.5,"tv_cpi",1.79494153094032,1.3869857798281
"CAN",1948,1,1949,1,1.5,"tv_cpi",1.42420886696913,0
"CAN",1948,1,1949,2,1.5,"tv_cpi",1.13004845104391,0
"CAN",1948,1,1949,3,1.5,"tv_cpi",0.896644818975431,0.549450240960603
"CAN",1948,1,1949,4,1.5,"tv_cpi",0.711449080482164,0.818561115865579
"CAN",1948,3,1948,4,0,"tv_cpi",2.05906474053997,1.3869857798281
"CAN",1948,3,1948,4,1,"tv_cpi",2.05906474053997,1.3869857798281
"CAN",1948,3,1949,1,1,"tv_cpi",1.66519031661578,0
"CAN",1948,3,1949,2,1,"tv_cpi",1.3466593526456,0
"CAN",1948,3,1949,3,1,"tv_cpi",1.08905954711141,0.549450240960603
"CAN",1948,3,1949,4,1,"tv_cpi",0.880735499162742,0.818561115865579
"CAN",1949,1,1949,2,0.5,"tv_cpi",0,0
"CAN",1949,1,1949,3,0.5,"tv_cpi",0,0.549450240960603
"CAN",1949,1,1949,4,0.5,"tv_cpi",0,0.818561115865579
"CAN",1949,1,1949,2,1.5,"tv_cpi",0,0
"CAN",1949,1,1949,3,1.5,"tv_cpi",0,0.549450240960603
"CAN",1949,1,1949,4,1.5,"tv_cpi",0,0.818561115865579
"CAN",1949,1,1950,1,1.5,"tv_cpi",0,-0.544958785291794
"CAN",1949,1,1950,2,1.5,"tv_cpi",0,0.816333678581271
"CAN",1949,1,1950,3,1.5,"tv_cpi",0,1.8792491412952
"CAN",1949,1,1950,4,1.5,"tv_cpi",0,2.88358040570076
"CAN",1949,3,1949,4,0,"tv_cpi",0.434707306828163,0.818561115865579
"CAN",1949,3,1949,4,1,"tv_cpi",0.434707306828163,0.818561115865579
"CAN",1949,3,1950,1,1,"tv_cpi",0.343926398647888,-0.544958785291794
"CAN",1949,3,1950,2,1,"tv_cpi",0.272103472449023,0.816333678581271
"CAN",1949,3,1950,3,1,"tv_cpi",0.215279490059206,1.8792491412952
"CAN",1949,3,1950,4,1,"tv_cpi",0.170322188184622,2.88358040570076
"CAN",1950,1,1950,2,0.5,"tv_cpi",-0.428813252801371,0.816333678581271
"CAN",1950,1,1950,3,0.5,"tv_cpi",-0.337421490837394,1.8792491412952
"CAN",1950,1,1950,4,0.5,"tv_cpi",-0.265507797940347,2.88358040570076
"CAN",1950,1,1950,2,1.5,"tv_cpi",-0.428813252801371,0.816333678581271
"CAN",1950,1,1950,3,1.5,"tv_cpi",-0.337421490837394,1.8792491412952
"CAN",1950,1,1950,4,1.5,"tv_cpi",-0.265507797940347,2.88358040570076
"CAN",1950,1,1951,1,1.5,"tv_cpi",-0.20892086805788,2.55110241832952
"CAN",1950,1,1951,2,1.5,"tv_cpi",-0.164394151315528,3.46576691610991
"CAN",1950,1,1951,3,1.5,"tv_cpi",-0.129357288422071,2.16606521235834
"CAN",1950,1,1951,4,1.5,"tv_cpi",-0.101787733529486,1.8869143329785
"CAN",1950,3,1950,4,0,"tv_cpi",1.48546520550016,2.88358040570076
"CAN",1950,3,1950,4,1,"tv_cpi",1.48546520550016,2.88358040570076
"CAN",1950,3,1951,1,1,"tv_cpi",1.17419602769157,2.55110241832952
"CAN",1950,3,1951,2,1,"tv_cpi",0.928151198925218,3.46576691610991
"CAN",1950,3,1951,3,1,"tv_cpi",0.733663398401994,2.16606521235834
"CAN",1950,3,1951,4,1,"tv_cpi",0.579929199873965,1.8869143329785
"CAN",1951,1,1951,2,0.5,"tv_cpi",2.09101626885871,3.46576691610991
"CAN",1951,1,1951,3,0.5,"tv_cpi",1.71390572374387,2.16606521235834
"CAN",1951,1,1951,4,0.5,"tv_cpi",1.40480630095015,1.8869143329785
"CAN",1951,1,1951,2,1.5,"tv_cpi",2.09101626885871,3.46576691610991
"CAN",1951,1,1951,3,1.5,"tv_cpi",1.71390572374387,2.16606521235834
"CAN",1951,1,1951,4,1.5,"tv_cpi",1.40480630095015,1.8869143329785
"CAN",1951,1,1952,1,1.5,"tv_cpi",1.15145233244123,0.233314018497977
"CAN",1951,1,1952,2,1.5,"tv_cpi",0.943790238545772,-1.17232069388553
"CAN",1951,1,1952,3,1.5,"tv_cpi",0.773579582305245,-0.236158316029522
"CAN",1951,1,1952,4,1.5,"tv_cpi",0.63406607286131,0
"CAN",1951,3,1951,4,0,"tv_cpi",1.79457370651122,1.8869143329785
"CAN",1951,3,1951,4,1,"tv_cpi",1.79457370651122,1.8869143329785
"CAN",1951,3,1952,1,1,"tv_cpi",1.48679493568665,0.233314018497977
"CAN",1951,3,1952,2,1,"tv_cpi",1.23180183280461,-1.17232069388553
"CAN",1951,3,1952,3,1,"tv_cpi",1.02054137990458,-0.236158316029522
"CAN",1951,3,1952,4,1,"tv_cpi",0.845513198926001,0
"CAN",1952,1,1952,2,0.5,"tv_cpi",0.19000076598902,-1.17232069388553
"CAN",1952,1,1952,3,0.5,"tv_cpi",0.154728341266504,-0.236158316029522
"CAN",1952,1,1952,4,0.5,"tv_cpi",0.126004016175741,0
"CAN",1952,1,1952,2,1.5,"tv_cpi",0.19000076598902,-1.17232069388553
"CAN",1952,1,1952,3,1.5,"tv_cpi",0.154728341266504,-0.236158316029522
"CAN",1952,1,1952,4,1.5,"tv_cpi",0.126004016175741,0
"CAN",1952,1,1953,1,1.5,"tv_cpi",0.102612177978887,-0.711749341561418
"CAN",1952,1,1953,2,1.5,"tv_cpi",0.0835628846534963,-0.716851549438191
"CAN",1952,1,1953,3,1.5,"tv_cpi",0.06804997057026,0.954694712235815
"CAN",1952,1,1953,4,1.5,"tv_cpi",0.0554169295832166,0.710064494793317
"CAN",1952,3,1952,4,0,"tv_cpi",-0.190604550853343,0
"CAN",1952,3,1952,4,1,"tv_cpi",-0.190604550853343,0
"CAN",1952,3,1953,1,1,"tv_cpi",-0.153837880523603,-0.711749341561418
"CAN",1952,3,1953,2,1,"tv_cpi",-0.124163318126667,-0.716851549438191
"CAN",1952,3,1953,3,1,"tv_cpi",-0.100212831298457,0.954694712235815
"CAN",1952,3,1953,4,1,"tv_cpi",-0.0808822743171851,0.710064494793317
"CAN",1953,1,1953,2,0.5,"tv_cpi",-0.575242091623407,-0.716851549438191
"CAN",1953,1,1953,3,0.5,"tv_cpi",-0.464915728969056,0.954694712235815
"CAN",1953,1,1953,4,0.5,"tv_cpi",-0.375748990190956,0.710064494793317
"CAN",1953,1,1953,2,1.5,"tv_cpi",-0.575242091623407,-0.716851549438191
"CAN",1953,1,1953,3,1.5,"tv_cpi",-0.464915728969056,0.954694712235815
"CAN",1953,1,1953,4,1.5,"tv_cpi",-0.375748990190956,0.710064494793317
"CAN",1953,1,1954,1,1.5,"tv_cpi",-0.303683645942898,-0.472785683690047
"CAN",1953,1,1954,2,1.5,"tv_cpi",-0.245439799495678,-0.23727881110327
"CAN",1953,1,1954,3,1.5,"tv_cpi",-0.19836660940183,0.945666417032776
"CAN",1953,1,1954,4,1.5,"tv_cpi",-0.160321642237452,0
"CAN",1953,3,1953,4,0,"tv_cpi",0.765445432221158,0.710064494793317
"CAN",1953,3,1953,4,1,"tv_cpi",0.765445432221158,0.710064494793317
"CAN",1953,3,1954,1,1,"tv_cpi",0.613711066164901,-0.472785683690047
"CAN",1953,3,1954,2,1,"tv_cpi",0.492055026888497,-0.23727881110327
"CAN",1953,3,1954,3,1,"tv_cpi",0.394514883036481,0.945666417032776
"CAN",1953,3,1954,4,1,"tv_cpi",0.31631013694035,0
"CAN",1954,1,1954,2,0.5,"tv_cpi",-0.376938625371498,-0.23727881110327
"CAN",1954,1,1954,3,0.5,"tv_cpi",-0.300522482381472,0.945666417032776
"CAN",1954,1,1954,4,0.5,"tv_cpi",-0.23959805744957,0
"CAN",1954,1,1954,2,1.5,"tv_cpi",-0.376938625371498,-0.23727881110327
"CAN",1954,1,1954,3,1.5,"tv_cpi",-0.300522482381472,0.945666417032776
"CAN",1954,1,1954,4,1.5,"tv_cpi",-0.23959805744957,0
"CAN",1954,1,1955,1,1.5,"tv_cpi",-0.191024740241354,-0.471760238268981
"CAN",1954,1,1955,2,1.5,"tv_cpi",-0.152298611151958,0
"CAN",1954,1,1955,3,1.5,"tv_cpi",-0.12142336604939,0.236158316029522
"CAN",1954,1,1955,4,1.5,"tv_cpi",-0.096807408230751,0.470560934832509
"CAN",1954,3,1954,4,0,"tv_cpi",0.752402430384423,0
"CAN",1954,3,1954,4,1,"tv_cpi",0.752402430384423,0
"CAN",1954,3,1955,1,1,"tv_cpi",0.598635424767089,-0.471760238268981
"CAN",1954,3,1955,2,1,"tv_cpi",0.476293479811029,0
"CAN",1954,3,1955,3,1,"tv_cpi",0.378954317644603,0.236158316029522
"CAN",1954,3,1955,4,1,"tv_cpi",0.301508168699818,0.470560934832509
"CAN",1955,1,1955,2,0.5,"tv_cpi",-0.373437728797582,0
"CAN",1955,1,1955,3,0.5,"tv_cpi",-0.295607230064997,0.236158316029522
"CAN",1955,1,1955,4,0.5,"tv_cpi",-0.233997873616207,0.470560934832509
"CAN",1955,1,1955,2,1.5,"tv_cpi",-0.373437728797582,0
"CAN",1955,1,1955,3,1.5,"tv_cpi",-0.295607230064997,0.236158316029522
"CAN",1955,1,1955,4,1.5,"tv_cpi",-0.233997873616207,0.470560934832509
"CAN",1955,1,1956,1,1.5,"tv_cpi",-0.185228909471758,-0.470560934832509
"CAN",1955,1,1956,2,1.5,"tv_cpi",-0.146624190954701,0.235601922239459
"CAN",1955,1,1956,3,1.5,"tv_cpi",-0.116065323898041,1.86483217978446
"CAN",1955,1,1956,4,1.5,"tv_cpi",-0.0918754219467039,0.919578615012506
"CAN",1955,3,1955,4,0,"tv_cpi",0.186868060280363,0.470560934832509
"CAN",1955,3,1955,4,1,"tv_cpi",0.186868060280363,0.470560934832509
"CAN",1955,3,1956,1,1,"tv_cpi",0.147865518945266,-0.470560934832509
"CAN",1955,3,1956,2,1,"tv_cpi",0.117003471112984,0.235601922239459
"CAN",1955,3,1956,3,1,"tv_cpi",0.0925828573837715,1.86483217978446
"CAN",1955,3,1956,4,1,"tv_cpi",0.0732592409422336,0.919578615012506
"CAN",1956,1,1956,2,0.5,"tv_cpi",-0.371569025927151,0.235601922239459
"CAN",1956,1,1956,3,0.5,"tv_cpi",-0.293402045959454,1.86483217978446
"CAN",1956,1,1956,4,0.5,"tv_cpi",-0.23167905440555,0.919578615012506
"CAN",1956,1,1956,2,1.5,"tv_cpi",-0.371569025927151,0.235601922239459
"CAN",1956,1,1956,3,1.5,"tv_cpi",-0.293402045959454,1.86483217978446
"CAN",1956,1,1956,4,1.5,"tv_cpi",-0.23167905440555,0.919578615012506
"CAN",1956,1,1957,1,1.5,"tv_cpi",-0.182940729246542,0.228514396337154
"CAN",1956,1,1957,2,1.5,"tv_cpi",-0.144455486073733,0.909128943201409
"CAN",1956,1,1957,3,1.5,"tv_cpi",-0.114066383919768,1.12484646221676
"CAN",1956,1,1957,4,1.5,"tv_cpi",-0.090070237511719,0.446402637773557
"CAN",1956,3,1956,4,0,"tv_cpi",1.47339188437502,0.919578615012506
"CAN",1956,3,1956,4,1,"tv_cpi",1.47339188437502,0.919578615012506
"CAN",1956,3,1957,1,1,"tv_cpi",1.16411743023069,0.228514396337154
"CAN",1956,3,1957,2,1,"tv_cpi",0.919761677621657,0.909128943201409
"CAN",1956,3,1957,3,1,"tv_cpi",0.72669777262399,1.12484646221676
"CAN",1956,3,1957,4,1,"tv_cpi",0.574159225792289,0.446402637773557
"CAN",1957,1,1957,2,0.5,"tv_cpi",0.178423450624215,0.909128943201409
"CAN",1957,1,1957,3,0.5,"tv_cpi",0.139312569548931,1.12484646221676
"CAN",1957,1,1957,4,0.5,"tv_cpi",0.10877489459164,0.446402637773557
"CAN",1957,1,1957,2,1.5,"tv_cpi",0.178423450624215,0.909128943201409
"CAN",1957,1,1957,3,1.5,"tv_cpi",0.139312569548931,1.12484646221676
"CAN",1957,1,1957,4,1.5,"tv_cpi",0.10877489459164,0.446402637773557
"CAN",1957,1,1958,1,1.5,"tv_cpi",0.084931156834823,0.444502928237078
"CAN",1957,1,1958,2,1.5,"tv_cpi",0.066314027960048,0.442452021284723
"CAN",1957,1,1958,3,1.5,"tv_cpi",0.0517778218050006,0.440503003675596
"CAN",1957,1,1958,4,1.5,"tv_cpi",0.0404279895723659,0.875309836767935
"CAN",1957,3,1957,4,0,"tv_cpi",0.882838731263646,0.446402637773557
"CAN",1957,3,1957,4,1,"tv_cpi",0.882838731263646,0.446402637773557
"CAN",1957,3,1958,1,1,"tv_cpi",0.692898321325752,0.444502928237078
"CAN",1957,3,1958,2,1,"tv_cpi",0.543823086475652,0.442452021284723
"CAN",1957,3,1958,3,1,"tv_cpi",0.426820992751211,0.440503003675596
"CAN",1957,3,1958,4,1,"tv_cpi",0.334991588962793,0.875309836767935
"CAN",1958,1,1958,2,0.5,"tv_cpi",0.347816585519999,0.442452021284723
"CAN",1958,1,1958,3,0.5,"tv_cpi",0.272161035344782,0.440503003675596
"CAN",1958,1,1958,4,0.5,"tv_cpi",0.212961751232201,0.875309836767935
"CAN",1958,1,1958,2,1.5,"tv_cpi",0.347816585519999,0.442452021284723
"CAN",1958,1,1958,3,1.5,"tv_cpi",0.272161035344782,0.440503003675596
"CAN",1958,1,1958,4,1.5,"tv_cpi",0.212961751232201,0.875309836767935
"CAN",1958,1,1959,1,1.5,"tv_cpi",0.16663923779696,-0.218130951759887
"CAN",1958,1,1959,2,1.5,"tv_cpi",0.13039259591397,-0.437611279785477
"CAN",1958,1,1959,3,1.5,"tv_cpi",0.102030165847854,1.09049950588749
"CAN",1958,1,1959,4,1.5,"tv_cpi",0.079837008151974,0.863966547929484
"CAN",1958,3,1958,4,0,"tv_cpi",0.345173994252575,0.875309836767935
"CAN",1958,3,1958,4,1,"tv_cpi",0.345173994252575,0.875309836767935
"CAN",1958,3,1959,1,1,"tv_cpi",0.270475082608109,-0.218130951759887
"CAN",1958,3,1959,2,1,"tv_cpi",0.211941720784249,-0.437611279785477
"CAN",1958,3,1959,3,1,"tv_cpi",0.16607553115742,1.09049950588749
"CAN",1958,3,1959,4,1,"tv_cpi",0.130135218055042,0.863966547929484
"CAN",1959,1,1959,2,0.5,"tv_cpi",-0.170181551371351,-0.437611279785477
"CAN",1959,1,1959,3,0.5,"tv_cpi",-0.132772356208486,1.09049950588749
"CAN",1959,1,1959,4,0.5,"tv_cpi",-0.103586425385712,0.863966547929484
"CAN",1959,1,1959,2,1.5,"tv_cpi",-0.170181551371351,-0.437611279785477
"CAN",1959,1,1959,3,1.5,"tv_cpi",-0.132772356208486,1.09049950588749
"CAN",1959,1,1959,4,1.5,"tv_cpi",-0.103586425385712,0.863966547929484
"CAN",1959,1,1960,1,1.5,"tv_cpi",-0.0808161264182179,-0.215313317344057
"CAN",1959,1,1960,2,1.5,"tv_cpi",-0.0630511793888608,0.215313317344057
"CAN",1959,1,1960,3,1.5,"tv_cpi",-0.0491913111716542,0
"CAN",1959,1,1960,4,1.5,"tv_cpi",-0.0383781099456169,1.28207300371712
"CAN",1959,3,1959,4,0,"tv_cpi",0.846696111433482,0.863966547929484
"CAN",1959,3,1959,4,1,"tv_cpi",0.846696111433482,0.863966547929484
"CAN",1959,3,1960,1,1,"tv_cpi",0.657399935759846,-0.215313317344057
"CAN",1959,3,1960,2,1,"tv_cpi",0.510424778974554,0.215313317344057
"CAN",1959,3,1960,3,1,"tv_cpi",0.396308914588026,0
"CAN",1959,3,1960,4,1,"tv_cpi",0.307705977945418,1.28207300371712
"CAN",1960,1,1960,2,0.5,"tv_cpi",-0.166190935510457,0.215313317344057
"CAN",1960,1,1960,3,0.5,"tv_cpi",-0.128275516751742,0
"CAN",1960,1,1960,4,0.5,"tv_cpi",-0.0990102627883164,1.28207300371712
"CAN",1960,1,1960,2,1.5,"tv_cpi",-0.166190935510457,0.215313317344057
"CAN",1960,1,1960,3,1.5,"tv_cpi",-0.128275516751742,0
"CAN",1960,1,1960,4,1.5,"tv_cpi",-0.0990102627883164,1.28207300371712
"CAN",1960,1,1961,1,1.5,"tv_cpi",-0.0764216928190885,0
"CAN",1960,1,1961,2,1.5,"tv_cpi",-0.0589865633002269,0
"CAN",1960,1,1961,3,1.5,"tv_cpi",-0.0455291491410485,0
"CAN",1960,1,1961,4,1.5,"tv_cpi",-0.0351419595503008,0
"CAN",1960,3,1960,4,0,"tv_cpi",0,1.28207300371712
"CAN",1960,3,1960,4,1,"tv_cpi",0,1.28207300371712
"CAN",1960,3,1961,1,1,"tv_cpi",0,0
"CAN",1960,3,1961,2,1,"tv_cpi",0,0
"CAN",1960,3,1961,3,1,"tv_cpi",0,0
"CAN",1960,3,1961,4,1,"tv_cpi",0,0
"CAN",1961,1,1961,2,0.5,"tv_cpi",0,0
"CAN",1961,1,1961,3,0.5,"tv_cpi",0,0
"CAN",1961,1,1961,4,0.5,"tv_cpi",0,0
"CAN",1961,1,1961,2,1.5,"tv_cpi",0,0
"CAN",1961,1,1961,3,1.5,"tv_cpi",0,0
"CAN",1961,1,1961,4,1.5,"tv_cpi",0,0
"CAN",1961,1,1962,1,1.5,"tv_cpi",0,0
"CAN",1961,1,1962,2,1.5,"tv_cpi",0,0.845700362908408
"CAN",1961,1,1962,3,1.5,"tv_cpi",0,0.629594685231627
"CAN",1961,1,1962,4,1.5,"tv_cpi",0,0.417511986589947
"CAN",1961,3,1961,4,0,"tv_cpi",0,0
"CAN",1961,3,1961,4,1,"tv_cpi",0,0
"CAN",1961,3,1962,1,1,"tv_cpi",0,0
"CAN",1961,3,1962,2,1,"tv_cpi",0,0.845700362908408
"CAN",1961,3,1962,3,1,"tv_cpi",0,0.629594685231627
"CAN",1961,3,1962,4,1,"tv_cpi",0,0.417511986589947
"CAN",1962,1,1962,2,0.5,"tv_cpi",0,0.845700362908408
"CAN",1962,1,1962,3,0.5,"tv_cpi",0,0.629594685231627
"CAN",1962,1,1962,4,0.5,"tv_cpi",0,0.417511986589947
"CAN",1962,1,1962,2,1.5,"tv_cpi",0,0.845700362908408
"CAN",1962,1,1962,3,1.5,"tv_cpi",0,0.629594685231627
"CAN",1962,1,1962,4,1.5,"tv_cpi",0,0.417511986589947
"CAN",1962,1,1963,1,1.5,"tv_cpi",0,0
"CAN",1962,1,1963,2,1.5,"tv_cpi",0,0
"CAN",1962,1,1963,3,1.5,"tv_cpi",0,1.44783245519062
"CAN",1962,1,1963,4,1.5,"tv_cpi",0,0.205076991295838
"CAN",1962,3,1962,4,0,"tv_cpi",0.480998460037314,0.417511986589947
"CAN",1962,3,1962,4,1,"tv_cpi",0.480998460037314,0.417511986589947
"CAN",1962,3,1963,1,1,"tv_cpi",0.367473747770203,0
"CAN",1962,3,1963,2,1,"tv_cpi",0.280743009634175,0
"CAN",1962,3,1963,3,1,"tv_cpi",0.21448236217337,1.44783245519062
"CAN",1962,3,1963,4,1,"tv_cpi",0.16386047774943,0.205076991295838
"CAN",1963,1,1963,2,0.5,"tv_cpi",0,0
"CAN",1963,1,1963,3,0.5,"tv_cpi",0,1.44783245519062
"CAN",1963,1,1963,4,0.5,"tv_cpi",0,0.205076991295838
"CAN",1963,1,1963,2,1.5,"tv_cpi",0,0
"CAN",1963,1,1963,3,1.5,"tv_cpi",0,1.44783245519062
"CAN",1963,1,1963,4,1.5,"tv_cpi",0,0.205076991295838
"CAN",1963,1,1964,1,1.5,"tv_cpi",0,0.204734934426165
"CAN",1963,1,1964,2,1.5,"tv_cpi",0,0.611624595603377
"CAN",1963,1,1964,3,1.5,"tv_cpi",0,0.607906478542075
"CAN",1963,1,1964,4,1.5,"tv_cpi",0,0.20176599927848
"CAN",1963,3,1963,4,0,"tv_cpi",1.10483919344606,0.205076991295838
"CAN",1963,3,1963,4,1,"tv_cpi",1.10483919344606,0.205076991295838
"CAN",1963,3,1964,1,1,"tv_cpi",0.843101450722642,0.204734934426165
"CAN",1963,3,1964,2,1,"tv_cpi",0.643369696175906,0.611624595603377
"CAN",1963,3,1964,3,1,"tv_cpi",0.49095463612676,0.607906478542075
"CAN",1963,3,1964,4,1,"tv_cpi",0.374646888355239,0.20176599927848
"CAN",1964,1,1964,2,0.5,"tv_cpi",0.154574220225982,0.611624595603377
"CAN",1964,1,1964,3,0.5,"tv_cpi",0.116703041547055,0.607906478542075
"CAN",1964,1,1964,4,0.5,"tv_cpi",0.0881104228533217,0.20176599927848
"CAN",1964,1,1964,2,1.5,"tv_cpi",0.154574220225982,0.611624595603377
"CAN",1964,1,1964,3,1.5,"tv_cpi",0.116703041547055,0.607906478542075
"CAN",1964,1,1964,4,1.5,"tv_cpi",0.0881104228533217,0.20176599927848
"CAN",1964,1,1965,1,1.5,"tv_cpi",0.0665230872518509,0.402467294680608
"CAN",1964,1,1965,2,1.5,"tv_cpi",0.0502247179642328,0.998987176760613
"CAN",1964,1,1965,3,1.5,"tv_cpi",0.0379195013159366,0.792110893736009
"CAN",1964,1,1965,4,1.5,"tv_cpi",0.0286291021300169,0.589973974871771
"CAN",1964,3,1964,4,0,"tv_cpi",0.459815784688778,0.20176599927848
"CAN",1964,3,1964,4,1,"tv_cpi",0.459815784688778,0.20176599927848
"CAN",1964,3,1965,1,1,"tv_cpi",0.347801122889864,0.402467294680608
"CAN",1964,3,1965,2,1,"tv_cpi",0.263074094259998,0.998987176760613
"CAN",1964,3,1965,3,1,"tv_cpi",0.198987221477815,0.792110893736009
"CAN",1964,3,1965,4,1,"tv_cpi",0.150512403826156,0.589973974871771
"CAN",1965,1,1965,2,0.5,"tv_cpi",0.304243237323949,0.998987176760613
"CAN",1965,1,1965,3,0.5,"tv_cpi",0.229991228307915,0.792110893736009
"CAN",1965,1,1965,4,0.5,"tv_cpi",0.173860775226571,0.589973974871771
"CAN",1965,1,1965,2,1.5,"tv_cpi",0.304243237323949,0.998987176760613
"CAN",1965,1,1965,3,1.5,"tv_cpi",0.229991228307915,0.792110893736009
"CAN",1965,1,1965,4,1.5,"tv_cpi",0.173860775226571,0.589973974871771
"CAN",1965,1,1966,1,1.5,"tv_cpi",0.131429226169945,1.16960743915446
"CAN",1965,1,1966,2,1.5,"tv_cpi",0.0993532984603334,1.34742539763972
"CAN",1965,1,1966,3,1.5,"tv_cpi",0.0751056534578107,0.761935035640349
"CAN",1965,1,1966,4,1.5,"tv_cpi",0.0567757615372665,0.378765586440188
"CAN",1965,3,1965,4,0,"tv_cpi",0.600511731973487,0.589973974871771
"CAN",1965,3,1965,4,1,"tv_cpi",0.600511731973487,0.589973974871771
"CAN",1965,3,1966,1,1,"tv_cpi",0.455257392733171,1.16960743915446
"CAN",1965,3,1966,2,1,"tv_cpi",0.345137792657405,1.34742539763972
"CAN",1965,3,1966,3,1,"tv_cpi",0.261654391168213,0.761935035640349
"CAN",1965,3,1966,4,1,"tv_cpi",0.198364310933538,0.378765586440188
"CAN",1966,1,1966,2,0.5,"tv_cpi",0.889951997212095,1.34742539763972
"CAN",1966,1,1966,3,0.5,"tv_cpi",0.677162722147497,0.761935035640349
"CAN",1966,1,1966,4,0.5,"tv_cpi",0.515251781784502,0.378765586440188
"CAN",1966,1,1966,2,1.5,"tv_cpi",0.889951997212095,1.34742539763972
"CAN",1966,1,1966,3,1.5,"tv_cpi",0.677162722147497,0.761935035640349
"CAN",1966,1,1966,4,1.5,"tv_cpi",0.515251781784502,0.378765586440188
"CAN",1966,1,1967,1,1.5,"tv_cpi",0.392054066104184,0.56550763720149
"CAN",1966,1,1967,2,1.5,"tv_cpi",0.298313166849193,1.4925465177654
"CAN",1966,1,1967,3,1.5,"tv_cpi",0.226985901204621,1.4706660636532
"CAN",1966,1,1967,4,1.5,"tv_cpi",0.17271312523634,0.364277207547525
"CAN",1966,3,1966,4,0,"tv_cpi",0.580737969390489,0.378765586440188
"CAN",1966,3,1966,4,1,"tv_cpi",0.580737969390489,0.378765586440188
"CAN",1966,3,1967,1,1,"tv_cpi",0.442631685532546,0.56550763720149
"CAN",1966,3,1967,2,1,"tv_cpi",0.337368691843953,1.4925465177654
"CAN",1966,3,1967,3,1,"tv_cpi",0.257138469650138,1.4706660636532
"CAN",1966,3,1967,4,1,"tv_cpi",0.195987933001792,0.364277207547525
"CAN",1967,1,1967,2,0.5,"tv_cpi",0.430961385237869,1.4925465177654
"CAN",1967,1,1967,3,0.5,"tv_cpi",0.328426538119358,1.4706660636532
"CAN",1967,1,1967,4,0.5,"tv_cpi",0.250286904200316,0.364277207547525
"CAN",1967,1,1967,2,1.5,"tv_cpi",0.430961385237869,1.4925465177654
"CAN",1967,1,1967,3,1.5,"tv_cpi",0.328426538119358,1.4706660636532
"CAN",1967,1,1967,4,1.5,"tv_cpi",0.250286904200316,0.364277207547525
"CAN",1967,1,1968,1,1.5,"tv_cpi",0.190738345241187,1.08500507905789
"CAN",1967,1,1968,2,1.5,"tv_cpi",0.14535765049948,0.538119600789955
"CAN",1967,1,1968,3,1.5,"tv_cpi",0.110773984811558,1.77305718058687
"CAN",1967,1,1968,4,1.5,"tv_cpi",0.0844185061389336,0.874943419379193
"CAN",1967,3,1967,4,0,"tv_cpi",1.13057675143293,0.364277207547525
"CAN",1967,3,1967,4,1,"tv_cpi",1.13057675143293,0.364277207547525
"CAN",1967,3,1968,1,1,"tv_cpi",0.869132580448287,1.08500507905789
"CAN",1967,3,1968,2,1,"tv_cpi",0.668146980237558,0.538119600789955
"CAN",1967,3,1968,3,1,"tv_cpi",0.513638997367133,1.77305718058687
"CAN",1967,3,1968,4,1,"tv_cpi",0.394860752827936,0.874943419379193
"CAN",1968,1,1968,2,0.5,"tv_cpi",0.828746586685389,0.538119600789955
"CAN",1968,1,1968,3,0.5,"tv_cpi",0.633011695704733,1.77305718058687
"CAN",1968,1,1968,4,0.5,"tv_cpi",0.483505830777072,0.874943419379193
"CAN",1968,1,1968,2,1.5,"tv_cpi",0.828746586685389,0.538119600789955
"CAN",1968,1,1968,3,1.5,"tv_cpi",0.633011695704733,1.77305718058687
"CAN",1968,1,1968,4,1.5,"tv_cpi",0.483505830777072,0.874943419379193
"CAN",1968,1,1969,1,1.5,"tv_cpi",0.36931053562156,0.521288623874838
"CAN",1968,1,1969,2,1.5,"tv_cpi",0.282086095015405,2.0583979709349
"CAN",1968,1,1969,3,1.5,"tv_cpi",0.215462482994473,1.18140940266898
"CAN",1968,1,1969,4,1.5,"tv_cpi",0.1645741580265,0.502094806727849
"CAN",1968,3,1968,4,0,"tv_cpi",1.35857870910103,0.874943419379193
"CAN",1968,3,1968,4,1,"tv_cpi",1.35857870910103,0.874943419379193
"CAN",1968,3,1969,1,1,"tv_cpi",1.04099074132043,0.521288623874838
"CAN",1968,3,1969,2,1,"tv_cpi",0.797643681779695,2.0583979709349
"CAN",1968,3,1969,3,1,"tv_cpi",0.611182614627335,1.18140940266898
"CAN",1968,3,1969,4,1,"tv_cpi",0.468309593563454,0.502094806727849
"CAN",1969,1,1969,2,0.5,"tv_cpi",0.396528000486117,2.0583979709349
"CAN",1969,1,1969,3,0.5,"tv_cpi",0.301626484769155,1.18140940266898
"CAN",1969,1,1969,4,0.5,"tv_cpi",0.229437861141367,0.502094806727849
"CAN",1969,1,1969,2,1.5,"tv_cpi",0.396528000486117,2.0583979709349
"CAN",1969,1,1969,3,1.5,"tv_cpi",0.301626484769155,1.18140940266898
"CAN",1969,1,1969,4,1.5,"tv_cpi",0.229437861141367,0.502094806727849
"CAN",1969,1,1970,1,1.5,"tv_cpi",0.174526226254348,1.16186358612742
"CAN",1969,1,1970,2,1.5,"tv_cpi",0.132756657942415,0.493829707328164
"CAN",1969,1,1970,3,1.5,"tv_cpi",0.100983849856207,0.817647968865298
"CAN",1969,1,1970,4,1.5,"tv_cpi",0.0768152655379761,-0.489798516943107
"CAN",1969,3,1969,4,0,"tv_cpi",0.898981048636159,0.502094806727849
"CAN",1969,3,1969,4,1,"tv_cpi",0.898981048636159,0.502094806727849
"CAN",1969,3,1970,1,1,"tv_cpi",0.684070165669241,1.16186358612742
"CAN",1969,3,1970,2,1,"tv_cpi",0.520535991574762,0.493829707328164
"CAN",1969,3,1970,3,1,"tv_cpi",0.396096383270329,0.817647968865298
"CAN",1969,3,1970,4,1,"tv_cpi",0.301405373267646,-0.489798516943107
"CAN",1970,1,1970,2,0.5,"tv_cpi",0.883698439550565,0.493829707328164
"CAN",1970,1,1970,3,0.5,"tv_cpi",0.672129621229442,0.817647968865298
"CAN",1970,1,1970,4,0.5,"tv_cpi",0.511213110168883,-0.489798516943107
"CAN",1970,1,1970,2,1.5,"tv_cpi",0.883698439550565,0.493829707328164
"CAN",1970,1,1970,3,1.5,"tv_cpi",0.672129621229442,0.817647968865298
"CAN",1970,1,1970,4,1.5,"tv_cpi",0.511213110168883,-0.489798516943107
"CAN",1970,1,1971,1,1.5,"tv_cpi",0.388822089897642,0.489798516943107
"CAN",1970,1,1971,2,1.5,"tv_cpi",0.295733060410806,1.29450035286163
"CAN",1970,1,1971,3,1.5,"tv_cpi",0.224930746714943,1.75307894124619
"CAN",1970,1,1971,4,1.5,"tv_cpi",0.171079421243812,0.629885487777981
"CAN",1970,3,1970,4,0,"tv_cpi",0.620925827008168,-0.489798516943107
"CAN",1970,3,1970,4,1,"tv_cpi",0.620925827008168,-0.489798516943107
"CAN",1970,3,1971,1,1,"tv_cpi",0.471534079856919,0.489798516943107
"CAN",1970,3,1971,2,1,"tv_cpi",0.358085263642265,1.29450035286163
"CAN",1970,3,1971,3,1,"tv_cpi",0.271931683234134,1.75307894124619
"CAN",1970,3,1971,4,1,"tv_cpi",0.206506237074374,0.629885487777981
"CAN",1971,1,1971,2,0.5,"tv_cpi",0.368335270958412,1.29450035286163
"CAN",1971,1,1971,3,0.5,"tv_cpi",0.27699322709008,1.75307894124619
"CAN",1971,1,1971,4,0.5,"tv_cpi",0.208302744546122,0.629885487777981
"CAN",1971,1,1971,2,1.5,"tv_cpi",0.368335270958412,1.29450035286163
"CAN",1971,1,1971,3,1.5,"tv_cpi",0.27699322709008,1.75307894124619
"CAN",1971,1,1971,4,1.5,"tv_cpi",0.208302744546122,0.629885487777981
"CAN",1971,1,1972,1,1.5,"tv_cpi",0.156646549958192,1.24805068908862
"CAN",1971,1,1972,2,1.5,"tv_cpi",0.117800375925297,0.925935796665911
"CAN",1971,1,1972,3,1.5,"tv_cpi",0.0885875148341602,2.12778527734403
"CAN",1971,1,1972,4,1.5,"tv_cpi",0.0666190385459311,0.749050554917297
"CAN",1971,3,1971,4,0,"tv_cpi",1.33235363879052,0.629885487777981
"CAN",1971,3,1971,4,1,"tv_cpi",1.33235363879052,0.629885487777981
"CAN",1971,3,1972,1,1,"tv_cpi",1.01259913460397,1.24805068908862
"CAN",1971,3,1972,2,1,"tv_cpi",0.769583222913331,0.925935796665911
"CAN",1971,3,1972,3,1,"tv_cpi",0.584889238742341,2.12778527734403
"CAN",1971,3,1972,4,1,"tv_cpi",0.44452037338023,0.749050554917297
"CAN",1972,1,1972,2,0.5,"tv_cpi",0.943580824730343,0.925935796665911
"CAN",1972,1,1972,3,0.5,"tv_cpi",0.713388310733566,2.12778527734403
"CAN",1972,1,1972,4,0.5,"tv_cpi",0.539352717385637,0.749050554917297
"CAN",1972,1,1972,2,1.5,"tv_cpi",0.943580824730343,0.925935796665911
"CAN",1972,1,1972,3,1.5,"tv_cpi",0.713388310733566,2.12778527734403
"CAN",1972,1,1972,4,1.5,"tv_cpi",0.539352717385637,0.749050554917297
"CAN",1972,1,1973,1,1.5,"tv_cpi",0.407774208484215,1.77520019638968
"CAN",1972,1,1973,2,1.5,"tv_cpi",0.308295109573051,2.17558208127699
"CAN",1972,1,1973,3,1.5,"tv_cpi",0.233084566431913,2.96842485757458
"CAN",1972,1,1973,4,1.5,"tv_cpi",0.176222111288079,1.79435977109055
"CAN",1972,3,1972,4,0,"tv_cpi",1.62322017097605,0.749050554917297
"CAN",1972,3,1972,4,1,"tv_cpi",1.62322017097605,0.749050554917297
"CAN",1972,3,1973,1,1,"tv_cpi",1.23830339062802,1.77520019638968
"CAN",1972,3,1973,2,1,"tv_cpi",0.94466253848905,2.17558208127699
"CAN",1972,3,1973,3,1,"tv_cpi",0.720653208558194,2.96842485757458
"CAN",1972,3,1973,4,1,"tv_cpi",0.549763567247924,1.79435977109055
"CAN",1973,1,1973,2,0.5,"tv_cpi",1.34538054238116,2.17558208127699
"CAN",1973,1,1973,3,0.5,"tv_cpi",1.01963080417579,2.96842485757458
"CAN",1973,1,1973,4,0.5,"tv_cpi",0.772753094068183,1.79435977109055
"CAN",1973,1,1973,2,1.5,"tv_cpi",1.34538054238116,2.17558208127699
"CAN",1973,1,1973,3,1.5,"tv_cpi",1.01963080417579,2.96842485757458
"CAN",1973,1,1973,4,1.5,"tv_cpi",0.772753094068183,1.79435977109055
"CAN",1973,1,1974,1,1.5,"tv_cpi",0.585650553069203,2.29894237836987
"CAN",1973,1,1974,2,1.5,"tv_cpi",0.44385014171163,3.41688457713851
"CAN",1973,1,1974,3,1.5,"tv_cpi",0.336383099554856,2.92832219067054
"CAN",1973,1,1974,4,1.5,"tv_cpi",0.254936472994635,2.84495917493341
"CAN",1973,3,1973,4,0,"tv_cpi",2.31309893187675,1.79435977109055
"CAN",1973,3,1973,4,1,"tv_cpi",2.31309893187675,1.79435977109055
"CAN",1973,3,1974,1,1,"tv_cpi",1.80244639004305,2.29894237836987
"CAN",1973,3,1974,2,1,"tv_cpi",1.40452833391924,3.41688457713851
"CAN",1973,3,1974,3,1,"tv_cpi",1.09445687354665,2.92832219067054
"CAN",1973,3,1974,4,1,"tv_cpi",0.852838507508796,2.84495917493341
"CAN",1974,1,1974,2,0.5,"tv_cpi",1.79231307627444,3.41688457713851
"CAN",1974,1,1974,3,0.5,"tv_cpi",1.39733217918327,2.92832219067054
"CAN",1974,1,1974,4,0.5,"tv_cpi",1.08939517589175,2.84495917493341
"CAN",1974,1,1974,2,1.5,"tv_cpi",1.79231307627444,3.41688457713851
"CAN",1974,1,1974,3,1.5,"tv_cpi",1.39733217918327,2.92832219067054
"CAN",1974,1,1974,4,1.5,"tv_cpi",1.08939517589175,2.84495917493341
"CAN",1974,1,1975,1,1.5,"tv_cpi",0.849319773019091,1.81269853169406
"CAN",1974,1,1975,2,1.5,"tv_cpi",0.662150974049183,2.3670121698423
"CAN",1974,1,1975,3,1.5,"tv_cpi",0.516229489012999,3.22235435686844
"CAN",1974,1,1975,4,1.5,"tv_cpi",0.402465443336836,2.01801228662699
"CAN",1974,3,1974,4,0,"tv_cpi",2.3409695277826,2.84495917493341
"CAN",1974,3,1974,4,1,"tv_cpi",2.3409695277826,2.84495917493341
"CAN",1974,3,1975,1,1,"tv_cpi",1.87142601571169,1.81269853169406
"CAN",1974,3,1975,2,1,"tv_cpi",1.49606190542766,2.3670121698423
"CAN",1974,3,1975,3,1,"tv_cpi",1.19598702063606,3.22235435686844
"CAN",1974,3,1975,4,1,"tv_cpi",0.956100110791226,2.01801228662699
"CAN",1975,1,1975,2,0.5,"tv_cpi",1.4504350276743,2.3670121698423
"CAN",1975,1,1975,3,0.5,"tv_cpi",1.16056902607985,3.22235435686844
"CAN",1975,1,1975,4,0.5,"tv_cpi",0.928632057690749,2.01801228662699
"CAN",1975,1,1975,2,1.5,"tv_cpi",1.4504350276743,2.3670121698423
"CAN",1975,1,1975,3,1.5,"tv_cpi",1.16056902607985,3.22235435686844
"CAN",1975,1,1975,4,1.5,"tv_cpi",0.928632057690749,2.01801228662699
"CAN",1975,1,1976,1,1.5,"tv_cpi",0.743047142558866,1.43254982749603
"CAN",1975,1,1976,2,1.5,"tv_cpi",0.594550932732026,1.41227637672539
"CAN",1975,1,1976,3,1.5,"tv_cpi",0.475731338384788,1.49894882688582
"CAN",1975,1,1976,4,1.5,"tv_cpi",0.38065755827077,1.3720710353391
"CAN",1975,3,1975,4,0,"tv_cpi",2.63753942781002,2.01801228662699
"CAN",1975,3,1975,4,1,"tv_cpi",2.63753942781002,2.01801228662699
"CAN",1975,3,1976,1,1,"tv_cpi",2.1588607157448,1.43254982749603
"CAN",1975,3,1976,2,1,"tv_cpi",1.76705589339985,1.41227637672539
"CAN",1975,3,1976,3,1,"tv_cpi",1.44635849252641,1.49894882688582
"CAN",1975,3,1976,4,1,"tv_cpi",1.18386345147143,1.3720710353391
"CAN",1976,1,1976,2,0.5,"tv_cpi",1.16000207355109,1.41227637672539
"CAN",1976,1,1976,3,0.5,"tv_cpi",0.939307509460126,1.49894882688582
"CAN",1976,1,1976,4,0.5,"tv_cpi",0.76060087946845,1.3720710353391
"CAN",1976,1,1976,2,1.5,"tv_cpi",1.16000207355109,1.41227637672539
"CAN",1976,1,1976,3,1.5,"tv_cpi",0.939307509460126,1.49894882688582
"CAN",1976,1,1976,4,1.5,"tv_cpi",0.76060087946845,1.3720710353391
"CAN",1976,1,1977,1,1.5,"tv_cpi",0.615893828189114,2.07475676302611
"CAN",1976,1,1977,2,1.5,"tv_cpi",0.498717813561477,2.5343682996434
"CAN",1976,1,1977,3,1.5,"tv_cpi",0.403834956902944,2.0802817976298
"CAN",1976,1,1977,4,1.5,"tv_cpi",0.327003904777705,2.03792299218417
"CAN",1976,3,1976,4,0,"tv_cpi",1.21854107734707,1.3720710353391
"CAN",1976,3,1976,4,1,"tv_cpi",1.21854107734707,1.3720710353391
"CAN",1976,3,1977,1,1,"tv_cpi",0.990589091868488,2.07475676302611
"CAN",1976,3,1977,2,1,"tv_cpi",0.805279991927056,2.5343682996434
"CAN",1976,3,1977,3,1,"tv_cpi",0.654636590208014,2.0802817976298
"CAN",1976,3,1977,4,1,"tv_cpi",0.532173988594508,2.03792299218417
"CAN",1977,1,1977,2,0.5,"tv_cpi",1.69802093710823,2.5343682996434
"CAN",1977,1,1977,3,0.5,"tv_cpi",1.38969307354013,2.0802817976298
"CAN",1977,1,1977,4,0.5,"tv_cpi",1.1373516052955,2.03792299218417
"CAN",1977,1,1977,2,1.5,"tv_cpi",1.69802093710823,2.5343682996434
"CAN",1977,1,1977,3,1.5,"tv_cpi",1.38969307354013,2.0802817976298
"CAN",1977,1,1977,4,1.5,"tv_cpi",1.1373516052955,2.03792299218417
"CAN",1977,1,1978,1,1.5,"tv_cpi",0.930830482426585,1.99721980992398
"CAN",1977,1,1978,2,1.5,"tv_cpi",0.761809613650122,2.3267526452325
"CAN",1977,1,1978,3,1.5,"tv_cpi",0.62347967584476,2.45356152061698
"CAN",1977,1,1978,4,1.5,"tv_cpi",0.51026778768116,1.69120075030964
"CAN",1977,3,1977,4,0,"tv_cpi",1.71499666000206,2.03792299218417
"CAN",1977,3,1977,4,1,"tv_cpi",1.71499666000206,2.03792299218417
"CAN",1977,3,1978,1,1,"tv_cpi",1.41385342465109,1.99721980992398
"CAN",1977,3,1978,2,1,"tv_cpi",1.16558915420582,2.3267526452325
"CAN",1977,3,1978,3,1,"tv_cpi",0.960918616254386,2.45356152061698
"CAN",1977,3,1978,4,1,"tv_cpi",0.792187010090514,1.69120075030964
"CAN",1978,1,1978,2,0.5,"tv_cpi",1.65534577134822,2.3267526452325
"CAN",1978,1,1978,3,0.5,"tv_cpi",1.3719920106464,2.45356152061698
"CAN",1978,1,1978,4,0.5,"tv_cpi",1.13714132108148,1.69120075030964
"CAN",1978,1,1978,2,1.5,"tv_cpi",1.65534577134822,2.3267526452325
"CAN",1978,1,1978,3,1.5,"tv_cpi",1.3719920106464,2.45356152061698
"CAN",1978,1,1978,4,1.5,"tv_cpi",1.13714132108148,1.69120075030964
"CAN",1978,1,1979,1,1.5,"tv_cpi",0.942491190966709,2.09612028715123
"CAN",1978,1,1979,2,1.5,"tv_cpi",0.781160290793966,2.72824736605242
"CAN",1978,1,1979,3,1.5,"tv_cpi",0.647445202418734,1.91592240920695
"CAN",1978,1,1979,4,1.5,"tv_cpi",0.536618790119219,2.28393585715518
"CAN",1978,3,1978,4,0,"tv_cpi",2.05370004849888,1.69120075030964
"CAN",1978,3,1978,4,1,"tv_cpi",2.05370004849888,1.69120075030964
"CAN",1978,3,1979,1,1,"tv_cpi",1.71900474219358,2.09612028715123
"CAN",1978,3,1979,2,1,"tv_cpi",1.43885535078208,2.72824736605242
"CAN",1978,3,1979,3,1,"tv_cpi",1.20436242533709,1.91592240920695
"CAN",1978,3,1979,4,1,"tv_cpi",1.00808524691202,2.28393585715518
"CAN",1979,1,1979,2,0.5,"tv_cpi",1.7563198053179,2.72824736605242
"CAN",1979,1,1979,3,0.5,"tv_cpi",1.47160412379968,1.91592240920695
"CAN",1979,1,1979,4,0.5,"tv_cpi",1.23304348708419,2.28393585715518
"CAN",1979,1,1979,2,1.5,"tv_cpi",1.7563198053179,2.72824736605242
"CAN",1979,1,1979,3,1.5,"tv_cpi",1.47160412379968,1.91592240920695
"CAN",1979,1,1979,4,1.5,"tv_cpi",1.23304348708419,2.28393585715518
"CAN",1979,1,1980,1,1.5,"tv_cpi",1.03315573560306,2.15405913261506
"CAN",1979,1,1980,2,1.5,"tv_cpi",0.865671637043089,2.72496311689348
"CAN",1979,1,1980,3,1.5,"tv_cpi",0.725338259622051,2.80214225188988
"CAN",1979,1,1980,4,1.5,"tv_cpi",0.607754220374623,2.72578537427455
"CAN",1979,3,1979,4,0,"tv_cpi",1.6112374627172,2.28393585715518
"CAN",1979,3,1979,4,1,"tv_cpi",1.6112374627172,2.28393585715518
"CAN",1979,3,1980,1,1,"tv_cpi",1.35500589626589,2.15405913261506
"CAN",1979,3,1980,2,1,"tv_cpi",1.13952227489734,2.72496311689348
"CAN",1979,3,1980,3,1,"tv_cpi",0.958306542108516,2.80214225188988
"CAN",1979,3,1980,4,1,"tv_cpi",0.805909150596212,2.72578537427455
"CAN",1980,1,1980,2,0.5,"tv_cpi",1.82298859914332,2.72496311689348
"CAN",1980,1,1980,3,0.5,"tv_cpi",1.54280232250264,2.80214225188988
"CAN",1980,1,1980,4,0.5,"tv_cpi",1.30567958978904,2.72578537427455
"CAN",1980,1,1980,2,1.5,"tv_cpi",1.82298859914332,2.72496311689348
"CAN",1980,1,1980,3,1.5,"tv_cpi",1.54280232250264,2.80214225188988
"CAN",1980,1,1980,4,1.5,"tv_cpi",1.30567958978904,2.72578537427455
"CAN",1980,1,1981,1,1.5,"tv_cpi",1.10500170133672,3.35865939464655
"CAN",1980,1,1981,2,1.5,"tv_cpi",0.935167225945791,2.90877534275418
"CAN",1980,1,1981,3,1.5,"tv_cpi",0.791435650664805,2.95919491678953
"CAN",1980,1,1981,4,1.5,"tv_cpi",0.669795060995361,2.42236849316555
"CAN",1980,3,1980,4,0,"tv_cpi",2.39726064652395,2.72578537427455
"CAN",1980,3,1980,4,1,"tv_cpi",2.39726064652395,2.72578537427455
"CAN",1980,3,1981,1,1,"tv_cpi",2.05088039463254,3.35865939464655
"CAN",1980,3,1981,2,1,"tv_cpi",1.75454863416167,2.90877534275418
"CAN",1980,3,1981,3,1,"tv_cpi",1.5010338573109,2.95919491678953
"CAN",1980,3,1981,4,1,"tv_cpi",1.28414943702611,2.42236849316555
"CAN",1981,1,1981,2,0.5,"tv_cpi",2.90663157323554,2.90877534275418
"CAN",1981,1,1981,3,0.5,"tv_cpi",2.51544027238844,2.95919491678953
"CAN",1981,1,1981,4,0.5,"tv_cpi",2.1768977610431,2.42236849316555
"CAN",1981,1,1981,2,1.5,"tv_cpi",2.90663157323554,2.90877534275418
"CAN",1981,1,1981,3,1.5,"tv_cpi",2.51544027238844,2.95919491678953
"CAN",1981,1,1981,4,1.5,"tv_cpi",2.1768977610431,2.42236849316555
"CAN",1981,1,1982,1,1.5,"tv_cpi",1.88391826037469,2.49135397543214
"CAN",1981,1,1982,2,1.5,"tv_cpi",1.63036963668544,3.0446532371057
"CAN",1981,1,1982,3,1.5,"tv_cpi",1.41094505432372,2.1193642255005
"CAN",1981,1,1982,4,1.5,"tv_cpi",1.22105190229611,1.54582966761603
"CAN",1981,3,1981,4,0,"tv_cpi",2.57076814779125,2.42236849316555
"CAN",1981,3,1981,4,1,"tv_cpi",2.57076814779125,2.42236849316555
"CAN",1981,3,1982,1,1,"tv_cpi",2.2333266498268,2.49135397543214
"CAN",1981,3,1982,2,1,"tv_cpi",1.94017804721595,3.0446532371057
"CAN",1981,3,1982,3,1,"tv_cpi",1.68550841194262,2.1193642255005
"CAN",1981,3,1982,4,1,"tv_cpi",1.46426695777015,1.54582966761603
"CAN",1982,1,1982,2,0.5,"tv_cpi",2.16752220099589,3.0446532371057
"CAN",1982,1,1982,3,0.5,"tv_cpi",1.88578280651393,2.1193642255005
"CAN",1982,1,1982,4,0.5,"tv_cpi",1.640664530084,1.54582966761603
"CAN",1982,1,1982,2,1.5,"tv_cpi",2.16752220099589,3.0446532371057
"CAN",1982,1,1982,3,1.5,"tv_cpi",1.88578280651393,2.1193642255005
"CAN",1982,1,1982,4,1.5,"tv_cpi",1.640664530084,1.54582966761603
"CAN",1982,1,1983,1,1.5,"tv_cpi",1.42740727669046,0.705450258972062
"CAN",1982,1,1983,2,1.5,"tv_cpi",1.24186967913823,1.33841553760603
"CAN",1982,1,1983,3,1.5,"tv_cpi",1.08044867442365,1.6055296868895
"CAN",1982,1,1983,4,1.5,"tv_cpi",0.94000953374906,0.906018518969942
"CAN",1982,3,1982,4,0,"tv_cpi",1.84675624735971,1.54582966761603
"CAN",1982,3,1982,4,1,"tv_cpi",1.84675624735971,1.54582966761603
"CAN",1982,3,1983,1,1,"tv_cpi",1.60921308198298,0.705450258972062
"CAN",1982,3,1983,2,1,"tv_cpi",1.40222443916323,1.33841553760603
"CAN",1982,3,1983,3,1,"tv_cpi",1.22186017488977,1.6055296868895
"CAN",1982,3,1983,4,1,"tv_cpi",1.06469566874227,0.906018518969942
"CAN",1983,1,1983,2,0.5,"tv_cpi",0.612099234237122,1.33841553760603
"CAN",1983,1,1983,3,0.5,"tv_cpi",0.531101190748175,1.6055296868895
"CAN",1983,1,1983,4,0.5,"tv_cpi",0.460821479650567,0.906018518969942
"CAN",1983,1,1983,2,1.5,"tv_cpi",0.612099234237122,1.33841553760603
"CAN",1983,1,1983,3,1.5,"tv_cpi",0.531101190748175,1.6055296868895
"CAN",1983,1,1983,4,1.5,"tv_cpi",0.460821479650567,0.906018518969942
"CAN",1983,1,1984,1,1.5,"tv_cpi",0.399841762373356,1.17679632467897
"CAN",1983,1,1984,2,1.5,"tv_cpi",0.346931386659884,0.832185080159764
"CAN",1983,1,1984,3,1.5,"tv_cpi",0.301022550359214,0.825316876936055
"CAN",1983,1,1984,4,1.5,"tv_cpi",0.2611887517505,0.764191457831176
"CAN",1983,3,1983,4,0,"tv_cpi",1.39719608484207,0.906018518969942
"CAN",1983,3,1983,4,1,"tv_cpi",1.39719608484207,0.906018518969942
"CAN",1983,3,1984,1,1,"tv_cpi",1.21589586006352,1.17679632467897
"CAN",1983,3,1984,2,1,"tv_cpi",1.05812116034287,0.832185080159764
"CAN",1983,3,1984,3,1,"tv_cpi",0.920819312524712,0.825316876936055
"CAN",1983,3,1984,4,1,"tv_cpi",0.80133375845516,0.764191457831176
"CAN",1984,1,1984,2,0.5,"tv_cpi",1.0229866288627,0.832185080159764
"CAN",1984,1,1984,3,0.5,"tv_cpi",0.889280176089403,0.825316876936055
"CAN",1984,1,1984,4,0.5,"tv_cpi",0.773049431217676,0.764191457831176
"CAN",1984,1,1984,2,1.5,"tv_cpi",1.0229866288627,0.832185080159764
"CAN",1984,1,1984,3,1.5,"tv_cpi",0.889280176089403,0.825316876936055
"CAN",1984,1,1984,4,1.5,"tv_cpi",0.773049431217676,0.764191457831176
"CAN",1984,1,1985,1,1.5,"tv_cpi",0.672010283343922,1.13545794008982
"CAN",1984,1,1985,2,1.5,"tv_cpi",0.584177159549344,1.17584571170664
"CAN",1984,1,1985,3,1.5,"tv_cpi",0.507824005372382,0.951907670712382
"CAN",1984,1,1985,4,1.5,"tv_cpi",0.44145036521351,0.786376098391628
"CAN",1984,3,1984,4,0,"tv_cpi",0.717240118398198,0.764191457831176
"CAN",1984,3,1984,4,1,"tv_cpi",0.717240118398198,0.764191457831176
"CAN",1984,3,1985,1,1,"tv_cpi",0.623316209586878,1.13545794008982
"CAN",1984,3,1985,2,1,"tv_cpi",0.541691808876274,1.17584571170664
"CAN",1984,3,1985,3,1,"tv_cpi",0.470756273125207,0.951907670712382
"CAN",1984,3,1985,4,1,"tv_cpi",0.409109875865508,0.786376098391628
"CAN",1985,1,1985,2,0.5,"tv_cpi",0.987853257603997,1.17584571170664
"CAN",1985,1,1985,3,0.5,"tv_cpi",0.859436553397684,0.951907670712382
"CAN",1985,1,1985,4,0.5,"tv_cpi",0.747713472249526,0.786376098391628
"CAN",1985,1,1985,2,1.5,"tv_cpi",0.987853257603997,1.17584571170664
"CAN",1985,1,1985,3,1.5,"tv_cpi",0.859436553397684,0.951907670712382
"CAN",1985,1,1985,4,1.5,"tv_cpi",0.747713472249526,0.786376098391628
"CAN",1985,1,1986,1,1.5,"tv_cpi",0.650513914463147,1.29702599916377
"CAN",1985,1,1986,2,1.5,"tv_cpi",0.56594988403385,0.821349527320425
"CAN",1985,1,1986,3,1.5,"tv_cpi",0.49237881637361,1.16900694062392
"CAN",1985,1,1986,4,1.5,"tv_cpi",0.428371673275185,1.00555488009815
"CAN",1985,3,1985,4,0,"tv_cpi",0.828501567105258,0.786376098391628
"CAN",1985,3,1985,4,1,"tv_cpi",0.828501567105258,0.786376098391628
"CAN",1985,3,1986,1,1,"tv_cpi",0.721093933597755,1.29702599916377
"CAN",1985,3,1986,2,1,"tv_cpi",0.627610715195452,0.821349527320425
"CAN",1985,3,1986,3,1,"tv_cpi",0.546246739121608,1.16900694062392
"CAN",1985,3,1986,4,1,"tv_cpi",0.475430856702416,1.00555488009815
"CAN",1986,1,1986,2,0.5,"tv_cpi",1.13021791011363,0.821349527320425
"CAN",1986,1,1986,3,0.5,"tv_cpi",0.984862697559795,1.16900694062392
"CAN",1986,1,1986,4,0.5,"tv_cpi",0.858201347160778,1.00555488009815
"CAN",1986,1,1986,2,1.5,"tv_cpi",1.13021791011363,0.821349527320425
"CAN",1986,1,1986,3,1.5,"tv_cpi",0.984862697559795,1.16900694062392
"CAN",1986,1,1986,4,1.5,"tv_cpi",0.858201347160778,1.00555488009815
"CAN",1986,1,1987,1,1.5,"tv_cpi",0.747829676251758,0.945977078179228
"CAN",1986,1,1987,2,1.5,"tv_cpi",0.65165269960598,1.42683691216376
"CAN",1986,1,1987,3,1.5,"tv_cpi",0.567844864130267,1.06901881020494
"CAN",1986,1,1987,4,1.5,"tv_cpi",0.49481539770201,0.674372413337654
"CAN",1986,3,1986,4,0,"tv_cpi",1.01864541274506,1.00555488009815
"CAN",1986,3,1986,4,1,"tv_cpi",1.01864541274506,1.00555488009815
"CAN",1986,3,1987,1,1,"tv_cpi",0.887623880447406,0.945977078179228
"CAN",1986,3,1987,2,1,"tv_cpi",0.773454769719456,1.42683691216376
"CAN",1986,3,1987,3,1,"tv_cpi",0.673970466522643,1.06901881020494
"CAN",1986,3,1987,4,1,"tv_cpi",0.587282162484443,0.674372413337654
"CAN",1987,1,1987,2,0.5,"tv_cpi",0.824474786444886,1.42683691216376
"CAN",1987,1,1987,3,0.5,"tv_cpi",0.718578376964173,1.06901881020494
"CAN",1987,1,1987,4,0.5,"tv_cpi",0.626283413792403,0.674372413337654
"CAN",1987,1,1987,2,1.5,"tv_cpi",0.824474786444886,1.42683691216376
"CAN",1987,1,1987,3,1.5,"tv_cpi",0.718578376964173,1.06901881020494
"CAN",1987,1,1987,4,1.5,"tv_cpi",0.626283413792403,0.674372413337654
"CAN",1987,1,1988,1,1.5,"tv_cpi",0.545842912847657,0.860428717407213
"CAN",1987,1,1988,2,1.5,"tv_cpi",0.475734274522518,1.2769190126444
"CAN",1987,1,1988,3,1.5,"tv_cpi",0.414630463505959,1.07502536716426
"CAN",1987,1,1988,4,1.5,"tv_cpi",0.361374890299246,0.787219982743181
"CAN",1987,3,1987,4,0,"tv_cpi",0.932510517147679,0.674372413337654
"CAN",1987,3,1987,4,1,"tv_cpi",0.932510517147679,0.674372413337654
"CAN",1987,3,1988,1,1,"tv_cpi",0.813433642411144,0.860428717407213
"CAN",1987,3,1988,2,1,"tv_cpi",0.709562282075017,1.2769190126444
"CAN",1987,3,1988,3,1,"tv_cpi",0.618954768887007,1.07502536716426
"CAN",1987,3,1988,4,1,"tv_cpi",0.539917376678521,0.787219982743181
"CAN",1988,1,1988,2,0.5,"tv_cpi",0.750426403911304,1.2769190126444
"CAN",1988,1,1988,3,0.5,"tv_cpi",0.654487438987622,1.07502536716426
"CAN",1988,1,1988,4,0.5,"tv_cpi",0.570813880694962,0.787219982743181
"CAN",1988,1,1988,2,1.5,"tv_cpi",0.750426403911304,1.2769190126444
"CAN",1988,1,1988,3,1.5,"tv_cpi",0.654487438987622,1.07502536716426
"CAN",1988,1,1988,4,1.5,"tv_cpi",0.570813880694962,0.787219982743181
"CAN",1988,1,1989,1,1.5,"tv_cpi",0.497837646659869,1.23770024456311
"CAN",1988,1,1989,2,1.5,"tv_cpi",0.434191127465384,1.71639236195382
"CAN",1988,1,1989,3,1.5,"tv_cpi",0.378681556998566,1.42287750412482
"CAN",1988,1,1989,4,1.5,"tv_cpi",0.330268659444891,0.703909573446548
"CAN",1988,3,1988,4,0,"tv_cpi",0.93858140894094,0.787219982743181
"CAN",1988,3,1988,4,1,"tv_cpi",0.93858140894094,0.787219982743181
"CAN",1988,3,1989,1,1,"tv_cpi",0.819455138564146,1.23770024456311
"CAN",1988,3,1989,2,1,"tv_cpi",0.715448567084752,1.71639236195382
"CAN",1988,3,1989,3,1,"tv_cpi",0.624642677865832,1.42287750412482
"CAN",1988,3,1989,4,1,"tv_cpi",0.545362018965617,0.703909573446548
"CAN",1989,1,1989,2,0.5,"tv_cpi",1.08138728463446,1.71639236195382
"CAN",1989,1,1989,3,0.5,"tv_cpi",0.944815567829087,1.42287750412482
"CAN",1989,1,1989,4,0.5,"tv_cpi",0.825491912006298,0.703909573446548
"CAN",1989,1,1989,2,1.5,"tv_cpi",1.08138728463446,1.71639236195382
"CAN",1989,1,1989,3,1.5,"tv_cpi",0.944815567829087,1.42287750412482
"CAN",1989,1,1989,4,1.5,"tv_cpi",0.825491912006298,0.703909573446548
"CAN",1989,1,1990,1,1.5,"tv_cpi",0.721238006644576,1.43637321563084
"CAN",1989,1,1990,2,1.5,"tv_cpi",0.630150646739071,0.946235822452035
"CAN",1989,1,1990,3,1.5,"tv_cpi",0.550566988882151,0.979771403063978
"CAN",1989,1,1990,4,1.5,"tv_cpi",0.481034195260098,1.47279610793536
"CAN",1989,3,1989,4,0,"tv_cpi",1.24523124047421,0.703909573446548
"CAN",1989,3,1989,4,1,"tv_cpi",1.24523124047421,0.703909573446548
"CAN",1989,3,1990,1,1,"tv_cpi",1.08976411374687,1.43637321563084
"CAN",1989,3,1990,2,1,"tv_cpi",0.953707058584757,0.946235822452035
"CAN",1989,3,1990,3,1,"tv_cpi",0.834636727453898,0.979771403063978
"CAN",1989,3,1990,4,1,"tv_cpi",0.730432327772316,1.47279610793536
"CAN",1990,1,1990,2,0.5,"tv_cpi",1.25646392249872,0.946235822452035
"CAN",1990,1,1990,3,0.5,"tv_cpi",1.09908871271143,0.979771403063978
"CAN",1990,1,1990,4,0.5,"tv_cpi",0.961425136670325,1.47279610793536
"CAN",1990,1,1990,2,1.5,"tv_cpi",1.25646392249872,0.946235822452035
"CAN",1990,1,1990,3,1.5,"tv_cpi",1.09908871271143,0.979771403063978
"CAN",1990,1,1990,4,1.5,"tv_cpi",0.961425136670325,1.47279610793536
"CAN",1990,1,1991,1,1.5,"tv_cpi",0.841004263560517,2.84144467061074
"CAN",1990,1,1991,2,1.5,"tv_cpi",0.735666402249995,0.728160905900221
"CAN",1990,1,1991,3,1.5,"tv_cpi",0.643522368255518,0.602776511185432
"CAN",1990,1,1991,4,1.5,"tv_cpi",0.562919602116699,-0.160390549892142
"CAN",1990,3,1990,4,0,"tv_cpi",0.856470010095541,1.47279610793536
"CAN",1990,3,1990,4,1,"tv_cpi",0.856470010095541,1.47279610793536
"CAN",1990,3,1991,1,1,"tv_cpi",0.748685740264616,2.84144467061074
"CAN",1990,3,1991,2,1,"tv_cpi",0.654465808572851,0.728160905900221
"CAN",1990,3,1991,3,1,"tv_cpi",0.572103182357297,0.602776511185432
"CAN",1990,3,1991,4,1,"tv_cpi",0.50010565407087,-0.160390549892142
"CAN",1991,1,1991,2,0.5,"tv_cpi",2.50098628190878,0.728160905900221
"CAN",1991,1,1991,3,0.5,"tv_cpi",2.20132119656986,0.602776511185432
"CAN",1991,1,1991,4,0.5,"tv_cpi",1.93756161140132,-0.160390549892142
"CAN",1991,1,1991,2,1.5,"tv_cpi",2.50098628190878,0.728160905900221
"CAN",1991,1,1991,3,1.5,"tv_cpi",2.20132119656986,0.602776511185432
"CAN",1991,1,1991,4,1.5,"tv_cpi",1.93756161140132,-0.160390549892142
"CAN",1991,1,1992,1,1.5,"tv_cpi",1.70540537374821,0.400487469734934
"CAN",1991,1,1992,2,1.5,"tv_cpi",1.50106580956969,0.518230733074621
"CAN",1991,1,1992,3,1.5,"tv_cpi",1.32120995942855,0.436433483245668
"CAN",1991,1,1992,4,1.5,"tv_cpi",1.16290421496816,0.43452204872283
"CAN",1991,3,1991,4,0,"tv_cpi",0.524175566939,-0.160390549892142
"CAN",1991,3,1991,4,1,"tv_cpi",0.524175566939,-0.160390549892142
"CAN",1991,3,1992,1,1,"tv_cpi",0.455824040713653,0.400487469734934
"CAN",1991,3,1992,2,1,"tv_cpi",0.396385427321342,0.518230733074621
"CAN",1991,3,1992,3,1,"tv_cpi",0.344697499383158,0.436433483245668
"CAN",1991,3,1992,4,1,"tv_cpi",0.299749581824762,0.43452204872283
"CAN",1992,1,1992,2,0.5,"tv_cpi",0.347856464538436,0.518230733074621
"CAN",1992,1,1992,3,0.5,"tv_cpi",0.3021420869953,0.436433483245668
"CAN",1992,1,1992,4,0.5,"tv_cpi",0.262435372172849,0.43452204872283
"CAN",1992,1,1992,2,1.5,"tv_cpi",0.347856464538436,0.518230733074621
"CAN",1992,1,1992,3,1.5,"tv_cpi",0.3021420869953,0.436433483245668
"CAN",1992,1,1992,4,1.5,"tv_cpi",0.262435372172849,0.43452204872283
"CAN",1992,1,1993,1,1.5,"tv_cpi",0.227946808908395,0.706981692162945
"CAN",1992,1,1993,2,1.5,"tv_cpi",0.197990641510391,0.195514019837706
"CAN",1992,1,1993,3,1.5,"tv_cpi",0.171971234488523,0.389855442450138
"CAN",1992,1,1993,4,1.5,"tv_cpi",0.149371229194964,0.504568081301926
"CAN",1992,3,1992,4,0,"tv_cpi",0.379154200395483,0.43452204872283
"CAN",1992,3,1992,4,1,"tv_cpi",0.379154200395483,0.43452204872283
"CAN",1992,3,1993,1,1,"tv_cpi",0.329392480632877,0.706981692162945
"CAN",1992,3,1993,2,1,"tv_cpi",0.286161688791284,0.195514019837706
"CAN",1992,3,1993,3,1,"tv_cpi",0.248604679665254,0.389855442450138
"CAN",1992,3,1993,4,1,"tv_cpi",0.215976803227987,0.504568081301926
"CAN",1993,1,1993,2,0.5,"tv_cpi",0.614469990501548,0.195514019837706
"CAN",1993,1,1993,3,0.5,"tv_cpi",0.534063856833155,0.389855442450138
"CAN",1993,1,1993,4,0.5,"tv_cpi",0.464179223696012,0.504568081301926
"CAN",1993,1,1993,2,1.5,"tv_cpi",0.614469990501548,0.195514019837706
"CAN",1993,1,1993,3,1.5,"tv_cpi",0.534063856833155,0.389855442450138
"CAN",1993,1,1993,4,1.5,"tv_cpi",0.464179223696012,0.504568081301926
"CAN",1993,1,1994,1,1.5,"tv_cpi",0.403439305907467,-0.543476434298906
"CAN",1993,1,1994,2,1.5,"tv_cpi",0.350647476754994,-0.350947089453157
"CAN",1993,1,1994,3,1.5,"tv_cpi",0.304763693458378,0.545381899008923
"CAN",1993,1,1994,4,1.5,"tv_cpi",0.264884007465111,0.31031442868148
"CAN",1993,3,1993,4,0,"tv_cpi",0.338650818682767,0.504568081301926
"CAN",1993,3,1993,4,1,"tv_cpi",0.338650818682767,0.504568081301926
"CAN",1993,3,1994,1,1,"tv_cpi",0.294171542851236,-0.543476434298906
"CAN",1993,3,1994,2,1,"tv_cpi",0.255534290335026,-0.350947089453157
"CAN",1993,3,1994,3,1,"tv_cpi",0.221971754657611,0.545381899008923
"CAN",1993,3,1994,4,1,"tv_cpi",0.192817409362868,0.31031442868148
"CAN",1994,1,1994,2,0.5,"tv_cpi",-0.47161325343809,-0.350947089453157
"CAN",1994,1,1994,3,0.5,"tv_cpi",-0.409252447358429,0.545381899008923
"CAN",1994,1,1994,4,0.5,"tv_cpi",-0.355137529422401,0.31031442868148
"CAN",1994,1,1994,2,1.5,"tv_cpi",-0.47161325343809,-0.350947089453157
"CAN",1994,1,1994,3,1.5,"tv_cpi",-0.409252447358429,0.545381899008923
"CAN",1994,1,1994,4,1.5,"tv_cpi",-0.355137529422401,0.31031442868148
"CAN",1994,1,1995,1,1.5,"tv_cpi",-0.308178156583599,1.0019481442165
"CAN",1994,1,1995,2,1.5,"tv_cpi",-0.267428160436131,0.801992688062469
"CAN",1994,1,1995,3,1.5,"tv_cpi",-0.23206648318974,0.189987130897684
"CAN",1994,1,1995,4,1.5,"tv_cpi",-0.201380634456094,0.0379627963394746
"CAN",1994,3,1994,4,0,"tv_cpi",0.472864289740396,0.31031442868148
"CAN",1994,3,1994,4,1,"tv_cpi",0.472864289740396,0.31031442868148
"CAN",1994,3,1995,1,1,"tv_cpi",0.409989104731968,1.0019481442165
"CAN",1994,3,1995,2,1,"tv_cpi",0.355474223040195,0.801992688062469
"CAN",1994,3,1995,3,1,"tv_cpi",0.308208003060568,0.189987130897684
"CAN",1994,3,1995,4,1,"tv_cpi",0.267226614459306,0.0379627963394746
"CAN",1995,1,1995,2,0.5,"tv_cpi",0.869032696894981,0.801992688062469
"CAN",1995,1,1995,3,0.5,"tv_cpi",0.753749415707663,0.189987130897684
"CAN",1995,1,1995,4,0.5,"tv_cpi",0.653759270174274,0.0379627963394746
"CAN",1995,1,1995,2,1.5,"tv_cpi",0.869032696894981,0.801992688062469
"CAN",1995,1,1995,3,1.5,"tv_cpi",0.753749415707663,0.189987130897684
"CAN",1995,1,1995,4,1.5,"tv_cpi",0.653759270174274,0.0379627963394746
"CAN",1995,1,1996,1,1.5,"tv_cpi",0.567033518609802,0.416584944468834
"CAN",1995,1,1996,2,1.5,"tv_cpi",0.491812546139962,0.79052054952351
"CAN",1995,1,1996,3,1.5,"tv_cpi",0.426570163142541,0.149874121723226
"CAN",1995,1,1996,4,1.5,"tv_cpi",0.369982639750859,0.597246179584676
"CAN",1995,3,1995,4,0,"tv_cpi",0.164604750862122,0.0379627963394746
"CAN",1995,3,1995,4,1,"tv_cpi",0.164604750862122,0.0379627963394746
"CAN",1995,3,1996,1,1,"tv_cpi",0.142613470072207,0.416584944468834
"CAN",1995,3,1996,2,1,"tv_cpi",0.123560235895454,0.79052054952351
"CAN",1995,3,1996,3,1,"tv_cpi",0.107052523767989,0.149874121723226
"CAN",1995,3,1996,4,1,"tv_cpi",0.0927502506129274,0.597246179584676
"CAN",1996,1,1996,2,0.5,"tv_cpi",0.360935531139416,0.79052054952351
"CAN",1996,1,1996,3,0.5,"tv_cpi",0.312720033137536,0.149874121723226
"CAN",1996,1,1996,4,0.5,"tv_cpi",0.270945392427346,0.597246179584676
"CAN",1996,1,1996,2,1.5,"tv_cpi",0.360935531139416,0.79052054952351
"CAN",1996,1,1996,3,1.5,"tv_cpi",0.312720033137536,0.149874121723226
"CAN",1996,1,1996,4,1.5,"tv_cpi",0.270945392427346,0.597246179584676
"CAN",1996,1,1997,1,1.5,"tv_cpi",0.234751208424571,0.556692742458331
"CAN",1996,1,1997,2,1.5,"tv_cpi",0.203392016978379,0.295635791469806
"CAN",1996,1,1997,3,1.5,"tv_cpi",0.176221936611779,0.25797503179863
"CAN",1996,1,1997,4,1.5,"tv_cpi",0.152681365790807,-0.073647259255516
"CAN",1996,3,1996,4,0,"tv_cpi",0.129781307708092,0.597246179584676
"CAN",1996,3,1996,4,1,"tv_cpi",0.129781307708092,0.597246179584676
"CAN",1996,3,1997,1,1,"tv_cpi",0.112382228744779,0.556692742458331
"CAN",1996,3,1997,2,1,"tv_cpi",0.0973157503240076,0.295635791469806
"CAN",1996,3,1997,3,1,"tv_cpi",0.0842691532896347,0.25797503179863
"CAN",1996,3,1997,4,1,"tv_cpi",0.0729716430537562,-0.073647259255516
"CAN",1997,1,1997,2,0.5,"tv_cpi",0.48218525742495,0.295635791469806
"CAN",1997,1,1997,3,0.5,"tv_cpi",0.417649817835318,0.25797503179863
"CAN",1997,1,1997,4,0.5,"tv_cpi",0.361751769992727,-0.073647259255516
"CAN",1997,1,1997,2,1.5,"tv_cpi",0.48218525742495,0.295635791469806
"CAN",1997,1,1997,3,1.5,"tv_cpi",0.417649817835318,0.25797503179863
"CAN",1997,1,1997,4,1.5,"tv_cpi",0.361751769992727,-0.073647259255516
"CAN",1997,1,1998,1,1.5,"tv_cpi",0.313335089600042,0.550953440040391
"CAN",1997,1,1998,2,1.5,"tv_cpi",0.27139847408802,0.256087564166396
"CAN",1997,1,1998,3,1.5,"tv_cpi",0.235074634734736,0.109549393622732
"CAN",1997,1,1998,4,1.5,"tv_cpi",0.203612360317647,0.182311442729333
"CAN",1997,3,1997,4,0,"tv_cpi",0.223402587076667,-0.073647259255516
"CAN",1997,3,1997,4,1,"tv_cpi",0.223402587076667,-0.073647259255516
"CAN",1997,3,1998,1,1,"tv_cpi",0.193463357924908,0.550953440040391
"CAN",1997,3,1998,2,1,"tv_cpi",0.167536425380502,0.256087564166396
"CAN",1997,3,1998,3,1,"tv_cpi",0.145084082744863,0.109549393622732
"CAN",1997,3,1998,4,1,"tv_cpi",0.125640683917613,0.182311442729333
"CAN",1998,1,1998,2,0.5,"tv_cpi",0.476991338486582,0.256087564166396
"CAN",1998,1,1998,3,0.5,"tv_cpi",0.412958192936487,0.109549393622732
"CAN",1998,1,1998,4,0.5,"tv_cpi",0.357521102279231,0.182311442729333
"CAN",1998,1,1998,2,1.5,"tv_cpi",0.476991338486582,0.256087564166396
"CAN",1998,1,1998,3,1.5,"tv_cpi",0.412958192936487,0.109549393622732
"CAN",1998,1,1998,4,1.5,"tv_cpi",0.357521102279231,0.182311442729333
"CAN",1998,1,1999,1,1.5,"tv_cpi",0.309526099157973,0.218341422147095
"CAN",1998,1,1999,2,1.5,"tv_cpi",0.267974129216923,1.0846129043383
"CAN",1998,1,1999,3,1.5,"tv_cpi",0.232000254986312,0.680890936718725
"CAN",1998,1,1999,4,1.5,"tv_cpi",0.200855651517552,0.356498750269996
"CAN",1998,3,1998,4,0,"tv_cpi",0.094812980446642,0.182311442729333
"CAN",1998,3,1998,4,1,"tv_cpi",0.094812980446642,0.182311442729333
"CAN",1998,3,1999,1,1,"tv_cpi",0.082058886534174,0.218341422147095
"CAN",1998,3,1999,2,1,"tv_cpi",0.0710204533968632,1.0846129043383
"CAN",1998,3,1999,3,1,"tv_cpi",0.061466893029257,0.680890936718725
"CAN",1998,3,1999,4,1,"tv_cpi",0.0531984626676151,0.356498750269996
"CAN",1999,1,1999,2,0.5,"tv_cpi",0.188987700271993,1.0846129043383
"CAN",1999,1,1999,3,0.5,"tv_cpi",0.163580279467242,0.680890936718725
"CAN",1999,1,1999,4,0.5,"tv_cpi",0.141588620804792,0.356498750269996
"CAN",1999,1,1999,2,1.5,"tv_cpi",0.188987700271993,1.0846129043383
"CAN",1999,1,1999,3,1.5,"tv_cpi",0.163580279467242,0.680890936718725
"CAN",1999,1,1999,4,1.5,"tv_cpi",0.141588620804792,0.356498750269996
"CAN",1999,1,2000,1,1.5,"tv_cpi",0.122553510769724,0.496980776755063
"CAN",1999,1,2000,2,1.5,"tv_cpi",0.106077472304021,0.881380941246768
"CAN",1999,1,2000,3,1.5,"tv_cpi",0.0918164649852713,0.943241478863577
"CAN",1999,1,2000,4,1.5,"tv_cpi",0.0794727010295847,0.693001314700403
"CAN",1999,3,1999,4,0,"tv_cpi",0.589239326806994,0.356498750269996
"CAN",1999,3,1999,4,1,"tv_cpi",0.589239326806994,0.356498750269996
"CAN",1999,3,2000,1,1,"tv_cpi",0.509924520260413,0.496980776755063
"CAN",1999,3,2000,2,1,"tv_cpi",0.441285916491421,0.881380941246768
"CAN",1999,3,2000,3,1,"tv_cpi",0.381886440750536,0.943241478863577
"CAN",1999,3,2000,4,1,"tv_cpi",0.330482456337234,0.693001314700403
"CAN",2000,1,2000,2,0.5,"tv_cpi",0.430007456786944,0.881380941246768
"CAN",2000,1,2000,3,0.5,"tv_cpi",0.372059487088586,0.943241478863577
"CAN",2000,1,2000,4,0.5,"tv_cpi",0.321920607998221,0.693001314700403
"CAN",2000,1,2000,2,1.5,"tv_cpi",0.430007456786944,0.881380941246768
"CAN",2000,1,2000,3,1.5,"tv_cpi",0.372059487088586,0.943241478863577
"CAN",2000,1,2000,4,1.5,"tv_cpi",0.321920607998221,0.693001314700403
"CAN",2000,1,2001,1,1.5,"tv_cpi",0.278538463472292,0.206968662514129
"CAN",2000,1,2001,2,1.5,"tv_cpi",0.241002513371044,1.67439093095751
"CAN",2000,1,2001,3,1.5,"tv_cpi",0.208524922292959,0.101609145874004
"CAN",2000,1,2001,4,1.5,"tv_cpi",0.18042402383721,-0.918220643692003
"CAN",2000,3,2000,4,0,"tv_cpi",0.816897280875306,0.693001314700403
"CAN",2000,3,2000,4,1,"tv_cpi",0.816897280875306,0.693001314700403
"CAN",2000,3,2001,1,1,"tv_cpi",0.707476486620861,0.206968662514129
"CAN",2000,3,2001,2,1,"tv_cpi",0.612712259961359,1.67439093095751
"CAN",2000,3,2001,3,1,"tv_cpi",0.53064140025355,0.101609145874004
"CAN",2000,3,2001,4,1,"tv_cpi",0.45956367134029,-0.918220643692003
"CAN",2001,1,2001,2,0.5,"tv_cpi",0.179087040539957,1.67439093095751
"CAN",2001,1,2001,3,0.5,"tv_cpi",0.154961469527642,0.101609145874004
"CAN",2001,1,2001,4,0.5,"tv_cpi",0.134085956000869,-0.918220643692003
"CAN",2001,1,2001,2,1.5,"tv_cpi",0.179087040539957,1.67439093095751
"CAN",2001,1,2001,3,1.5,"tv_cpi",0.154961469527642,0.101609145874004
"CAN",2001,1,2001,4,1.5,"tv_cpi",0.134085956000869,-0.918220643692003
"CAN",2001,1,2002,1,1.5,"tv_cpi",0.116022670999902,0.680980424390487
"CAN",2001,1,2002,2,1.5,"tv_cpi",0.100392767351893,1.481995338166
"CAN",2001,1,2002,3,1.5,"tv_cpi",0.0868684339854569,1.0642054824225
"CAN",2001,1,2002,4,1.5,"tv_cpi",0.0751660206420576,0.494970408705875
"CAN",2001,3,2001,4,0,"tv_cpi",0.0875091738558861,-0.918220643692003
"CAN",2001,3,2001,4,1,"tv_cpi",0.0875091738558861,-0.918220643692003
"CAN",2001,3,2002,1,1,"tv_cpi",0.0753658092789747,0.680980424390487
"CAN",2001,3,2002,2,1,"tv_cpi",0.064907540066929,1.481995338166
"CAN",2001,3,2002,3,1,"tv_cpi",0.0559005309947002,1.0642054824225
"CAN",2001,3,2002,4,1,"tv_cpi",0.0481433953939289,0.494970408705875
"CAN",2002,1,2002,2,0.5,"tv_cpi",0.584428264966612,1.481995338166
"CAN",2002,1,2002,3,0.5,"tv_cpi",0.501565661300169,1.0642054824225
"CAN",2002,1,2002,4,0.5,"tv_cpi",0.430451652795828,0.494970408705875
"CAN",2002,1,2002,2,1.5,"tv_cpi",0.584428264966612,1.481995338166
"CAN",2002,1,2002,3,1.5,"tv_cpi",0.501565661300169,1.0642054824225
"CAN",2002,1,2002,4,1.5,"tv_cpi",0.430451652795828,0.494970408705875
"CAN",2002,1,2003,1,1.5,"tv_cpi",0.369420476103469,1.34053425049219
"CAN",2002,1,2003,2,1.5,"tv_cpi",0.317042546539472,-0.162518800159273
"CAN",2002,1,2003,3,1.5,"tv_cpi",0.272090971719933,0.389612147274132
"CAN",2002,1,2003,4,1.5,"tv_cpi",0.233512813026438,0.161887350326229
"CAN",2002,3,2002,4,0,"tv_cpi",0.91397924749375,0.494970408705875
"CAN",2002,3,2002,4,1,"tv_cpi",0.91397924749375,0.494970408705875
"CAN",2002,3,2003,1,1,"tv_cpi",0.784959369827411,1.34053425049219
"CAN",2002,3,2003,2,1,"tv_cpi",0.674152300470104,-0.162518800159273
"CAN",2002,3,2003,3,1,"tv_cpi",0.57898706824668,0.389612147274132
"CAN",2002,3,2003,4,1,"tv_cpi",0.497255627494148,0.161887350326229
"CAN",2003,1,2003,2,0.5,"tv_cpi",1.15132362022899,-0.162518800159273
"CAN",2003,1,2003,3,0.5,"tv_cpi",0.988819254719157,0.389612147274132
"CAN",2003,1,2003,4,0.5,"tv_cpi",0.849251679826457,0.161887350326229
"CAN",2003,1,2003,2,1.5,"tv_cpi",1.15132362022899,-0.162518800159273
"CAN",2003,1,2003,3,1.5,"tv_cpi",0.988819254719157,0.389612147274132
"CAN",2003,1,2003,4,1.5,"tv_cpi",0.849251679826457,0.161887350326229
"CAN",2003,1,2004,1,1.5,"tv_cpi",0.729383466438365,0.516302486589382
"CAN",2003,1,2004,2,1.5,"tv_cpi",0.626434134604666,1.12019049884955
"CAN",2003,1,2004,3,1.5,"tv_cpi",0.538015657133157,0.190779686386655
"CAN",2003,1,2004,4,1.5,"tv_cpi",0.46207706657476,0.443738244572423
"CAN",2003,3,2003,4,0,"tv_cpi",0.333163242369872,0.161887350326229
"CAN",2003,3,2003,4,1,"tv_cpi",0.333163242369872,0.161887350326229
"CAN",2003,3,2004,1,1,"tv_cpi",0.284892929655778,0.516302486589382
"CAN",2003,3,2004,2,1,"tv_cpi",0.243616254874076,1.12019049884955
"CAN",2003,3,2004,3,1,"tv_cpi",0.208319945709354,0.190779686386655
"CAN",2003,3,2004,4,1,"tv_cpi",0.178137537672846,0.443738244572423
"CAN",2004,1,2004,2,0.5,"tv_cpi",0.441505647994872,1.12019049884955
"CAN",2004,1,2004,3,0.5,"tv_cpi",0.377544641512444,0.190779686386655
"CAN",2004,1,2004,4,0.5,"tv_cpi",0.322849678100642,0.443738244572423
"CAN",2004,1,2004,2,1.5,"tv_cpi",0.441505647994872,1.12019049884955
"CAN",2004,1,2004,3,1.5,"tv_cpi",0.377544641512444,0.190779686386655
"CAN",2004,1,2004,4,1.5,"tv_cpi",0.322849678100642,0.443738244572423
"CAN",2004,1,2005,1,1.5,"tv_cpi",0.276078384352471,0.347274516510243
"CAN",2004,1,2005,2,1.5,"tv_cpi",0.236082856749545,0.909809206981915
"CAN",2004,1,2005,3,1.5,"tv_cpi",0.201881488772655,0.870659028490195
"CAN",2004,1,2005,4,1.5,"tv_cpi",0.172634879424138,0.0618966252139863
"CAN",2004,3,2004,4,0,"tv_cpi",0.162946947638424,0.443738244572423
"CAN",2004,3,2004,4,1,"tv_cpi",0.162946947638424,0.443738244572423
"CAN",2004,3,2005,1,1,"tv_cpi",0.139174711142289,0.347274516510243
"CAN",2004,3,2005,2,1,"tv_cpi",0.11887059255949,0.909809206981915
"CAN",2004,3,2005,3,1,"tv_cpi",0.101528630161825,0.870659028490195
"CAN",2004,3,2005,4,1,"tv_cpi",0.0867166766866905,0.0618966252139863
"CAN",2005,1,2005,2,0.5,"tv_cpi",0.296647855808435,0.909809206981915
"CAN",2005,1,2005,3,0.5,"tv_cpi",0.253401692816542,0.870659028490195
"CAN",2005,1,2005,4,0.5,"tv_cpi",0.216460077715025,0.0618966252139863
"CAN",2005,1,2005,2,1.5,"tv_cpi",0.296647855808435,0.909809206981915
"CAN",2005,1,2005,3,1.5,"tv_cpi",0.253401692816542,0.870659028490195
"CAN",2005,1,2005,4,1.5,"tv_cpi",0.216460077715025,0.0618966252139863
"CAN",2005,1,2006,1,1.5,"tv_cpi",0.184903915690558,0.493821971686703
"CAN",2005,1,2006,2,1.5,"tv_cpi",0.157948100169825,1.10228056003638
"CAN",2005,1,2006,3,1.5,"tv_cpi",0.13492197963513,0.0608907052648711
"CAN",2005,1,2006,4,1.5,"tv_cpi",0.115252672042839,-0.304790201733152
"CAN",2005,3,2005,4,0,"tv_cpi",0.744267594392891,0.0618966252139863
"CAN",2005,3,2005,4,1,"tv_cpi",0.744267594392891,0.0618966252139863
"CAN",2005,3,2006,1,1,"tv_cpi",0.636224094550487,0.493821971686703
"CAN",2005,3,2006,2,1,"tv_cpi",0.543865004382962,1.10228056003638
"CAN",2005,3,2006,3,1,"tv_cpi",0.464913456635849,0.0608907052648711
"CAN",2005,3,2006,4,1,"tv_cpi",0.397423111285342,-0.304790201733152
"CAN",2006,1,2006,2,0.5,"tv_cpi",0.421581231355184,1.10228056003638
"CAN",2006,1,2006,3,0.5,"tv_cpi",0.359908519306856,0.0608907052648711
"CAN",2006,1,2006,4,0.5,"tv_cpi",0.307257848868799,-0.304790201733152
"CAN",2006,1,2006,2,1.5,"tv_cpi",0.421581231355184,1.10228056003638
"CAN",2006,1,2006,3,1.5,"tv_cpi",0.359908519306856,0.0608907052648711
"CAN",2006,1,2006,4,1.5,"tv_cpi",0.307257848868799,-0.304790201733152
"CAN",2006,1,2007,1,1.5,"tv_cpi",0.262309394268577,0.941833670279557
"CAN",2006,1,2007,2,1.5,"tv_cpi",0.223936405774058,1.47083255589164
"CAN",2006,1,2007,3,1.5,"tv_cpi",0.191176964785554,0
"CAN",2006,1,2007,4,1.5,"tv_cpi",0.163209870848302,-0.0298056861587348
"CAN",2006,3,2006,4,0,"tv_cpi",0.0519058458718686,-0.304790201733152
"CAN",2006,3,2006,4,1,"tv_cpi",0.0519058458718686,-0.304790201733152
"CAN",2006,3,2007,1,1,"tv_cpi",0.0442467667923124,0.941833670279557
"CAN",2006,3,2007,2,1,"tv_cpi",0.0377178396515514,1.47083255589164
"CAN",2006,3,2007,3,1,"tv_cpi",0.0321523024418434,0
"CAN",2006,3,2007,4,1,"tv_cpi",0.0274080000833041,-0.0298056861587348
"CAN",2007,1,2007,2,0.5,"tv_cpi",0.802119115336314,1.47083255589164
"CAN",2007,1,2007,3,0.5,"tv_cpi",0.683130254832508,0
"CAN",2007,1,2007,4,0.5,"tv_cpi",0.581792574375768,-0.0298056861587348
"CAN",2007,1,2007,2,1.5,"tv_cpi",0.802119115336314,1.47083255589164
"CAN",2007,1,2007,3,1.5,"tv_cpi",0.683130254832508,0
"CAN",2007,1,2007,4,1.5,"tv_cpi",0.581792574375768,-0.0298056861587348
"CAN",2007,1,2008,1,1.5,"tv_cpi",0.495487642663073,0.327329834585477
"CAN",2007,1,2008,2,1.5,"tv_cpi",0.421985454687567,2.02918956180236
"CAN",2007,1,2008,3,1.5,"tv_cpi",0.359386811365869,1.04258444528922
"CAN",2007,1,2008,4,1.5,"tv_cpi",0.306074246751833,-1.50947114900948
"CAN",2007,3,2007,4,0,"tv_cpi",0,-0.0298056861587348
"CAN",2007,3,2007,4,1,"tv_cpi",0,-0.0298056861587348
"CAN",2007,3,2008,1,1,"tv_cpi",0,0.327329834585477
"CAN",2007,3,2008,2,1,"tv_cpi",0,2.02918956180236
"CAN",2007,3,2008,3,1,"tv_cpi",0,1.04258444528922
"CAN",2007,3,2008,4,1,"tv_cpi",0,-1.50947114900948
"CAN",2008,1,2008,2,0.5,"tv_cpi",0.277979108243874,2.02918956180236
"CAN",2008,1,2008,3,0.5,"tv_cpi",0.236068871381416,1.04258444528922
"CAN",2008,1,2008,4,0.5,"tv_cpi",0.20047733942079,-1.50947114900948
"CAN",2008,1,2008,2,1.5,"tv_cpi",0.277979108243874,2.02918956180236
"CAN",2008,1,2008,3,1.5,"tv_cpi",0.236068871381416,1.04258444528922
"CAN",2008,1,2008,4,1.5,"tv_cpi",0.20047733942079,-1.50947114900948
"CAN",2008,1,2009,1,1.5,"tv_cpi",0.170251856528352,-0.322247506666695
"CAN",2008,1,2009,2,1.5,"tv_cpi",0.144583396483086,0.847337933786196
"CAN",2008,1,2009,3,1.5,"tv_cpi",0.122784907987798,0.116316949660789
"CAN",2008,1,2009,4,1.5,"tv_cpi",0.104272924805274,0.145197920492812
"CAN",2008,3,2008,4,0,"tv_cpi",0.883678691311789,-1.50947114900948
"CAN",2008,3,2008,4,1,"tv_cpi",0.883678691311789,-1.50947114900948
"CAN",2008,3,2009,1,1,"tv_cpi",0.74899259528267,-0.322247506666695
"CAN",2008,3,2009,2,1,"tv_cpi",0.63483471232683,0.847337933786196
"CAN",2008,3,2009,3,1,"tv_cpi",0.538076230009979,0.116316949660789
"CAN",2008,3,2009,4,1,"tv_cpi",0.456065214582495,0.145197920492812
"CAN",2009,1,2009,2,0.5,"tv_cpi",-0.27060865537528,0.847337933786196
"CAN",2009,1,2009,3,0.5,"tv_cpi",-0.227244719816433,0.116316949660789
"CAN",2009,1,2009,4,0.5,"tv_cpi",-0.190829678425601,0.145197920492812
"CAN",2009,1,2009,2,1.5,"tv_cpi",-0.27060865537528,0.847337933786196
"CAN",2009,1,2009,3,1.5,"tv_cpi",-0.227244719816433,0.116316949660789
"CAN",2009,1,2009,4,1.5,"tv_cpi",-0.190829678425601,0.145197920492812
"CAN",2009,1,2010,1,1.5,"tv_cpi",-0.160249999196615,0.492110663284873
"CAN",2009,1,2010,2,1.5,"tv_cpi",-0.134570589094856,0.633283564390474
"CAN",2009,1,2010,3,1.5,"tv_cpi",-0.113006199938372,0.543707395001736
"CAN",2009,1,2010,4,1.5,"tv_cpi",-0.0948974163701526,0.569151753397001
"CAN",2009,3,2009,4,0,"tv_cpi",0.0974799383098785,0.145197920492812
"CAN",2009,3,2009,4,1,"tv_cpi",0.0974799383098785,0.145197920492812
"CAN",2009,3,2010,1,1,"tv_cpi",0.081693496954735,0.492110663284873
"CAN",2009,3,2010,2,1,"tv_cpi",0.0684635993867568,0.633283564390474
"CAN",2009,3,2010,3,1,"tv_cpi",0.0573762247390079,0.543707395001736
"CAN",2009,3,2010,4,1,"tv_cpi",0.048084400977871,0.569151753397001
"CAN",2010,1,2010,2,0.5,"tv_cpi",0.412483364497066,0.633283564390474
"CAN",2010,1,2010,3,0.5,"tv_cpi",0.345740376465542,0.543707395001736
"CAN",2010,1,2010,4,0.5,"tv_cpi",0.289796918390353,0.569151753397001
"CAN",2010,1,2010,2,1.5,"tv_cpi",0.412483364497066,0.633283564390474
"CAN",2010,1,2010,3,1.5,"tv_cpi",0.345740376465542,0.543707395001736
"CAN",2010,1,2010,4,1.5,"tv_cpi",0.289796918390353,0.569151753397001
"CAN",2010,1,2011,1,1.5,"tv_cpi",0.242905543075659,0.819570688633764
"CAN",2010,1,2011,2,1.5,"tv_cpi",0.203601553752218,1.36967971541564
"CAN",2010,1,2011,3,1.5,"tv_cpi",0.170657252878769,0.19415203830313
"CAN",2010,1,2011,4,1.5,"tv_cpi",0.143043593840014,0.276706290589956
"CAN",2010,3,2010,4,0,"tv_cpi",0.455868111031305,0.569151753397001
"CAN",2010,3,2010,4,1,"tv_cpi",0.455868111031305,0.569151753397001
"CAN",2010,3,2011,1,1,"tv_cpi",0.382219805295432,0.819570688633764
"CAN",2010,3,2011,2,1,"tv_cpi",0.320469837711561,1.36967971541564
"CAN",2010,3,2011,3,1,"tv_cpi",0.268695958346514,0.19415203830313
"CAN",2010,3,2011,4,1,"tv_cpi",0.225286468602805,0.276706290589956
"CAN",2011,1,2011,2,0.5,"tv_cpi",0.68759142613206,1.36967971541564
"CAN",2011,1,2011,3,0.5,"tv_cpi",0.576865395318681,0.19415203830313
"CAN",2011,1,2011,4,0.5,"tv_cpi",0.48397008989502,0.276706290589956
"CAN",2011,1,2011,2,1.5,"tv_cpi",0.68759142613206,1.36967971541564
"CAN",2011,1,2011,3,1.5,"tv_cpi",0.576865395318681,0.19415203830313
"CAN",2011,1,2011,4,1.5,"tv_cpi",0.48397008989502,0.276706290589956
"CAN",2011,1,2012,1,1.5,"tv_cpi",0.406034145597516,0.468641196763109
"CAN",2011,1,2012,2,1.5,"tv_cpi",0.34064858724403,0.630569548036597
"CAN",2011,1,2012,3,1.5,"tv_cpi",0.285792368079261,-0.164114356447964
"CAN",2011,1,2012,4,1.5,"tv_cpi",0.23976989986411,0
"CAN",2011,3,2011,4,0,"tv_cpi",0.162603608023122,0.276706290589956
"CAN",2011,3,2011,4,1,"tv_cpi",0.162603608023122,0.276706290589956
"CAN",2011,3,2012,1,1,"tv_cpi",0.136181590331059,0.468641196763109
"CAN",2011,3,2012,2,1,"tv_cpi",0.114052976871579,0.630569548036597
"CAN",2011,3,2012,3,1,"tv_cpi",0.0955201176726326,-0.164114356447964
"CAN",2011,3,2012,4,1,"tv_cpi",0.0799987262977543,0
"CAN",2012,1,2012,2,0.5,"tv_cpi",0.392580144767606,0.630569548036597
"CAN",2012,1,2012,3,0.5,"tv_cpi",0.328863896580692,-0.164114356447964
"CAN",2012,1,2012,4,0.5,"tv_cpi",0.275488875114297,0
"CAN",2012,1,2012,2,1.5,"tv_cpi",0.392580144767606,0.630569548036597
"CAN",2012,1,2012,3,1.5,"tv_cpi",0.328863896580692,-0.164114356447964
"CAN",2012,1,2012,4,1.5,"tv_cpi",0.275488875114297,0
"CAN",2012,1,2013,1,1.5,"tv_cpi",0.230776686346046,0.437034277020132
"CAN",2012,1,2013,2,1.5,"tv_cpi",0.193321341701241,0.489399004633917
"CAN",2012,1,2013,3,1.5,"tv_cpi",0.161945046308219,0.216751079013466
"CAN",2012,1,2013,4,1.5,"tv_cpi",0.135661162875133,-0.216751079013466
"CAN",2012,3,2012,4,0,"tv_cpi",-0.137376938955183,0
"CAN",2012,3,2012,4,1,"tv_cpi",-0.137376938955183,0
"CAN",2012,3,2013,1,1,"tv_cpi",-0.114995566293921,0.437034277020132
"CAN",2012,3,2013,2,1,"tv_cpi",-0.0962605541209043,0.489399004633917
"CAN",2012,3,2013,3,1,"tv_cpi",-0.0805778394619149,0.216751079013466
"CAN",2012,3,2013,4,1,"tv_cpi",-0.0674501437441875,-0.216751079013466
"CAN",2013,1,2013,2,0.5,"tv_cpi",0.365821848288453,0.489399004633917
"CAN",2013,1,2013,3,0.5,"tv_cpi",0.306213108952585,0.216751079013466
"CAN",2013,1,2013,4,0.5,"tv_cpi",0.256317299070864,-0.216751079013466
"CAN",2013,1,2013,2,1.5,"tv_cpi",0.365821848288453,0.489399004633917
"CAN",2013,1,2013,3,1.5,"tv_cpi",0.306213108952585,0.216751079013466
"CAN",2013,1,2013,4,1.5,"tv_cpi",0.256317299070864,-0.216751079013466
"CAN",2013,1,2014,1,1.5,"tv_cpi",0.214551748054508,0.891057826706287
"CAN",2013,1,2014,2,1.5,"tv_cpi",0.179591673133691,1.30860213016817
"CAN",2013,1,2014,3,1.5,"tv_cpi",0.150328157898599,0.0795653103605076
"CAN",2013,1,2014,4,1.5,"tv_cpi",0.125832978015431,-0.371844235092489
"CAN",2013,3,2013,4,0,"tv_cpi",0.181420281374916,-0.216751079013466
"CAN",2013,3,2013,4,1,"tv_cpi",0.181420281374916,-0.216751079013466
"CAN",2013,3,2014,1,1,"tv_cpi",0.151848464348861,0.891057826706287
"CAN",2013,3,2014,2,1,"tv_cpi",0.127096904217985,1.30860213016817
"CAN",2013,3,2014,3,1,"tv_cpi",0.106379890840935,0.0795653103605076
"CAN",2013,3,2014,4,1,"tv_cpi",0.0890397861770103,-0.371844235092489
"CAN",2014,1,2014,2,0.5,"tv_cpi",0.745259902599269,1.30860213016817
"CAN",2014,1,2014,3,0.5,"tv_cpi",0.623317932659098,0.0795653103605076
"CAN",2014,1,2014,4,0.5,"tv_cpi",0.521328524209258,-0.371844235092489
"CAN",2014,1,2014,2,1.5,"tv_cpi",0.745259902599269,1.30860213016817
"CAN",2014,1,2014,3,1.5,"tv_cpi",0.623317932659098,0.0795653103605076
"CAN",2014,1,2014,4,1.5,"tv_cpi",0.521328524209258,-0.371844235092489
"CAN",2014,1,2015,1,1.5,"tv_cpi",0.436026971011028,0.0532024486886939
"CAN",2014,1,2015,2,1.5,"tv_cpi",0.364682749207752,1.13711424398018
"CAN",2014,1,2015,3,1.5,"tv_cpi",0.305012112579522,0.367442475515478
"CAN",2014,1,2015,4,1.5,"tv_cpi",0.255104989260747,-0.236036608597434
"CAN",2014,3,2014,4,0,"tv_cpi",0.0664194043745591,-0.371844235092489
"CAN",2014,3,2014,4,1,"tv_cpi",0.0664194043745591,-0.371844235092489
"CAN",2014,3,2015,1,1,"tv_cpi",0.0554454856957471,0.0532024486886939
"CAN",2014,3,2015,2,1,"tv_cpi",0.0462846951577725,1.13711424398018
"CAN",2014,3,2015,3,1,"tv_cpi",0.0386374648714143,0.367442475515478
"CAN",2014,3,2015,4,1,"tv_cpi",0.0322537220262772,-0.236036608597434
"CAN",2015,1,2015,2,0.5,"tv_cpi",0.0443956063966992,1.13711424398018
"CAN",2015,1,2015,3,0.5,"tv_cpi",0.0370466005965904,0.367442475515478
"CAN",2015,1,2015,4,0.5,"tv_cpi",0.0309141090111415,-0.236036608597434
"CAN",2015,1,2015,2,1.5,"tv_cpi",0.0443956063966992,1.13711424398018
"CAN",2015,1,2015,3,1.5,"tv_cpi",0.0370466005965904,0.367442475515478
"CAN",2015,1,2015,4,1.5,"tv_cpi",0.0309141090111415,-0.236036608597434
"CAN",2015,1,2016,1,1.5,"tv_cpi",0.0257967565326547,0.262294840554755
"CAN",2015,1,2016,2,1.5,"tv_cpi",0.0215265025870622,1.14583608493746
"CAN",2015,1,2016,3,1.5,"tv_cpi",0.0179631231175988,0.0517013286766677
"CAN",2015,1,2016,4,1.5,"tv_cpi",0.0149896059907077,-0.0776603627136829
"CAN",2015,3,2015,4,0,"tv_cpi",0.306188685748111,-0.236036608597434
"CAN",2015,3,2015,4,1,"tv_cpi",0.306188685748111,-0.236036608597434
"CAN",2015,3,2016,1,1,"tv_cpi",0.255146090959226,0.262294840554755
"CAN",2015,3,2016,2,1,"tv_cpi",0.212612453568348,1.14583608493746
"CAN",2015,3,2016,3,1,"tv_cpi",0.177169304230402,0.0517013286766677
"CAN",2015,3,2016,4,1,"tv_cpi",0.147634636798894,-0.0776603627136829
"CAN",2016,1,2016,2,0.5,"tv_cpi",0.21841721516198,1.14583608493746
"CAN",2016,1,2016,3,0.5,"tv_cpi",0.181879596938377,0.0517013286766677
"CAN",2016,1,2016,4,0.5,"tv_cpi",0.15145412305497,-0.0776603627136829
"CAN",2016,1,2016,2,1.5,"tv_cpi",0.21841721516198,1.14583608493746
"CAN",2016,1,2016,3,1.5,"tv_cpi",0.181879596938377,0.0517013286766677
"CAN",2016,1,2016,4,1.5,"tv_cpi",0.15145412305497,-0.0776603627136829
"CAN",2016,1,2017,1,1.5,"tv_cpi",0.126118331998073,0.774000477482861
"CAN",2016,1,2017,2,1.5,"tv_cpi",0.105020803297664,0.563810483539395
"CAN",2016,1,2017,3,1.5,"tv_cpi",0.0874525451657196,0.102223218225461
"CAN",2016,1,2017,4,1.5,"tv_cpi",0.0728231685134359,0.331360700207561
"CAN",2016,3,2016,4,0,"tv_cpi",0.0429735248112486,-0.0776603627136829
"CAN",2016,3,2016,4,1,"tv_cpi",0.0429735248112486,-0.0776603627136829
"CAN",2016,3,2017,1,1,"tv_cpi",0.0357190788316511,0.774000477482861
"CAN",2016,3,2017,2,1,"tv_cpi",0.0296892702701396,0.563810483539395
"CAN",2016,3,2017,3,1,"tv_cpi",0.0246773656545792,0.102223218225461
"CAN",2016,3,2017,4,1,"tv_cpi",0.0205115306004098,0.331360700207561
"CAN",2017,1,2017,2,0.5,"tv_cpi",0.643239362085667,0.563810483539395
"CAN",2017,1,2017,3,0.5,"tv_cpi",0.534569278667581,0.102223218225461
"CAN",2017,1,2017,4,0.5,"tv_cpi",0.444258126195205,0.331360700207561
"CAN",2017,1,2017,2,1.5,"tv_cpi",0.643239362085667,0.563810483539395
"CAN",2017,1,2017,3,1.5,"tv_cpi",0.534569278667581,0.102223218225461
"CAN",2017,1,2017,4,1.5,"tv_cpi",0.444258126195205,0.331360700207561
"CAN",2017,1,2018,1,1.5,"tv_cpi",0.369204311894634,1.0378524321518
"CAN",2017,1,2018,2,1.5,"tv_cpi",0.306830231984761,0.802545545231759
"CAN",2017,1,2018,3,1.5,"tv_cpi",0.254993747978463,0.473525968673538
"CAN",2017,1,2018,4,1.5,"tv_cpi",0.211914618346127,-0.298768182590425
"CAN",2017,3,2017,4,0,"tv_cpi",0.0849026911001644,0.331360700207561
"CAN",2017,3,2017,4,1,"tv_cpi",0.0849026911001644,0.331360700207561
"CAN",2017,3,2018,1,1,"tv_cpi",0.0705169244442208,1.0378524321518
"CAN",2017,3,2018,2,1,"tv_cpi",0.058568657466999,0.802545545231759
"CAN",2017,3,2018,3,1,"tv_cpi",0.0486448843950933,0.473525968673538
"CAN",2017,3,2018,4,1,"tv_cpi",0.0404025784464212,-0.298768182590425
"CAN",2018,1,2018,2,0.5,"tv_cpi",0.862561632698913,0.802545545231759
"CAN",2018,1,2018,3,0.5,"tv_cpi",0.716877031026114,0.473525968673538
"CAN",2018,1,2018,4,0.5,"tv_cpi",0.595798210969353,-0.298768182590425
"CAN",2018,1,2018,2,1.5,"tv_cpi",0.862561632698913,0.802545545231759
"CAN",2018,1,2018,3,1.5,"tv_cpi",0.716877031026114,0.473525968673538
"CAN",2018,1,2018,4,1.5,"tv_cpi",0.595798210969353,-0.298768182590425
"CAN",2018,1,2019,1,1.5,"tv_cpi",0.495169314723589,0.62149231230304
"CAN",2018,1,2019,2,1.5,"tv_cpi",0.411536398951088,1.3294368873602
"CAN",2018,1,2019,3,1.5,"tv_cpi",0.342028883102682,0.268650967925055
"CAN",2018,1,2019,4,1.5,"tv_cpi",0.284261020834688,-0.146430550441412
"CAN",2018,3,2018,4,0,"tv_cpi",0.393360590944879,-0.298768182590425
"CAN",2018,3,2018,4,1,"tv_cpi",0.393360590944879,-0.298768182590425
"CAN",2018,3,2019,1,1,"tv_cpi",0.326766776787233,0.62149231230304
"CAN",2018,3,2019,2,1,"tv_cpi",0.27144693411059,1.3294368873602
"CAN",2018,3,2019,3,1,"tv_cpi",0.225492440701878,0.268650967925055
"CAN",2018,3,2019,4,1,"tv_cpi",0.187317793734869,-0.146430550441412
"CAN",2019,1,2019,2,0.5,"tv_cpi",0.51557816043658,1.3294368873602
"CAN",2019,1,2019,3,0.5,"tv_cpi",0.427713801533805,0.268650967925055
"CAN",2019,1,2019,4,0.5,"tv_cpi",0.354823206373967,-0.146430550441412
"CAN",2019,1,2019,2,1.5,"tv_cpi",0.51557816043658,1.3294368873602
"CAN",2019,1,2019,3,1.5,"tv_cpi",0.427713801533805,0.268650967925055
"CAN",2019,1,2019,4,1.5,"tv_cpi",0.354823206373967,-0.146430550441412
"CAN",2019,1,2020,1,1.5,"tv_cpi",0.294354559824865,0.341369149172444
"CAN",2019,1,2020,2,1.5,"tv_cpi",0.244190924756964,-0.439170664447541
"CAN",2019,1,2020,3,1.5,"tv_cpi",0.202576130531626,0.512163233534135
"CAN",2019,1,2020,4,1.5,"tv_cpi",0.168053291505445,0.364165790699822
"CAN",2019,3,2019,4,0,"tv_cpi",0.22255823016653,-0.146430550441412
"CAN",2019,3,2019,4,1,"tv_cpi",0.22255823016653,-0.146430550441412
"CAN",2019,3,2020,1,1,"tv_cpi",0.184373673385297,0.341369149172444
"CAN",2019,3,2020,2,1,"tv_cpi",0.152740482399381,-0.439170664447541
"CAN",2019,3,2020,3,1,"tv_cpi",0.126534632278233,0.512163233534135
"CAN",2019,3,2020,4,1,"tv_cpi",0.104824948266973,0.364165790699822
"CAN",2020,1,2020,2,0.5,"tv_cpi",0.282696000864755,-0.439170664447541
"CAN",2020,1,2020,3,0.5,"tv_cpi",0.234107355918549,0.512163233534135
"CAN",2020,1,2020,4,0.5,"tv_cpi",0.193869930694188,0.364165790699822
"CAN",2020,1,2020,2,1.5,"tv_cpi",0.282696000864755,-0.439170664447541
"CAN",2020,1,2020,3,1.5,"tv_cpi",0.234107355918549,0.512163233534135
"CAN",2020,1,2020,4,1.5,"tv_cpi",0.193869930694188,0.364165790699822
"CAN",2020,1,2021,1,1.5,"tv_cpi",0.160548351331797,0.988794242900592
"CAN",2020,1,2021,2,1.5,"tv_cpi",0.13295395022355,1.42962195873286
"CAN",2020,1,2021,3,1.5,"tv_cpi",0.110102363141148,1.19933971089061
"CAN",2020,1,2021,4,1.5,"tv_cpi",0.0911784143974839,1.00014831239861
"CAN",2020,3,2020,4,0,"tv_cpi",0.423518452034301,0.364165790699822
"CAN",2020,3,2020,4,1,"tv_cpi",0.423518452034301,0.364165790699822
"CAN",2020,3,2021,1,1,"tv_cpi",0.35021623472622,0.988794242900592
"CAN",2020,3,2021,2,1,"tv_cpi",0.289601103509599,1.42962195873286
"CAN",2020,3,2021,3,1,"tv_cpi",0.239477188199289,1.19933971089061
"CAN",2020,3,2021,4,1,"tv_cpi",0.198028677974071,1.00014831239861
"CAN",2021,1,2021,2,0.5,"tv_cpi",0.818077925284012,1.42962195873286
"CAN",2021,1,2021,3,0.5,"tv_cpi",0.67683595110118,1.19933971089061
"CAN",2021,1,2021,4,0.5,"tv_cpi",0.559979545400884,1.00014831239861
"CAN",2021,1,2021,2,1.5,"tv_cpi",0.818077925284012,1.42962195873286
"CAN",2021,1,2021,3,1.5,"tv_cpi",0.67683595110118,1.19933971089061
"CAN",2021,1,2021,4,1.5,"tv_cpi",0.559979545400884,1.00014831239861
"CAN",2021,1,2022,1,1.5,"tv_cpi",0.463298515330348,2.03873469150206
"CAN",2021,1,2022,2,1.5,"tv_cpi",0.383309562054881,3.03732503687666
"CAN",2021,1,2022,3,1.5,"tv_cpi",0.317130781776716,0.832433597551585
"CAN",2021,1,2022,4,1.5,"tv_cpi",0.262377834278789,0.543881409523017
"CAN",2021,3,2021,4,0,"tv_cpi",0.993710019671313,1.00014831239861
"CAN",2021,3,2021,4,1,"tv_cpi",0.993710019671313,1.00014831239861
"CAN",2021,3,2022,1,1,"tv_cpi",0.823336035844164,2.03873469150206
"CAN",2021,3,2022,2,1,"tv_cpi",0.68217308319363,3.03732503687666
"CAN",2021,3,2022,3,1,"tv_cpi",0.565212859846188,0.832433597551585
"CAN",2021,3,2022,4,1,"tv_cpi",0.468305749385349,0.543881409523017
"CAN",2022,1,2022,2,0.5,"tv_cpi",1.6938432824448,3.03732503687666
"CAN",2022,1,2022,3,0.5,"tv_cpi",1.40729692659006,0.832433597551585
"CAN",2022,1,2022,4,0.5,"tv_cpi",1.16922542959896,0.543881409523017
"CAN",2022,1,2022,2,1.5,"tv_cpi",1.6938432824448,3.03732503687666
"CAN",2022,1,2022,3,1.5,"tv_cpi",1.40729692659006,0.832433597551585
"CAN",2022,1,2022,4,1.5,"tv_cpi",1.16922542959896,0.543881409523017
"CAN",2022,1,2023,1,1.5,"tv_cpi",0.971428331427809,0.605649304378275
"CAN",2022,1,2023,2,1.5,"tv_cpi",0.807092438473815,1.47704936687578
"CAN",2022,1,2023,3,1.5,"tv_cpi",0.670557140622182,0.993835595806036
"CAN",2022,1,2023,4,1.5,"tv_cpi",0.557119429454282,0.0840849858833259
"CAN",2022,3,2022,4,0,"tv_cpi",0.687905105608016,0.543881409523017
"CAN",2022,3,2022,4,1,"tv_cpi",0.687905105608016,0.543881409523017
"CAN",2022,3,2023,1,1,"tv_cpi",0.568469888425245,0.605649304378275
"CAN",2022,3,2023,2,1,"tv_cpi",0.469771210319166,1.47704936687578
"CAN",2022,3,2023,3,1,"tv_cpi",0.388208759229213,0.993835595806036
"CAN",2022,3,2023,4,1,"tv_cpi",0.320807315203276,0.0840849858833259
"CAN",2023,1,2023,2,0.5,"tv_cpi",0.500466658597536,1.47704936687578
"CAN",2023,1,2023,3,0.5,"tv_cpi",0.41355100147419,0.993835595806036
"CAN",2023,1,2023,4,0.5,"tv_cpi",0.341729919230923,0.0840849858833259
"CAN",2023,1,2023,2,1.5,"tv_cpi",0.500466658597536,1.47704936687578
"CAN",2023,1,2023,3,1.5,"tv_cpi",0.41355100147419,0.993835595806036
"CAN",2023,1,2023,4,1.5,"tv_cpi",0.341729919230923,0.0840849858833259
"CAN",2023,1,2024,1,1.5,"tv_cpi",0.282381948734952,NA
"CAN",2023,1,2024,2,1.5,"tv_cpi",0.233340894326158,NA
"CAN",2023,1,2024,3,1.5,"tv_cpi",0.192816761867583,NA
"CAN",2023,1,2024,4,1.5,"tv_cpi",0.159330424118171,NA
"CAN",2023,3,2023,4,0,"tv_cpi",0.821703113262682,0.0840849858833259
"CAN",2023,3,2023,4,1,"tv_cpi",0.821703113262682,0.0840849858833259
"CAN",2023,3,2024,1,1,"tv_cpi",0.679384003948839,NA
"CAN",2023,3,2024,2,1,"tv_cpi",0.56171458690093,NA
"CAN",2023,3,2024,3,1,"tv_cpi",0.464425531515816,NA
"CAN",2023,3,2024,4,1,"tv_cpi",0.383986955926764,NA
"CAN",1961,3,1961,4,0,"tv_gdp",2.43341603589214,1.360480145
"CAN",1961,3,1961,4,1,"tv_gdp",2.43341603589214,1.360480145
"CAN",1961,3,1962,1,1,"tv_gdp",2.43341601678428,2.660950188
"CAN",1961,3,1962,2,1,"tv_gdp",2.43341599767642,0.794766259
"CAN",1961,3,1962,3,1,"tv_gdp",2.43341597856856,1.278910818
"CAN",1961,3,1962,4,1,"tv_gdp",2.4334159594607,1.962242774
"CAN",1962,1,1962,2,0.5,"tv_gdp",2.46086848382559,0.794766259
"CAN",1962,1,1962,3,0.5,"tv_gdp",2.27583128838565,1.278910818
"CAN",1962,1,1962,4,0.5,"tv_gdp",2.10470737759351,1.962242774
"CAN",1962,1,1962,2,1.5,"tv_gdp",2.46086848382559,0.794766259
"CAN",1962,1,1962,3,1.5,"tv_gdp",2.27583128838565,1.278910818
"CAN",1962,1,1962,4,1.5,"tv_gdp",2.10470737759351,1.962242774
"CAN",1962,1,1963,1,1.5,"tv_gdp",1.94645058616749,0.63408554
"CAN",1962,1,1963,2,1.5,"tv_gdp",1.80009341190397,1.454368266
"CAN",1962,1,1963,3,1.5,"tv_gdp",1.66474110085692,0.759938107
"CAN",1962,1,1963,4,1.5,"tv_gdp",1.53956617726357,3.129534749
"CAN",1962,3,1962,4,0,"tv_gdp",1.06673655014781,1.962242774
"CAN",1962,3,1962,4,1,"tv_gdp",1.06673655014781,1.962242774
"CAN",1962,3,1963,1,1,"tv_gdp",0.889762484925079,0.63408554
"CAN",1962,3,1963,2,1,"tv_gdp",0.742148827159205,1.454368266
"CAN",1962,3,1963,3,1,"tv_gdp",0.619024617227103,0.759938107
"CAN",1962,3,1963,4,1,"tv_gdp",0.516326998992831,3.129534749
"CAN",1963,1,1963,2,0.5,"tv_gdp",0.518700130597481,1.454368266
"CAN",1963,1,1963,3,0.5,"tv_gdp",0.42431156131055,0.759938107
"CAN",1963,1,1963,4,0.5,"tv_gdp",0.347099008543553,3.129534749
"CAN",1963,1,1963,2,1.5,"tv_gdp",0.518700130597481,1.454368266
"CAN",1963,1,1963,3,1.5,"tv_gdp",0.42431156131055,0.759938107
"CAN",1963,1,1963,4,1.5,"tv_gdp",0.347099008543553,3.129534749
"CAN",1963,1,1964,1,1.5,"tv_gdp",0.283936929174882,2.503381101
"CAN",1963,1,1964,2,1.5,"tv_gdp",0.232268539422077,0.37449939
"CAN",1963,1,1964,3,1.5,"tv_gdp",0.190002316930169,1.067302224
"CAN",1963,1,1964,4,1.5,"tv_gdp",0.155427336515989,0.501631232
"CAN",1963,3,1963,4,0,"tv_gdp",0.627027896429439,3.129534749
"CAN",1963,3,1963,4,1,"tv_gdp",0.627027896429439,3.129534749
"CAN",1963,3,1964,1,1,"tv_gdp",0.517363163235512,2.503381101
"CAN",1963,3,1964,2,1,"tv_gdp",0.426878364100306,0.37449939
"CAN",1963,3,1964,3,1,"tv_gdp",0.352219003373461,1.067302224
"CAN",1963,3,1964,4,1,"tv_gdp",0.29061727360875,0.501631232
"CAN",1964,1,1964,2,0.5,"tv_gdp",2.09852489556753,0.37449939
"CAN",1964,1,1964,3,0.5,"tv_gdp",1.75914355810929,1.067302224
"CAN",1964,1,1964,4,0.5,"tv_gdp",1.47464824676312,0.501631232
"CAN",1964,1,1964,2,1.5,"tv_gdp",2.09852489556753,0.37449939
"CAN",1964,1,1964,3,1.5,"tv_gdp",1.75914355810929,1.067302224
"CAN",1964,1,1964,4,1.5,"tv_gdp",1.47464824676312,0.501631232
"CAN",1964,1,1965,1,1.5,"tv_gdp",1.23616258699135,3.181038821
"CAN",1964,1,1965,2,1.5,"tv_gdp",1.03624572492549,0.915536674
"CAN",1964,1,1965,3,1.5,"tv_gdp",0.86866016956543,1.395578506
"CAN",1964,1,1965,4,1.5,"tv_gdp",0.728177180411239,2.45084687
"CAN",1964,3,1964,4,0,"tv_gdp",0.818713713844013,0.501631232
"CAN",1964,3,1964,4,1,"tv_gdp",0.818713713844013,0.501631232
"CAN",1964,3,1965,1,1,"tv_gdp",0.62802468706957,3.181038821
"CAN",1964,3,1965,2,1,"tv_gdp",0.481749604165026,0.915536674
"CAN",1964,3,1965,3,1,"tv_gdp",0.3695438824166,1.395578506
"CAN",1964,3,1965,4,1,"tv_gdp",0.283472326392931,2.45084687
"CAN",1965,1,1965,2,0.5,"tv_gdp",2.46629842486892,0.915536674
"CAN",1965,1,1965,3,0.5,"tv_gdp",1.91215142687217,1.395578506
"CAN",1965,1,1965,4,0.5,"tv_gdp",1.4825144607079,2.45084687
"CAN",1965,1,1965,2,1.5,"tv_gdp",2.46629842486892,0.915536674
"CAN",1965,1,1965,3,1.5,"tv_gdp",1.91215142687217,1.395578506
"CAN",1965,1,1965,4,1.5,"tv_gdp",1.4825144607079,2.45084687
"CAN",1965,1,1966,1,1.5,"tv_gdp",1.14941164978926,1.945879533
"CAN",1965,1,1966,2,1.5,"tv_gdp",0.891152953773159,2.158665681
"CAN",1965,1,1966,3,1.5,"tv_gdp",0.690921818274795,-0.047768976
"CAN",1965,1,1966,4,1.5,"tv_gdp",0.535680162363758,1.239297635
"CAN",1965,3,1965,4,0,"tv_gdp",0.992283500018666,2.45084687
"CAN",1965,3,1965,4,1,"tv_gdp",0.992283500018666,2.45084687
"CAN",1965,3,1966,1,1,"tv_gdp",0.705532895624357,1.945879533
"CAN",1965,3,1966,2,1,"tv_gdp",0.501647630741341,2.158665681
"CAN",1965,3,1966,3,1,"tv_gdp",0.356681236252924,-0.047768976
"CAN",1965,3,1966,4,1,"tv_gdp",0.253607306201975,1.239297635
"CAN",1966,1,1966,2,0.5,"tv_gdp",1.4549676008424,2.158665681
"CAN",1966,1,1966,3,0.5,"tv_gdp",1.08790430424918,-0.047768976
"CAN",1966,1,1966,4,0.5,"tv_gdp",0.813444762975231,1.239297635
"CAN",1966,1,1966,2,1.5,"tv_gdp",1.4549676008424,2.158665681
"CAN",1966,1,1966,3,1.5,"tv_gdp",1.08790430424918,-0.047768976
"CAN",1966,1,1966,4,1.5,"tv_gdp",0.813444762975231,1.239297635
"CAN",1966,1,1967,1,1.5,"tv_gdp",0.608226642570829,-0.225331116
"CAN",1966,1,1967,2,1.5,"tv_gdp",0.454781523677039,2.083321361
"CAN",1966,1,1967,3,1.5,"tv_gdp",0.340047968638473,0.315240174
"CAN",1966,1,1967,4,1.5,"tv_gdp",0.254259715830645,0.43564712
"CAN",1966,3,1966,4,0,"tv_gdp",-0.0344040468090829,1.239297635
"CAN",1966,3,1966,4,1,"tv_gdp",-0.0344040468090829,1.239297635
"CAN",1966,3,1967,1,1,"tv_gdp",-0.0247783925039876,-0.225331116
"CAN",1966,3,1967,2,1,"tv_gdp",-0.0178458289656663,2.083321361
"CAN",1966,3,1967,3,1,"tv_gdp",-0.0128528762073876,0.315240174
"CAN",1966,3,1967,4,1,"tv_gdp",-0.00925686484613595,0.43564712
"CAN",1967,1,1967,2,0.5,"tv_gdp",-0.158306056941183,2.083321361
"CAN",1967,1,1967,3,0.5,"tv_gdp",-0.111217696468805,0.315240174
"CAN",1967,1,1967,4,0.5,"tv_gdp",-0.078135835399039,0.43564712
"CAN",1967,1,1967,2,1.5,"tv_gdp",-0.158306056941183,2.083321361
"CAN",1967,1,1967,3,1.5,"tv_gdp",-0.111217696468805,0.315240174
"CAN",1967,1,1967,4,1.5,"tv_gdp",-0.078135835399039,0.43564712
"CAN",1967,1,1968,1,1.5,"tv_gdp",-0.0548942206802328,0.85242934
"CAN",1967,1,1968,2,1.5,"tv_gdp",-0.038565857121778,2.688393446
"CAN",1967,1,1968,3,1.5,"tv_gdp",-0.0270943883911075,1.392807753
"CAN",1967,1,1968,4,1.5,"tv_gdp",-0.0190351242543404,1.384671595
"CAN",1967,3,1967,4,0,"tv_gdp",0.209977033317825,0.43564712
"CAN",1967,3,1967,4,1,"tv_gdp",0.209977033317825,0.43564712
"CAN",1967,3,1968,1,1,"tv_gdp",0.139862740086405,0.85242934
"CAN",1967,3,1968,2,1,"tv_gdp",0.0931605983539564,2.688393446
"CAN",1967,3,1968,3,1,"tv_gdp",0.0620529604975958,1.392807753
"CAN",1967,3,1968,4,1,"tv_gdp",0.0413326017066383,1.384671595
"CAN",1968,1,1968,2,0.5,"tv_gdp",0.572418951690499,2.688393446
"CAN",1968,1,1968,3,0.5,"tv_gdp",0.384387820642646,1.392807753
"CAN",1968,1,1968,4,0.5,"tv_gdp",0.258122125799728,1.384671595
"CAN",1968,1,1968,2,1.5,"tv_gdp",0.572418951690499,2.688393446
"CAN",1968,1,1968,3,1.5,"tv_gdp",0.384387820642646,1.392807753
"CAN",1968,1,1968,4,1.5,"tv_gdp",0.258122125799728,1.384671595
"CAN",1968,1,1969,1,1.5,"tv_gdp",0.173332837955112,1.369084169
"CAN",1968,1,1969,2,1.5,"tv_gdp",0.116395572911421,0.411425337
"CAN",1968,1,1969,3,1.5,"tv_gdp",0.0781613544969844,1.109424869
"CAN",1968,1,1969,4,1.5,"tv_gdp",0.0524865094435549,1.413083388
"CAN",1968,3,1968,4,0,"tv_gdp",0.945039705268016,1.384671595
"CAN",1968,3,1968,4,1,"tv_gdp",0.945039705268016,1.384671595
"CAN",1968,3,1969,1,1,"tv_gdp",0.641222769337254,1.369084169
"CAN",1968,3,1969,2,1,"tv_gdp",0.435078693122137,0.411425337
"CAN",1968,3,1969,3,1,"tv_gdp",0.295207029850973,1.109424869
"CAN",1968,3,1969,4,1,"tv_gdp",0.200302133501557,1.413083388
"CAN",1969,1,1969,2,0.5,"tv_gdp",0.947998448458761,0.411425337
"CAN",1969,1,1969,3,0.5,"tv_gdp",0.6564249873232,1.109424869
"CAN",1969,1,1969,4,0.5,"tv_gdp",0.454530030806277,1.413083388
"CAN",1969,1,1969,2,1.5,"tv_gdp",0.947998448458761,0.411425337
"CAN",1969,1,1969,3,1.5,"tv_gdp",0.6564249873232,1.109424869
"CAN",1969,1,1969,4,1.5,"tv_gdp",0.454530030806277,1.413083388
"CAN",1969,1,1970,1,1.5,"tv_gdp",0.314731390325691,0.618000976
"CAN",1969,1,1970,2,1.5,"tv_gdp",0.217930260582849,0.008329335
"CAN",1969,1,1970,3,1.5,"tv_gdp",0.150902007037052,1.034916997
"CAN",1969,1,1970,4,1.5,"tv_gdp",0.104489462211025,0.151842137
"CAN",1969,3,1969,4,0,"tv_gdp",0.764669759435672,1.413083388
"CAN",1969,3,1969,4,1,"tv_gdp",0.764669759435672,1.413083388
"CAN",1969,3,1970,1,1,"tv_gdp",0.527047713940699,0.618000976
"CAN",1969,3,1970,2,1,"tv_gdp",0.363267004275307,0.008329335
"CAN",1969,3,1970,3,1,"tv_gdp",0.250381346706693,1.034916997
"CAN",1969,3,1970,4,1,"tv_gdp",0.172575042711961,0.151842137
"CAN",1970,1,1970,2,0.5,"tv_gdp",0.427854660836383,0.008329335
"CAN",1970,1,1970,3,0.5,"tv_gdp",0.296212494653756,1.034916997
"CAN",1970,1,1970,4,0.5,"tv_gdp",0.205073942206172,0.151842137
"CAN",1970,1,1970,2,1.5,"tv_gdp",0.427854660836383,0.008329335
"CAN",1970,1,1970,3,1.5,"tv_gdp",0.296212494653756,1.034916997
"CAN",1970,1,1970,4,1.5,"tv_gdp",0.205073942206172,0.151842137
"CAN",1970,1,1971,1,1.5,"tv_gdp",0.141976866374725,-0.514427002
"CAN",1970,1,1971,2,1.5,"tv_gdp",0.098293475849414,2.919845718
"CAN",1970,1,1971,3,1.5,"tv_gdp",0.0680505750074741,2.763535924
"CAN",1970,1,1971,4,1.5,"tv_gdp",0.0471127988793721,1.092959439
"CAN",1970,3,1970,4,0,"tv_gdp",0.71450469924855,0.151842137
"CAN",1970,3,1970,4,1,"tv_gdp",0.71450469924855,0.151842137
"CAN",1970,3,1971,1,1,"tv_gdp",0.493292666685482,-0.514427002
"CAN",1970,3,1971,2,1,"tv_gdp",0.340568305934998,2.919845718
"CAN",1970,3,1971,3,1,"tv_gdp",0.235127701749084,2.763535924
"CAN",1970,3,1971,4,1,"tv_gdp",0.162331711924944,1.092959439
"CAN",1971,1,1971,2,0.5,"tv_gdp",-0.352065667812501,2.919845718
"CAN",1971,1,1971,3,0.5,"tv_gdp",-0.240948150020053,2.763535924
"CAN",1971,1,1971,4,0.5,"tv_gdp",-0.164901086092282,1.092959439
"CAN",1971,1,1971,2,1.5,"tv_gdp",-0.352065667812501,2.919845718
"CAN",1971,1,1971,3,1.5,"tv_gdp",-0.240948150020053,2.763535924
"CAN",1971,1,1971,4,1.5,"tv_gdp",-0.164901086092282,1.092959439
"CAN",1971,1,1972,1,1.5,"tv_gdp",-0.112855683648748,-0.334587909
"CAN",1971,1,1972,2,1.5,"tv_gdp",-0.0772366370267492,2.834911476
"CAN",1971,1,1972,3,1.5,"tv_gdp",-0.0528595273745257,0.296709917
"CAN",1971,1,1972,4,1.5,"tv_gdp",-0.0361762207913136,2.348892248
"CAN",1971,3,1971,4,0,"tv_gdp",1.89852036201334,1.092959439
"CAN",1971,3,1971,4,1,"tv_gdp",1.89852036201334,1.092959439
"CAN",1971,3,1972,1,1,"tv_gdp",1.30426369119247,-0.334587909
"CAN",1971,3,1972,2,1,"tv_gdp",0.896015555165834,2.834911476
"CAN",1971,3,1972,3,1,"tv_gdp",0.615553342871261,0.296709917
"CAN",1971,3,1972,4,1,"tv_gdp",0.422878727646482,2.348892248
"CAN",1972,1,1972,2,0.5,"tv_gdp",-0.220359491092615,2.834911476
"CAN",1972,1,1972,3,0.5,"tv_gdp",-0.145128691170356,0.296709917
"CAN",1972,1,1972,4,0.5,"tv_gdp",-0.0955817101246086,2.348892248
"CAN",1972,1,1972,2,1.5,"tv_gdp",-0.220359491092615,2.834911476
"CAN",1972,1,1972,3,1.5,"tv_gdp",-0.145128691170356,0.296709917
"CAN",1972,1,1972,4,1.5,"tv_gdp",-0.0955817101246086,2.348892248
"CAN",1972,1,1973,1,1.5,"tv_gdp",-0.06295008407139,2.566523984
"CAN",1972,1,1973,2,1.5,"tv_gdp",-0.0414589054687233,0.953995394
"CAN",1972,1,1973,3,1.5,"tv_gdp",-0.0273048220351104,0.464961005
"CAN",1972,1,1973,4,1.5,"tv_gdp",-0.0179829471603271,1.844449189
"CAN",1972,3,1972,4,0,"tv_gdp",0.182049678544186,2.348892248
"CAN",1972,3,1972,4,1,"tv_gdp",0.182049678544186,2.348892248
"CAN",1972,3,1973,1,1,"tv_gdp",0.111698610525517,2.566523984
"CAN",1972,3,1973,2,1,"tv_gdp",0.0685339281733633,0.953995394
"CAN",1972,3,1973,3,1,"tv_gdp",0.0420497559349563,0.464961005
"CAN",1972,3,1973,4,1,"tv_gdp",0.0258000967012514,1.844449189
"CAN",1973,1,1973,2,0.5,"tv_gdp",1.63775855128129,0.953995394
"CAN",1973,1,1973,3,0.5,"tv_gdp",1.04509176186019,0.464961005
"CAN",1973,1,1973,4,0.5,"tv_gdp",0.666897321252604,1.844449189
"CAN",1973,1,1973,2,1.5,"tv_gdp",1.63775855128129,0.953995394
"CAN",1973,1,1973,3,1.5,"tv_gdp",1.04509176186019,0.464961005
"CAN",1973,1,1973,4,1.5,"tv_gdp",0.666897321252604,1.844449189
"CAN",1973,1,1974,1,1.5,"tv_gdp",0.425562666671749,0.827632743
"CAN",1973,1,1974,2,1.5,"tv_gdp",0.271561419566974,1.025739182
"CAN",1973,1,1974,3,1.5,"tv_gdp",0.173289647736212,0.01921879
"CAN",1973,1,1974,4,1.5,"tv_gdp",0.110580148168412,-0.520988065
"CAN",1973,3,1973,4,0,"tv_gdp",0.290603271986042,1.844449189
"CAN",1973,3,1973,4,1,"tv_gdp",0.290603271986042,1.844449189
"CAN",1973,3,1974,1,1,"tv_gdp",0.181628697419461,0.827632743
"CAN",1973,3,1974,2,1,"tv_gdp",0.113518968664174,1.025739182
"CAN",1973,3,1974,3,1,"tv_gdp",0.0709500009066137,0.01921879
"CAN",1973,3,1974,4,1,"tv_gdp",0.0443441540024944,-0.520988065
"CAN",1974,1,1974,2,0.5,"tv_gdp",0.518089805669464,1.025739182
"CAN",1974,1,1974,3,0.5,"tv_gdp",0.324319027985367,0.01921879
"CAN",1974,1,1974,4,0.5,"tv_gdp",0.203020462403151,-0.520988065
"CAN",1974,1,1974,2,1.5,"tv_gdp",0.518089805669464,1.025739182
"CAN",1974,1,1974,3,1.5,"tv_gdp",0.324319027985367,0.01921879
"CAN",1974,1,1974,4,1.5,"tv_gdp",0.203020462403151,-0.520988065
"CAN",1974,1,1975,1,1.5,"tv_gdp",0.127088775550502,-0.544813179
"CAN",1974,1,1975,2,1.5,"tv_gdp",0.0795563002849076,1.282923644
"CAN",1974,1,1975,3,1.5,"tv_gdp",0.0498014469618312,1.918505342
"CAN",1974,1,1975,4,1.5,"tv_gdp",0.0311752068737489,1.157163082
"CAN",1974,3,1974,4,0,"tv_gdp",0.0120085373315753,-0.520988065
"CAN",1974,3,1974,4,1,"tv_gdp",0.0120085373315753,-0.520988065
"CAN",1974,3,1975,1,1,"tv_gdp",0.00750333235567057,-0.544813179
"CAN",1974,3,1975,2,1,"tv_gdp",0.00468833088369699,1.282923644
"CAN",1974,3,1975,3,1,"tv_gdp",0.00292942461204127,1.918505342
"CAN",1974,3,1975,4,1,"tv_gdp",0.00183040164410627,1.157163082
"CAN",1975,1,1975,2,0.5,"tv_gdp",-0.341013835755952,1.282923644
"CAN",1975,1,1975,3,0.5,"tv_gdp",-0.213450115855195,1.918505342
"CAN",1975,1,1975,4,0.5,"tv_gdp",-0.133604408916717,1.157163082
"CAN",1975,1,1975,2,1.5,"tv_gdp",-0.341013835755952,1.282923644
"CAN",1975,1,1975,3,1.5,"tv_gdp",-0.213450115855195,1.918505342
"CAN",1975,1,1975,4,1.5,"tv_gdp",-0.133604408916717,1.157163082
"CAN",1975,1,1976,1,1.5,"tv_gdp",-0.0836267434686933,1.742666777
"CAN",1975,1,1976,2,1.5,"tv_gdp",-0.0523443221663294,2.156483453
"CAN",1975,1,1976,3,1.5,"tv_gdp",-0.032763778061957,0.461713212
"CAN",1975,1,1976,4,1.5,"tv_gdp",-0.0205077668115012,0.161577012
"CAN",1975,3,1975,4,0,"tv_gdp",1.20784785129482,1.157163082
"CAN",1975,3,1975,4,1,"tv_gdp",1.20784785129482,1.157163082
"CAN",1975,3,1976,1,1,"tv_gdp",0.760433864810951,1.742666777
"CAN",1975,3,1976,2,1,"tv_gdp",0.478752073062366,2.156483453
"CAN",1975,3,1976,3,1,"tv_gdp",0.301411546839112,0.461713212
"CAN",1975,3,1976,4,1,"tv_gdp",0.189761936667607,0.161577012
"CAN",1976,1,1976,2,0.5,"tv_gdp",1.10997571321251,2.156483453
"CAN",1976,1,1976,3,0.5,"tv_gdp",0.706988909286832,0.461713212
"CAN",1976,1,1976,4,0.5,"tv_gdp",0.450310139136249,0.161577012
"CAN",1976,1,1976,2,1.5,"tv_gdp",1.10997571321251,2.156483453
"CAN",1976,1,1976,3,1.5,"tv_gdp",0.706988909286832,0.461713212
"CAN",1976,1,1976,4,1.5,"tv_gdp",0.450310139136249,0.161577012
"CAN",1976,1,1977,1,1.5,"tv_gdp",0.286820936998092,1.533829769
"CAN",1976,1,1977,2,1.5,"tv_gdp",0.182687980462221,0.510302318
"CAN",1976,1,1977,3,1.5,"tv_gdp",0.116361443326528,0.587798364
"CAN",1976,1,1977,4,1.5,"tv_gdp",0.0741153602923137,1.584637482
"CAN",1976,3,1976,4,0,"tv_gdp",0.293729971149561,0.161577012
"CAN",1976,3,1976,4,1,"tv_gdp",0.293729971149561,0.161577012
"CAN",1976,3,1977,1,1,"tv_gdp",0.186863389890437,1.533829769
"CAN",1976,3,1977,2,1,"tv_gdp",0.118877642430183,0.510302318
"CAN",1976,3,1977,3,1,"tv_gdp",0.075626873075803,0.587798364
"CAN",1976,3,1977,4,1,"tv_gdp",0.0481118553018299,1.584637482
"CAN",1977,1,1977,2,0.5,"tv_gdp",0.977586029422184,0.510302318
"CAN",1977,1,1977,3,0.5,"tv_gdp",0.623064217579045,0.587798364
"CAN",1977,1,1977,4,0.5,"tv_gdp",0.397109827210648,1.584637482
"CAN",1977,1,1977,2,1.5,"tv_gdp",0.977586029422184,0.510302318
"CAN",1977,1,1977,3,1.5,"tv_gdp",0.623064217579045,0.587798364
"CAN",1977,1,1977,4,1.5,"tv_gdp",0.397109827210648,1.584637482
"CAN",1977,1,1978,1,1.5,"tv_gdp",0.253097851582633,0.863597549
"CAN",1977,1,1978,2,1.5,"tv_gdp",0.161311854017062,0.680645726
"CAN",1977,1,1978,3,1.5,"tv_gdp",0.102812070840223,0.932836265
"CAN",1977,1,1978,4,1.5,"tv_gdp",0.0655272482909841,0.948169861
"CAN",1977,3,1977,4,0,"tv_gdp",0.372677317726201,1.584637482
"CAN",1977,3,1977,4,1,"tv_gdp",0.372677317726201,1.584637482
"CAN",1977,3,1978,1,1,"tv_gdp",0.236285759971247,0.863597549
"CAN",1977,3,1978,2,1,"tv_gdp",0.14981045990625,0.680645726
"CAN",1977,3,1978,3,1,"tv_gdp",0.0949831843444696,0.932836265
"CAN",1977,3,1978,4,1,"tv_gdp",0.060221464601746,0.948169861
"CAN",1978,1,1978,2,0.5,"tv_gdp",0.550229326361526,0.680645726
"CAN",1978,1,1978,3,0.5,"tv_gdp",0.350571063962409,0.932836265
"CAN",1978,1,1978,4,0.5,"tv_gdp",0.223361542178114,0.948169861
"CAN",1978,1,1978,2,1.5,"tv_gdp",0.550229326361526,0.680645726
"CAN",1978,1,1978,3,1.5,"tv_gdp",0.350571063962409,0.932836265
"CAN",1978,1,1978,4,1.5,"tv_gdp",0.223361542178114,0.948169861
"CAN",1978,1,1979,1,1.5,"tv_gdp",0.142311741192465,0.797819177
"CAN",1978,1,1979,2,1.5,"tv_gdp",0.0906719728192117,1.326596172
"CAN",1978,1,1979,3,1.5,"tv_gdp",0.0577704031026441,0.733071541
"CAN",1978,1,1979,4,1.5,"tv_gdp",0.0368076194977733,0.670926663
"CAN",1978,3,1978,4,0,"tv_gdp",0.597122663234559,0.948169861
"CAN",1978,3,1978,4,1,"tv_gdp",0.597122663234559,0.948169861
"CAN",1978,3,1979,1,1,"tv_gdp",0.382227287173846,0.797819177
"CAN",1978,3,1979,2,1,"tv_gdp",0.244669492644744,1.326596172
"CAN",1978,3,1979,3,1,"tv_gdp",0.156616658830559,0.733071541
"CAN",1978,3,1979,4,1,"tv_gdp",0.100252702362297,0.670926663
"CAN",1979,1,1979,2,0.5,"tv_gdp",0.513314884036322,1.326596172
"CAN",1979,1,1979,3,0.5,"tv_gdp",0.330265526035635,0.733071541
"CAN",1979,1,1979,4,0.5,"tv_gdp",0.212492022109136,0.670926663
"CAN",1979,1,1979,2,1.5,"tv_gdp",0.513314884036322,1.326596172
"CAN",1979,1,1979,3,1.5,"tv_gdp",0.330265526035635,0.733071541
"CAN",1979,1,1979,4,1.5,"tv_gdp",0.212492022109136,0.670926663
"CAN",1979,1,1980,1,1.5,"tv_gdp",0.136716841149075,0.694332365
"CAN",1979,1,1980,2,1.5,"tv_gdp",0.0879632772480346,-0.043713005
"CAN",1979,1,1980,3,1.5,"tv_gdp",0.0565953548895826,-0.083091031
"CAN",1979,1,1980,4,1.5,"tv_gdp",0.0364133112735902,1.383645399
"CAN",1979,3,1979,4,0,"tv_gdp",0.473904510173364,0.670926663
"CAN",1979,3,1979,4,1,"tv_gdp",0.473904510173364,0.670926663
"CAN",1979,3,1980,1,1,"tv_gdp",0.30636230190616,0.694332365
"CAN",1979,3,1980,2,1,"tv_gdp",0.1980522616147,-0.043713005
"CAN",1979,3,1980,3,1,"tv_gdp",0.128033697640489,-0.083091031
