isdrw/probabilistic-benchmark-forecasts/results/qar_estimation/qar_prediction_oecd_2026-02-14_18-42-47.csv
"country","forecast_year","forecast_quarter","target_year","target_quarter","horizon","target","tau","lower_bound","upper_bound","truth_value","prediction","covered","IS"
"CAN",1950,3,NA,NA,1,"cpi",0.1,2.52089296781852,2.52089296781852,9.87945438999359,NA,FALSE,16.3523587159446
"CAN",1950,3,NA,NA,1,"cpi",0.2,2.52089296781852,2.52089296781852,9.87945438999359,NA,FALSE,18.3964035554377
"CAN",1950,3,NA,NA,1,"cpi",0.3,2.52089296781852,2.52089296781852,9.87945438999359,NA,FALSE,21.0244612062145
"CAN",1950,3,NA,NA,1,"cpi",0.4,2.52089296781852,2.52089296781852,9.87945438999359,NA,FALSE,24.5285380739169
"CAN",1950,3,NA,NA,1,"cpi",0.5,2.52089296781852,2.52089296781852,9.87945438999359,NA,FALSE,29.4342456887003
"CAN",1950,3,NA,NA,1,"cpi",0.6,2.52089296781852,2.52089296781852,9.87945438999359,NA,FALSE,36.7928071108754
"CAN",1950,3,NA,NA,1,"cpi",0.7,2.52089296781852,2.52089296781852,9.87945438999359,NA,FALSE,49.0570761478338
"CAN",1950,3,NA,NA,1,"cpi",0.8,2.52089296781852,2.52089296781852,9.87945438999359,NA,FALSE,73.5856142217507
"CAN",1950,3,NA,NA,1,"cpi",0.9,2.52089296781852,2.52089296781852,9.87945438999359,NA,FALSE,147.171228443501
"CAN",1951,3,NA,NA,1,"cpi",0.1,3.13613757548905,5.41847806030438,2.55562336095485,NA,FALSE,3.57237207266912
"CAN",1951,3,NA,NA,1,"cpi",0.2,3.13613757548905,5.41847806030438,2.55562336095485,NA,FALSE,3.73362602115084
"CAN",1951,3,NA,NA,1,"cpi",0.3,3.13613757548905,5.41847806030438,2.55562336095485,NA,FALSE,3.94095252634163
"CAN",1951,3,NA,NA,1,"cpi",0.4,3.13613757548905,5.41847806030438,2.55562336095485,NA,FALSE,4.21738786659602
"CAN",1951,3,NA,NA,1,"cpi",0.5,3.13613757548905,5.41847806030438,2.55562336095485,NA,FALSE,4.60439734295216
"CAN",1951,3,NA,NA,1,"cpi",0.6,3.13613757548905,5.41847806030438,2.55562336095485,NA,FALSE,5.18491155748636
"CAN",1951,3,NA,NA,1,"cpi",0.7,3.13613757548905,5.41847806030438,2.55562336095485,NA,FALSE,6.15243524837671
"CAN",1951,3,NA,NA,1,"cpi",0.8,3.13613757548905,5.41847806030438,2.55562336095485,NA,FALSE,8.0874826301574
"CAN",1951,3,NA,NA,1,"cpi",0.9,3.13613757548905,5.41847806030438,2.55562336095485,NA,FALSE,13.8926247754995
"CAN",1952,3,NA,NA,1,"cpi",0.1,2.594910088107,2.594910088107,-1.01492775838436,NA,FALSE,8.02186188109191
"CAN",1952,3,NA,NA,1,"cpi",0.2,2.594910088107,9.90068406539596,-1.01492775838436,NA,FALSE,16.3303685935174
"CAN",1952,3,NA,NA,1,"cpi",0.3,2.594910088107,9.90068406539596,-1.01492775838436,NA,FALSE,17.6195963958357
"CAN",1952,3,NA,NA,1,"cpi",0.4,2.594910088107,9.90068406539596,-1.01492775838436,NA,FALSE,19.3385667989268
"CAN",1952,3,NA,NA,1,"cpi",0.5,2.594910088107,9.90068406539596,-1.01492775838436,NA,FALSE,21.7451253632544
"CAN",1952,3,NA,NA,1,"cpi",0.6,2.594910088107,9.90068406539596,-1.01492775838436,NA,FALSE,25.3549632097458
"CAN",1952,3,NA,NA,1,"cpi",0.7,2.594910088107,9.90068406539596,-1.01492775838436,NA,FALSE,31.3713596205647
"CAN",1952,3,NA,NA,1,"cpi",0.8,2.51796503403259,9.90068406539596,-1.01492775838436,NA,FALSE,42.7116469555329
"CAN",1952,3,NA,NA,1,"cpi",0.9,2.51796503403259,9.90068406539596,-1.01492775838436,NA,FALSE,78.0405748797025
"CAN",1953,3,NA,NA,1,"cpi",0.1,2.21659043225784,2.21659043225784,0.644425455961438,NA,FALSE,3.49369994732534
"CAN",1953,3,NA,NA,1,"cpi",0.2,-0.29366522594384,2.21659043225784,0.644425455961438,NA,TRUE,2.51025565820168
"CAN",1953,3,NA,NA,1,"cpi",0.3,-0.293665225943841,2.21659043225784,0.644425455961438,NA,TRUE,2.51025565820168
"CAN",1953,3,NA,NA,1,"cpi",0.4,-2.50621058865167,12.0858717909365,0.644425455961438,NA,TRUE,14.5920823795882
"CAN",1953,3,NA,NA,1,"cpi",0.5,-2.50621058865167,12.0858717909365,0.644425455961438,NA,TRUE,14.5920823795882
"CAN",1953,3,NA,NA,1,"cpi",0.6,-2.50621058865167,12.0858717909365,0.644425455961438,NA,TRUE,14.5920823795882
"CAN",1953,3,NA,NA,1,"cpi",0.7,-2.50621058865167,12.0858717909365,0.644425455961438,NA,TRUE,14.5920823795882
"CAN",1953,3,NA,NA,1,"cpi",0.8,-2.50621058865167,12.0858717909365,0.644425455961438,NA,TRUE,14.5920823795882
"CAN",1953,3,NA,NA,1,"cpi",0.9,-2.50621058865167,12.0858717909365,0.644425455961438,NA,TRUE,14.5920823795882
"CAN",1954,3,NA,NA,1,"cpi",0.1,0.968567981874512,0.968567981874512,0.173649026558865,NA,FALSE,1.7664865673681
"CAN",1954,3,NA,NA,1,"cpi",0.2,0.968567981874512,2.35664917878257,0.173649026558865,NA,FALSE,3.37537858519718
"CAN",1954,3,NA,NA,1,"cpi",0.3,0.935525248837159,2.35664917878257,0.173649026558865,NA,FALSE,3.59791313645482
"CAN",1954,3,NA,NA,1,"cpi",0.4,0.935525248837159,2.35664917878257,0.173649026558865,NA,FALSE,3.96071133753973
"CAN",1954,3,NA,NA,1,"cpi",0.5,0.140317730673216,2.35664917878257,0.173649026558865,NA,TRUE,2.21633144810936
"CAN",1954,3,NA,NA,1,"cpi",0.6,-1.81316212772928,11.0703427717089,0.173649026558865,NA,TRUE,12.8835048994382
"CAN",1954,3,NA,NA,1,"cpi",0.7,-1.81316212772928,11.0703427717089,0.173649026558865,NA,TRUE,12.8835048994382
"CAN",1954,3,NA,NA,1,"cpi",0.8,-1.81316212772928,11.0703427717089,0.173649026558865,NA,TRUE,12.8835048994382
"CAN",1954,3,NA,NA,1,"cpi",0.9,-1.81316212772928,11.0703427717089,0.173649026558865,NA,TRUE,12.8835048994382
"CAN",1955,3,NA,NA,1,"cpi",0.1,0.876605246244985,0.876605246244985,1.32752769429961,NA,FALSE,1.00204988456583
"CAN",1955,3,NA,NA,1,"cpi",0.2,0.0522225123502191,0.876605246244985,1.32752769429961,NA,FALSE,1.95168885403132
"CAN",1955,3,NA,NA,1,"cpi",0.3,0.0522225123502191,0.876605246244985,1.32752769429961,NA,FALSE,2.1127325854794
"CAN",1955,3,NA,NA,1,"cpi",0.4,0.0522225123502191,2.3169129996343,1.32752769429961,NA,TRUE,2.26469048728408
"CAN",1955,3,NA,NA,1,"cpi",0.5,0.0522225123502191,2.3169129996343,1.32752769429961,NA,TRUE,2.26469048728408
"CAN",1955,3,NA,NA,1,"cpi",0.6,0.0522225123502191,2.3169129996343,1.32752769429961,NA,TRUE,2.26469048728408
"CAN",1955,3,NA,NA,1,"cpi",0.7,-2.00978746163362,11.3584593230817,1.32752769429961,NA,TRUE,13.3682467847153
"CAN",1955,3,NA,NA,1,"cpi",0.8,-2.00978746163362,11.3584593230817,1.32752769429961,NA,TRUE,13.3682467847153
"CAN",1955,3,NA,NA,1,"cpi",0.9,-2.00978746163362,11.3584593230817,1.32752769429961,NA,TRUE,13.3682467847153
"CAN",1956,3,NA,NA,1,"cpi",0.1,1.10200701286413,1.51285355178758,3.24684755852518,NA,FALSE,4.26416655389589
"CAN",1956,3,NA,NA,1,"cpi",0.2,1.05536165158374,1.51285355178758,3.24684755852518,NA,FALSE,4.79247691704782
"CAN",1956,3,NA,NA,1,"cpi",0.3,1.05536165158374,1.51285355178758,3.24684755852518,NA,FALSE,5.41176049088268
"CAN",1956,3,NA,NA,1,"cpi",0.4,0.349840353203635,1.51285355178758,3.24684755852518,NA,FALSE,6.94299322104259
"CAN",1956,3,NA,NA,1,"cpi",0.5,0.349840353203635,2.41430685071326,3.24684755852518,NA,FALSE,5.39462932875729
"CAN",1956,3,NA,NA,1,"cpi",0.6,0.349840353203635,2.41430685071326,3.24684755852518,NA,FALSE,6.22717003656921
"CAN",1956,3,NA,NA,1,"cpi",0.7,0.318974526889207,2.41430685071326,3.24684755852518,NA,FALSE,7.64560370923683
"CAN",1956,3,NA,NA,1,"cpi",0.8,-1.52785641292427,10.6522822044141,3.24684755852518,NA,TRUE,12.1801386173384
"CAN",1956,3,NA,NA,1,"cpi",0.9,-1.52785641292427,10.6522822044141,3.24684755852518,NA,TRUE,12.1801386173384
"CAN",1957,3,NA,NA,1,"cpi",0.1,1.47693212431515,1.82111785164482,2.33186388641149,NA,FALSE,1.47917691570004
"CAN",1957,3,NA,NA,1,"cpi",0.2,1.47693212431515,1.82111785164482,2.33186388641149,NA,FALSE,1.62105081424633
"CAN",1957,3,NA,NA,1,"cpi",0.3,1.39206730900979,2.57630824501521,2.33186388641149,NA,TRUE,1.18424093600543
"CAN",1957,3,NA,NA,1,"cpi",0.4,1.39206730900979,2.57630824501521,2.33186388641149,NA,TRUE,1.18424093600543
"CAN",1957,3,NA,NA,1,"cpi",0.5,0.844887059471569,3.27376727631349,2.33186388641149,NA,TRUE,2.42888021684192
"CAN",1957,3,NA,NA,1,"cpi",0.6,0.844887059471569,3.27376727631349,2.33186388641149,NA,TRUE,2.42888021684193
"CAN",1957,3,NA,NA,1,"cpi",0.7,0.844887059471569,3.27376727631349,2.33186388641149,NA,TRUE,2.42888021684193
"CAN",1957,3,NA,NA,1,"cpi",0.8,-0.726229811415128,9.47765283530203,2.33186388641149,NA,TRUE,10.2038826467172
"CAN",1957,3,NA,NA,1,"cpi",0.9,-0.726229811415128,9.47765283530203,2.33186388641149,NA,TRUE,10.2038826467172
"CAN",1958,3,NA,NA,1,"cpi",0.1,1.67416121022084,1.67416121022084,1.19382698397654,NA,FALSE,1.06740939165399
"CAN",1958,3,NA,NA,1,"cpi",0.2,1.29819674954139,2.23206452304848,1.19382698397654,NA,FALSE,1.19479218741921
"CAN",1958,3,NA,NA,1,"cpi",0.3,1.29819674954139,2.23206452304848,1.19382698397654,NA,FALSE,1.23206710369237
"CAN",1958,3,NA,NA,1,"cpi",0.4,1.23155202200866,2.49907847554906,1.19382698397654,NA,FALSE,1.39327658031413
"CAN",1958,3,NA,NA,1,"cpi",0.5,0.608886973393376,2.49907847554906,1.19382698397654,NA,TRUE,1.89019150215569
"CAN",1958,3,NA,NA,1,"cpi",0.6,0.608886973393376,3.26093403121802,1.19382698397654,NA,TRUE,2.65204705782464
"CAN",1958,3,NA,NA,1,"cpi",0.7,0.608886973393376,3.26093403121802,1.19382698397654,NA,TRUE,2.65204705782464
"CAN",1958,3,NA,NA,1,"cpi",0.8,-1.10838354471628,10.0376255181026,1.19382698397654,NA,TRUE,11.1460090628189
"CAN",1958,3,NA,NA,1,"cpi",0.9,-1.10838354471628,10.0376255181026,1.19382698397654,NA,TRUE,11.1460090628189
"CAN",1959,3,NA,NA,1,"cpi",0.1,1.07588955602262,1.49137971794343,1.34209404870695,NA,TRUE,0.41549016192081
"CAN",1959,3,NA,NA,1,"cpi",0.2,1.07588955602262,1.49137971794343,1.34209404870695,NA,TRUE,0.41549016192081
"CAN",1959,3,NA,NA,1,"cpi",0.3,1.03190657960395,2.10793623332256,1.34209404870695,NA,TRUE,1.07602965371861
"CAN",1959,3,NA,NA,1,"cpi",0.4,0.988493304325002,2.40302175858494,1.34209404870695,NA,TRUE,1.41452845425994
"CAN",1959,3,NA,NA,1,"cpi",0.5,0.988493304325002,2.40302175858494,1.34209404870695,NA,TRUE,1.41452845425994
"CAN",1959,3,NA,NA,1,"cpi",0.6,0.315355170454889,3.24497231852111,1.34209404870695,NA,TRUE,2.92961714806622
"CAN",1959,3,NA,NA,1,"cpi",0.7,0.315355170454889,3.24497231852111,1.34209404870695,NA,TRUE,2.92961714806622
"CAN",1959,3,NA,NA,1,"cpi",0.8,0.284006788214785,3.24497231852111,1.34209404870695,NA,TRUE,2.96096553030632
"CAN",1959,3,NA,NA,1,"cpi",0.9,-1.58369809311179,10.7341074300807,1.34209404870695,NA,TRUE,12.3178055231925
"CAN",1960,3,NA,NA,1,"cpi",0.1,1.36775763069521,1.51519307170115,1.00921348094007,NA,FALSE,0.944200218239579
"CAN",1960,3,NA,NA,1,"cpi",0.2,1.10485244376463,1.51519307170115,1.00921348094007,NA,FALSE,0.649438034997907
"CAN",1960,3,NA,NA,1,"cpi",0.3,1.05791702238381,2.12410806143138,1.00921348094007,NA,FALSE,1.2053440146011
"CAN",1960,3,NA,NA,1,"cpi",0.4,1.01524482873259,2.12410806143138,1.00921348094007,NA,FALSE,1.12896772534053
"CAN",1960,3,NA,NA,1,"cpi",0.5,1.01524482873259,2.41553633297303,1.00921348094007,NA,FALSE,1.42441689541052
"CAN",1960,3,NA,NA,1,"cpi",0.6,0.353597426688933,2.41553633297303,1.00921348094007,NA,TRUE,2.06193890628409
"CAN",1960,3,NA,NA,1,"cpi",0.7,0.353597426688933,3.2470518611832,1.00921348094007,NA,TRUE,2.89345443449426
"CAN",1960,3,NA,NA,1,"cpi",0.8,0.353597426688933,3.2470518611832,1.00921348094007,NA,TRUE,2.89345443449426
"CAN",1960,3,NA,NA,1,"cpi",0.9,-1.52177260303016,10.6433675529239,1.00921348094007,NA,TRUE,12.1651401559541
"CAN",1961,3,NA,NA,1,"cpi",0.1,1.03982665713253,1.31013925294748,1.04957947883042,NA,TRUE,0.270312595814951
"CAN",1961,3,NA,NA,1,"cpi",0.2,0.999519893013437,1.46172871848343,1.04957947883042,NA,TRUE,0.46220882546999
"CAN",1961,3,NA,NA,1,"cpi",0.3,0.95518386610667,1.46172871848343,1.04957947883042,NA,TRUE,0.506544852376758
"CAN",1961,3,NA,NA,1,"cpi",0.4,0.95518386610667,2.08780001599675,1.04957947883042,NA,TRUE,1.13261614989008
"CAN",1961,3,NA,NA,1,"cpi",0.5,0.948917349784613,2.08780001599675,1.04957947883042,NA,TRUE,1.13888266621213
"CAN",1961,3,NA,NA,1,"cpi",0.6,0.948917349784613,2.38743934032505,1.04957947883042,NA,TRUE,1.43852199054044
"CAN",1961,3,NA,NA,1,"cpi",0.7,0.267738143030612,3.24238299326361,1.04957947883042,NA,TRUE,2.974644850233
"CAN",1961,3,NA,NA,1,"cpi",0.8,0.267738143030612,3.24238299326361,1.04957947883042,NA,TRUE,2.974644850233
"CAN",1961,3,NA,NA,1,"cpi",0.9,-1.66080410227173,10.84709143376,1.04957947883042,NA,TRUE,12.5078955360317
"CAN",1962,3,NA,NA,1,"cpi",0.1,1.05743227317489,1.31712621325644,1.60677118395228,NA,FALSE,0.903349430516758
"CAN",1962,3,NA,NA,1,"cpi",0.2,1.04771185987542,1.31712621325644,1.60677118395228,NA,FALSE,0.993526780120638
"CAN",1962,3,NA,NA,1,"cpi",0.3,1.00660128685021,1.46821195054372,1.60677118395228,NA,FALSE,0.857494187717975
"CAN",1962,3,NA,NA,1,"cpi",0.4,0.962467020863687,1.46821195054372,1.60677118395228,NA,FALSE,0.96760904104191
"CAN",1962,3,NA,NA,1,"cpi",0.5,0.956229021713512,2.09220282777771,1.60677118395228,NA,TRUE,1.1359738060642
"CAN",1962,3,NA,NA,1,"cpi",0.6,0.956229021713512,2.39084645763911,1.60677118395228,NA,TRUE,1.4346174359256
"CAN",1962,3,NA,NA,1,"cpi",0.7,0.278149671965053,3.24294915281404,1.60677118395228,NA,TRUE,2.96479948084898
"CAN",1962,3,NA,NA,1,"cpi",0.8,0.278149671965053,3.24294915281404,1.60677118395228,NA,TRUE,2.96479948084899
"CAN",1962,3,NA,NA,1,"cpi",0.9,-1.64394476667661,10.8223873250185,1.60677118395228,NA,TRUE,12.4663320916951
"CAN",1963,3,NA,NA,1,"cpi",0.1,1.16582825245078,1.41357065986078,1.88764670034376,NA,FALSE,1.3012447195944
"CAN",1963,3,NA,NA,1,"cpi",0.2,1.15655518820032,1.55770318859484,1.88764670034376,NA,FALSE,1.22600677976682
"CAN",1963,3,NA,NA,1,"cpi",0.3,1.10434924584458,1.68988570329943,1.88764670034376,NA,FALSE,1.15056787758151
"CAN",1963,3,NA,NA,1,"cpi",0.4,1.06299998498743,1.68988570329943,1.88764670034376,NA,FALSE,1.2860890417931
"CAN",1963,3,NA,NA,1,"cpi",0.5,1.06299998498743,2.15297700237456,1.88764670034376,NA,TRUE,1.08997701738713
"CAN",1963,3,NA,NA,1,"cpi",0.6,1.05715562237435,2.43787657221548,1.88764670034376,NA,TRUE,1.38072094984113
"CAN",1963,3,NA,NA,1,"cpi",0.7,0.421865122173085,2.43787657221548,1.88764670034376,NA,TRUE,2.0160114500424
"CAN",1963,3,NA,NA,1,"cpi",0.8,0.421865122173085,3.25076413130483,1.88764670034376,NA,TRUE,2.82889900913175
"CAN",1963,3,NA,NA,1,"cpi",0.9,-1.41122707261671,10.481384372222,1.88764670034376,NA,TRUE,11.8926114448387
"CAN",1964,3,NA,NA,1,"cpi",0.1,1.22046972750148,1.60281494720335,2.29538304394236,NA,FALSE,1.92138543467744
"CAN",1964,3,NA,NA,1,"cpi",0.2,1.22046972750148,1.60281494720335,2.29538304394236,NA,FALSE,2.11376546154938
"CAN",1964,3,NA,NA,1,"cpi",0.3,1.15362314602361,1.73178301319594,2.29538304394236,NA,FALSE,2.18844566930494
"CAN",1964,3,NA,NA,1,"cpi",0.4,1.15362314602361,1.92473480696818,2.29538304394236,NA,FALSE,2.00660578419184
"CAN",1964,3,NA,NA,1,"cpi",0.5,1.11367778214962,2.18361273782476,2.29538304394236,NA,FALSE,1.51701618014552
"CAN",1964,3,NA,NA,1,"cpi",0.6,1.10803184830821,2.18361273782476,2.29538304394236,NA,FALSE,1.63443242010453
"CAN",1964,3,NA,NA,1,"cpi",0.7,1.10803184830821,2.46158404595595,2.29538304394236,NA,TRUE,1.35355219764775
"CAN",1964,3,NA,NA,1,"cpi",0.8,0.494310836851815,3.25470359432808,2.29538304394236,NA,TRUE,2.76039275747627
"CAN",1964,3,NA,NA,1,"cpi",0.9,-1.29391609707336,10.3094877348936,2.29538304394236,NA,TRUE,11.603403831967
"CAN",1965,3,NA,NA,1,"cpi",0.1,1.53276265276275,1.6683019777023,3.72486065470629,NA,FALSE,4.70566971828175
"CAN",1965,3,NA,NA,1,"cpi",0.2,1.29979068623879,1.79260375030858,3.72486065470629,NA,FALSE,5.32345532506406
"CAN",1965,3,NA,NA,1,"cpi",0.3,1.2910704835221,1.97857420593151,3.72486065470629,NA,FALSE,5.67689357605163
"CAN",1965,3,NA,NA,1,"cpi",0.4,1.22515219971954,2.22808547406179,3.72486065470629,NA,FALSE,5.99218387649059
"CAN",1965,3,NA,NA,1,"cpi",0.5,1.18724481989649,2.22808547406179,3.72486065470629,NA,FALSE,7.0279413767433
"CAN",1965,3,NA,NA,1,"cpi",0.6,1.18188693758361,2.33581173225009,3.72486065470629,NA,FALSE,8.09916940694747
"CAN",1965,3,NA,NA,1,"cpi",0.7,1.18188693758361,2.49599928720977,3.72486065470629,NA,FALSE,9.50652146626966
"CAN",1965,3,NA,NA,1,"cpi",0.8,0.599477535580096,3.26042236351622,3.72486065470629,NA,FALSE,7.30532773983683
"CAN",1965,3,NA,NA,1,"cpi",0.9,-1.12362019928012,10.0599519003659,3.72486065470629,NA,TRUE,11.183572099646
"CAN",1966,3,NA,NA,1,"cpi",0.1,1.78019127712332,2.00583439147573,3.49360316391996,NA,FALSE,3.53179594200626
"CAN",1966,3,NA,NA,1,"cpi",0.2,1.57788101681508,2.16732906333722,3.49360316391996,NA,FALSE,3.90513329797898
"CAN",1966,3,NA,NA,1,"cpi",0.3,1.57788101681508,2.16732906333722,3.49360316391996,NA,FALSE,4.37880261961567
"CAN",1966,3,NA,NA,1,"cpi",0.4,1.475924990477,2.3840018689045,3.49360316391996,NA,FALSE,4.60674786181237
"CAN",1966,3,NA,NA,1,"cpi",0.5,1.44516255276582,2.47755015139224,3.49360316391996,NA,FALSE,5.09659964873731
"CAN",1966,3,NA,NA,1,"cpi",0.6,1.44516255276582,2.61665523955183,3.49360316391996,NA,FALSE,5.55623230862666
"CAN",1966,3,NA,NA,1,"cpi",0.7,1.44081454660756,3.28047172297096,3.49360316391996,NA,FALSE,3.26053344935673
"CAN",1966,3,NA,NA,1,"cpi",0.8,0.968180114072908,3.68378476097164,3.49360316391996,NA,TRUE,2.71560464689873
"CAN",1966,3,NA,NA,1,"cpi",0.9,-0.526581998191904,9.18510742270032,3.49360316391996,NA,TRUE,9.71168942089222
"CAN",1967,3,NA,NA,1,"cpi",0.1,1.86074956981264,1.97133844507981,3.95128347779386,NA,FALSE,4.51046672574283
"CAN",1967,3,NA,NA,1,"cpi",0.2,1.74016286227619,2.13679275107274,3.95128347779386,NA,FALSE,4.93285670559934
"CAN",1967,3,NA,NA,1,"cpi",0.3,1.53289222400241,2.35877808507447,3.95128347779386,NA,FALSE,5.37590126884174
"CAN",1967,3,NA,NA,1,"cpi",0.4,1.43535556433743,2.45462004677779,3.95128347779386,NA,FALSE,6.00814258582726
"CAN",1967,3,NA,NA,1,"cpi",0.5,1.43535556433743,2.59713580631485,3.95128347779386,NA,FALSE,6.57837092789344
"CAN",1967,3,NA,NA,1,"cpi",0.6,1.40343723487099,3.27722818524469,3.95128347779386,NA,FALSE,5.24406741311954
"CAN",1967,3,NA,NA,1,"cpi",0.7,1.39892585334836,3.46980001138191,3.95128347779386,NA,FALSE,5.28076393411321
"CAN",1967,3,NA,NA,1,"cpi",0.8,0.908532287127839,3.6904299214452,3.95128347779386,NA,FALSE,5.39043319780396
"CAN",1967,3,NA,NA,1,"cpi",0.9,-0.623169419532108,9.32663768327228,3.95128347779386,NA,TRUE,9.94980710280439
"CAN",1968,3,NA,NA,1,"cpi",0.1,1.93425816217627,2.19722698364285,4.42679496126681,NA,FALSE,5.21756432729762
"CAN",1968,3,NA,NA,1,"cpi",0.2,1.8193828581726,2.40869832446287,4.42679496126681,NA,FALSE,5.63455705830012
"CAN",1968,3,NA,NA,1,"cpi",0.3,1.62192927419827,2.50000087937879,4.42679496126681,NA,FALSE,6.38319755343201
"CAN",1968,3,NA,NA,1,"cpi",0.4,1.61453853399428,2.69445279130352,4.42679496126681,NA,FALSE,6.85438815718689
"CAN",1968,3,NA,NA,1,"cpi",0.5,1.51564627243993,3.28364745131722,4.42679496126681,NA,FALSE,6.34059121867568
"CAN",1968,3,NA,NA,1,"cpi",0.6,1.48601556141798,3.51690868789552,4.42679496126681,NA,FALSE,6.58032449333399
"CAN",1968,3,NA,NA,1,"cpi",0.7,1.48182751509972,3.67727852418261,4.42679496126681,NA,FALSE,7.19222725631089
"CAN",1968,3,NA,NA,1,"cpi",0.8,1.0265809439099,4.03776948066691,4.42679496126681,NA,FALSE,6.90144334275606
"CAN",1968,3,NA,NA,1,"cpi",0.9,-0.432013832896001,9.04653599289684,4.42679496126681,NA,TRUE,9.47854982579284
"CAN",1969,3,NA,NA,1,"cpi",0.1,2.01063064039579,2.26001572659472,3.28128405769805,NA,FALSE,2.51887026642854
"CAN",1969,3,NA,NA,1,"cpi",0.2,1.90168925551483,2.65145443907116,3.28128405769805,NA,FALSE,2.32433923012355
"CAN",1969,3,NA,NA,1,"cpi",0.3,1.90168925551483,2.78640804702026,3.28128405769805,NA,FALSE,2.29865025058482
"CAN",1969,3,NA,NA,1,"cpi",0.4,1.71443519708653,2.78640804702026,3.28128405769805,NA,FALSE,2.72155955219302
"CAN",1969,3,NA,NA,1,"cpi",0.5,1.59906509680613,3.5658527127408,3.28128405769805,NA,TRUE,1.96678761593467
"CAN",1969,3,NA,NA,1,"cpi",0.6,1.57181112956622,4.25476958935268,3.28128405769805,NA,TRUE,2.68295845978646
"CAN",1969,3,NA,NA,1,"cpi",0.7,1.56795901555274,4.3744146853199,3.28128405769805,NA,TRUE,2.80645566976717
"CAN",1969,3,NA,NA,1,"cpi",0.8,1.14922876206336,4.62836373713628,3.28128405769805,NA,TRUE,3.47913497507292
"CAN",1969,3,NA,NA,1,"cpi",0.9,1.14922876206336,4.6406405270117,3.28128405769805,NA,TRUE,3.49141176494834
"CAN",1970,3,NA,NA,1,"cpi",0.1,1.93966747744042,2.34119106470499,2.64123406634756,NA,FALSE,1.06828581313695
"CAN",1970,3,NA,NA,1,"cpi",0.2,1.82664873969789,2.53915809480514,2.64123406634756,NA,FALSE,0.967699283963301
"CAN",1970,3,NA,NA,1,"cpi",0.3,1.70341249698024,2.83650484630765,2.64123406634756,NA,TRUE,1.13309234932741
"CAN",1970,3,NA,NA,1,"cpi",0.4,1.49158770129263,2.83650484630765,2.64123406634756,NA,TRUE,1.34491714501502
"CAN",1970,3,NA,NA,1,"cpi",0.5,1.3981084928216,3.44794617194536,2.64123406634756,NA,TRUE,2.04983767912376
"CAN",1970,3,NA,NA,1,"cpi",0.6,1.36512893111776,3.88223454258019,2.64123406634756,NA,TRUE,2.51710561146243
"CAN",1970,3,NA,NA,1,"cpi",0.7,1.36046755353997,3.88223454258019,2.64123406634756,NA,TRUE,2.52176698904022
"CAN",1970,3,NA,NA,1,"cpi",0.8,0.85376920351055,4.14278297073485,2.64123406634756,NA,TRUE,3.2890137672243
"CAN",1970,3,NA,NA,1,"cpi",0.9,0.85376920351055,4.50059918204519,2.64123406634756,NA,TRUE,3.64682997853464
"CAN",1971,3,NA,NA,1,"cpi",0.1,1.84419325034725,2.29013053047418,4.83230569625923,NA,FALSE,6.09521542631594
"CAN",1971,3,NA,NA,1,"cpi",0.2,1.72384953142892,2.29195439908918,4.83230569625923,NA,FALSE,6.91898311058537
"CAN",1971,3,NA,NA,1,"cpi",0.3,1.59262608963161,2.46105568692538,4.83230569625923,NA,FALSE,7.64342962396191
"CAN",1971,3,NA,NA,1,"cpi",0.4,1.36707248514672,2.58798610282264,4.83230569625923,NA,FALSE,8.70197892913123
"CAN",1971,3,NA,NA,1,"cpi",0.5,1.35862995369569,3.38206632725669,4.83230569625923,NA,FALSE,7.82439384957115
"CAN",1971,3,NA,NA,1,"cpi",0.6,1.2496460152266,3.3820663272567,4.83230569625923,NA,FALSE,9.38361715704277
"CAN",1971,3,NA,NA,1,"cpi",0.7,1.24453246461779,3.67408195955227,4.83230569625923,NA,FALSE,10.1510410729809
"CAN",1971,3,NA,NA,1,"cpi",0.8,0.688682265178504,3.87146650891251,4.83230569625923,NA,FALSE,12.7911761172012
"CAN",1971,3,NA,NA,1,"cpi",0.9,0.688682265178504,4.57110430407062,4.83230569625923,NA,FALSE,9.10644988266425
"CAN",1972,3,NA,NA,1,"cpi",0.1,2.17102845571959,3.14262211495229,7.12388603531779,NA,FALSE,9.81884681560047
"CAN",1972,3,NA,NA,1,"cpi",0.2,2.07576021318718,3.28739118688032,7.12388603531779,NA,FALSE,10.8028680947868
"CAN",1972,3,NA,NA,1,"cpi",0.3,1.97187920642214,3.29690533705503,7.12388603531779,NA,FALSE,12.2592566970979
"CAN",1972,3,NA,NA,1,"cpi",0.4,1.7933231863052,3.43873585004534,7.12388603531779,NA,FALSE,13.9292466146483
"CAN",1972,3,NA,NA,1,"cpi",0.5,1.78663978694632,3.60759161532952,7.12388603531779,NA,FALSE,15.8861295083363
"CAN",1972,3,NA,NA,1,"cpi",0.6,1.67020371271059,4.32974538723439,7.12388603531779,NA,FALSE,16.6302449149408
"CAN",1972,3,NA,NA,1,"cpi",0.7,1.64141097048683,4.38664695530049,7.12388603531779,NA,FALSE,20.9934965182623
"CAN",1972,3,NA,NA,1,"cpi",0.8,1.64141097048683,4.53652142676926,7.12388603531779,NA,FALSE,28.7687565417677
"CAN",1972,3,NA,NA,1,"cpi",0.9,1.25382141358332,4.80025927550974,7.12388603531779,NA,FALSE,50.0189730580875
"CAN",1973,3,NA,NA,1,"cpi",0.1,3.59889887290869,4.26563675606516,10.2717243737774,NA,FALSE,14.0135992558504
"CAN",1973,3,NA,NA,1,"cpi",0.2,2.51285622644092,4.52023962834767,10.2717243737774,NA,FALSE,16.3860952654811
"CAN",1973,3,NA,NA,1,"cpi",0.3,2.44381372107475,5.13189869069163,10.2717243737774,NA,FALSE,17.3733012070049
"CAN",1973,3,NA,NA,1,"cpi",0.4,2.36852939991622,5.25216783418847,10.2717243737774,NA,FALSE,19.6154935662354
"CAN",1973,3,NA,NA,1,"cpi",0.5,2.23912683459765,5.53682250182889,10.2717243737774,NA,FALSE,22.2373031550253
"CAN",1973,3,NA,NA,1,"cpi",0.6,2.07221490375228,5.85356805167096,10.2717243737774,NA,FALSE,25.872134758451
"CAN",1973,3,NA,NA,1,"cpi",0.7,2.05844177696024,6.10960509578325,10.2717243737774,NA,FALSE,31.7986251721175
"CAN",1973,3,NA,NA,1,"cpi",0.8,2.05649506387227,9.52058561312733,10.2717243737774,NA,FALSE,14.975478155756
"CAN",1973,3,NA,NA,1,"cpi",0.9,1.84488459181861,9.65886689351306,10.2717243737774,NA,FALSE,20.0711319069816
"CAN",1974,3,NA,NA,1,"cpi",0.1,5.26431540718932,6.11352178680267,10.0232981493341,NA,FALSE,9.5375982963499
"CAN",1974,3,NA,NA,1,"cpi",0.2,4.62762771595207,7.06416911644229,10.0232981493341,NA,FALSE,9.83436398271979
"CAN",1974,3,NA,NA,1,"cpi",0.3,2.94939186860284,7.42904849179627,10.0232981493341,NA,FALSE,11.891798501873
"CAN",1974,3,NA,NA,1,"cpi",0.4,2.9133894970102,8.92281076285318,10.0232981493341,NA,FALSE,9.67771255411279
"CAN",1974,3,NA,NA,1,"cpi",0.5,2.85150676804422,9.24057387000498,10.0232981493341,NA,FALSE,9.51996421927732
"CAN",1974,3,NA,NA,1,"cpi",0.6,2.65680084942851,13.1514372129784,10.0232981493341,NA,TRUE,10.4946363635499
"CAN",1974,3,NA,NA,1,"cpi",0.7,2.62667695999564,13.1836747889769,10.0232981493341,NA,TRUE,10.5569978289813
"CAN",1974,3,NA,NA,1,"cpi",0.8,2.62639983491175,13.995262151821,10.0232981493341,NA,TRUE,11.3688623169092
"CAN",1974,3,NA,NA,1,"cpi",0.9,2.6244391561958,13.995262151821,10.0232981493341,NA,TRUE,11.3708229956252
"CAN",1975,3,NA,NA,1,"cpi",0.1,5.7897644285783,7.60140700057381,7.22784311401172,NA,TRUE,1.81164257199551
"CAN",1975,3,NA,NA,1,"cpi",0.2,5.34157668517472,9.40843004506829,7.22784311401172,NA,TRUE,4.06685335989357
"CAN",1975,3,NA,NA,1,"cpi",0.3,4.56807480549676,9.80075157146807,7.22784311401172,NA,TRUE,5.23267676597132
"CAN",1975,3,NA,NA,1,"cpi",0.4,2.87038934191421,9.80937050980974,7.22784311401172,NA,TRUE,6.93898116789553
"CAN",1975,3,NA,NA,1,"cpi",0.5,2.80317797271434,9.81686333540824,7.22784311401172,NA,TRUE,7.0136853626939
"CAN",1975,3,NA,NA,1,"cpi",0.6,2.80066223327567,10.9161315428745,7.22784311401172,NA,TRUE,8.11546930959881
"CAN",1975,3,NA,NA,1,"cpi",0.7,2.59272472201821,12.8761501151321,7.22784311401172,NA,TRUE,10.2834253931139
"CAN",1975,3,NA,NA,1,"cpi",0.8,2.58167841799009,13.2879490150607,7.22784311401172,NA,TRUE,10.7062705970706
"CAN",1975,3,NA,NA,1,"cpi",0.9,2.58157679738305,13.7014019429057,7.22784311401172,NA,TRUE,11.1198251455226
"CAN",1976,3,NA,NA,1,"cpi",0.1,4.67011791095557,5.53302243175237,7.58101410153764,NA,FALSE,5.41399712031963
"CAN",1976,3,NA,NA,1,"cpi",0.2,4.47552982326173,5.63026106272566,7.58101410153764,NA,FALSE,6.03161383649388
"CAN",1976,3,NA,NA,1,"cpi",0.3,4.26697038271621,6.90244884352881,7.58101410153764,NA,FALSE,4.57423634083785
"CAN",1976,3,NA,NA,1,"cpi",0.4,3.24802930775053,7.11496772120025,7.58101410153764,NA,FALSE,5.4204263479077
"CAN",1976,3,NA,NA,1,"cpi",0.5,2.25935062695512,7.49392322975667,7.58101410153764,NA,FALSE,5.58293608992545
"CAN",1976,3,NA,NA,1,"cpi",0.6,2.25459051786753,7.61972800822285,7.58101410153764,NA,TRUE,5.36513749035532
"CAN",1976,3,NA,NA,1,"cpi",0.7,2.10703310682354,9.77386578753886,7.58101410153764,NA,TRUE,7.66683268071532
"CAN",1976,3,NA,NA,1,"cpi",0.8,2.07532526983328,10.0859488120401,7.58101410153764,NA,TRUE,8.01062354220684
"CAN",1976,3,NA,NA,1,"cpi",0.9,1.87169805337856,10.3946938748101,7.58101410153764,NA,TRUE,8.52299582143152
"CAN",1977,3,NA,NA,1,"cpi",0.1,5.6782399859227,5.76482183813603,8.50208927062595,NA,FALSE,6.16939836885758
"CAN",1977,3,NA,NA,1,"cpi",0.2,4.84522943946812,7.18155945251453,8.50208927062595,NA,FALSE,5.63765455832495
"CAN",1977,3,NA,NA,1,"cpi",0.3,4.42218248177181,7.4047181709622,8.50208927062595,NA,FALSE,6.11788168822965
"CAN",1977,3,NA,NA,1,"cpi",0.4,4.0479654273894,7.70624286068991,8.50208927062595,NA,FALSE,6.31109879975397
"CAN",1977,3,NA,NA,1,"cpi",0.5,2.3280564506291,7.87822021098117,8.50208927062595,NA,FALSE,8.04563999893117
"CAN",1977,3,NA,NA,1,"cpi",0.6,2.32357988974216,7.8986059170114,8.50208927062595,NA,FALSE,8.59244279534198
"CAN",1977,3,NA,NA,1,"cpi",0.7,2.27844460385686,10.1645488798087,8.50208927062595,NA,TRUE,7.88610427595183
"CAN",1977,3,NA,NA,1,"cpi",0.8,2.13929669456084,10.4904817268858,8.50208927062595,NA,TRUE,8.35118503232496
"CAN",1977,3,NA,NA,1,"cpi",0.9,1.96279080836063,10.8124553265641,8.50208927062595,NA,TRUE,8.84966451820344
"CAN",1978,3,NA,NA,1,"cpi",0.1,6.27496896653371,8.40825287144856,8.65147652410481,NA,FALSE,2.67378091081764
"CAN",1978,3,NA,NA,1,"cpi",0.2,6.21380121180597,8.4380136764065,8.65147652410481,NA,FALSE,2.7578695838463
"CAN",1978,3,NA,NA,1,"cpi",0.3,5.7257159431729,8.49940967385199,8.65147652410481,NA,FALSE,3.20817044568714
"CAN",1978,3,NA,NA,1,"cpi",0.4,4.41266265379785,8.5527839391117,8.65147652410481,NA,FALSE,4.46909656862422
"CAN",1978,3,NA,NA,1,"cpi",0.5,2.5072422569185,8.65333814869025,8.65147652410481,NA,TRUE,6.14609589177175
"CAN",1978,3,NA,NA,1,"cpi",0.6,2.50350519394076,9.33457012432812,8.65147652410481,NA,TRUE,6.83106493038736
"CAN",1978,3,NA,NA,1,"cpi",0.7,2.46582595531724,11.1834561739588,8.65147652410481,NA,TRUE,8.71763021864159
"CAN",1978,3,NA,NA,1,"cpi",0.8,2.3061351182392,11.5455095635535,8.65147652410481,NA,TRUE,9.23937444531427
"CAN",1978,3,NA,NA,1,"cpi",0.9,2.20036206325217,11.9019833835215,8.65147652410481,NA,TRUE,9.70162132026937
"CAN",1979,3,NA,NA,1,"cpi",0.1,6.36854405263473,8.54459011853281,9.5171912664748,NA,FALSE,4.33738195021361
"CAN",1979,3,NA,NA,1,"cpi",0.2,6.35743695320767,8.571838606174,9.5171912664748,NA,FALSE,4.57778330371832
"CAN",1979,3,NA,NA,1,"cpi",0.3,5.98340192377002,8.62805173884887,9.5171912664748,NA,FALSE,5.18504846543864
"CAN",1979,3,NA,NA,1,"cpi",0.4,5.53725116829484,8.77716205812127,9.5171912664748,NA,FALSE,5.70667491767151
"CAN",1979,3,NA,NA,1,"cpi",0.5,3.69770545275498,8.77905290436125,9.5171912664748,NA,FALSE,8.03390090006045
"CAN",1979,3,NA,NA,1,"cpi",0.6,2.53268690236982,9.40167366370949,9.5171912664748,NA,FALSE,7.44657477516621
"CAN",1979,3,NA,NA,1,"cpi",0.7,2.49621694444306,9.46958845125947,9.5171912664748,NA,FALSE,7.29072360825191
"CAN",1979,3,NA,NA,1,"cpi",0.8,2.33319429291299,11.3487106149979,9.5171912664748,NA,TRUE,9.01551632208492
"CAN",1979,3,NA,NA,1,"cpi",0.9,2.23889324774703,12.0786916582416,9.5171912664748,NA,TRUE,9.83979841049453
"CAN",1980,3,NA,NA,1,"cpi",0.1,7.88540573580493,9.33467871033946,11.5813425032741,NA,FALSE,6.44185918105604
"CAN",1980,3,NA,NA,1,"cpi",0.2,6.90672370550812,9.54414728318557,11.5813425032741,NA,FALSE,7.73041162789888
"CAN",1980,3,NA,NA,1,"cpi",0.3,6.89047091391654,9.6040947884935,11.5813425032741,NA,FALSE,8.3629030596645
"CAN",1980,3,NA,NA,1,"cpi",0.4,6.6053484020242,9.61050285324745,11.5813425032741,NA,FALSE,9.57461995131221
"CAN",1980,3,NA,NA,1,"cpi",0.5,5.35482291132697,10.2583664322007,11.5813425032741,NA,FALSE,10.1954478051675
"CAN",1980,3,NA,NA,1,"cpi",0.6,2.7017979517148,10.2719743507752,11.5813425032741,NA,FALSE,14.1170171615551
"CAN",1980,3,NA,NA,1,"cpi",0.7,2.67233590177532,10.3061201925423,11.5813425032741,NA,FALSE,16.1352663623128
"CAN",1980,3,NA,NA,1,"cpi",0.8,2.53404610115409,12.0236764013123,11.5813425032741,NA,TRUE,9.48963030015824
"CAN",1980,3,NA,NA,1,"cpi",0.9,2.46218548775664,13.1027345732921,11.5813425032741,NA,TRUE,10.6405490855354
"CAN",1981,3,NA,NA,1,"cpi",0.1,11.2529177906006,11.4403563477477,10.1124203763629,NA,FALSE,2.72187725545301
"CAN",1981,3,NA,NA,1,"cpi",0.2,10.1720177998761,11.5622317324508,10.1124203763629,NA,FALSE,1.53920749135758
"CAN",1981,3,NA,NA,1,"cpi",0.3,8.29572844325637,11.7097206918781,10.1124203763629,NA,TRUE,3.41399224862172
"CAN",1981,3,NA,NA,1,"cpi",0.4,8.26643964240691,12.2065071619885,10.1124203763629,NA,TRUE,3.94006751958159
"CAN",1981,3,NA,NA,1,"cpi",0.5,7.82657486981372,12.3474702132809,10.1124203763629,NA,TRUE,4.52089534346722
"CAN",1981,3,NA,NA,1,"cpi",0.6,3.10501481354884,12.3659817097256,10.1124203763629,NA,TRUE,9.26096689617678
"CAN",1981,3,NA,NA,1,"cpi",0.7,3.09226194185404,13.6819975419929,10.1124203763629,NA,TRUE,10.5897356001389
"CAN",1981,3,NA,NA,1,"cpi",0.8,3.08982524054208,14.1825142624385,10.1124203763629,NA,TRUE,11.0926890218964
"CAN",1981,3,NA,NA,1,"cpi",0.9,2.99458828838555,15.5443927156155,10.1124203763629,NA,TRUE,12.5498044272299
"CAN",1982,3,NA,NA,1,"cpi",0.1,8.90118516085669,9.87791045425825,5.67091787896303,NA,FALSE,8.15509703094303
"CAN",1982,3,NA,NA,1,"cpi",0.2,8.87490373154177,10.0675859361719,5.67091787896303,NA,FALSE,9.20264683607693
"CAN",1982,3,NA,NA,1,"cpi",0.3,7.28892758732149,10.1381686789579,5.67091787896303,NA,FALSE,7.47212597266062
"CAN",1982,3,NA,NA,1,"cpi",0.4,7.28847318794548,10.1464065303879,5.67091787896303,NA,FALSE,8.24978437238392
"CAN",1982,3,NA,NA,1,"cpi",0.5,7.15551732236461,10.8160811298135,5.67091787896303,NA,FALSE,9.59896158105525
"CAN",1982,3,NA,NA,1,"cpi",0.6,6.26620554737102,10.8485545989873,5.67091787896303,NA,FALSE,7.55878739365617
"CAN",1982,3,NA,NA,1,"cpi",0.7,2.7934279024964,11.9070522470066,5.67091787896303,NA,TRUE,9.11362434451021
"CAN",1982,3,NA,NA,1,"cpi",0.8,2.78871920991926,12.1870980344519,5.67091787896303,NA,TRUE,9.39837882453265
"CAN",1982,3,NA,NA,1,"cpi",0.9,2.61571185708008,12.6462098259772,5.67091787896303,NA,TRUE,10.0304979688971
"CAN",1983,3,NA,NA,1,"cpi",0.1,5.23883701043293,5.82440381756905,4.19799576814029,NA,FALSE,2.89854734556422
"CAN",1983,3,NA,NA,1,"cpi",0.2,4.46630434554412,5.94946395965413,4.19799576814029,NA,FALSE,2.15393105761959
"CAN",1983,3,NA,NA,1,"cpi",0.3,4.26690793119683,6.16177211448036,4.19799576814029,NA,FALSE,2.0917560777308
"CAN",1983,3,NA,NA,1,"cpi",0.4,4.02753046313739,6.27080542600395,4.19799576814029,NA,TRUE,2.24327496286657
"CAN",1983,3,NA,NA,1,"cpi",0.5,3.51514274638441,6.75604512383735,4.19799576814029,NA,TRUE,3.24090237745294
"CAN",1983,3,NA,NA,1,"cpi",0.6,3.4161425803988,6.80099756442989,4.19799576814029,NA,TRUE,3.38485498403109
"CAN",1983,3,NA,NA,1,"cpi",0.7,1.88985915109769,7.66704909893288,4.19799576814029,NA,TRUE,5.77718994783519
"CAN",1983,3,NA,NA,1,"cpi",0.8,1.87828075815082,7.80606585354769,4.19799576814029,NA,TRUE,5.92778509539687
"CAN",1983,3,NA,NA,1,"cpi",0.9,1.47012313932573,9.47665928372047,4.19799576814029,NA,TRUE,8.00653614439474
"CAN",1984,3,NA,NA,1,"cpi",0.1,4.02430351158928,4.48015160673692,3.86444262005169,NA,FALSE,0.811094520786719
"CAN",1984,3,NA,NA,1,"cpi",0.2,3.34468098537242,4.58229642296369,3.86444262005169,NA,TRUE,1.23761543759127
"CAN",1984,3,NA,NA,1,"cpi",0.3,3.2648753355686,4.86649882754777,3.86444262005169,NA,TRUE,1.60162349197916
"CAN",1984,3,NA,NA,1,"cpi",0.4,3.13187658639677,5.03128840582731,3.86444262005169,NA,TRUE,1.89941181943054
"CAN",1984,3,NA,NA,1,"cpi",0.5,2.80022952487981,5.40962759791237,3.86444262005169,NA,TRUE,2.60939807303256
"CAN",1984,3,NA,NA,1,"cpi",0.6,2.66839823169328,5.45871840225318,3.86444262005169,NA,TRUE,2.7903201705599
"CAN",1984,3,NA,NA,1,"cpi",0.7,1.59021136448431,6.16807886914594,3.86444262005169,NA,TRUE,4.57786750466163
"CAN",1984,3,NA,NA,1,"cpi",0.8,1.57635479347152,6.36033179056881,3.86444262005169,NA,TRUE,4.78397699709729
"CAN",1984,3,NA,NA,1,"cpi",0.9,1.09021499939397,8.6706753772141,3.86444262005169,NA,TRUE,7.58046037782013
"CAN",1985,3,NA,NA,1,"cpi",0.1,3.61119619507336,4.1757366254874,4.08685396749431,NA,TRUE,0.564540430414034
"CAN",1985,3,NA,NA,1,"cpi",0.2,3.32011509923181,4.2834909654887,4.08685396749431,NA,TRUE,0.96337586625689
"CAN",1985,3,NA,NA,1,"cpi",0.3,3.03795829473982,4.57317545401914,4.08685396749431,NA,TRUE,1.53521715927932
"CAN",1985,3,NA,NA,1,"cpi",0.4,3.02114119181002,4.59938657466145,4.08685396749431,NA,TRUE,1.57824538285143
"CAN",1985,3,NA,NA,1,"cpi",0.5,2.63833260318188,5.10472226645321,4.08685396749431,NA,TRUE,2.46638966327133
"CAN",1985,3,NA,NA,1,"cpi",0.6,2.49906647976726,5.15475023118155,4.08685396749431,NA,TRUE,2.65568375141428
"CAN",1985,3,NA,NA,1,"cpi",0.7,1.52235410183052,5.82862694880153,4.08685396749431,NA,TRUE,4.30627284697101
"CAN",1985,3,NA,NA,1,"cpi",0.8,1.50798162202649,6.03293555932061,4.08685396749431,NA,TRUE,4.52495393729412
"CAN",1985,3,NA,NA,1,"cpi",0.9,1.00418223830796,8.48815488454951,4.08685396749431,NA,TRUE,7.48397264624155
"CAN",1986,3,NA,NA,1,"cpi",0.1,3.93265885569438,4.28281324721173,4.23980729277887,NA,TRUE,0.350154391517347
"CAN",1986,3,NA,NA,1,"cpi",0.2,3.46123272231523,4.48273274989713,4.23980729277887,NA,TRUE,1.02150002758191
"CAN",1986,3,NA,NA,1,"cpi",0.3,3.2705935641648,4.5468373270294,4.23980729277887,NA,TRUE,1.27624376286459
"CAN",1986,3,NA,NA,1,"cpi",0.4,3.16603429830259,4.76876181594305,4.23980729277887,NA,TRUE,1.60272751764046
"CAN",1986,3,NA,NA,1,"cpi",0.5,2.74628455239294,5.30803141223965,4.23980729277887,NA,TRUE,2.56174685984671
"CAN",1986,3,NA,NA,1,"cpi",0.6,2.74039888094973,5.35743448373657,4.23980729277887,NA,TRUE,2.61703560278683
"CAN",1986,3,NA,NA,1,"cpi",0.7,1.56760093972452,6.05497156413021,4.23980729277887,NA,TRUE,4.48737062440569
"CAN",1986,3,NA,NA,1,"cpi",0.8,1.55357246497658,6.2512415095322,4.23980729277887,NA,TRUE,4.69766904455562
"CAN",1986,3,NA,NA,1,"cpi",0.9,1.06154839547661,6.67925791846249,4.23980729277887,NA,TRUE,5.61770952298588
"CAN",1987,3,NA,NA,1,"cpi",0.1,4.05878021401513,4.41757536163522,3.92899537638065,NA,FALSE,0.647205897918923
"CAN",1987,3,NA,NA,1,"cpi",0.2,3.88404081692198,4.51831060646996,3.92899537638065,NA,TRUE,0.634269789547974
"CAN",1987,3,NA,NA,1,"cpi",0.3,3.3725526593891,4.68227151376857,3.92899537638065,NA,TRUE,1.30971885437947
"CAN",1987,3,NA,NA,1,"cpi",0.4,3.26567796623444,4.90326747305342,3.92899537638065,NA,TRUE,1.63758950681898
"CAN",1987,3,NA,NA,1,"cpi",0.5,3.05555160793369,5.0664743101248,3.92899537638065,NA,TRUE,2.01092270219111
"CAN",1987,3,NA,NA,1,"cpi",0.6,2.81478734423113,5.46773225575331,3.92899537638065,NA,TRUE,2.65294491152218
"CAN",1987,3,NA,NA,1,"cpi",0.7,1.67089955307495,6.21062981616121,3.92899537638065,NA,TRUE,4.53973026308625
"CAN",1987,3,NA,NA,1,"cpi",0.8,1.58492550119494,6.40137153391364,3.92899537638065,NA,TRUE,4.8164460327187
"CAN",1987,3,NA,NA,1,"cpi",0.9,1.10099937043195,6.86018445398882,3.92899537638065,NA,TRUE,5.75918508355687
"CAN",1988,3,NA,NA,1,"cpi",0.1,3.66721332139552,4.10295849230263,4.82821664544208,NA,FALSE,2.04742995566144
"CAN",1988,3,NA,NA,1,"cpi",0.2,3.64838013639439,4.23465025355565,4.82821664544208,NA,FALSE,2.07018609687733
"CAN",1988,3,NA,NA,1,"cpi",0.3,3.16536460563522,4.40705971926903,4.82821664544208,NA,FALSE,2.44500061698538
"CAN",1988,3,NA,NA,1,"cpi",0.4,3.06319502361631,4.62994251607653,4.82821664544208,NA,FALSE,2.22766125701205
"CAN",1988,3,NA,NA,1,"cpi",0.5,2.88071035038804,4.80491488507542,4.82821664544208,NA,FALSE,2.017411576154
"CAN",1988,3,NA,NA,1,"cpi",0.6,2.66362475402661,5.18243885556789,4.82821664544208,NA,TRUE,2.51881410154128
"CAN",1988,3,NA,NA,1,"cpi",0.7,1.6101847162372,5.4740745491601,4.82821664544208,NA,TRUE,3.86388983292289
"CAN",1988,3,NA,NA,1,"cpi",0.8,1.52121392608664,6.09629676355416,4.82821664544208,NA,TRUE,4.57508283746751
"CAN",1988,3,NA,NA,1,"cpi",0.9,1.02083221416493,6.4925290066188,4.82821664544208,NA,TRUE,5.47169679245386
"CAN",1989,3,NA,NA,1,"cpi",0.1,4.54396735635708,4.93600337465115,4.64347549432717,NA,TRUE,0.392036018294067
"CAN",1989,3,NA,NA,1,"cpi",0.2,4.33017862941098,5.0553183459695,4.64347549432717,NA,TRUE,0.725139716558524
"CAN",1989,3,NA,NA,1,"cpi",0.3,3.76478790571303,5.2032849798008,4.64347549432717,NA,TRUE,1.43849707408777
"CAN",1989,3,NA,NA,1,"cpi",0.4,3.64900579539859,5.42070889828956,4.64347549432717,NA,TRUE,1.77170310289098
"CAN",1989,3,NA,NA,1,"cpi",0.5,3.38654995691412,5.58918195989808,4.64347549432717,NA,TRUE,2.20263200298396
"CAN",1989,3,NA,NA,1,"cpi",0.6,3.10095874615116,6.00783157648563,4.64347549432717,NA,TRUE,2.90687283033447
"CAN",1989,3,NA,NA,1,"cpi",0.7,1.78584102074694,6.03304093088872,4.64347549432717,NA,TRUE,4.24719991014178
"CAN",1989,3,NA,NA,1,"cpi",0.8,1.70554020316986,6.97891968657554,4.64347549432717,NA,TRUE,5.27337948340568
"CAN",1989,3,NA,NA,1,"cpi",0.9,1.25276673209092,7.55620636427146,4.64347549432717,NA,TRUE,6.30343963218054
"CAN",1990,3,NA,NA,1,"cpi",0.1,4.39163457854397,4.72234668280477,5.4258100696218,NA,FALSE,1.8939640749653
"CAN",1990,3,NA,NA,1,"cpi",0.2,4.20429062489562,4.88671560792033,5.4258100696218,NA,FALSE,2.03016113727837
"CAN",1990,3,NA,NA,1,"cpi",0.3,3.81440313257938,5.0397039166761,5.4258100696218,NA,FALSE,2.32846122108442
"CAN",1990,3,NA,NA,1,"cpi",0.4,3.52865348608596,5.25824933829107,5.4258100696218,NA,FALSE,2.28813162330753
"CAN",1990,3,NA,NA,1,"cpi",0.5,3.41125278235139,5.43284490139206,5.4258100696218,NA,TRUE,2.02159211904067
"CAN",1990,3,NA,NA,1,"cpi",0.6,3.01111035409623,5.8168464904628,5.4258100696218,NA,TRUE,2.80573613636657
"CAN",1990,3,NA,NA,1,"cpi",0.7,1.74975318673742,5.86468566232699,5.4258100696218,NA,TRUE,4.11493247558957
"CAN",1990,3,NA,NA,1,"cpi",0.8,1.6676711604985,6.79758859443004,5.4258100696218,NA,TRUE,5.12991743393153
"CAN",1990,3,NA,NA,1,"cpi",0.9,1.2051167806283,7.12573462925134,5.4258100696218,NA,TRUE,5.92061784862304
"CAN",1991,3,NA,NA,1,"cpi",0.1,5.03672744667139,5.46252316922384,1.47496888572843,NA,FALSE,8.34081474687013
"CAN",1991,3,NA,NA,1,"cpi",0.2,4.8011187831826,5.68220393740595,1.47496888572843,NA,FALSE,9.19645989785877
"CAN",1991,3,NA,NA,1,"cpi",0.3,4.31078605993893,5.73243058192408,1.47496888572843,NA,FALSE,9.52397930544371
"CAN",1991,3,NA,NA,1,"cpi",0.4,4.04164338875749,5.98352627957226,1.47496888572843,NA,FALSE,10.4974645675783
"CAN",1991,3,NA,NA,1,"cpi",0.5,3.88051056738246,6.08688746795952,1.47496888572843,NA,FALSE,11.8285436271932
"CAN",1991,3,NA,NA,1,"cpi",0.6,3.39617459979708,6.53198884291576,1.47496888572843,NA,FALSE,12.7418428134619
"CAN",1991,3,NA,NA,1,"cpi",0.7,1.9336096248152,6.57762994536295,1.47496888572843,NA,FALSE,7.70162524779286
"CAN",1991,3,NA,NA,1,"cpi",0.8,1.82803749597014,7.56548238585243,1.47496888572843,NA,FALSE,9.26813099229938
"CAN",1991,3,NA,NA,1,"cpi",0.9,1.40690292472961,8.02184472126521,1.47496888572843,NA,TRUE,6.6149417965356
"CAN",1992,3,NA,NA,1,"cpi",0.1,1.78709723545873,1.97554446172328,1.84351085411351,NA,TRUE,0.188447226264548
"CAN",1992,3,NA,NA,1,"cpi",0.2,1.77896593220183,1.99499989372962,1.84351085411351,NA,TRUE,0.216033961527793
"CAN",1992,3,NA,NA,1,"cpi",0.3,1.52950399143903,2.23411525153984,1.84351085411351,NA,TRUE,0.70461126010081
"CAN",1992,3,NA,NA,1,"cpi",0.4,1.52143229746065,2.47189564081356,1.84351085411351,NA,TRUE,0.950463343352917
"CAN",1992,3,NA,NA,1,"cpi",0.5,1.50024501093742,2.74840302208143,1.84351085411351,NA,TRUE,1.24815801114401
"CAN",1992,3,NA,NA,1,"cpi",0.6,1.47011517094419,2.92047281429911,1.84351085411351,NA,TRUE,1.45035764335492
"CAN",1992,3,NA,NA,1,"cpi",0.7,1.03624522316021,2.97721431221899,1.84351085411351,NA,TRUE,1.94096908905879
"CAN",1992,3,NA,NA,1,"cpi",0.8,1.01817692902178,3.39689619651641,1.84351085411351,NA,TRUE,2.37871926749463
"CAN",1992,3,NA,NA,1,"cpi",0.9,0.387869593428537,3.6125416677582,1.84351085411351,NA,TRUE,3.22467207432966
"CAN",1993,3,NA,NA,1,"cpi",0.1,2.14504732080788,2.25636043296117,0.161630694655448,NA,FALSE,4.51890561471425
"CAN",1993,3,NA,NA,1,"cpi",0.2,2.06825088913675,2.33134718062678,0.161630694655448,NA,FALSE,5.02964677769328
"CAN",1993,3,NA,NA,1,"cpi",0.3,2.037855491068,2.47007157044609,0.161630694655448,NA,FALSE,5.79285835484251
"CAN",1993,3,NA,NA,1,"cpi",0.4,1.75652237400408,2.79598784043171,0.161630694655448,NA,FALSE,6.35577106425641
"CAN",1993,3,NA,NA,1,"cpi",0.5,1.7075611973871,3.05982319106287,0.161630694655448,NA,FALSE,7.53598400460239
"CAN",1993,3,NA,NA,1,"cpi",0.6,1.64935462606464,3.25736188781257,0.161630694655448,NA,FALSE,9.04662691879389
"CAN",1993,3,NA,NA,1,"cpi",0.7,1.20280055296441,3.31306791976281,0.161630694655448,NA,FALSE,9.0513997555248
"CAN",1993,3,NA,NA,1,"cpi",0.8,1.09372226065328,3.77195570236342,0.161630694655448,NA,FALSE,11.9991491016885
"CAN",1993,3,NA,NA,1,"cpi",0.9,0.482926957743448,3.99798937167614,0.161630694655448,NA,FALSE,9.94098767569269
"CAN",1994,3,NA,NA,1,"cpi",0.1,0.769329803999807,0.785176524628785,2.11688403676572,NA,FALSE,2.97519674759993
"CAN",1994,3,NA,NA,1,"cpi",0.2,0.769062811314948,0.79639084716301,2.11688403676572,NA,FALSE,3.32856100985482
"CAN",1994,3,NA,NA,1,"cpi",0.3,0.761451905541412,0.824407711967572,2.11688403676572,NA,FALSE,3.75574530584943
"CAN",1994,3,NA,NA,1,"cpi",0.4,0.696021208479895,1.31695889086214,2.11688403676572,NA,FALSE,3.28735483539416
"CAN",1994,3,NA,NA,1,"cpi",0.5,0.654029244903197,1.63862439039418,2.11688403676572,NA,FALSE,2.89763373097712
"CAN",1994,3,NA,NA,1,"cpi",0.6,0.619295193023619,1.71993305395867,2.11688403676572,NA,FALSE,3.08539277497028
"CAN",1994,3,NA,NA,1,"cpi",0.7,0.608890518463431,1.78036454411862,2.11688403676572,NA,FALSE,3.41493730996915
"CAN",1994,3,NA,NA,1,"cpi",0.8,0.155481982330525,1.99209170632005,2.11688403676572,NA,FALSE,3.08453302844622
"CAN",1994,3,NA,NA,1,"cpi",0.9,-0.321697514096491,2.0603320729994,2.11688403676572,NA,FALSE,3.51306886242227
"CAN",1995,3,NA,NA,1,"cpi",0.1,2.36871786760381,2.53202553638162,1.55309584667184,NA,FALSE,1.97580104862663
"CAN",1995,3,NA,NA,1,"cpi",0.2,2.31429761322774,2.58083933127226,1.55309584667184,NA,FALSE,2.16954613443426
"CAN",1995,3,NA,NA,1,"cpi",0.3,2.21130785397218,2.80250600914217,1.55309584667184,NA,FALSE,2.47180389031382
"CAN",1995,3,NA,NA,1,"cpi",0.4,1.93090501681744,3.2793452951443,1.55309584667184,NA,FALSE,2.6078041788122
"CAN",1995,3,NA,NA,1,"cpi",0.5,1.86134201630824,3.29082516652198,1.55309584667184,NA,FALSE,2.66246782875933
"CAN",1995,3,NA,NA,1,"cpi",0.6,1.78230898270911,3.50725591923234,1.55309584667184,NA,FALSE,2.87101261670955
"CAN",1995,3,NA,NA,1,"cpi",0.7,1.16683492154858,3.82121126887399,1.55309584667184,NA,TRUE,2.65437634732541
"CAN",1995,3,NA,NA,1,"cpi",0.8,0.64557378847381,4.09489635423668,1.55309584667184,NA,TRUE,3.44932256576287
"CAN",1995,3,NA,NA,1,"cpi",0.9,0.240190971348813,4.25808828562917,1.55309584667184,NA,TRUE,4.01789731428036
"CAN",1996,3,NA,NA,1,"cpi",0.1,1.84694952676805,2.04327331204769,1.60528783555959,NA,FALSE,0.733349765742886
"CAN",1996,3,NA,NA,1,"cpi",0.2,1.84338740468256,2.06630192606527,1.60528783555959,NA,FALSE,0.818163444190127
"CAN",1996,3,NA,NA,1,"cpi",0.3,1.58158363230721,2.30329361950333,1.60528783555959,NA,TRUE,0.721709987196114
"CAN",1996,3,NA,NA,1,"cpi",0.4,1.51647262455189,2.54059972554123,1.60528783555959,NA,TRUE,1.02412710098934
"CAN",1996,3,NA,NA,1,"cpi",0.5,1.51538072577545,2.81442077166262,1.60528783555959,NA,TRUE,1.29904004588717
"CAN",1996,3,NA,NA,1,"cpi",0.6,1.32568706276053,2.99188969961065,1.60528783555959,NA,TRUE,1.66620263685012
"CAN",1996,3,NA,NA,1,"cpi",0.7,1.05213918710406,3.3297764533319,1.60528783555959,NA,TRUE,2.27763726622784
"CAN",1996,3,NA,NA,1,"cpi",0.8,0.504258099905727,3.52454571964999,1.60528783555959,NA,TRUE,3.02028761974427
"CAN",1996,3,NA,NA,1,"cpi",0.9,0.0781730448626757,3.64068201806839,1.60528783555959,NA,TRUE,3.56250897320572
"CAN",1997,3,NA,NA,1,"cpi",0.1,1.83229921676826,2.04573607716435,0.988908029337191,NA,FALSE,2.0876394991318
"CAN",1997,3,NA,NA,1,"cpi",0.2,1.71006527421058,2.11393458493743,0.988908029337191,NA,FALSE,2.20676242291032
"CAN",1997,3,NA,NA,1,"cpi",0.3,1.61637495152208,2.25968221790142,0.988908029337191,NA,FALSE,2.43606990119332
"CAN",1997,3,NA,NA,1,"cpi",0.4,1.5493819558877,2.58649684970106,0.988908029337191,NA,FALSE,2.90536131564839
"CAN",1997,3,NA,NA,1,"cpi",0.5,1.54180508621996,2.8585233146379,0.988908029337191,NA,FALSE,3.52830645594903
"CAN",1997,3,NA,NA,1,"cpi",0.6,1.352182872995,3.03959908494407,0.988908029337191,NA,FALSE,3.50379043023813
"CAN",1997,3,NA,NA,1,"cpi",0.7,1.06275700174222,3.37527041876519,0.988908029337191,NA,FALSE,2.80483989972318
"CAN",1997,3,NA,NA,1,"cpi",0.8,0.517340223612826,3.57734521865602,0.988908029337191,NA,TRUE,3.06000499504319
"CAN",1997,3,NA,NA,1,"cpi",0.9,0.0931716524379295,3.69783763363812,0.988908029337191,NA,TRUE,3.60466598120019
"CAN",1998,3,NA,NA,1,"cpi",0.1,1.20549452613714,1.46698230363446,1.7107350135213,NA,FALSE,0.803160466134741
"CAN",1998,3,NA,NA,1,"cpi",0.2,1.19091795774314,1.50076523261778,1.7107350135213,NA,FALSE,0.834771727133431
"CAN",1998,3,NA,NA,1,"cpi",0.3,1.17004078884995,1.6007627008804,1.7107350135213,NA,FALSE,0.744928519575867
"CAN",1998,3,NA,NA,1,"cpi",0.4,1.03794336538359,2.04445848138666,1.7107350135213,NA,TRUE,1.00651511600307
"CAN",1998,3,NA,NA,1,"cpi",0.5,1.03586560743706,2.33767868939306,1.7107350135213,NA,TRUE,1.301813081956
"CAN",1998,3,NA,NA,1,"cpi",0.6,0.972171158445236,2.47615817545801,1.7107350135213,NA,TRUE,1.50398701701278
"CAN",1998,3,NA,NA,1,"cpi",0.7,0.91854206586069,2.5342653237492,1.7107350135213,NA,TRUE,1.61572325788851
"CAN",1998,3,NA,NA,1,"cpi",0.8,0.362842243225409,2.95379080619691,1.7107350135213,NA,TRUE,2.5909485629715
"CAN",1998,3,NA,NA,1,"cpi",0.9,0.230412813747859,3.02283811742576,1.7107350135213,NA,TRUE,2.7924253036779
"CAN",1999,3,NA,NA,1,"cpi",0.1,1.91494785774976,2.13896696670473,2.6718361971244,NA,FALSE,1.40817295433202
"CAN",1999,3,NA,NA,1,"cpi",0.2,1.79887840357538,2.21017022500251,2.6718361971244,NA,FALSE,1.56545675173185
"CAN",1999,3,NA,NA,1,"cpi",0.3,1.68666632203612,2.35711561144807,2.6718361971244,NA,FALSE,1.56965096277289
"CAN",1999,3,NA,NA,1,"cpi",0.4,1.58477943148045,2.67922606585759,2.6718361971244,NA,TRUE,1.09444663437715
"CAN",1999,3,NA,NA,1,"cpi",0.5,1.52337224471601,2.947626811109,2.6718361971244,NA,TRUE,1.42425456639298
"CAN",1999,3,NA,NA,1,"cpi",0.6,1.34392296254314,3.13598974092225,2.6718361971244,NA,TRUE,1.79206677837911
"CAN",1999,3,NA,NA,1,"cpi",0.7,1.08420892594696,3.19206882364097,2.6718361971244,NA,TRUE,2.10785989769401
"CAN",1999,3,NA,NA,1,"cpi",0.8,1.01103408136616,3.68401979241007,2.6718361971244,NA,TRUE,2.67298571104391
"CAN",1999,3,NA,NA,1,"cpi",0.9,0.419197580037472,3.81331317873479,2.6718361971244,NA,TRUE,3.39411559869732
"CAN",2000,3,NA,NA,1,"cpi",0.1,2.76587177921187,3.01311774004956,2.47906219852806,NA,FALSE,0.884600584579484
"CAN",2000,3,NA,NA,1,"cpi",0.2,2.69518956652105,3.08731259485273,2.47906219852806,NA,FALSE,0.932441448314145
"CAN",2000,3,NA,NA,1,"cpi",0.3,2.3273389384494,3.21776112808487,2.47906219852806,NA,TRUE,0.89042218963547
"CAN",2000,3,NA,NA,1,"cpi",0.4,2.24420039527309,3.51806497244849,2.47906219852806,NA,TRUE,1.27386457717541
"CAN",2000,3,NA,NA,1,"cpi",0.5,2.05947640057808,3.74697014494996,2.47906219852806,NA,TRUE,1.68749374437187
"CAN",2000,3,NA,NA,1,"cpi",0.6,1.89362732828649,4.01454500754638,2.47906219852806,NA,TRUE,2.12091767925989
"CAN",2000,3,NA,NA,1,"cpi",0.7,1.27973307502589,4.06792375311393,2.47906219852806,NA,TRUE,2.78819067808803
"CAN",2000,3,NA,NA,1,"cpi",0.8,1.21270258691146,4.65630810848633,2.47906219852806,NA,TRUE,3.44360552157487
"CAN",2000,3,NA,NA,1,"cpi",0.9,0.670561502837157,4.86581818849357,2.47906219852806,NA,TRUE,4.19525668565641
"CAN",2001,3,NA,NA,1,"cpi",0.1,2.51715646017445,2.84600051009833,2.20880570551249,NA,FALSE,1.01406794917269
"CAN",2001,3,NA,NA,1,"cpi",0.2,2.44600375102929,2.91137873392418,2.20880570551249,NA,FALSE,1.0583700966869
"CAN",2001,3,NA,NA,1,"cpi",0.3,2.21994812503837,3.04513614286313,2.20880570551249,NA,FALSE,0.857023502184431
"CAN",2001,3,NA,NA,1,"cpi",0.4,2.1186149706588,3.34833164204623,2.20880570551249,NA,TRUE,1.22971667138743
"CAN",2001,3,NA,NA,1,"cpi",0.5,1.96590955183151,3.37125795678557,2.20880570551249,NA,TRUE,1.40534840495405
"CAN",2001,3,NA,NA,1,"cpi",0.6,1.79576358724505,3.83832775318813,2.20880570551249,NA,TRUE,2.04256416594308
"CAN",2001,3,NA,NA,1,"cpi",0.7,1.24051558920532,3.89224812205099,2.20880570551249,NA,TRUE,2.65173253284567
"CAN",2001,3,NA,NA,1,"cpi",0.8,1.17225268957685,4.46129023765628,2.20880570551249,NA,TRUE,3.28903754807943
"CAN",2001,3,NA,NA,1,"cpi",0.9,0.620143888825596,4.65471076012351,2.20880570551249,NA,TRUE,4.03456687129791
"CAN",2002,3,NA,NA,1,"cpi",0.1,2.21837959512644,2.55926867772535,2.71189071546809,NA,FALSE,0.680049166471668
"CAN",2002,3,NA,NA,1,"cpi",0.2,2.12287299708356,2.66473100859062,2.71189071546809,NA,FALSE,0.659757278700731
"CAN",2002,3,NA,NA,1,"cpi",0.3,2.0290091751309,2.80312724408739,2.71189071546809,NA,TRUE,0.774118068956498
"CAN",2002,3,NA,NA,1,"cpi",0.4,1.98954113968934,3.11037665352923,2.71189071546809,NA,TRUE,1.12083551383989
"CAN",2002,3,NA,NA,1,"cpi",0.5,1.83473497129217,3.13167774612099,2.71189071546809,NA,TRUE,1.29694277482883
"CAN",2002,3,NA,NA,1,"cpi",0.6,1.65856504574139,3.59128272886709,2.71189071546809,NA,TRUE,1.9327176831257
"CAN",2002,3,NA,NA,1,"cpi",0.7,1.18553524818459,3.64596241803971,2.71189071546809,NA,TRUE,2.46042716985512
"CAN",2002,3,NA,NA,1,"cpi",0.8,1.11554458850466,4.18788798304902,2.71189071546809,NA,TRUE,3.07234339454436
"CAN",2002,3,NA,NA,1,"cpi",0.9,0.577146799038459,4.35875200190789,2.71189071546809,NA,TRUE,3.78160520286943
"CAN",2003,3,NA,NA,1,"cpi",0.1,2.64210410757293,3.04784130340026,1.83151661303942,NA,FALSE,2.20704273923512
"CAN",2003,3,NA,NA,1,"cpi",0.2,2.61668484550995,3.12386807490268,1.83151661303942,NA,FALSE,2.47010381056906
"CAN",2003,3,NA,NA,1,"cpi",0.3,2.36370211171019,3.25100543481309,1.83151661303942,NA,FALSE,2.4078333193051
"CAN",2003,3,NA,NA,1,"cpi",0.4,2.31045518379826,3.30244125187554,1.83151661303942,NA,FALSE,2.58844797060675
"CAN",2003,3,NA,NA,1,"cpi",0.5,2.19605156399204,3.57765856723823,1.83151661303942,NA,FALSE,2.83974680705666
"CAN",2003,3,NA,NA,1,"cpi",0.6,1.9139614243745,3.77949377913131,1.83151661303942,NA,FALSE,2.27775641143219
"CAN",2003,3,NA,NA,1,"cpi",0.7,1.2878816713959,4.10442557824691,1.83151661303942,NA,TRUE,2.81654390685101
"CAN",2003,3,NA,NA,1,"cpi",0.8,1.22110725334254,4.69682885786844,1.83151661303942,NA,TRUE,3.47572160452589
"CAN",2003,3,NA,NA,1,"cpi",0.9,0.706906607079513,4.90968202087609,1.83151661303942,NA,TRUE,4.20277541379658
"CAN",2004,3,NA,NA,1,"cpi",0.1,1.90060698493948,2.24926282490999,2.18071628336509,NA,TRUE,0.348655839970509
"CAN",2004,3,NA,NA,1,"cpi",0.2,1.83264092166694,2.32040071919299,2.18071628336509,NA,TRUE,0.487759797526053
"CAN",2004,3,NA,NA,1,"cpi",0.3,1.77800588184992,2.46234375396018,2.18071628336509,NA,TRUE,0.684337872110254
"CAN",2004,3,NA,NA,1,"cpi",0.4,1.73896358263851,2.48914407703976,2.18071628336509,NA,TRUE,0.75018049440125
"CAN",2004,3,NA,NA,1,"cpi",0.5,1.65160990408288,2.79721399560185,2.18071628336509,NA,TRUE,1.14560409151897
"CAN",2004,3,NA,NA,1,"cpi",0.6,1.46703028320912,2.92904385919209,2.18071628336509,NA,TRUE,1.46201357598297
"CAN",2004,3,NA,NA,1,"cpi",0.7,1.10878044856401,3.30213752518079,2.18071628336509,NA,TRUE,2.19335707661679
"CAN",2004,3,NA,NA,1,"cpi",0.8,1.0363777653484,3.75974934727727,2.18071628336509,NA,TRUE,2.72337158192887
"CAN",2004,3,NA,NA,1,"cpi",0.9,0.479833304804933,3.94558149839592,2.18071628336509,NA,TRUE,3.46574819359099
"CAN",2005,3,NA,NA,1,"cpi",0.1,2.19472121439799,2.52029846572518,1.97519342012289,NA,FALSE,0.813416794160746
"CAN",2005,3,NA,NA,1,"cpi",0.2,2.16181633793116,2.63909539110265,1.97519342012289,NA,FALSE,0.943836347692169
"CAN",2005,3,NA,NA,1,"cpi",0.3,2.01032181414958,2.7751657670028,1.97519342012289,NA,FALSE,0.865210792929492
"CAN",2005,3,NA,NA,1,"cpi",0.4,1.95628985563257,2.81173773869562,1.97519342012289,NA,TRUE,0.855447883063048
"CAN",2005,3,NA,NA,1,"cpi",0.5,1.82110118907786,3.10677669896972,1.97519342012289,NA,TRUE,1.28567550989186
"CAN",2005,3,NA,NA,1,"cpi",0.6,1.64430515615539,3.19849178538399,1.97519342012289,NA,TRUE,1.5541866292286
"CAN",2005,3,NA,NA,1,"cpi",0.7,1.17982080265358,3.57769830153953,1.97519342012289,NA,TRUE,2.39787749888595
"CAN",2005,3,NA,NA,1,"cpi",0.8,1.10965056622819,4.11512449320213,1.97519342012289,NA,TRUE,3.00547392697393
"CAN",2005,3,NA,NA,1,"cpi",0.9,0.569901745113772,4.32799118500771,1.97519342012289,NA,TRUE,3.75808943989394
"CAN",2006,3,NA,NA,1,"cpi",0.1,2.01956836927212,2.33298593809556,2.10062087284572,NA,TRUE,0.313417568823439
"CAN",2006,3,NA,NA,1,"cpi",0.2,1.9431652350939,2.37607810004285,2.10062087284572,NA,TRUE,0.432912864948947
"CAN",2006,3,NA,NA,1,"cpi",0.3,1.86295500233379,2.50005246305428,2.10062087284572,NA,TRUE,0.637097460720481
"CAN",2006,3,NA,NA,1,"cpi",0.4,1.84052166629156,2.62187394831613,2.10062087284572,NA,TRUE,0.781352282024573
"CAN",2006,3,NA,NA,1,"cpi",0.5,1.72134641509917,2.9071539292909,2.10062087284572,NA,TRUE,1.18580751419173
"CAN",2006,3,NA,NA,1,"cpi",0.6,1.53996932034307,3.0069058304445,2.10062087284572,NA,TRUE,1.46693651010143
"CAN",2006,3,NA,NA,1,"cpi",0.7,1.22852378006035,3.38904943263616,2.10062087284572,NA,TRUE,2.16052565257582
"CAN",2006,3,NA,NA,1,"cpi",0.8,1.06652556607986,3.90596702908574,2.10062087284572,NA,TRUE,2.83944146300588
"CAN",2006,3,NA,NA,1,"cpi",0.9,0.516891604174153,4.10292243379522,2.10062087284572,NA,TRUE,3.58603082962107
"CAN",2007,3,NA,NA,1,"cpi",0.1,2.12726066975859,2.40187255105323,2.31447335265955,NA,TRUE,0.27461188129464
"CAN",2007,3,NA,NA,1,"cpi",0.2,2.11007757367381,2.49168923155693,2.31447335265955,NA,TRUE,0.381611657883117
"CAN",2007,3,NA,NA,1,"cpi",0.3,1.95703585328262,2.61378934271028,2.31447335265955,NA,TRUE,0.656753489427666
"CAN",2007,3,NA,NA,1,"cpi",0.4,1.9205308701021,2.70875632325838,2.31447335265955,NA,TRUE,0.788225453156286
"CAN",2007,3,NA,NA,1,"cpi",0.5,1.78222522439419,3.01876052975955,2.31447335265955,NA,TRUE,1.23653530536536
"CAN",2007,3,NA,NA,1,"cpi",0.6,1.6036438814464,3.12382780168627,2.31447335265955,NA,TRUE,1.52018392023988
"CAN",2007,3,NA,NA,1,"cpi",0.7,1.25302511648042,3.50417894529631,2.31447335265955,NA,TRUE,2.25115382881589
"CAN",2007,3,NA,NA,1,"cpi",0.8,1.09284409255398,4.0336126230028,2.31447335265955,NA,TRUE,2.94076853044882
"CAN",2007,3,NA,NA,1,"cpi",0.9,0.549242880531661,4.24027844230326,2.31447335265955,NA,TRUE,3.6910355617716
"CAN",2008,3,NA,NA,1,"cpi",0.1,2.3745442933905,2.57762159458573,0.284533874408197,NA,FALSE,4.84754489893369
"CAN",2008,3,NA,NA,1,"cpi",0.2,2.31676662077187,2.6507838221335,0.284533874408197,NA,FALSE,5.4145990672708
"CAN",2008,3,NA,NA,1,"cpi",0.3,2.09930786108896,2.80770951913667,0.284533874408197,NA,FALSE,5.89347019142131
"CAN",2008,3,NA,NA,1,"cpi",0.4,2.05694571606587,2.9072835005903,0.284533874408197,NA,FALSE,6.75837725671667
"CAN",2008,3,NA,NA,1,"cpi",0.5,1.96693778258256,3.2090486027108,0.284533874408197,NA,FALSE,7.9717264528257
"CAN",2008,3,NA,NA,1,"cpi",0.6,1.71220833442221,3.3231785255667,0.284533874408197,NA,FALSE,8.74934249121456
"CAN",2008,3,NA,NA,1,"cpi",0.7,1.29479963584154,3.70047354626008,0.284533874408197,NA,FALSE,9.14077898664085
"CAN",2008,3,NA,NA,1,"cpi",0.8,1.13771690173057,4.25124701008386,0.284533874408197,NA,FALSE,11.645360381577
"CAN",2008,3,NA,NA,1,"cpi",0.9,0.604401464430225,4.47446898352139,0.284533874408197,NA,FALSE,10.2674193195317
"CAN",2009,3,NA,NA,1,"cpi",0.1,0.84949663953199,0.900749824544056,1.75525687020327,NA,FALSE,1.95015773092143
"CAN",2009,3,NA,NA,1,"cpi",0.2,0.794065943191409,0.908557586929479,1.75525687020327,NA,FALSE,2.23123985192255
"CAN",2009,3,NA,NA,1,"cpi",0.3,0.776190643422027,0.936950468466417,1.75525687020327,NA,FALSE,2.49877811572112
"CAN",2009,3,NA,NA,1,"cpi",0.4,0.77001396241179,1.02281550132889,1.75525687020327,NA,FALSE,2.69427276849836
"CAN",2009,3,NA,NA,1,"cpi",0.5,0.748827541442485,1.40278817561461,1.75525687020327,NA,FALSE,2.06383541252679
"CAN",2009,3,NA,NA,1,"cpi",0.6,0.711773340417251,1.43089322321645,1.75525687020327,NA,FALSE,2.3409381177333
"CAN",2009,3,NA,NA,1,"cpi",0.7,0.681688280494296,1.83719770203872,1.75525687020327,NA,TRUE,1.15550942154443
"CAN",2009,3,NA,NA,1,"cpi",0.8,0.597657197690814,2.18540875305047,1.75525687020327,NA,TRUE,1.58775155535965
"CAN",2009,3,NA,NA,1,"cpi",0.9,-0.286378366423714,2.25147570579281,1.75525687020327,NA,TRUE,2.53785407221652
"CAN",2010,3,NA,NA,1,"cpi",0.1,1.92305136083137,2.11804421673694,2.85717434028225,NA,FALSE,1.83750424156181
"CAN",2010,3,NA,NA,1,"cpi",0.2,1.88698480718666,2.17335443113683,2.85717434028225,NA,FALSE,1.99591939681371
"CAN",2010,3,NA,NA,1,"cpi",0.3,1.72727171810518,2.30061528748282,2.85717434028225,NA,FALSE,2.16351229166171
"CAN",2010,3,NA,NA,1,"cpi",0.4,1.69150292588986,2.41869467009873,2.85717434028225,NA,FALSE,2.1887906448206
"CAN",2010,3,NA,NA,1,"cpi",0.5,1.6145956600699,2.72961034600939,2.85717434028225,NA,FALSE,1.62527066303091
"CAN",2010,3,NA,NA,1,"cpi",0.6,1.42831622540493,2.9886920892392,2.85717434028225,NA,TRUE,1.56037586383428
"CAN",2010,3,NA,NA,1,"cpi",0.7,1.09326634705066,3.18717028051503,2.85717434028225,NA,TRUE,2.09390393346437
"CAN",2010,3,NA,NA,1,"cpi",0.8,1.02037613239506,3.68214097721977,2.85717434028225,NA,TRUE,2.66176484482471
"CAN",2010,3,NA,NA,1,"cpi",0.9,0.136268816332141,3.86206920775753,2.85717434028225,NA,TRUE,3.72580039142539
"CAN",2011,3,NA,NA,1,"cpi",0.1,2.85706326820999,3.04724850937055,1.50118536134935,NA,FALSE,3.20324725640644
"CAN",2011,3,NA,NA,1,"cpi",0.2,2.66250622874967,3.18903260035289,1.50118536134935,NA,FALSE,3.42982854010404
"CAN",2011,3,NA,NA,1,"cpi",0.3,2.46035655790454,3.38115422886581,1.50118536134935,NA,FALSE,3.6612868039761
"CAN",2011,3,NA,NA,1,"cpi",0.4,2.3845717172896,3.43665551520439,1.50118536134935,NA,FALSE,3.99670498438231
"CAN",2011,3,NA,NA,1,"cpi",0.5,2.14943410303843,3.70645133388263,1.50118536134935,NA,FALSE,4.15001219760053
"CAN",2011,3,NA,NA,1,"cpi",0.6,1.98771617937207,3.85634049764115,1.50118536134935,NA,FALSE,4.30127840838271
"CAN",2011,3,NA,NA,1,"cpi",0.7,1.31743782802282,4.19861728488204,1.50118536134935,NA,TRUE,2.88117945685922
"CAN",2011,3,NA,NA,1,"cpi",0.8,1.25159221371543,4.80354547729065,1.50118536134935,NA,TRUE,3.55195326357522
"CAN",2011,3,NA,NA,1,"cpi",0.9,0.452930972081306,5.06878258756103,1.50118536134935,NA,TRUE,4.61585161547972
"CAN",2012,3,NA,NA,1,"cpi",0.1,1.72324349579538,1.90924222057206,0.931270594714462,NA,FALSE,1.94593850495649
"CAN",2012,3,NA,NA,1,"cpi",0.2,1.72286371940071,1.94515252951083,0.931270594714462,NA,FALSE,2.20127162182575
"CAN",2012,3,NA,NA,1,"cpi",0.3,1.55824275139644,2.07022473103586,0.931270594714462,NA,FALSE,2.30333099873078
"CAN",2012,3,NA,NA,1,"cpi",0.4,1.53338017038524,2.18398122295492,0.931270594714462,NA,FALSE,2.65763297147228
"CAN",2012,3,NA,NA,1,"cpi",0.5,1.49127679646357,2.50437799382468,0.931270594714462,NA,FALSE,3.25312600435755
"CAN",2012,3,NA,NA,1,"cpi",0.6,1.23600172525237,2.62679442518955,0.931270594714462,NA,FALSE,2.91444835262673
"CAN",2012,3,NA,NA,1,"cpi",0.7,1.04157864088467,2.95395874380449,0.931270594714462,NA,FALSE,2.64776707738786
"CAN",2012,3,NA,NA,1,"cpi",0.8,0.967064137397695,3.42357630145674,0.931270594714462,NA,FALSE,2.81444759089138
"CAN",2012,3,NA,NA,1,"cpi",0.9,0.063255334022653,3.583834677962,0.931270594714462,NA,TRUE,3.52057934393935
"CAN",2013,3,NA,NA,1,"cpi",0.1,1.3547192081672,1.42866738142324,1.87639912240215,NA,FALSE,1.06890759765362
"CAN",2013,3,NA,NA,1,"cpi",0.2,1.25779203536432,1.44087273886987,1.87639912240215,NA,FALSE,1.27189666233626
"CAN",2013,3,NA,NA,1,"cpi",0.3,1.20568888088477,1.55342935793544,1.87639912240215,NA,FALSE,1.27051123266984
"CAN",2013,3,NA,NA,1,"cpi",0.4,1.17869068273043,1.65748905522455,1.87639912240215,NA,FALSE,1.20849859641944
"CAN",2013,3,NA,NA,1,"cpi",0.5,1.16707325824872,1.9991531301121,1.87639912240215,NA,TRUE,0.832079871863378
"CAN",2013,3,NA,NA,1,"cpi",0.6,0.925636530215265,2.11002292200259,1.87639912240215,NA,TRUE,1.18438639178733
"CAN",2013,3,NA,NA,1,"cpi",0.7,0.907729335775288,2.43083555254039,1.87639912240215,NA,TRUE,1.5231062167651
"CAN",2013,3,NA,NA,1,"cpi",0.8,0.809934823858054,2.84358278895222,1.87639912240215,NA,TRUE,2.03364796509416
"CAN",2013,3,NA,NA,1,"cpi",0.9,-0.100523209739749,2.95971917664718,1.87639912240215,NA,TRUE,3.06024238638693
"CAN",2014,3,NA,NA,1,"cpi",0.1,2.02196665536712,2.25297846003746,1.11090953952792,NA,FALSE,2.2555831732019
"CAN",2014,3,NA,NA,1,"cpi",0.2,1.96523835988686,2.28518992858741,1.11090953952792,NA,FALSE,2.4557736195979
"CAN",2014,3,NA,NA,1,"cpi",0.3,1.79709845956046,2.50255065597746,1.11090953952792,NA,FALSE,2.66599196793856
"CAN",2014,3,NA,NA,1,"cpi",0.4,1.76689645116993,2.72218862070505,1.11090953952792,NA,FALSE,3.14191520834183
"CAN",2014,3,NA,NA,1,"cpi",0.5,1.66534975224726,2.83700197970648,1.11090953952792,NA,FALSE,3.38941307833659
"CAN",2014,3,NA,NA,1,"cpi",0.6,1.42924248190184,2.96702035135845,1.11090953952792,NA,FALSE,3.12944258132623
"CAN",2014,3,NA,NA,1,"cpi",0.7,1.11791123999512,3.23201536371124,1.11090953952792,NA,FALSE,2.16078212683081
"CAN",2014,3,NA,NA,1,"cpi",0.8,1.01115420819248,3.80542558832119,1.11090953952792,NA,TRUE,2.79427138012871
"CAN",2014,3,NA,NA,1,"cpi",0.9,0.171081919649994,3.99473247933397,1.11090953952792,NA,TRUE,3.82365055968398
"CAN",2015,3,NA,NA,1,"cpi",0.1,1.41252880806155,1.58850428730754,1.41168586698797,NA,FALSE,0.177848681631735
"CAN",2015,3,NA,NA,1,"cpi",0.2,1.31176273822988,1.59146514074804,1.41168586698797,NA,TRUE,0.279702402518168
"CAN",2015,3,NA,NA,1,"cpi",0.3,1.29235873398212,1.71632490116973,1.41168586698797,NA,TRUE,0.423966167187617
"CAN",2015,3,NA,NA,1,"cpi",0.4,1.28682105873721,1.82344105892869,1.41168586698797,NA,TRUE,0.536620000191479
"CAN",2015,3,NA,NA,1,"cpi",0.5,1.10120654894902,2.13810549803392,1.41168586698797,NA,TRUE,1.0368989490849
"CAN",2015,3,NA,NA,1,"cpi",0.6,1.00092617758655,2.27291094136434,1.41168586698797,NA,TRUE,1.27198476377779
"CAN",2015,3,NA,NA,1,"cpi",0.7,0.954705013078382,2.52187784131356,1.41168586698797,NA,TRUE,1.56717282823518
"CAN",2015,3,NA,NA,1,"cpi",0.8,0.84818024426271,2.85196850864365,1.41168586698797,NA,TRUE,2.00378826438094
"CAN",2015,3,NA,NA,1,"cpi",0.9,-0.0488996924929834,3.1564423652038,1.41168586698797,NA,TRUE,3.20534205769678
"CAN",2016,3,NA,NA,1,"cpi",0.1,1.65124330745067,1.83568941190531,1.57888581671161,NA,FALSE,0.345240528319213
"CAN",2016,3,NA,NA,1,"cpi",0.2,1.60797021827457,1.86404362989073,1.57888581671161,NA,FALSE,0.32878441552356
"CAN",2016,3,NA,NA,1,"cpi",0.3,1.48731936209648,1.98906711363652,1.57888581671161,NA,TRUE,0.501747751540041
"CAN",2016,3,NA,NA,1,"cpi",0.4,1.4727695680048,2.10130081957579,1.57888581671161,NA,TRUE,0.628531251570995
"CAN",2016,3,NA,NA,1,"cpi",0.5,1.43933763467845,2.40573927900083,1.57888581671161,NA,TRUE,0.966401644322381
"CAN",2016,3,NA,NA,1,"cpi",0.6,1.15696919954916,2.48161082929544,1.57888581671161,NA,TRUE,1.32464162974628
"CAN",2016,3,NA,NA,1,"cpi",0.7,1.01608092837395,2.80090522556138,1.57888581671161,NA,TRUE,1.78482429718743
"CAN",2016,3,NA,NA,1,"cpi",0.8,0.912216008352859,3.1643050608096,1.57888581671161,NA,TRUE,2.25208905245674
"CAN",2016,3,NA,NA,1,"cpi",0.9,0.0375355286901324,3.45695345799928,1.57888581671161,NA,TRUE,3.41941792930915
"CAN",2017,3,NA,NA,1,"cpi",0.1,1.78441200573065,1.93028157704311,2.23316270166586,NA,FALSE,0.818938737140783
"CAN",2017,3,NA,NA,1,"cpi",0.2,1.68856392867629,1.96925076086726,2.23316270166586,NA,FALSE,0.94046668418747
"CAN",2017,3,NA,NA,1,"cpi",0.3,1.60993539392029,2.14068304896314,2.23316270166586,NA,FALSE,0.794975234193465
"CAN",2017,3,NA,NA,1,"cpi",0.4,1.5730589845055,2.25576157253047,2.23316270166586,NA,TRUE,0.682702588024963
"CAN",2017,3,NA,NA,1,"cpi",0.5,1.52065490775851,2.55451546461325,2.23316270166586,NA,TRUE,1.03386055685474
"CAN",2017,3,NA,NA,1,"cpi",0.6,1.24371267981969,2.63747262261762,2.23316270166586,NA,TRUE,1.39375994279793
"CAN",2017,3,NA,NA,1,"cpi",0.7,1.05019947100767,2.95601505422286,2.23316270166586,NA,TRUE,1.90581558321518
"CAN",2017,3,NA,NA,1,"cpi",0.8,0.947813146687526,3.33793127754017,2.23316270166586,NA,TRUE,2.39011813085264
"CAN",2017,3,NA,NA,1,"cpi",0.9,0.384714081428281,3.63619317862567,2.23316270166586,NA,TRUE,3.25147909719739
"CAN",2018,3,NA,NA,1,"cpi",0.1,2.30551982441152,2.51079857175435,1.91921619871868,NA,FALSE,1.06373124888248
"CAN",2018,3,NA,NA,1,"cpi",0.2,2.14405977343793,2.60850685395201,1.91921619871868,NA,FALSE,1.02655601731219
"CAN",2018,3,NA,NA,1,"cpi",0.3,2.04521342373203,2.73397749695124,1.91921619871868,NA,FALSE,1.04875614468592
"CAN",2018,3,NA,NA,1,"cpi",0.4,2.00191581723755,2.83972502535864,1.91921619871868,NA,FALSE,1.11347460318399
"CAN",2018,3,NA,NA,1,"cpi",0.5,1.83886081757926,3.13669757315308,1.91921619871868,NA,TRUE,1.29783675557382
"CAN",2018,3,NA,NA,1,"cpi",0.6,1.58315210043734,3.24738170923381,1.91921619871868,NA,TRUE,1.66422960879647
"CAN",2018,3,NA,NA,1,"cpi",0.7,1.18371011996702,3.56298159751522,1.91921619871868,NA,TRUE,2.3792714775482
"CAN",2018,3,NA,NA,1,"cpi",0.8,1.08710974827973,4.01735504780225,1.91921619871868,NA,TRUE,2.93024529952252
"CAN",2018,3,NA,NA,1,"cpi",0.9,0.555831969123208,4.33758337799674,1.91921619871868,NA,TRUE,3.78175140887353
"CAN",2019,3,NA,NA,1,"cpi",0.1,2.05547281664549,2.2144577262256,0.71139989671781,NA,FALSE,3.1458136205305
"CAN",2019,3,NA,NA,1,"cpi",0.2,1.91181036986512,2.28457204590274,0.71139989671781,NA,FALSE,3.37378785890589
"CAN",2019,3,NA,NA,1,"cpi",0.3,1.82564043701183,2.44929264647412,0.71139989671781,NA,FALSE,3.80719661030234
"CAN",2019,3,NA,NA,1,"cpi",0.4,1.77719502333425,2.54867375223261,0.71139989671781,NA,FALSE,4.32412915095317
"CAN",2019,3,NA,NA,1,"cpi",0.5,1.69417671251211,2.77146533086735,0.71139989671781,NA,FALSE,5.00839588153245
"CAN",2019,3,NA,NA,1,"cpi",0.6,1.45129392319682,2.95472453417214,0.71139989671781,NA,FALSE,5.20290074337037
"CAN",2019,3,NA,NA,1,"cpi",0.7,1.12662184461788,3.27173636471764,0.71139989671781,NA,FALSE,4.91326083943358
"CAN",2019,3,NA,NA,1,"cpi",0.8,1.0547798281932,3.69134212942155,0.71139989671781,NA,FALSE,6.07036161598223
"CAN",2019,3,NA,NA,1,"cpi",0.9,0.473723211089846,4.00103014593602,0.71139989671781,NA,TRUE,3.52730693484617
"CAN",2020,3,NA,NA,1,"cpi",0.1,1.11951939237037,1.1655118368562,3.31148121717802,NA,FALSE,4.81481328964544
"CAN",2020,3,NA,NA,1,"cpi",0.2,1.09875532246655,1.20593011961508,3.31148121717802,NA,FALSE,5.37105254105589
"CAN",2020,3,NA,NA,1,"cpi",0.3,1.03261223966641,1.35405189650211,3.31148121717802,NA,FALSE,5.91409485876688
"CAN",2020,3,NA,NA,1,"cpi",0.4,0.999228065640631,1.42894007436182,3.31148121717802,NA,FALSE,6.70484915144187
"CAN",2020,3,NA,NA,1,"cpi",0.5,0.974324822081525,1.6771990538854,3.31148121717802,NA,FALSE,7.24000288497436
"CAN",2020,3,NA,NA,1,"cpi",0.6,0.873181742268008,1.82881262364361,3.31148121717802,NA,FALSE,8.36897384904768
"CAN",2020,3,NA,NA,1,"cpi",0.7,0.793660225196819,2.14996684272534,3.31148121717802,NA,FALSE,9.09973578054644
"CAN",2020,3,NA,NA,1,"cpi",0.8,0.763123998464489,2.43710386339017,3.31148121717802,NA,FALSE,10.4177534028043
"CAN",2020,3,NA,NA,1,"cpi",0.9,0.157834053036615,2.70624114093662,3.31148121717802,NA,FALSE,14.6532086127281
"CAN",2021,3,NA,NA,1,"cpi",0.1,3.16436142860641,3.38470099450699,6.50977236228281,NA,FALSE,7.1649426054024
"CAN",2021,3,NA,NA,1,"cpi",0.2,2.82509412881053,3.58573280206767,6.50977236228281,NA,FALSE,8.070737573795
"CAN",2021,3,NA,NA,1,"cpi",0.3,2.69534292469743,3.71179041244325,6.50977236228281,NA,FALSE,9.01068163014457
"CAN",2021,3,NA,NA,1,"cpi",0.4,2.61229961843979,3.84019095891423,6.50977236228281,NA,FALSE,10.1264960183697
"CAN",2021,3,NA,NA,1,"cpi",0.5,2.36329830298592,4.09619616079204,6.50977236228281,NA,FALSE,11.3872026637692
"CAN",2021,3,NA,NA,1,"cpi",0.6,2.14258469016169,4.26828428542514,6.50977236228281,NA,FALSE,13.3331399795518
"CAN",2021,3,NA,NA,1,"cpi",0.7,1.4037499962053,4.61562431324564,6.50977236228281,NA,FALSE,15.8395279772882
"CAN",2021,3,NA,NA,1,"cpi",0.8,1.31668549533565,5.26588661444274,6.50977236228281,NA,FALSE,16.3880585975078
"CAN",2021,3,NA,NA,1,"cpi",0.9,0.861557902318834,5.53329838503546,6.50977236228281,NA,FALSE,24.2012200276636
"CAN",2022,3,NA,NA,1,"cpi",0.1,5.71168437468366,6.02541789283782,3.78831288758619,NA,FALSE,4.58789237837076
"CAN",2022,3,NA,NA,1,"cpi",0.2,4.92307642418946,6.48418353964074,3.78831288758619,NA,FALSE,4.39801595695946
"CAN",2022,3,NA,NA,1,"cpi",0.3,4.88571743855809,6.65200400590957,3.78831288758619,NA,FALSE,4.90172814155691
"CAN",2022,3,NA,NA,1,"cpi",0.4,4.53068986480103,6.81095701261188,3.78831288758619,NA,FALSE,4.75485707186032
"CAN",2022,3,NA,NA,1,"cpi",0.5,3.91877912021039,6.94445014686011,3.78831288758619,NA,FALSE,3.54753595714651
"CAN",2022,3,NA,NA,1,"cpi",0.6,3.80186093577879,7.16834201238027,3.78831288758619,NA,FALSE,3.43422131756448
"CAN",2022,3,NA,NA,1,"cpi",0.7,2.05638794836789,7.55132692768728,3.78831288758619,NA,TRUE,5.49493897931939
"CAN",2022,3,NA,NA,1,"cpi",0.8,1.99760682644257,8.53891750996536,3.78831288758619,NA,TRUE,6.5413106835228
"CAN",2022,3,NA,NA,1,"cpi",0.9,1.68648736122842,9.60515287596377,3.78831288758619,NA,TRUE,7.91866551473535
"CAN",2023,3,NA,NA,1,"cpi",0.1,3.53894071389168,3.77261435361996,NA,NA,NA,NA
"CAN",2023,3,NA,NA,1,"cpi",0.2,3.13788128826706,3.98099978417205,NA,NA,NA,NA
"CAN",2023,3,NA,NA,1,"cpi",0.3,2.99902239064264,4.21315301563156,NA,NA,NA,NA
"CAN",2023,3,NA,NA,1,"cpi",0.4,2.78923440636185,4.27737504457324,NA,NA,NA,NA
"CAN",2023,3,NA,NA,1,"cpi",0.5,2.59520418106717,4.53189817821848,NA,NA,NA,NA
"CAN",2023,3,NA,NA,1,"cpi",0.6,2.38612549560079,4.7006524806536,NA,NA,NA,NA
"CAN",2023,3,NA,NA,1,"cpi",0.7,1.50105147089367,5.05330678740324,NA,NA,NA,NA
"CAN",2023,3,NA,NA,1,"cpi",0.8,1.41820372522702,5.78578048853052,NA,NA,NA,NA
"CAN",2023,3,NA,NA,1,"cpi",0.9,0.984546233904224,6.65122529229257,NA,NA,NA,NA
"CAN",1965,3,NA,NA,1,"gdp",0.1,6.45950577821725,6.45950577821725,6.54977117773675,NA,FALSE,0.200589776709986
"CAN",1965,3,NA,NA,1,"gdp",0.2,6.45950577821725,6.45950577821725,6.54977117773675,NA,FALSE,0.225663498798734
"CAN",1965,3,NA,NA,1,"gdp",0.3,6.45950577821725,6.45950577821725,6.54977117773675,NA,FALSE,0.257901141484267
"CAN",1965,3,NA,NA,1,"gdp",0.4,6.45950577821725,6.45950577821725,6.54977117773675,NA,FALSE,0.300884665064978
"CAN",1965,3,NA,NA,1,"gdp",0.5,6.45950577821725,6.45950577821725,6.54977117773675,NA,FALSE,0.361061598077974
"CAN",1965,3,NA,NA,1,"gdp",0.6,6.45950577821725,6.45950577821725,6.54977117773675,NA,FALSE,0.451326997597468
"CAN",1965,3,NA,NA,1,"gdp",0.7,6.45950577821725,6.45950577821725,6.54977117773675,NA,FALSE,0.601769330129957
"CAN",1965,3,NA,NA,1,"gdp",0.8,6.45950577821725,6.45950577821725,6.54977117773675,NA,FALSE,0.902653995194935
"CAN",1965,3,NA,NA,1,"gdp",0.9,6.45950577821725,6.80614634185633,6.54977117773675,NA,TRUE,0.346640563639083
"CAN",1966,3,NA,NA,1,"gdp",0.1,6.43600061694912,6.43600061694912,3.02069459694722,NA,FALSE,7.58956893333755
"CAN",1966,3,NA,NA,1,"gdp",0.2,6.43600061694912,6.43600061694912,3.02069459694722,NA,FALSE,8.53826505000475
"CAN",1966,3,NA,NA,1,"gdp",0.3,6.43600061694912,6.43600061694912,3.02069459694722,NA,FALSE,9.75801720000542
"CAN",1966,3,NA,NA,1,"gdp",0.4,6.43600061694912,6.43600061694912,3.02069459694722,NA,FALSE,11.3843534000063
"CAN",1966,3,NA,NA,1,"gdp",0.5,6.43600061694912,6.43600061694912,3.02069459694722,NA,FALSE,13.6612240800076
"CAN",1966,3,NA,NA,1,"gdp",0.6,6.43600061694912,6.43600061694912,3.02069459694722,NA,FALSE,17.0765301000095
"CAN",1966,3,NA,NA,1,"gdp",0.7,6.43600061694912,6.43600061694912,3.02069459694722,NA,FALSE,22.7687068000127
"CAN",1966,3,NA,NA,1,"gdp",0.8,6.43600061694912,6.43600061694912,3.02069459694722,NA,FALSE,34.153060200019
"CAN",1966,3,NA,NA,1,"gdp",0.9,5.99909465379054,6.43600061694912,3.02069459694722,NA,FALSE,60.004907100025
"CAN",1967,3,NA,NA,1,"gdp",0.1,11.2523477631673,11.2523477631673,4.87275387657536,NA,FALSE,14.1768753035377
"CAN",1967,3,NA,NA,1,"gdp",0.2,11.2523477631673,11.2523477631673,4.87275387657536,NA,FALSE,15.9489847164799
"CAN",1967,3,NA,NA,1,"gdp",0.3,11.2523477631673,12.9904875771183,4.87275387657536,NA,FALSE,19.9655509184994
"CAN",1967,3,NA,NA,1,"gdp",0.4,11.2523477631673,31.5265575589429,4.87275387657536,NA,FALSE,41.5395227510821
"CAN",1967,3,NA,NA,1,"gdp",0.5,11.2523477631673,46.7414589400193,4.87275387657536,NA,FALSE,61.0074867232198
"CAN",1967,3,NA,NA,1,"gdp",0.6,11.2523477631673,46.7414589400193,4.87275387657536,NA,FALSE,67.3870806098118
"CAN",1967,3,NA,NA,1,"gdp",0.7,11.2523477631673,46.7414589400193,4.87275387657536,NA,FALSE,78.0197370874651
"CAN",1967,3,NA,NA,1,"gdp",0.8,11.2523477631673,46.7414589400193,4.87275387657536,NA,FALSE,99.2850500427716
"CAN",1967,3,NA,NA,1,"gdp",0.9,10.4471447792675,46.7414589400194,4.87275387657536,NA,FALSE,147.782132214595
"CAN",1968,3,NA,NA,1,"gdp",0.1,5.61552004161958,5.61552004161958,4.95638978351345,NA,FALSE,1.46473390690252
"CAN",1968,3,NA,NA,1,"gdp",0.2,5.61552004161958,5.61552004161958,4.95638978351345,NA,FALSE,1.64782564526533
"CAN",1968,3,NA,NA,1,"gdp",0.3,5.61552004161958,5.61552004161958,4.95638978351345,NA,FALSE,1.88322930887467
"CAN",1968,3,NA,NA,1,"gdp",0.4,5.61552004161958,5.61552004161958,4.95638978351345,NA,FALSE,2.19710086035378
"CAN",1968,3,NA,NA,1,"gdp",0.5,5.61552004161958,5.61552004161958,4.95638978351345,NA,FALSE,2.63652103242453
"CAN",1968,3,NA,NA,1,"gdp",0.6,5.61552004161958,5.61552004161958,4.95638978351345,NA,FALSE,3.29565129053067
"CAN",1968,3,NA,NA,1,"gdp",0.7,5.61552004161958,5.61552004161958,4.95638978351345,NA,FALSE,4.39420172070755
"CAN",1968,3,NA,NA,1,"gdp",0.8,5.54064739856627,5.82314082066804,4.95638978351345,NA,FALSE,6.12506957262998
"CAN",1968,3,NA,NA,1,"gdp",0.9,3.90079322433887,5.87720538937463,4.95638978351345,NA,TRUE,1.97641216503576
"CAN",1969,3,NA,NA,1,"gdp",0.1,5.3823878385883,5.3823878385883,2.88177445953906,NA,FALSE,5.55691862010942
"CAN",1969,3,NA,NA,1,"gdp",0.2,5.3823878385883,5.3823878385883,2.88177445953906,NA,FALSE,6.2515334476231
"CAN",1969,3,NA,NA,1,"gdp",0.3,5.3823878385883,5.3823878385883,2.88177445953906,NA,FALSE,7.1446096544264
"CAN",1969,3,NA,NA,1,"gdp",0.4,5.3823878385883,5.3823878385883,2.88177445953906,NA,FALSE,8.33537793016413
"CAN",1969,3,NA,NA,1,"gdp",0.5,5.3823878385883,5.3823878385883,2.88177445953906,NA,FALSE,10.002453516197
"CAN",1969,3,NA,NA,1,"gdp",0.6,5.3823878385883,5.3823878385883,2.88177445953906,NA,FALSE,12.5030668952462
"CAN",1969,3,NA,NA,1,"gdp",0.7,5.3823878385883,5.57080835565021,2.88177445953906,NA,FALSE,16.8591763773902
"CAN",1969,3,NA,NA,1,"gdp",0.8,4.96016664152566,5.92256474378211,2.88177445953906,NA,FALSE,21.7463199221225
"CAN",1969,3,NA,NA,1,"gdp",0.9,3.85690110298395,5.92256474378211,2.88177445953906,NA,FALSE,21.5681965096959
"CAN",1970,3,NA,NA,1,"gdp",0.1,4.86675153087303,4.86675153087303,3.9082218305623,NA,FALSE,2.13006600069052
"CAN",1970,3,NA,NA,1,"gdp",0.2,4.86675153087303,4.86675153087303,3.9082218305623,NA,FALSE,2.39632425077683
"CAN",1970,3,NA,NA,1,"gdp",0.3,4.86675153087303,4.86675153087303,3.9082218305623,NA,FALSE,2.7386562866021
"CAN",1970,3,NA,NA,1,"gdp",0.4,4.86675153087303,4.86675153087303,3.9082218305623,NA,FALSE,3.19509900103578
"CAN",1970,3,NA,NA,1,"gdp",0.5,4.82265620374729,4.86675153087303,3.9082218305623,NA,FALSE,3.70183281986571
"CAN",1970,3,NA,NA,1,"gdp",0.6,4.79741150297384,4.86675153087303,3.9082218305623,NA,FALSE,4.51528838995689
"CAN",1970,3,NA,NA,1,"gdp",0.7,4.79741150297384,4.86675153087303,3.9082218305623,NA,FALSE,5.99727117730945
"CAN",1970,3,NA,NA,1,"gdp",0.8,3.50530043729902,4.94565916035824,3.9082218305623,NA,TRUE,1.44035872305921
"CAN",1970,3,NA,NA,1,"gdp",0.9,3.36021113892419,4.94565916035824,3.9082218305623,NA,TRUE,1.58544802143405
"CAN",1971,3,NA,NA,1,"gdp",0.1,4.41637149972527,4.41637149972527,5.38782227759672,NA,FALSE,2.158779506381
"CAN",1971,3,NA,NA,1,"gdp",0.2,4.41637149972527,4.41637149972527,5.38782227759672,NA,FALSE,2.42862694467863
"CAN",1971,3,NA,NA,1,"gdp",0.3,4.41637149972527,4.41637149972527,5.38782227759672,NA,FALSE,2.77557365106129
"CAN",1971,3,NA,NA,1,"gdp",0.4,4.41637149972527,4.41637149972527,5.38782227759672,NA,FALSE,3.23816925957151
"CAN",1971,3,NA,NA,1,"gdp",0.5,4.41637149972527,4.41637149972527,5.38782227759672,NA,FALSE,3.88580311148581
"CAN",1971,3,NA,NA,1,"gdp",0.6,4.41637149972527,4.44860373029035,5.38782227759672,NA,FALSE,4.72832496709694
"CAN",1971,3,NA,NA,1,"gdp",0.7,4.41637149972527,5.19281581867531,5.38782227759672,NA,FALSE,2.07648737842609
"CAN",1971,3,NA,NA,1,"gdp",0.8,3.65985737834344,5.35409811985153,5.38782227759672,NA,FALSE,2.03148231895995
"CAN",1971,3,NA,NA,1,"gdp",0.9,3.65985737834344,5.35409811985153,5.38782227759672,NA,FALSE,2.36872389641181
"CAN",1972,3,NA,NA,1,"gdp",0.1,5.17436451306165,5.17436451306165,6.5234008306138,NA,FALSE,2.99785848344923
"CAN",1972,3,NA,NA,1,"gdp",0.2,5.17436451306165,5.17436451306165,6.5234008306138,NA,FALSE,3.37259079388038
"CAN",1972,3,NA,NA,1,"gdp",0.3,4.9750307597248,5.17436451306165,6.5234008306138,NA,FALSE,4.05372323205728
"CAN",1972,3,NA,NA,1,"gdp",0.4,4.9750307597248,5.17436451306165,6.5234008306138,NA,FALSE,4.69612147851069
"CAN",1972,3,NA,NA,1,"gdp",0.5,4.9750307597248,5.17436451306165,6.5234008306138,NA,FALSE,5.59547902354545
"CAN",1972,3,NA,NA,1,"gdp",0.6,4.9750307597248,5.72639245122649,6.5234008306138,NA,FALSE,4.73640358843823
"CAN",1972,3,NA,NA,1,"gdp",0.7,4.9750307597248,5.72639245122649,6.5234008306138,NA,FALSE,6.06475088741707
"CAN",1972,3,NA,NA,1,"gdp",0.8,3.30184569171976,6.1676400588048,6.5234008306138,NA,FALSE,6.42340208517504
"CAN",1972,3,NA,NA,1,"gdp",0.9,3.30184569171976,6.1676400588048,6.5234008306138,NA,FALSE,9.98100980326504
"CAN",1973,3,NA,NA,1,"gdp",0.1,5.9177972522715,5.9177972522715,3.30867751212904,NA,FALSE,5.79804386698326
"CAN",1973,3,NA,NA,1,"gdp",0.2,5.9177972522715,5.9177972522715,3.30867751212904,NA,FALSE,6.52279935035617
"CAN",1973,3,NA,NA,1,"gdp",0.3,5.9177972522715,5.9177972522715,3.30867751212904,NA,FALSE,7.45462782897848
"CAN",1973,3,NA,NA,1,"gdp",0.4,5.3601281832406,5.9177972522715,3.30867751212904,NA,FALSE,7.39583797273611
"CAN",1973,3,NA,NA,1,"gdp",0.5,5.3601281832406,5.9177972522715,3.30867751212904,NA,FALSE,8.76347175347716
"CAN",1973,3,NA,NA,1,"gdp",0.6,5.3601281832406,6.13590718307903,3.30867751212904,NA,FALSE,11.0330323553962
"CAN",1973,3,NA,NA,1,"gdp",0.7,5.3601281832406,6.7661424108257,3.30867751212904,NA,FALSE,15.0823520349955
"CAN",1973,3,NA,NA,1,"gdp",0.8,3.02707530091987,6.77242232347533,3.30867751212904,NA,TRUE,3.74534702255545
"CAN",1973,3,NA,NA,1,"gdp",0.9,3.02707530091987,7.31526317709049,3.30867751212904,NA,TRUE,4.28818787617062
"CAN",1974,3,NA,NA,1,"gdp",0.1,4.88519680274527,4.88519680274527,1.52054160710415,NA,FALSE,7.47701154586916
"CAN",1974,3,NA,NA,1,"gdp",0.2,4.88519680274527,4.88519680274527,1.52054160710415,NA,FALSE,8.4116379891028
"CAN",1974,3,NA,NA,1,"gdp",0.3,4.88519680274527,4.88519680274527,1.52054160710415,NA,FALSE,9.61330055897463
"CAN",1974,3,NA,NA,1,"gdp",0.4,4.88519680274527,4.88519680274527,1.52054160710415,NA,FALSE,11.2155173188037
"CAN",1974,3,NA,NA,1,"gdp",0.5,4.88519680274527,4.88575870453029,1.52054160710415,NA,FALSE,13.4591826843495
"CAN",1974,3,NA,NA,1,"gdp",0.6,4.88519680274527,4.97660688258314,1.52054160710415,NA,FALSE,16.9146860580435
"CAN",1974,3,NA,NA,1,"gdp",0.7,4.74415980075167,5.02893941447715,1.52054160710415,NA,FALSE,21.7755675713756
"CAN",1974,3,NA,NA,1,"gdp",0.8,3.80492618599226,5.07183472766482,1.52054160710415,NA,FALSE,24.1107543305537
"CAN",1974,3,NA,NA,1,"gdp",0.9,3.80492618599226,5.07357030301736,1.52054160710415,NA,FALSE,46.9563356947873
"CAN",1975,3,NA,NA,1,"gdp",0.1,3.2343343589338,3.2343343589338,5.73026103671639,NA,FALSE,5.54650372840575
"CAN",1975,3,NA,NA,1,"gdp",0.2,3.2343343589338,3.2343343589338,5.73026103671639,NA,FALSE,6.23981669445647
"CAN",1975,3,NA,NA,1,"gdp",0.3,3.2343343589338,3.2343343589338,5.73026103671639,NA,FALSE,7.13121907937883
"CAN",1975,3,NA,NA,1,"gdp",0.4,3.2343343589338,3.2343343589338,5.73026103671639,NA,FALSE,8.31975559260863
"CAN",1975,3,NA,NA,1,"gdp",0.5,3.2343343589338,3.82666625590392,5.73026103671639,NA,FALSE,8.20671102021999
"CAN",1975,3,NA,NA,1,"gdp",0.6,3.2343343589338,4.05915630081052,5.73026103671639,NA,FALSE,9.18034562140609
"CAN",1975,3,NA,NA,1,"gdp",0.7,3.19158928267265,4.12940450824318,5.73026103671639,NA,FALSE,11.6101920820586
"CAN",1975,3,NA,NA,1,"gdp",0.8,2.58221749062328,4.13233033033165,5.73026103671639,NA,FALSE,17.5294199035558
"CAN",1975,3,NA,NA,1,"gdp",0.9,0.692895848935097,4.33176554270698,5.73026103671639,NA,FALSE,31.6087795739601
"CAN",1976,3,NA,NA,1,"gdp",0.1,4.98982656868713,4.98982656868713,3.47483145017208,NA,FALSE,3.36665581892234
"CAN",1976,3,NA,NA,1,"gdp",0.2,4.98982656868713,4.98982656868713,3.47483145017208,NA,FALSE,3.78748779628763
"CAN",1976,3,NA,NA,1,"gdp",0.3,4.98982656868713,4.98982656868713,3.47483145017208,NA,FALSE,4.32855748147158
"CAN",1976,3,NA,NA,1,"gdp",0.4,4.78208734470203,4.98982656868713,3.47483145017208,NA,FALSE,4.56525887241828
"CAN",1976,3,NA,NA,1,"gdp",0.5,4.78208734470203,4.98982656868713,3.47483145017208,NA,FALSE,5.43676280210491
"CAN",1976,3,NA,NA,1,"gdp",0.6,4.78208734470203,5.12650719918176,3.47483145017208,NA,FALSE,6.8806993271295
"CAN",1976,3,NA,NA,1,"gdp",0.7,3.4392572061173,6.05637319011404,3.47483145017208,NA,TRUE,2.61711598399675
"CAN",1976,3,NA,NA,1,"gdp",0.8,3.21898745930743,6.48149462961976,3.47483145017208,NA,TRUE,3.26250717031232
"CAN",1976,3,NA,NA,1,"gdp",0.9,2.64138109505622,6.59363152498853,3.47483145017208,NA,TRUE,3.95225042993231
"CAN",1977,3,NA,NA,1,"gdp",0.1,4.88278149265567,5.26058545135338,3.6682764087084,NA,FALSE,3.07670414524718
"CAN",1977,3,NA,NA,1,"gdp",0.2,4.88278149265567,5.26058545135338,3.6682764087084,NA,FALSE,3.41406666856587
"CAN",1977,3,NA,NA,1,"gdp",0.3,4.88278149265567,5.26058545135338,3.6682764087084,NA,FALSE,3.84781848426132
"CAN",1977,3,NA,NA,1,"gdp",0.4,4.88278149265567,5.26058545135338,3.6682764087084,NA,FALSE,4.42615423852192
"CAN",1977,3,NA,NA,1,"gdp",0.5,4.88278149265567,5.26058545135338,3.6682764087084,NA,FALSE,5.23582429448676
"CAN",1977,3,NA,NA,1,"gdp",0.6,4.66996646850617,5.44997870148345,3.6682764087084,NA,FALSE,5.7884625319661
"CAN",1977,3,NA,NA,1,"gdp",0.7,3.81058305244234,5.881652995193,3.6682764087084,NA,FALSE,3.0197809009769
"CAN",1977,3,NA,NA,1,"gdp",0.8,3.76472272990573,6.07900831190421,3.6682764087084,NA,FALSE,3.27874879397174
"CAN",1977,3,NA,NA,1,"gdp",0.9,1.59744661283552,6.13106593695894,3.6682764087084,NA,TRUE,4.53361932412341
"CAN",1978,3,NA,NA,1,"gdp",0.1,4.87275387657536,4.87275387657536,3.65704745334168,NA,FALSE,2.70156982940816
"CAN",1978,3,NA,NA,1,"gdp",0.2,4.87275387657536,4.87275387657536,3.65704745334168,NA,FALSE,3.03926605808418
"CAN",1978,3,NA,NA,1,"gdp",0.3,4.87275387657536,4.87275387657536,3.65704745334168,NA,FALSE,3.47344692352478
"CAN",1978,3,NA,NA,1,"gdp",0.4,4.87275387657536,4.87275387657536,3.65704745334168,NA,FALSE,4.05235474411224
"CAN",1978,3,NA,NA,1,"gdp",0.5,4.87275387657536,5.18086325924502,3.65704745334168,NA,FALSE,5.17093507560435
"CAN",1978,3,NA,NA,1,"gdp",0.6,3.78855745100748,5.23444809622881,3.65704745334168,NA,FALSE,2.10344063355032
"CAN",1978,3,NA,NA,1,"gdp",0.7,3.77873496754785,5.89663849554451,3.65704745334168,NA,FALSE,2.92915362270443
"CAN",1978,3,NA,NA,1,"gdp",0.8,3.62753693157262,6.11352898570685,3.65704745334168,NA,TRUE,2.48599205413422
"CAN",1978,3,NA,NA,1,"gdp",0.9,1.68698337507036,6.17073952354774,3.65704745334168,NA,TRUE,4.48375614847739
"CAN",1979,3,NA,NA,1,"gdp",0.1,4.64871177401814,4.64871177401814,2.15730015132174,NA,FALSE,5.53647027265866
"CAN",1979,3,NA,NA,1,"gdp",0.2,4.64871177401814,4.64871177401814,2.15730015132174,NA,FALSE,6.22852905674099
"CAN",1979,3,NA,NA,1,"gdp",0.3,4.64871177401814,4.64871177401814,2.15730015132174,NA,FALSE,7.1183189219897
"CAN",1979,3,NA,NA,1,"gdp",0.4,4.64871177401814,4.64871177401814,2.15730015132174,NA,FALSE,8.30470540898799
"CAN",1979,3,NA,NA,1,"gdp",0.5,4.58860088293631,4.90149050982604,2.15730015132174,NA,FALSE,10.038092553348
"CAN",1979,3,NA,NA,1,"gdp",0.6,3.78058366252807,5.10223678522805,2.15730015132174,NA,FALSE,9.43807067873163
"CAN",1979,3,NA,NA,1,"gdp",0.7,3.65841756194044,5.31644166615129,2.15730015132174,NA,FALSE,11.6654735083355
"CAN",1979,3,NA,NA,1,"gdp",0.8,3.62990174776573,6.11152515418655,2.15730015132174,NA,FALSE,17.2076393708607
"CAN",1979,3,NA,NA,1,"gdp",0.9,1.68178600877855,6.168436579411,2.15730015132174,NA,TRUE,4.48665057063245
"CAN",1980,3,NA,NA,1,"gdp",0.1,4.30963035548148,4.30963035548148,3.35834604481556,NA,FALSE,2.11396513481317
"CAN",1980,3,NA,NA,1,"gdp",0.2,4.02749668500443,4.30963035548148,3.35834604481556,NA,FALSE,1.95501027094924
"CAN",1980,3,NA,NA,1,"gdp",0.3,3.99073331238506,4.30963035548148,3.35834604481556,NA,FALSE,2.12571780758072
"CAN",1980,3,NA,NA,1,"gdp",0.4,3.9082218305623,4.32469619073881,3.35834604481556,NA,FALSE,2.24939364599898
"CAN",1980,3,NA,NA,1,"gdp",0.5,3.9082218305623,4.32469619073881,3.35834604481556,NA,FALSE,2.61597750316348
"CAN",1980,3,NA,NA,1,"gdp",0.6,3.52681620370744,4.56139475135774,3.35834604481556,NA,FALSE,1.87692934210971
"CAN",1980,3,NA,NA,1,"gdp",0.7,2.93882873840315,4.89023227084426,3.35834604481556,NA,TRUE,1.95140353244111
"CAN",1980,3,NA,NA,1,"gdp",0.8,2.6377337560819,5.84389198456998,3.35834604481556,NA,TRUE,3.20615822848808
"CAN",1980,3,NA,NA,1,"gdp",0.9,1.70966891731007,5.86085371502304,3.35834604481556,NA,TRUE,4.15118479771297
"CAN",1981,3,NA,NA,1,"gdp",0.1,3.84514716609203,3.85763037245878,-3.22209797045677,NA,FALSE,15.7174723986974
"CAN",1981,3,NA,NA,1,"gdp",0.2,3.84514716609203,3.85763037245878,-3.22209797045677,NA,FALSE,17.6805960477387
"CAN",1981,3,NA,NA,1,"gdp",0.3,3.82976079223372,3.85763037245878,-3.22209797045677,NA,FALSE,20.1760374736265
"CAN",1981,3,NA,NA,1,"gdp",0.4,3.69486381672711,3.86362676974365,-3.22209797045677,NA,FALSE,23.2253022436295
"CAN",1981,3,NA,NA,1,"gdp",0.5,3.69280821632997,4.06516120875555,-3.22209797045677,NA,FALSE,28.0319777395725
"CAN",1981,3,NA,NA,1,"gdp",0.6,3.67493064227636,4.2018912816484,-3.22209797045677,NA,FALSE,35.0121037030377
"CAN",1981,3,NA,NA,1,"gdp",0.7,3.67493064227636,5.05587679890337,-3.22209797045677,NA,FALSE,47.3611369081812
"CAN",1981,3,NA,NA,1,"gdp",0.8,3.26602104541186,6.0582212378367,-3.22209797045677,NA,FALSE,67.6733903511111
"CAN",1981,3,NA,NA,1,"gdp",0.9,2.06814641194212,6.10717596923524,-3.22209797045677,NA,FALSE,109.843917205271
"CAN",1982,3,NA,NA,1,"gdp",0.1,3.7718630728291,4.31469644888351,2.52351663975967,NA,FALSE,3.31693656065315
"CAN",1982,3,NA,NA,1,"gdp",0.2,2.25492776854765,4.31469644888351,2.52351663975967,NA,TRUE,2.05976868033585
"CAN",1982,3,NA,NA,1,"gdp",0.3,2.25492776854765,4.45822347226486,2.52351663975967,NA,TRUE,2.2032957037172
"CAN",1982,3,NA,NA,1,"gdp",0.4,2.09291969869222,4.53610934963256,2.52351663975967,NA,TRUE,2.44318965094035
"CAN",1982,3,NA,NA,1,"gdp",0.5,1.48701859941941,4.53610934963256,2.52351663975967,NA,TRUE,3.04909075021316
"CAN",1982,3,NA,NA,1,"gdp",0.6,0.192571792607127,4.53610934963256,2.52351663975967,NA,TRUE,4.34353755702544
"CAN",1982,3,NA,NA,1,"gdp",0.7,0.14693827653653,4.53610934963257,2.52351663975967,NA,TRUE,4.38917107309604
"CAN",1982,3,NA,NA,1,"gdp",0.8,0.104074017256843,4.75759406537985,2.52351663975967,NA,TRUE,4.65352004812301
"CAN",1982,3,NA,NA,1,"gdp",0.9,-1.50225359013304,4.88392668373436,2.52351663975967,NA,TRUE,6.3861802738674
"CAN",1983,3,NA,NA,1,"gdp",0.1,3.4741801229183,3.4741801229183,5.73401280738071,NA,FALSE,5.02185040991646
"CAN",1983,3,NA,NA,1,"gdp",0.2,3.4741801229183,3.4741801229183,5.73401280738071,NA,FALSE,5.64958171115602
"CAN",1983,3,NA,NA,1,"gdp",0.3,3.4741801229183,3.4741801229183,5.73401280738071,NA,FALSE,6.45666481274974
"CAN",1983,3,NA,NA,1,"gdp",0.4,3.4741801229183,3.4741801229183,5.73401280738071,NA,FALSE,7.53277561487469
"CAN",1983,3,NA,NA,1,"gdp",0.5,3.41517922322013,3.82694859486092,5.73401280738071,NA,FALSE,8.04002622171994
"CAN",1983,3,NA,NA,1,"gdp",0.6,3.13406948613694,4.65364034116205,5.73401280738071,NA,FALSE,6.9214331861184
"CAN",1983,3,NA,NA,1,"gdp",0.7,2.81584484139368,4.68565988654796,5.73401280738071,NA,FALSE,8.85883451737259
"CAN",1983,3,NA,NA,1,"gdp",0.8,2.66966261195995,5.00165248660872,5.73401280738071,NA,FALSE,9.65559308236865
"CAN",1983,3,NA,NA,1,"gdp",0.9,1.15712679972251,5.93596097899219,5.73401280738071,NA,TRUE,4.77883417926969
"CAN",1984,3,NA,NA,1,"gdp",0.1,4.01147574626597,4.01147574626597,4.6310874339193,NA,FALSE,1.37691486145185
"CAN",1984,3,NA,NA,1,"gdp",0.2,4.01147574626597,4.01147574626597,4.6310874339193,NA,FALSE,1.54902921913333
"CAN",1984,3,NA,NA,1,"gdp",0.3,4.01147574626597,4.01147574626597,4.6310874339193,NA,FALSE,1.77031910758094
"CAN",1984,3,NA,NA,1,"gdp",0.4,4.01147574626597,4.05445636761987,4.6310874339193,NA,FALSE,1.96508417568533
"CAN",1984,3,NA,NA,1,"gdp",0.5,3.99688034656057,5.21523747611732,4.6310874339193,NA,TRUE,1.21835712955675
"CAN",1984,3,NA,NA,1,"gdp",0.6,3.47523012888854,5.84389663989656,4.6310874339193,NA,TRUE,2.36866651100802
"CAN",1984,3,NA,NA,1,"gdp",0.7,2.97919004198628,6.12125689684978,4.6310874339193,NA,TRUE,3.1420668548635
"CAN",1984,3,NA,NA,1,"gdp",0.8,2.94957209902389,6.46366863966924,4.6310874339193,NA,TRUE,3.51409654064535
"CAN",1984,3,NA,NA,1,"gdp",0.9,2.64311761690963,6.59440097485912,4.6310874339193,NA,TRUE,3.95128335794949
"CAN",1985,3,NA,NA,1,"gdp",0.1,3.94030507031219,3.94030507031219,2.10619562235258,NA,FALSE,4.07579877324359
"CAN",1985,3,NA,NA,1,"gdp",0.2,3.94030507031219,3.94030507031219,2.10619562235258,NA,FALSE,4.58527361989904
"CAN",1985,3,NA,NA,1,"gdp",0.3,3.94030507031219,3.94030507031219,2.10619562235258,NA,FALSE,5.24031270845605
"CAN",1985,3,NA,NA,1,"gdp",0.4,3.94030507031219,4.30506543824634,2.10619562235258,NA,FALSE,6.47845852779954
"CAN",1985,3,NA,NA,1,"gdp",0.5,3.8154388417738,4.88375796650249,2.10619562235258,NA,FALSE,7.90529200241359
"CAN",1985,3,NA,NA,1,"gdp",0.6,3.35802870279372,5.43499913488278,2.10619562235258,NA,FALSE,8.33613583429477
"CAN",1985,3,NA,NA,1,"gdp",0.7,3.15622041704616,5.67820308531281,2.10619562235258,NA,FALSE,9.52214796622386
"CAN",1985,3,NA,NA,1,"gdp",0.8,2.85341273316981,6.21300460230288,2.10619562235258,NA,FALSE,10.8317629773055
"CAN",1985,3,NA,NA,1,"gdp",0.9,2.13262425655755,6.36820223783288,2.10619562235258,NA,FALSE,4.76415066537489
"CAN",1986,3,NA,NA,1,"gdp",0.1,3.40875390068982,3.40875390068982,3.9800271468504,NA,FALSE,1.26949610257907
"CAN",1986,3,NA,NA,1,"gdp",0.2,3.40875390068982,3.40875390068982,3.9800271468504,NA,FALSE,1.42818311540145
"CAN",1986,3,NA,NA,1,"gdp",0.3,3.40875390068982,3.40875390068982,3.9800271468504,NA,FALSE,1.63220927474452
"CAN",1986,3,NA,NA,1,"gdp",0.4,3.40875390068982,3.73227646898312,3.9800271468504,NA,FALSE,1.14935816118423
"CAN",1986,3,NA,NA,1,"gdp",0.5,3.35667993875857,3.77738187629757,3.9800271468504,NA,FALSE,1.2312830197503
"CAN",1986,3,NA,NA,1,"gdp",0.6,2.95279868380555,4.49892314368564,3.9800271468504,NA,TRUE,1.54612445988009
"CAN",1986,3,NA,NA,1,"gdp",0.7,2.79461217773647,4.66393415311631,3.9800271468504,NA,TRUE,1.86932197537983
"CAN",1986,3,NA,NA,1,"gdp",0.8,1.69441569209323,5.63916743196533,3.9800271468504,NA,TRUE,3.9447517398721
"CAN",1986,3,NA,NA,1,"gdp",0.9,0.987999968231915,5.85037269773275,3.9800271468504,NA,TRUE,4.86237272950084
"CAN",1987,3,NA,NA,1,"gdp",0.1,3.82284767757097,3.82284767757097,4.3265584934836,NA,FALSE,1.11935736869474
"CAN",1987,3,NA,NA,1,"gdp",0.2,3.82284767757097,3.82284767757097,4.3265584934836,NA,FALSE,1.25927703978158
"CAN",1987,3,NA,NA,1,"gdp",0.3,3.82284767757097,3.82284767757097,4.3265584934836,NA,FALSE,1.43917375975038
"CAN",1987,3,NA,NA,1,"gdp",0.4,3.75463355430142,4.15736796105146,4.3265584934836,NA,FALSE,0.966702848190516
"CAN",1987,3,NA,NA,1,"gdp",0.5,3.64121525412283,4.49224653874579,4.3265584934836,NA,TRUE,0.851031284622966
"CAN",1987,3,NA,NA,1,"gdp",0.6,3.1037667588605,5.19362566265905,4.3265584934836,NA,TRUE,2.08985890379855
"CAN",1987,3,NA,NA,1,"gdp",0.7,2.88994989822116,5.41666703884309,4.3265584934836,NA,TRUE,2.52671714062193
"CAN",1987,3,NA,NA,1,"gdp",0.8,2.25370025724045,6.06503683943111,4.3265584934836,NA,TRUE,3.81133658219066
"CAN",1987,3,NA,NA,1,"gdp",0.9,1.81786137363906,6.23467641803898,4.3265584934836,NA,TRUE,4.41681504439992
"CAN",1988,3,NA,NA,1,"gdp",0.1,3.98946263950433,3.98946263950433,2.31163142188661,NA,FALSE,3.72851381692827
"CAN",1988,3,NA,NA,1,"gdp",0.2,3.98946263950433,3.98946263950433,2.31163142188661,NA,FALSE,4.1945780440443
"CAN",1988,3,NA,NA,1,"gdp",0.3,3.98946263950433,3.98946263950433,2.31163142188661,NA,FALSE,4.79380347890777
"CAN",1988,3,NA,NA,1,"gdp",0.4,3.98946263950433,4.29988232941972,2.31163142188661,NA,FALSE,5.90319041530779
"CAN",1988,3,NA,NA,1,"gdp",0.5,3.76534099242397,4.58697227759935,2.31163142188661,NA,FALSE,6.63646956732482
"CAN",1988,3,NA,NA,1,"gdp",0.6,3.32566819412739,5.32209836485348,2.31163142188661,NA,FALSE,7.06661403193
"CAN",1988,3,NA,NA,1,"gdp",0.7,2.9075808902461,5.50670831653028,2.31163142188661,NA,FALSE,6.57212388201413
"CAN",1988,3,NA,NA,1,"gdp",0.8,2.35712985108484,6.1437937059528,2.31163142188661,NA,FALSE,4.2416481468503
"CAN",1988,3,NA,NA,1,"gdp",0.9,1.97132927434146,6.30574646034151,2.31163142188661,NA,TRUE,4.33441718600005
"CAN",1989,3,NA,NA,1,"gdp",0.1,3.521853413588,3.521853413588,0.200184045958284,NA,FALSE,7.38148748362159
"CAN",1989,3,NA,NA,1,"gdp",0.2,3.521853413588,3.521853413588,0.200184045958284,NA,FALSE,8.30417341907429
"CAN",1989,3,NA,NA,1,"gdp",0.3,3.521853413588,3.521853413588,0.200184045958284,NA,FALSE,9.49048390751347
"CAN",1989,3,NA,NA,1,"gdp",0.4,3.46944131399776,3.8257254600152,0.200184045958284,NA,FALSE,11.2538083728157
"CAN",1989,3,NA,NA,1,"gdp",0.5,3.36337754143351,3.90887797951212,0.200184045958284,NA,FALSE,13.1982744199795
"CAN",1989,3,NA,NA,1,"gdp",0.6,2.96934993016765,4.5750862168103,0.200184045958284,NA,FALSE,15.4515657076895
"CAN",1989,3,NA,NA,1,"gdp",0.7,2.76592108994518,4.61705001951503,0.200184045958284,NA,FALSE,18.9560425561492
"CAN",1989,3,NA,NA,1,"gdp",0.8,1.84716371872641,5.6858572336236,0.200184045958284,NA,FALSE,20.3084902425785
"CAN",1989,3,NA,NA,1,"gdp",0.9,1.0789810618326,5.89250548342498,0.200184045958284,NA,FALSE,22.3894647390787
"CAN",1990,3,NA,NA,1,"gdp",0.1,3.09209108213465,3.09209108213465,-2.11071809047006,NA,FALSE,11.5617981613438
"CAN",1990,3,NA,NA,1,"gdp",0.2,3.09209108213465,3.09209108213465,-2.11071809047006,NA,FALSE,13.0070229315118
"CAN",1990,3,NA,NA,1,"gdp",0.3,3.09209108213465,3.09209108213465,-2.11071809047006,NA,FALSE,14.8651690645849
"CAN",1990,3,NA,NA,1,"gdp",0.4,3.08651393205542,3.29988471213821,-2.11071809047006,NA,FALSE,17.5374775218344
"CAN",1990,3,NA,NA,1,"gdp",0.5,2.88718252547929,3.38028011031018,-2.11071809047006,NA,FALSE,20.4847000486283
"CAN",1990,3,NA,NA,1,"gdp",0.6,2.69763718476875,3.55206888079177,-2.11071809047006,NA,FALSE,24.8962080722171
"CAN",1990,3,NA,NA,1,"gdp",0.7,1.12552631130702,3.81136214496283,-2.11071809047006,NA,FALSE,24.2607985121697
"CAN",1990,3,NA,NA,1,"gdp",0.8,0.0817631427029,5.20598440027335,-2.11071809047006,NA,FALSE,27.0490335893001
"CAN",1990,3,NA,NA,1,"gdp",0.9,-1.20499840312052,5.45946917723009,-2.11071809047006,NA,FALSE,24.7788613273415
"CAN",1991,3,NA,NA,1,"gdp",0.1,2.70740441147723,2.70740441147723,0.885769974785917,NA,FALSE,4.0480765259807
"CAN",1991,3,NA,NA,1,"gdp",0.2,2.70740441147723,2.70740441147723,0.885769974785917,NA,FALSE,4.55408609172829
"CAN",1991,3,NA,NA,1,"gdp",0.3,2.70740441147723,2.70740441147723,0.885769974785917,NA,FALSE,5.20466981911804
"CAN",1991,3,NA,NA,1,"gdp",0.4,2.70634898967802,2.7756407636533,0.885769974785917,NA,FALSE,6.13788849028229
"CAN",1991,3,NA,NA,1,"gdp",0.5,2.64161647679464,2.80174902344699,0.885769974785917,NA,FALSE,7.18351855468724
"CAN",1991,3,NA,NA,1,"gdp",0.6,0.956472190631078,2.85753711519546,0.885769974785917,NA,FALSE,2.25457600379019
"CAN",1991,3,NA,NA,1,"gdp",0.7,-1.49390626305004,2.94174213261762,0.885769974785917,NA,TRUE,4.43564839566766
"CAN",1991,3,NA,NA,1,"gdp",0.8,-3.06372791840504,4.68078108786996,0.885769974785917,NA,TRUE,7.744509006275
"CAN",1991,3,NA,NA,1,"gdp",0.9,-3.97827141262233,4.98552673540302,0.885769974785917,NA,TRUE,8.96379814802535
"CAN",1992,3,NA,NA,1,"gdp",0.1,3.20040230028802,3.20040230028802,2.62028545884282,NA,FALSE,1.28914853654489
"CAN",1992,3,NA,NA,1,"gdp",0.2,3.10698017929783,3.20040230028802,2.62028545884282,NA,FALSE,1.31015892212772
"CAN",1992,3,NA,NA,1,"gdp",0.3,3.10509814485055,3.20040230028802,2.62028545884282,NA,FALSE,1.48048325831671
"CAN",1992,3,NA,NA,1,"gdp",0.4,3.10509814485055,3.45541456720589,2.62028545884282,NA,FALSE,1.96635870904778
"CAN",1992,3,NA,NA,1,"gdp",0.5,1.87519893325739,3.55191557954549,2.62028545884282,NA,TRUE,1.67671664628809
"CAN",1992,3,NA,NA,1,"gdp",0.6,1.72664483245536,3.75811880307561,2.62028545884282,NA,TRUE,2.03147397062026
"CAN",1992,3,NA,NA,1,"gdp",0.7,0.750015150233687,4.06935629992616,2.62028545884282,NA,TRUE,3.31934114969247
"CAN",1992,3,NA,NA,1,"gdp",0.8,-0.852171997749419,5.36179887423197,2.62028545884282,NA,TRUE,6.21397087198139
"CAN",1992,3,NA,NA,1,"gdp",0.9,-1.55666248646176,5.60007585376077,2.62028545884282,NA,TRUE,7.15673834022253
"CAN",1993,3,NA,NA,1,"gdp",0.1,3.23228089695349,3.4207176102797,4.3913002276235,NA,FALSE,2.3452869740902
"CAN",1993,3,NA,NA,1,"gdp",0.2,3.23228089695349,3.4207176102797,4.3913002276235,NA,FALSE,2.6148932566857
"CAN",1993,3,NA,NA,1,"gdp",0.3,3.23228089695349,3.4498725415473,4.3913002276235,NA,FALSE,2.90738503338294
"CAN",1993,3,NA,NA,1,"gdp",0.4,3.23228089695349,3.84195057928256,4.3913002276235,NA,FALSE,2.44083517679885
"CAN",1993,3,NA,NA,1,"gdp",0.5,2.92624603031484,3.98614908184489,4.3913002276235,NA,FALSE,2.68050763464446
"CAN",1993,3,NA,NA,1,"gdp",0.6,2.21338478570032,4.27942002245918,4.3913002276235,NA,FALSE,2.62543626258045
"CAN",1993,3,NA,NA,1,"gdp",0.7,1.76743905377356,4.72207514633728,4.3913002276235,NA,TRUE,2.95463609256372
"CAN",1993,3,NA,NA,1,"gdp",0.8,0.828419455265297,5.04338975854493,4.3913002276235,NA,TRUE,4.21497030327963
"CAN",1993,3,NA,NA,1,"gdp",0.9,-0.154915478870358,5.95580727610968,4.3913002276235,NA,TRUE,6.11072275498004
"CAN",1994,3,NA,NA,1,"gdp",0.1,3.80328698155874,3.80328698155874,2.65531756746119,NA,FALSE,2.55104314243899
"CAN",1994,3,NA,NA,1,"gdp",0.2,3.80328698155874,3.93173859366281,2.65531756746119,NA,FALSE,2.99837514734794
"CAN",1994,3,NA,NA,1,"gdp",0.3,3.77803604906568,3.93173859366281,2.65531756746119,NA,FALSE,3.36146963489567
