isdrw/probabilistic-benchmark-forecasts/results/gauss_quantiles_prediction/mean 0 assumption/gauss_prediction_arima_auto_2026-02-15_11-28.csv
"country","target","tau","target_year","target_quarter","forecast_year","forecast_quarter","horizon","lower_bound","upper_bound","truth_value","prediction","covered","IS"
"CAN","cpi",0.1,1959,3,1959,NA,0,1.22996947879683,1.26985484982903,1.19382698397654,1.24991216431293,FALSE,0.1202020261884
"CAN","cpi",0.1,1959,3,1959,NA,0.5,0.208968325105778,0.666711138074877,1.19382698397654,0.437839731590327,FALSE,1.62911135941724
"CAN","cpi",0.1,1959,3,1958,NA,1,1.35956127318132,2.1576939845376,1.19382698397654,1.75862762885946,FALSE,1.16643113181135
"CAN","cpi",0.1,1959,3,1958,NA,1.5,0.959088695823185,2.58905475845213,1.19382698397654,1.77407172713766,TRUE,1.62996606262894
"CAN","cpi",0.1,1960,3,1960,NA,0,1.00604416809643,1.04118191709311,1.34209404870695,1.02361304259477,FALSE,0.703831374805213
"CAN","cpi",0.1,1960,3,1960,NA,0.5,0.311155964599358,0.766810995763962,1.34209404870695,0.53898348018166,FALSE,1.73406181548236
"CAN","cpi",0.1,1960,3,1959,NA,1,3.62924311880822,4.28594435498063,1.34209404870695,3.95759373689442,FALSE,5.73925472528634
"CAN","cpi",0.1,1960,3,1959,NA,1.5,-1.6378376494152,-0.109115981394568,1.34209404870695,-0.873476815404885,FALSE,4.75363284602401
"CAN","cpi",0.1,1961,3,1961,NA,0,0.987614194335639,1.0308127675445,1.00921348094007,1.00921348094007,TRUE,0.0431985732088651
"CAN","cpi",0.1,1961,3,1961,NA,0.5,0.843205586795006,1.17522137508514,1.00921348094007,1.00921348094007,TRUE,0.33201578829013
"CAN","cpi",0.1,1961,3,1960,NA,1,-0.22032571042237,0.327866635629436,1.00921348094007,0.0537704626035329,FALSE,2.06229644674211
"CAN","cpi",0.1,1961,3,1960,NA,1.5,-1.58355009627223,-0.140813501607836,1.00921348094007,-0.862181798940035,FALSE,3.99835211143753
"CAN","cpi",0.1,1962,3,1962,NA,0,1.08304585618677,1.12160219844279,1.04957947883042,1.10232402731478,FALSE,0.112926069714584
"CAN","cpi",0.1,1962,3,1962,NA,0.5,-0.141194269108375,0.141194269108375,1.04957947883042,0,FALSE,2.30102233759906
"CAN","cpi",0.1,1962,3,1961,NA,1,-0.289989534895673,0.289989534895674,1.04957947883042,0,FALSE,2.26795672297966
"CAN","cpi",0.1,1962,3,1961,NA,1.5,-0.595282815656048,0.595282815656049,1.04957947883042,0,FALSE,2.20011377169958
"CAN","cpi",0.1,1963,3,1963,NA,0,1.89561317007233,1.9342214205517,1.60677118395228,1.91491729531202,FALSE,0.68047933074614
"CAN","cpi",0.1,1963,3,1963,NA,0.5,0.695235683450445,0.978421745784563,1.60677118395228,0.836828714617504,FALSE,1.67951814715128
"CAN","cpi",0.1,1963,3,1962,NA,1,2.30388625814334,2.82434355015954,1.60677118395228,2.56411490415144,FALSE,2.06960190132965
"CAN","cpi",0.1,1963,3,1962,NA,1.5,-0.425617906872719,0.425617906872719,1.60677118395228,0,FALSE,3.47602087392225
"CAN","cpi",0.1,1964,3,1964,NA,0,1.96723752258607,2.01030760633488,1.88764670034376,1.98877256446048,FALSE,0.219938577620618
"CAN","cpi",0.1,1964,3,1964,NA,0.5,1.32025823023213,1.44712189432001,1.88764670034376,1.38369006227607,FALSE,1.10580767747398
"CAN","cpi",0.1,1964,3,1963,NA,1,5.18299123580199,5.59789457114312,1.88764670034376,5.39044290347256,FALSE,7.73789119191498
"CAN","cpi",0.1,1964,3,1963,NA,1.5,-0.363716732420094,0.363716732420095,1.88764670034376,0,FALSE,4.11394450467056
"CAN","cpi",0.1,1965,3,1965,NA,0,2.32397661950619,2.36716432887379,2.29538304394236,2.34557047418999,FALSE,0.106728988398331
"CAN","cpi",0.1,1965,3,1965,NA,0.5,1.54616709239401,1.67542186673907,2.29538304394236,1.61079447956654,FALSE,1.50694627924125
"CAN","cpi",0.1,1965,3,1964,NA,1,2.23311391570522,2.61726332789172,2.29538304394236,2.42518862179847,TRUE,0.384149412186504
"CAN","cpi",0.1,1965,3,1964,NA,1.5,0.626027846223147,1.01017725840965,2.29538304394236,0.818102552316399,FALSE,3.24016226892585
"CAN","cpi",0.1,1966,3,1966,NA,0,3.79965695015958,3.84056280711459,3.72486065470629,3.82010987863709,FALSE,0.207119846851214
"CAN","cpi",0.1,1966,3,1966,NA,0.5,3.92690661636805,4.05556136154321,3.72486065470629,3.99123398895563,FALSE,0.577645771090192
"CAN","cpi",0.1,1966,3,1965,NA,1,3.01466146277302,3.39977991214406,3.72486065470629,3.20722068745854,FALSE,1.10752009950934
"CAN","cpi",0.1,1966,3,1965,NA,1.5,1.41407902163406,1.7991974710051,3.72486065470629,1.60663824631958,FALSE,4.66436996870701
"CAN","cpi",0.1,1967,3,1967,NA,0,3.7475904905904,3.78778649598225,3.49360316391996,3.76768849328632,FALSE,0.604612286881707
"CAN","cpi",0.1,1967,3,1967,NA,0.5,2.33326287148985,2.48164661690535,3.49360316391996,2.4074547441976,FALSE,2.39717607211462
"CAN","cpi",0.1,1967,3,1966,NA,1,2.99163449973906,3.37043196166662,3.49360316391996,3.18103323070284,FALSE,0.652511244712765
"CAN","cpi",0.1,1967,3,1966,NA,1.5,4.4618828739087,4.84068033583626,3.49360316391996,4.65128160487248,FALSE,2.53053015079143
"CAN","cpi",0.1,1968,3,1968,NA,0,4.15222186427354,4.19353704917438,3.95128347779386,4.17287945672396,FALSE,0.487844932633464
"CAN","cpi",0.1,1968,3,1968,NA,0.5,4.01644499162788,4.12549912396916,3.95128347779386,4.07097205779852,FALSE,0.253857496416891
"CAN","cpi",0.1,1968,3,1967,NA,1,5.6439406593795,6.04649298309747,3.95128347779386,5.84521682123848,FALSE,4.16401272724162
"CAN","cpi",0.1,1968,3,1967,NA,1.5,2.05438242054328,2.45693474426125,3.95128347779386,2.25565858240226,FALSE,3.72332728712377
"CAN","cpi",0.1,1969,3,1969,NA,0,4.44783197549409,4.49010476598376,4.42679496126681,4.46896837073893,FALSE,0.0890217109947346
"CAN","cpi",0.1,1969,3,1969,NA,0.5,2.908821992195,3.02341839571929,4.42679496126681,2.96612019395715,FALSE,3.23321099362989
"CAN","cpi",0.1,1969,3,1968,NA,1,6.56729655159038,6.88245604922576,4.42679496126681,6.72487630040807,FALSE,5.07182969835442
"CAN","cpi",0.1,1969,3,1968,NA,1.5,4.15906478062771,4.4742242782631,4.42679496126681,4.31664452944541,TRUE,0.315159497635383
"CAN","cpi",0.1,1970,3,1970,NA,0,3.50695273586243,3.54699757572486,3.28128405769805,3.52697515579364,FALSE,0.541530791338834
"CAN","cpi",0.1,1970,3,1970,NA,0.5,4.588999023119,4.71842268241934,3.28128405769805,4.65371085276917,FALSE,3.03545691579135
"CAN","cpi",0.1,1970,3,1969,NA,1,4.36590126352225,4.68905623823189,3.28128405769805,4.52747875087707,FALSE,2.73341543209676
"CAN","cpi",0.1,1970,3,1969,NA,1.5,1.91816098547647,2.24131596018611,3.28128405769805,2.07973847283129,FALSE,2.63419519140282
"CAN","cpi",0.1,1971,3,1971,NA,0,2.81847497703984,2.86017153879396,2.64123406634756,2.8393232579169,FALSE,0.435565252181406
"CAN","cpi",0.1,1971,3,1971,NA,0.5,1.97091422708107,2.16292908702907,2.64123406634756,2.06692165705507,FALSE,1.25491481398909
"CAN","cpi",0.1,1971,3,1970,NA,1,2.48819840169265,2.79392148997725,2.64123406634756,2.64105994583495,TRUE,0.305723088284603
"CAN","cpi",0.1,1971,3,1970,NA,1.5,4.48691484486238,4.79263793314698,2.64123406634756,4.63977638900468,FALSE,4.40723592942863
"CAN","cpi",0.1,1972,3,1972,NA,0,5.0175990314317,5.04336303233267,4.83230569625923,5.03048103188219,FALSE,0.437526967950912
"CAN","cpi",0.1,1972,3,1972,NA,0.5,4.97201769789508,5.16210038922435,4.83230569625923,5.06705904355972,FALSE,0.500553806075604
"CAN","cpi",0.1,1972,3,1971,NA,1,5.74857229539183,6.08525975874316,4.83230569625923,5.9169160270675,FALSE,2.37283546142378
"CAN","cpi",0.1,1972,3,1971,NA,1.5,2.92442122273705,3.26110868608838,4.83230569625923,3.09276495441271,FALSE,3.82823637484212
"CAN","cpi",0.1,1973,3,1973,NA,0,6.98102845488655,7.00426666897633,7.12388603531779,6.99264756193144,FALSE,0.289059028181915
"CAN","cpi",0.1,1973,3,1973,NA,0.5,5.37788689319059,5.57151103504649,7.12388603531779,5.47469896411854,FALSE,3.64334636468101
"CAN","cpi",0.1,1973,3,1972,NA,1,6.528726901761,6.85251877319574,7.12388603531779,6.69062283747837,FALSE,0.926830231705962
"CAN","cpi",0.1,1973,3,1972,NA,1.5,4.56984650014749,4.89363837158223,7.12388603531779,4.73174243586486,FALSE,5.2798977908471
"CAN","cpi",0.1,1974,3,1974,NA,0,9.9289157739458,9.95971463733486,10.2717243737774,9.94431520564033,FALSE,0.724153833261422
"CAN","cpi",0.1,1974,3,1974,NA,0.5,8.23297811444194,8.44275272058626,10.2717243737774,8.3378654175141,FALSE,4.27415605768024
"CAN","cpi",0.1,1974,3,1973,NA,1,7.01305705927212,7.32119139343025,10.2717243737774,7.16712422635118,FALSE,6.86487429048517
"CAN","cpi",0.1,1974,3,1973,NA,1.5,3.8819588129305,4.22153617063059,10.2717243737774,4.05174749178054,FALSE,13.7844400313597
"CAN","cpi",0.1,1975,3,1975,NA,0,10.0715499771275,10.1148147468283,10.0232981493341,10.0931823619779,FALSE,0.150491053685987
"CAN","cpi",0.1,1975,3,1975,NA,0.5,8.86476147103409,9.10058805091248,10.0232981493341,8.98267476097328,FALSE,2.28629346525982
"CAN","cpi",0.1,1975,3,1974,NA,1,7.57273880481596,7.99485763979484,10.0232981493341,7.7837982223054,FALSE,4.92976441173284
"CAN","cpi",0.1,1975,3,1974,NA,1.5,5.50524866174682,6.01338344442357,10.0232981493341,5.75931605308519,FALSE,9.41905634914465
"CAN","cpi",0.1,1976,3,1976,NA,0,7.05114498811446,7.09441411091988,7.22784311401172,7.07277954951717,FALSE,0.339778018565054
"CAN","cpi",0.1,1976,3,1976,NA,0.5,8.47160294932261,8.71017825944392,7.22784311401172,8.59089060438327,FALSE,3.00248605525664
"CAN","cpi",0.1,1976,3,1975,NA,1,10.2179262076846,10.6103693293438,7.22784311401172,10.4141477685142,FALSE,7.03707221870998
"CAN","cpi",0.1,1976,3,1975,NA,1.5,6.15652301757763,6.7044987051196,7.22784311401172,6.43051086134862,FALSE,1.71096326285778
"CAN","cpi",0.1,1977,3,1977,NA,0,7.52969572297799,7.57632731031744,7.58101410153764,7.55301151664772,FALSE,0.0570466789398982
"CAN","cpi",0.1,1977,3,1977,NA,0.5,7.84339639836063,8.11992060207711,7.58101410153764,7.98165850021887,FALSE,0.859595974434232
"CAN","cpi",0.1,1977,3,1976,NA,1,3.49375485047857,3.94893813239346,7.58101410153764,3.72134649143602,FALSE,8.5264632133464
"CAN","cpi",0.1,1977,3,1976,NA,1.5,7.72704982141544,8.27839106809683,7.58101410153764,8.00272044475614,FALSE,0.875865068632051
"CAN","cpi",0.1,1978,3,1978,NA,0,8.64775673312807,8.69480007404879,8.50208927062595,8.67127840358843,FALSE,0.370748813147661
"CAN","cpi",0.1,1978,3,1978,NA,0.5,8.23955628596817,8.51809835041042,8.50208927062595,8.3788273181893,TRUE,0.278542064442252
"CAN","cpi",0.1,1978,3,1977,NA,1,7.27572424266968,7.81995232565133,8.50208927062595,7.54783828416051,FALSE,2.06008796070302
"CAN","cpi",0.1,1978,3,1977,NA,1.5,9.44192002200377,10.0093351048407,8.50208927062595,9.72562756342223,FALSE,2.65592786367653
"CAN","cpi",0.1,1979,3,1979,NA,0,8.54136457623441,8.58616322841498,8.65147652410481,8.56376390232469,FALSE,0.189939309269081
"CAN","cpi",0.1,1979,3,1979,NA,0.5,8.15934407448608,8.43264162484921,8.65147652410481,8.29599284966764,FALSE,0.759597326486689
"CAN","cpi",0.1,1979,3,1978,NA,1,8.92903665294217,9.4771933572362,8.65147652410481,9.20311500508918,FALSE,1.16495699059927
"CAN","cpi",0.1,1979,3,1978,NA,1.5,8.27191740563536,8.84102079742313,8.65147652410481,8.55646910152924,TRUE,0.569103391787767
"CAN","cpi",0.1,1980,3,1980,NA,0,9.48237823771383,9.52575620442479,9.5171912664748,9.50406722106931,TRUE,0.0433779667109526
"CAN","cpi",0.1,1980,3,1980,NA,0.5,8.44235706161574,8.7136212250861,9.5171912664748,8.57798914335092,FALSE,2.05697536655635
"CAN","cpi",0.1,1980,3,1979,NA,1,7.91443721978825,8.44306685442806,9.5171912664748,8.17875203710815,FALSE,2.91557277252145
"CAN","cpi",0.1,1980,3,1979,NA,1.5,8.10448184218009,8.67961347906214,9.5171912664748,8.39204766062112,FALSE,2.43641560891017
"CAN","cpi",0.1,1981,3,1981,NA,0,11.6896968004616,11.7330789963782,11.5813425032741,11.7113878984199,FALSE,0.284169522999901
"CAN","cpi",0.1,1981,3,1981,NA,0.5,12.0849417998409,12.3462975507126,11.5813425032741,12.2156196752767,FALSE,1.38046529879779
"CAN","cpi",0.1,1981,3,1980,NA,1,10.8026724106257,11.296698273979,11.5813425032741,11.0496853423024,FALSE,1.12656859512021
"CAN","cpi",0.1,1981,3,1980,NA,1.5,8.0537231528466,8.62247269065129,11.5813425032741,8.33809792174894,FALSE,7.14401578807769
"CAN","cpi",0.1,1982,3,1982,NA,0,10.2364045010676,10.2769291291518,10.1124203763629,10.2566668151097,FALSE,0.316044905205685
"CAN","cpi",0.1,1982,3,1982,NA,0.5,9.98914531774354,10.2279258769655,10.1124203763629,10.1085355973545,TRUE,0.238780559221922
"CAN","cpi",0.1,1982,3,1981,NA,1,11.5342196770055,12.0077576892424,10.1124203763629,11.770988683124,FALSE,3.63309201366482
"CAN","cpi",0.1,1982,3,1981,NA,1.5,12.5772256224148,13.1630244478414,10.1124203763629,12.8701250351281,FALSE,6.06314381665297
"CAN","cpi",0.1,1983,3,1983,NA,0,5.71141510367392,5.75060917962387,5.67091787896303,5.7310121416489,FALSE,0.129187908640807
"CAN","cpi",0.1,1983,3,1983,NA,0.5,4.79371739008786,5.03314293010521,5.67091787896303,4.91343016009654,FALSE,1.65670320414585
"CAN","cpi",0.1,1983,3,1982,NA,1,8.934089901434,9.43591309588713,5.67091787896303,9.18500149866057,FALSE,7.75331657772195
"CAN","cpi",0.1,1983,3,1982,NA,1.5,9.379941990682,9.99350404070532,5.67091787896303,9.68672301569366,FALSE,8.85583785384325
"CAN","cpi",0.1,1984,3,1984,NA,0,NA,NA,4.19799576814029,NA,NA,NA
"CAN","cpi",0.1,1984,3,1984,NA,0.5,5.73911765929895,5.97629606119019,4.19799576814029,5.85770686024457,FALSE,3.66189371557716
"CAN","cpi",0.1,1984,3,1983,NA,1,5.47914795340564,6.05191920652293,4.19799576814029,5.76553357996429,FALSE,3.41977610926252
"CAN","cpi",0.1,1984,3,1983,NA,1.5,2.55669923076427,3.28290012817914,4.19799576814029,2.9197996794717,FALSE,2.7597467639952
"CAN","cpi",0.1,1985,3,1985,NA,0,3.8357720363438,3.87258776636376,3.86444262005169,3.85417990135378,TRUE,0.0368157300199634
"CAN","cpi",0.1,1985,3,1985,NA,0.5,4.09149137348843,4.34830947416955,3.86444262005169,4.21990042382899,FALSE,0.761370886096086
"CAN","cpi",0.1,1985,3,1984,NA,1,NA,NA,3.86444262005169,NA,NA,NA
"CAN","cpi",0.1,1985,3,1984,NA,1.5,8.27133764850116,8.98865555760595,3.86444262005169,8.62999660305356,FALSE,10.5104179723258
"CAN","cpi",0.1,1986,3,1986,NA,0,4.02515791867223,4.05026986532762,4.08685396749431,4.03771389199993,FALSE,0.106409951470253
"CAN","cpi",0.1,1986,3,1986,NA,0.5,4.27602049074561,4.48836615932496,4.08685396749431,4.38219332503529,FALSE,0.632715720248908
"CAN","cpi",0.1,1986,3,1985,NA,1,3.09563879383338,3.6613607277836,4.08685396749431,3.37849976080849,FALSE,1.51126246664069
"CAN","cpi",0.1,1986,3,1985,NA,1.5,4.61454117866038,5.29165599935874,4.08685396749431,4.95309858900956,FALSE,1.84975306773407
"CAN","cpi",0.1,1987,3,1987,NA,0,NA,NA,4.23980729277887,NA,NA,NA
"CAN","cpi",0.1,1987,3,1987,NA,0.5,4.0375342731702,4.2293089484315,4.23980729277887,4.13342161080085,FALSE,0.215104329366569
"CAN","cpi",0.1,1987,3,1986,NA,1,3.39352732982754,3.92929243346843,4.23980729277887,3.66140988164798,FALSE,1.22579812433076
"CAN","cpi",0.1,1987,3,1986,NA,1.5,4.51437420640003,5.09048115647025,4.23980729277887,4.80242768143514,FALSE,1.18625564700613
"CAN","cpi",0.1,1988,3,1988,NA,0,3.93274325723158,3.95491998267561,3.92899537638065,3.9438316199536,FALSE,0.0305053495571997
"CAN","cpi",0.1,1988,3,1988,NA,0.5,3.26915222995244,3.4392320768638,3.92899537638065,3.35419215340812,FALSE,1.25844273472659
"CAN","cpi",0.1,1988,3,1987,NA,1,NA,NA,3.92899537638065,NA,NA,NA
"CAN","cpi",0.1,1988,3,1987,NA,1.5,3.6124687189172,4.17676987161172,3.92899537638065,3.89461929526446,TRUE,0.564301152694524
"CAN","cpi",0.1,1989,3,1989,NA,0,4.94051719716982,4.96208917068689,4.82821664544208,4.95130318392835,FALSE,0.271128755134274
"CAN","cpi",0.1,1989,3,1989,NA,0.5,4.14294943511733,4.31754941982414,4.82821664544208,4.23024942747073,FALSE,1.30941604163556
"CAN","cpi",0.1,1989,3,1988,NA,1,3.86849795742314,4.24833793464011,4.82821664544208,4.05841794603162,FALSE,1.66845933455468
"CAN","cpi",0.1,1989,3,1988,NA,1.5,2.31432234468343,2.88136477408257,4.82821664544208,2.597843559383,FALSE,4.89337992130916
"CAN","cpi",0.1,1990,3,1990,NA,0,4.46475924252357,4.48463079600902,4.64347549432717,4.4746950192663,FALSE,0.372859771970226
"CAN","cpi",0.1,1990,3,1990,NA,0.5,4.8749061123862,5.05483726566338,4.64347549432717,4.96487168902479,FALSE,0.694221415630572
"CAN","cpi",0.1,1990,3,1989,NA,1,5.25089395593443,5.62653352344709,4.64347549432717,5.43871373969076,FALSE,1.72545837108435
"CAN","cpi",0.1,1990,3,1989,NA,1.5,3.07091978942371,3.67558821105249,4.64347549432717,3.3732540002381,FALSE,2.75552905112807
"CAN","cpi",0.1,1991,3,1991,NA,0,5.59854266481742,5.62252473403023,5.4258100696218,5.61053369942382,FALSE,0.407832280758634
"CAN","cpi",0.1,1991,3,1991,NA,0.5,7.73216051203636,7.91182539751553,5.4258100696218,7.82199295477594,FALSE,5.30488809084487
"CAN","cpi",0.1,1991,3,1990,NA,1,3.47869871052332,3.85563765715861,5.4258100696218,3.66716818384097,FALSE,3.86621097433125
"CAN","cpi",0.1,1991,3,1990,NA,1.5,4.51651632174756,5.13312265153572,5.4258100696218,4.82481948664164,FALSE,1.26702281442389
"CAN","cpi",0.1,1992,3,1992,NA,0,NA,NA,1.47496888572843,NA,NA,NA
"CAN","cpi",0.1,1992,3,1992,NA,0.5,NA,NA,1.47496888572843,NA,NA,NA
"CAN","cpi",0.1,1992,3,1991,NA,1,2.5719462865008,2.96366513816346,1.47496888572843,2.76780571233213,FALSE,2.82944640893459
"CAN","cpi",0.1,1992,3,1991,NA,1.5,6.84409804942047,7.45466560378292,1.47496888572843,7.14938182660169,FALSE,12.5419656959003
"CAN","cpi",0.1,1993,3,1993,NA,0,NA,NA,NA,NA,NA,NA
"CAN","cpi",0.1,1993,3,1993,NA,0.5,NA,NA,NA,NA,NA,NA
"CAN","cpi",0.1,1993,3,1992,NA,1,NA,NA,NA,NA,NA,NA
"CAN","cpi",0.1,1993,3,1992,NA,1.5,NA,NA,NA,NA,NA,NA
"CAN","cpi",0.1,1994,3,1994,NA,0,NA,NA,NA,NA,NA,NA
"CAN","cpi",0.1,1994,3,1994,NA,0.5,NA,NA,NA,NA,NA,NA
"CAN","cpi",0.1,1994,3,1993,NA,1,NA,NA,NA,NA,NA,NA
"CAN","cpi",0.1,1994,3,1993,NA,1.5,NA,NA,NA,NA,NA,NA
"CAN","cpi",0.1,1995,3,1995,NA,0,NA,NA,2.11688403676572,NA,NA,NA
"CAN","cpi",0.1,1995,3,1995,NA,0.5,2.39565052918855,2.64310569227314,2.11688403676572,2.51937811073084,FALSE,0.866936257357553
"CAN","cpi",0.1,1995,3,1994,NA,1,0.57471746185886,0.864075359785029,2.11688403676572,0.719396410821945,FALSE,3.07337718010547
"CAN","cpi",0.1,1995,3,1994,NA,1.5,-1.37081662430943,-0.722275454187134,2.11688403676572,-1.04654603924828,FALSE,6.95778448335085
"CAN","cpi",0.1,1996,3,1996,NA,0,1.41338715418036,1.44222781296016,1.55309584667184,1.42780748357026,FALSE,0.275214067027983
"CAN","cpi",0.1,1996,3,1996,NA,0.5,NA,NA,1.55309584667184,NA,NA,NA
"CAN","cpi",0.1,1996,3,1995,NA,1,NA,NA,1.55309584667184,NA,NA,NA
"CAN","cpi",0.1,1996,3,1995,NA,1.5,2.57033607984101,3.27430934366792,1.55309584667184,2.92232271175447,FALSE,2.96450711531395
"CAN","cpi",0.1,1997,3,1997,NA,0,1.71946165299549,1.75125530314686,1.60528783555959,1.73535847807117,FALSE,0.285513244453361
"CAN","cpi",0.1,1997,3,1997,NA,0.5,1.99307946629069,2.22848780566523,1.60528783555959,2.11078363597796,FALSE,1.09716751877698
"CAN","cpi",0.1,1997,3,1996,NA,1,0.855901158392743,1.11402151622237,1.60528783555959,0.984961337307556,FALSE,1.34982328969012
"CAN","cpi",0.1,1997,3,1996,NA,1.5,NA,NA,1.60528783555959,NA,NA,NA
"CAN","cpi",0.1,1998,3,1998,NA,0,1.0183507654328,1.0518186622614,0.988908029337191,1.0350847138471,FALSE,0.0988961992632873
"CAN","cpi",0.1,1998,3,1998,NA,0.5,1.56730969769103,1.80336341105111,0.988908029337191,1.68533655437107,FALSE,1.52139075414639
"CAN","cpi",0.1,1998,3,1997,NA,1,2.12288117249113,2.38031051420401,0.988908029337191,2.25159584334757,FALSE,2.77736965983274
"CAN","cpi",0.1,1998,3,1997,NA,1.5,2.07155475120491,2.70820158631661,0.988908029337191,2.38987816876076,FALSE,3.0425284392622
"CAN","cpi",0.1,1999,3,1999,NA,0,1.7606674730588,1.79170129613043,1.7107350135213,1.77618438459462,FALSE,0.141994844266085
"CAN","cpi",0.1,1999,3,1999,NA,0.5,0.912571647730286,1.14561331210032,1.7107350135213,1.0290924799153,FALSE,1.48886766752776
"CAN","cpi",0.1,1999,3,1998,NA,1,1.70372016621265,1.99983071507145,1.7107350135213,1.85177544064205,TRUE,0.2961105488588
"CAN","cpi",0.1,1999,3,1998,NA,1.5,2.62353512369786,3.2693794920446,1.7107350135213,2.94645730787123,FALSE,2.67428905762799
"CAN","cpi",0.1,2000,3,2000,NA,0,2.69468388867623,2.72582446844677,2.6718361971244,2.7102541785615,FALSE,0.0819132276634895
"CAN","cpi",0.1,2000,3,2000,NA,0.5,2.22533765399849,2.46276637406863,2.6718361971244,2.34405201403356,FALSE,0.702028326860745
"CAN","cpi",0.1,2000,3,1999,NA,1,2.936331364428,3.21452737119619,2.6718361971244,3.07542936781209,FALSE,0.865963045220631
"CAN","cpi",0.1,2000,3,1999,NA,1.5,1.95224574216188,2.6039349738726,2.6718361971244,2.27809035801724,FALSE,0.802580838936947
"CAN","cpi",0.1,2001,3,2001,NA,0,2.76052542823734,2.79040627144969,2.47906219852806,2.77546584984351,FALSE,0.655354687010739
"CAN","cpi",0.1,2001,3,2001,NA,0.5,2.32175730583686,2.54957780422522,2.47906219852806,2.43566755503104,TRUE,0.227820498388358
"CAN","cpi",0.1,2001,3,2000,NA,1,3.55257991291419,3.82659399348266,2.47906219852806,3.68958695319843,FALSE,2.65960900142654
"CAN","cpi",0.1,2001,3,2000,NA,1.5,2.70670068054414,3.31871511369932,2.47906219852806,3.01270789712173,FALSE,1.11787772652424
"CAN","cpi",0.1,2002,3,2002,NA,0,2.25659340964165,2.28733129008536,2.20880570551249,2.27196234986351,FALSE,0.136932778508522
"CAN","cpi",0.1,2002,3,2002,NA,0.5,1.46733896605,1.69956927373252,2.20880570551249,1.58345411989126,FALSE,1.36386682274912
"CAN","cpi",0.1,2002,3,2001,NA,1,2.12245729385187,2.40775118306609,2.20880570551249,2.26510423845898,TRUE,0.285293889214225
"CAN","cpi",0.1,2002,3,2001,NA,1.5,2.72659042158164,3.31457044399855,2.20880570551249,3.02058043279009,FALSE,1.7386127247928
"CAN","cpi",0.1,2003,3,2003,NA,0,2.69866246543165,2.7278715869817,2.71189071546809,2.71326702620668,TRUE,0.0292091215500436
"CAN","cpi",0.1,2003,3,2003,NA,0.5,4.4494331123016,4.57921987316833,2.71189071546809,4.51432649273496,FALSE,3.99099208716341
"CAN","cpi",0.1,2003,3,2002,NA,1,3.74234757449651,3.97001806042824,2.71189071546809,3.85618281746238,FALSE,2.517574617106
"CAN","cpi",0.1,2003,3,2002,NA,1.5,2.10713771542784,2.68091008155584,2.71189071546809,2.39402389849184,FALSE,0.642618219266327
"CAN","cpi",0.1,2004,3,2004,NA,0,1.7606823996929,1.78865464796739,1.83151661303942,1.77466852383015,FALSE,0.123221059545671
"CAN","cpi",0.1,2004,3,2004,NA,0.5,1.4558492018793,1.64935950115942,1.83151661303942,1.55260435151936,FALSE,0.598303881235683
"CAN","cpi",0.1,2004,3,2003,NA,1,1.68275488431141,1.90556096765429,1.83151661303942,1.79415792598285,TRUE,0.22280608334288
"CAN","cpi",0.1,2004,3,2003,NA,1.5,4.0876268424065,4.44635860850782,1.83151661303942,4.26699272545716,FALSE,5.37231005358371
"CAN","cpi",0.1,2005,3,2005,NA,0,2.32942387911149,2.35748319034758,2.18071628336509,2.34345353472953,FALSE,0.358520635116975
"CAN","cpi",0.1,2005,3,2005,NA,0.5,1.40992073338719,1.5965060329594,2.18071628336509,1.50321338317329,FALSE,1.48483030047375
"CAN","cpi",0.1,2005,3,2004,NA,1,1.53468557721269,1.74619367703198,2.18071628336509,1.64043962712234,FALSE,1.17711389167065
"CAN","cpi",0.1,2005,3,2004,NA,1.5,1.84288463161806,2.2249810506466,2.18071628336509,2.03393284113233,TRUE,0.382096419028538
"CAN","cpi",0.1,2006,3,2006,NA,0,2.08118329883781,2.10910423901533,1.97519342012289,2.09514376892657,FALSE,0.263454003988463
"CAN","cpi",0.1,2006,3,2006,NA,0.5,2.00038084851691,2.18834442346354,1.97519342012289,2.09436263599022,FALSE,0.24393563804446
"CAN","cpi",0.1,2006,3,2005,NA,1,2.85373698682355,3.06284542533765,1.97519342012289,2.9582912060806,FALSE,2.16142747562669
"CAN","cpi",0.1,2006,3,2005,NA,1.5,1.46629480964319,1.83142442997293,1.97519342012289,1.64885961980806,FALSE,0.68461626510742
"CAN","cpi",0.1,2007,3,2007,NA,0,2.09336274139676,2.12030970064939,2.10062087284572,2.10683622102307,TRUE,0.0269469592526255
"CAN","cpi",0.1,2007,3,2007,NA,0.5,2.08718211442332,2.26541592724373,2.10062087284572,2.17629902083353,TRUE,0.178233812820411
"CAN","cpi",0.1,2007,3,2006,NA,1,1.41950002068835,1.59773383350876,2.10062087284572,1.50861692709856,FALSE,1.29576056690254
"CAN","cpi",0.1,2007,3,2006,NA,1.5,2.04494369263505,2.27342863437305,2.10062087284572,2.15918616350405,TRUE,0.228484941738003
"CAN","cpi",0.1,2008,3,2008,NA,0,2.8593339428322,2.88225516014436,2.31447335265955,2.87079455148828,FALSE,1.23372252880693
"CAN","cpi",0.1,2008,3,2008,NA,0.5,1.22134195227159,1.39876434163374,2.31447335265955,1.31005314695267,FALSE,2.21233130275284
"CAN","cpi",0.1,2008,3,2007,NA,1,1.38151850031673,1.55910249933662,2.31447335265955,1.47031049982668,FALSE,1.85618589529307
"CAN","cpi",0.1,2008,3,2007,NA,1.5,2.35247011427619,2.5765937925717,2.31447335265955,2.46453195342394,FALSE,0.308560926332478
"CAN","cpi",0.1,2009,3,2009,NA,0,0.16637391852836,0.207870774171083,0.284533874408197,0.187122346349721,FALSE,0.211859300614088
"CAN","cpi",0.1,2009,3,2009,NA,0.5,-0.166081757828763,0.0205832337355294,0.284533874408197,-0.0727492620466167,FALSE,0.773221970836887
"CAN","cpi",0.1,2009,3,2008,NA,1,3.72446776778737,3.91113275935166,0.284533874408197,3.81780026356951,FALSE,7.83096253240689
"CAN","cpi",0.1,2009,3,2008,NA,1.5,1.57903072869272,1.79447232391566,0.284533874408197,1.68675152630419,FALSE,3.09210127141077
"CAN","cpi",0.1,2010,3,2010,NA,0,1.58692614746033,1.63106518181046,1.75525687020327,1.6089956646354,FALSE,0.320120564111929
"CAN","cpi",0.1,2010,3,2010,NA,0.5,1.82188618938078,2.00030386114288,1.75525687020327,1.91109502526183,FALSE,0.326482825489897
"CAN","cpi",0.1,2010,3,2009,NA,1,0.864913079671349,1.11967849731816,1.75525687020327,0.992295788494754,FALSE,1.66716180183595
"CAN","cpi",0.1,2010,3,2009,NA,1.5,0.757720343992463,1.01248576163927,1.75525687020327,0.885103052815867,FALSE,1.90536788112236
"CAN","cpi",0.1,2011,3,2011,NA,0,2.84278702775323,2.89052125348873,2.85717434028225,2.86665414062098,TRUE,0.0477342257354945
"CAN","cpi",0.1,2011,3,2011,NA,0.5,2.67824668289434,2.85342095500109,2.85717434028225,2.76583381894771,FALSE,0.183515128287104
"CAN","cpi",0.1,2011,3,2010,NA,1,1.25930377430981,1.52658910908458,2.85717434028225,1.39294644169719,FALSE,3.22414140410293
"CAN","cpi",0.1,2011,3,2010,NA,1.5,1.50888793853624,1.77617327331101,2.85717434028225,1.64253060592363,FALSE,2.66950992804418
"CAN","cpi",0.1,2012,3,2012,NA,0,1.50425282214299,1.55219739484489,1.50118536134935,1.52822510849394,FALSE,0.054761152243337
"CAN","cpi",0.1,2012,3,2012,NA,0.5,1.83714877055323,2.01143166890255,1.50118536134935,1.92429021972789,FALSE,0.920868252135734
"CAN","cpi",0.1,2012,3,2011,NA,1,1.85334301735981,2.14556183158176,1.50118536134935,1.99945242447079,FALSE,1.0747913831341
"CAN","cpi",0.1,2012,3,2011,NA,1.5,2.33540016686864,2.62761898109059,1.50118536134935,2.48150957397962,FALSE,2.14602949315372
"CAN","cpi",0.1,2013,3,2013,NA,0,1.03384470887546,1.07876555958875,0.931270594714462,1.05630513423211,FALSE,0.272863326626622
"CAN","cpi",0.1,2013,3,2013,NA,0.5,1.08057192702919,1.25869716406945,0.931270594714462,1.16963454554932,FALSE,0.509905975517434
"CAN","cpi",0.1,2013,3,2012,NA,1,0.943253199340826,1.23410858323402,0.931270594714462,1.08868089128742,FALSE,0.317483394173999
"CAN","cpi",0.1,2013,3,2012,NA,1.5,2.00030410335867,2.29115948725186,0.931270594714462,2.14573179530527,FALSE,2.66648540310255
"CAN","cpi",0.1,2014,3,2014,NA,0,1.97603959338649,2.02121738951583,1.87639912240215,1.99862849145116,FALSE,0.266601064983432
"CAN","cpi",0.1,2014,3,2014,NA,0.5,1.70595799334857,1.87868152830518,1.87639912240215,1.79231976082687,TRUE,0.172723534956616
"CAN","cpi",0.1,2014,3,2013,NA,1,1.25962421296413,1.55367558343383,1.87639912240215,1.40664989819898,FALSE,1.0112147903993
"CAN","cpi",0.1,2014,3,2013,NA,1.5,1.36733553254408,1.66138690301377,1.87639912240215,1.51436121777893,FALSE,0.771856302443867
"CAN","cpi",0.1,2015,3,2015,NA,0,1.18777929201974,1.23283371647585,1.11090953952792,1.2103065042478,FALSE,0.215876096660162
"CAN","cpi",0.1,2015,3,2015,NA,0.5,0.408150505766874,0.508944125669244,1.11090953952792,0.458547315718059,FALSE,1.43849453958831
"CAN","cpi",0.1,2015,3,2014,NA,1,1.42494922081751,1.71614640774518,1.11090953952792,1.57054781428135,FALSE,0.989063145348992
"CAN","cpi",0.1,2015,3,2014,NA,1.5,1.73669250194773,2.0278896888754,1.11090953952792,1.88229109541157,FALSE,1.68182599230504
"CAN","cpi",0.1,2016,3,2016,NA,0,1.39439670890696,1.43821664053289,1.41168586698797,1.41630667471992,TRUE,0.0438199316259333
"CAN","cpi",0.1,2016,3,2016,NA,0.5,1.12608859390624,1.23335457195227,1.41168586698797,1.17972158292925,FALSE,0.503557744792024
"CAN","cpi",0.1,2016,3,2015,NA,1,1.73208951804576,1.99564180298764,1.41168586698797,1.8638656605167,FALSE,0.975560398403646
"CAN","cpi",0.1,2016,3,2015,NA,1.5,0.938453884679924,1.2020061696218,1.41168586698797,1.07023002715086,FALSE,0.729507167977803
"CAN","cpi",0.1,2017,3,2017,NA,0,1.48303089952056,1.52682295341462,1.57888581671161,1.50492692646759,FALSE,0.159487305665149
"CAN","cpi",0.1,2017,3,2017,NA,0.5,2.04102034297124,2.14071202267159,1.57888581671161,2.09086618282141,FALSE,1.12665729361063
"CAN","cpi",0.1,2017,3,2016,NA,1,1.0150007107791,1.27804029627739,1.57888581671161,1.14652050352824,FALSE,0.931585186463228
"CAN","cpi",0.1,2017,3,2016,NA,1.5,1.13636105248112,1.39940063797941,1.57888581671161,1.26788084523026,FALSE,0.661895538236516
"CAN","cpi",0.1,2018,3,2018,NA,0,2.39073517125238,2.43561557866928,2.23316270166586,2.41317537496083,FALSE,0.395041450942505
"CAN","cpi",0.1,2018,3,2018,NA,0.5,2.47364067492586,2.58254171136804,2.23316270166586,2.52809119314695,FALSE,0.643296532575518
"CAN","cpi",0.1,2018,3,2017,NA,1,1.03756807954183,1.2984339587801,2.23316270166586,1.16800101916097,FALSE,2.33804086342884
"CAN","cpi",0.1,2018,3,2017,NA,1.5,1.9425510829818,2.20341696222007,2.23316270166586,2.07298402260093,FALSE,0.326967522451137
"CAN","cpi",0.1,2019,3,2019,NA,0,NA,NA,1.91921619871868,NA,NA,NA
"CAN","cpi",0.1,2019,3,2019,NA,0.5,1.41731129344638,1.52926483262007,1.91921619871868,1.47328806303322,FALSE,0.978512130503941
"CAN","cpi",0.1,2019,3,2018,NA,1,2.10218285677901,2.36722276414764,1.91921619871868,2.23470281046333,FALSE,0.671632480836028
"CAN","cpi",0.1,2019,3,2018,NA,1.5,2.18778567199081,2.45282557935944,1.91921619871868,2.32030562567512,FALSE,0.86186095908447
"CAN","cpi",0.1,2020,3,2020,NA,0,0.660786434919297,0.686390838507897,0.71139989671781,0.673588636713597,FALSE,0.0811800884995182
"CAN","cpi",0.1,2020,3,2020,NA,0.5,NA,NA,0.71139989671781,NA,NA,NA
"CAN","cpi",0.1,2020,3,2019,NA,1,NA,NA,0.71139989671781,NA,NA,NA
"CAN","cpi",0.1,2020,3,2019,NA,1.5,1.67292502786251,1.88118481089558,0.71139989671781,1.77705491937904,FALSE,2.34498229668795
"CAN","cpi",0.1,2021,3,2021,NA,0,3.24048575541926,3.26464357552314,3.31148121717802,3.2525646654712,FALSE,0.12824146822585
"CAN","cpi",0.1,2021,3,2021,NA,0.5,2.12240134663289,2.21306826342098,3.31148121717802,2.16773480502693,FALSE,2.53158459180374
"CAN","cpi",0.1,2021,3,2020,NA,1,1.52620327043637,1.69521221909006,3.31148121717802,1.61070774476322,FALSE,3.7607178332936
"CAN","cpi",0.1,2021,3,2020,NA,1.5,NA,NA,3.31148121717802,NA,NA,NA
"CAN","cpi",0.1,2022,3,2022,NA,0,6.57644377682451,6.59721405919315,6.50977236228281,6.58682891800883,FALSE,0.168928981350196
"CAN","cpi",0.1,2022,3,2022,NA,0.5,5.52684073441316,5.6511695292048,6.50977236228281,5.58900513180898,FALSE,2.03233509052055
"CAN","cpi",0.1,2022,3,2021,NA,1,3.25839033031683,3.45355120013503,6.50977236228281,3.35597076522593,FALSE,6.98676345236883
"CAN","cpi",0.1,2022,3,2021,NA,1.5,1.79700178675515,1.99216265657336,6.50977236228281,1.89458222166426,FALSE,10.2342935491725
"CAN","cpi",0.1,2023,3,2023,NA,0,3.95182865833102,3.9726025699838,3.78831288758619,3.96221561415741,FALSE,0.384142291085732
"CAN","cpi",0.1,2023,3,2023,NA,0.5,3.5431174112111,3.68127670212811,3.78831288758619,3.6121970566696,FALSE,0.376017480823858
"CAN","cpi",0.1,2023,3,2022,NA,1,5.34440306002295,5.62796745225866,3.78831288758619,5.4861852561408,FALSE,3.74154255320628
"CAN","cpi",0.1,2023,3,2022,NA,1.5,3.65367646440937,4.05746504076934,3.78831288758619,3.85557075258935,TRUE,0.403788576359965
"CAN","cpi",0.1,2024,3,2023,NA,1,4.56185424290336,4.88376195517141,NA,4.72280809903739,NA,NA
"CAN","cpi",0.1,2024,3,2023,NA,1.5,4.17026089260036,4.5638492996619,NA,4.36705509613113,NA,NA
"CAN","cpi",0.2,1959,3,1959,NA,0,1.20970551580327,1.2901188128226,1.19382698397654,1.24991216431293,FALSE,0.120109626586143
"CAN","cpi",0.2,1959,3,1959,NA,0.5,-0.0235902090767097,0.899269672257364,1.19382698397654,0.437839731590327,FALSE,1.65925316063202
"CAN","cpi",0.2,1959,3,1958,NA,1,0.954065942228657,2.56318931549027,1.19382698397654,1.75862762885946,TRUE,1.60912337326161
"CAN","cpi",0.2,1959,3,1958,NA,1.5,0.130976254617524,3.41716719965779,1.19382698397654,1.77407172713766,TRUE,3.28619094504026
"CAN","cpi",0.2,1960,3,1960,NA,0,0.988192258313003,1.05903382687654,1.34209404870695,1.02361304259477,FALSE,0.778492123139564
"CAN","cpi",0.2,1960,3,1960,NA,0.5,0.0796581384441509,0.998308821919169,1.34209404870695,0.53898348018166,FALSE,1.77811375044447
"CAN","cpi",0.2,1960,3,1959,NA,1,3.29560275886576,4.61958471492309,1.34209404870695,3.95759373689442,FALSE,6.20775373145435
"CAN","cpi",0.2,1960,3,1959,NA,1.5,-2.41451236765241,0.667558736842646,1.34209404870695,-0.873476815404885,FALSE,4.76840938415583
"CAN","cpi",0.2,1961,3,1961,NA,0,0.965666942342615,1.05276001953753,1.00921348094007,1.00921348094007,TRUE,0.0870930771949139
"CAN","cpi",0.2,1961,3,1961,NA,0.5,0.674523298701041,1.3439036631791,1.00921348094007,1.00921348094007,TRUE,0.669380364478061
"CAN","cpi",0.2,1961,3,1960,NA,1,-0.498837583980662,0.606378509187728,1.00921348094007,0.0537704626035329,FALSE,2.11230352254925
"CAN","cpi",0.2,1961,3,1960,NA,1.5,-2.31653966631107,0.592176068430994,1.00921348094007,-0.862181798940035,FALSE,3.95130926601475
"CAN","cpi",0.2,1962,3,1962,NA,0,1.06345711293521,1.14119094169435,1.04957947883042,1.10232402731478,FALSE,0.112427914021123
"CAN","cpi",0.2,1962,3,1962,NA,0.5,-0.284663183653749,0.284663183653749,1.04957947883042,0,FALSE,2.48161710524916
"CAN","cpi",0.2,1962,3,1961,NA,1,-0.584650813032012,0.584650813032012,1.04957947883042,0,FALSE,2.33162329056003
"CAN","cpi",0.2,1962,3,1961,NA,1.5,-1.2001556617638,1.2001556617638,1.04957947883042,0,TRUE,2.40031132352761
"CAN","cpi",0.2,1963,3,1963,NA,0,1.8759980545873,1.95383653603673,1.60677118395228,1.91491729531202,FALSE,0.75090565803697
"CAN","cpi",0.2,1963,3,1963,NA,0.5,0.551361582773349,1.12229584646166,1.60677118395228,0.836828714617504,FALSE,1.78212260741487
"CAN","cpi",0.2,1963,3,1962,NA,1,2.03946531802899,3.08876449027389,1.60677118395228,2.56411490415144,FALSE,2.13103450743666
"CAN","cpi",0.2,1963,3,1962,NA,1.5,-0.858092535593191,0.858092535593191,1.60677118395228,0,FALSE,3.58788169208411
"CAN","cpi",0.2,1964,3,1964,NA,0,1.9453555503083,2.03218957861266,1.88764670034376,1.98877256446048,FALSE,0.231106153215706
"CAN","cpi",0.2,1964,3,1964,NA,0.5,1.25580450878553,1.51157561576662,1.88764670034376,1.38369006227607,FALSE,1.19594881842394
"CAN","cpi",0.2,1964,3,1963,NA,1,4.97219751329985,5.80868829364526,1.88764670034376,5.39044290347256,FALSE,8.54786781273564
"CAN","cpi",0.2,1964,3,1963,NA,1.5,-0.733292956241531,0.733292956241531,1.88764670034376,0,FALSE,4.35247027273863
"CAN","cpi",0.2,1965,3,1965,NA,0,2.30203488694226,2.38910606143771,2.29538304394236,2.34557047418999,FALSE,0.103700781995208
"CAN","cpi",0.2,1965,3,1965,NA,0.5,1.48049855537691,1.74109040375617,2.29538304394236,1.61079447956654,FALSE,1.64632344884473
"CAN","cpi",0.2,1965,3,1964,NA,1,2.03794487825888,2.81243236533806,2.29538304394236,2.42518862179847,TRUE,0.774487487079178
"CAN","cpi",0.2,1965,3,1964,NA,1.5,0.43085880877681,1.20534629585599,2.29538304394236,0.818102552316399,FALSE,3.4995793572951
"CAN","cpi",0.2,1966,3,1966,NA,0,3.77887452416968,3.86134523310449,3.72486065470629,3.82010987863709,FALSE,0.21750538259329
"CAN","cpi",0.2,1966,3,1966,NA,0.5,3.86154292718311,4.12092505072816,3.72486065470629,3.99123398895563,FALSE,0.601087804737098
"CAN","cpi",0.2,1966,3,1965,NA,1,2.81900010112012,3.59544127379695,3.72486065470629,3.20722068745854,FALSE,1.09998962495018
"CAN","cpi",0.2,1966,3,1965,NA,1.5,1.21841765998117,1.994858832658,3.72486065470629,1.60663824631958,FALSE,5.10144572779756
"CAN","cpi",0.2,1967,3,1967,NA,0,3.72716870825091,3.80820827832173,3.49360316391996,3.76768849328632,FALSE,0.664953430898195
"CAN","cpi",0.2,1967,3,1967,NA,0.5,2.25787576468526,2.55703372370995,3.49360316391996,2.4074547441976,FALSE,2.64058155954972
"CAN","cpi",0.2,1967,3,1966,NA,1,2.79918454749073,3.56288191391495,3.49360316391996,3.18103323070284,TRUE,0.763697366424217
"CAN","cpi",0.2,1967,3,1966,NA,1.5,4.26943292166037,5.03313028808459,3.49360316391996,4.65128160487248,FALSE,2.70327176077525
"CAN","cpi",0.2,1968,3,1968,NA,0,4.13123147716577,4.21452743628214,3.95128347779386,4.17287945672396,FALSE,0.53316595754616
"CAN","cpi",0.2,1968,3,1968,NA,0.5,3.96103949219617,4.18090462340087,3.95128347779386,4.07097205779852,FALSE,0.244255167210485
"CAN","cpi",0.2,1968,3,1967,NA,1,5.43942193033956,6.2510117121374,3.95128347779386,5.84521682123848,FALSE,4.5319359131621
"CAN","cpi",0.2,1968,3,1967,NA,1.5,1.84986369150334,2.66145347330118,3.95128347779386,2.25565858240226,FALSE,4.03616479302952
"CAN","cpi",0.2,1969,3,1969,NA,0,4.42635507205936,4.5115816694185,4.42679496126681,4.46896837073893,TRUE,0.0852265973591368
"CAN","cpi",0.2,1969,3,1969,NA,0.5,2.85060071406432,3.08163967384997,4.42679496126681,2.96612019395715,FALSE,3.59392717832775
"CAN","cpi",0.2,1969,3,1968,NA,1,6.40717818658893,7.04257441422721,4.42679496126681,6.72487630040807,FALSE,5.58635429094357
"CAN","cpi",0.2,1969,3,1968,NA,1.5,3.99894641562627,4.63434264326454,4.42679496126681,4.31664452944541,TRUE,0.635396227638272
"CAN","cpi",0.2,1970,3,1970,NA,0,3.48660775392907,3.56734255765821,3.28128405769805,3.52697515579364,FALSE,0.594044044306707
"CAN","cpi",0.2,1970,3,1970,NA,0.5,4.5232446832525,4.78417702228584,3.28128405769805,4.65371085276917,FALSE,3.36583390291948
"CAN","cpi",0.2,1970,3,1969,NA,1,4.20172075625272,4.85323674550143,3.28128405769805,4.52747875087707,FALSE,2.95260773563539
"CAN","cpi",0.2,1970,3,1969,NA,1.5,1.75398047820694,2.40549646745565,3.28128405769805,2.07973847283129,FALSE,2.8409849648547
"CAN","cpi",0.2,1971,3,1971,NA,0,2.7972908295071,2.8813556863267,2.64123406634756,2.8393232579169,FALSE,0.474206764718448
"CAN","cpi",0.2,1971,3,1971,NA,0.5,1.87336011349245,2.26048320061769,2.64123406634756,2.06692165705507,FALSE,1.33900025144992
"CAN","cpi",0.2,1971,3,1970,NA,1,2.33287425183645,2.94924563983345,2.64123406634756,2.64105994583495,TRUE,0.616371387997002
"CAN","cpi",0.2,1971,3,1970,NA,1.5,4.33159069500618,4.94796208300318,2.64123406634756,4.63977638900468,FALSE,4.84226295964354
"CAN","cpi",0.2,1972,3,1972,NA,0,5.00450950142829,5.05645256233608,4.83230569625923,5.03048103188219,FALSE,0.482452573830449
"CAN","cpi",0.2,1972,3,1972,NA,0.5,4.87544523227347,5.25867285484597,4.83230569625923,5.06705904355972,FALSE,0.491076462608089
"CAN","cpi",0.2,1972,3,1971,NA,1,5.57751653932933,6.25631551480567,4.83230569625923,5.9169160270675,FALSE,2.54182608315159
"CAN","cpi",0.2,1972,3,1971,NA,1.5,2.75336546667454,3.43216444215088,4.83230569625923,3.09276495441271,FALSE,4.17915211074721
"CAN","cpi",0.2,1973,3,1973,NA,0,6.96922216355302,7.01607296030985,7.12388603531779,6.99264756193144,FALSE,0.316383484276671
"CAN","cpi",0.2,1973,3,1973,NA,0.5,5.27951517584941,5.66988275238767,7.12388603531779,5.47469896411854,FALSE,4.02537578386356
"CAN","cpi",0.2,1973,3,1972,NA,1,6.3642228159128,7.01702285904394,7.12388603531779,6.69062283747837,FALSE,0.919957983815762
"CAN","cpi",0.2,1973,3,1972,NA,1.5,4.40534241429928,5.05814245743043,7.12388603531779,4.73174243586486,FALSE,5.81715898784954
"CAN","cpi",0.2,1974,3,1974,NA,0,9.91326825677827,9.97536215450238,10.2717243737774,9.94431520564033,FALSE,0.802999445911705
"CAN","cpi",0.2,1974,3,1974,NA,0.5,8.12640107263718,8.54932976239101,10.2717243737774,8.3378654175141,FALSE,4.72891521821985
"CAN","cpi",0.2,1974,3,1973,NA,1,6.85650786384444,7.47774058885792,10.2717243737774,7.16712422635118,FALSE,7.60619218731222
"CAN","cpi",0.2,1974,3,1973,NA,1.5,3.70943483153568,4.39406015202541,10.2717243737774,4.05174749178054,FALSE,15.3787858748698
"CAN","cpi",0.2,1975,3,1975,NA,0,10.0495690936744,10.1367956302813,10.0232981493341,10.0931823619779,FALSE,0.152903897457595
"CAN","cpi",0.2,1975,3,1975,NA,0.5,8.74494859318233,9.22040092876424,10.0232981493341,8.98267476097328,FALSE,2.48269538700661
"CAN","cpi",0.2,1975,3,1974,NA,1,7.35827921149815,8.20931723311266,10.0232981493341,7.7837982223054,FALSE,5.38599031216817
"CAN","cpi",0.2,1975,3,1974,NA,1.5,5.24708823436635,6.27154387180404,10.0232981493341,5.75931605308519,FALSE,10.4038413312629
"CAN","cpi",0.2,1976,3,1976,NA,0,7.02916189304472,7.11639720598962,7.22784311401172,7.07277954951717,FALSE,0.365850083000137
"CAN","cpi",0.2,1976,3,1976,NA,0.5,8.3503935652712,8.83138764349534,7.22784311401172,8.59089060438327,FALSE,3.28737020637285
"CAN","cpi",0.2,1976,3,1975,NA,1,10.0185435095029,10.8097520275255,7.22784311401172,10.4141477685142,FALSE,7.76795950675048
"CAN","cpi",0.2,1976,3,1975,NA,1.5,5.87812121846298,6.98290050423425,7.22784311401172,6.43051086134862,FALSE,1.71713581021493
"CAN","cpi",0.2,1977,3,1977,NA,0,7.50600431092081,7.60001872237462,7.58101410153764,7.55301151664772,TRUE,0.0940144114538128
"CAN","cpi",0.2,1977,3,1977,NA,0.5,7.70290688839945,8.26041011203829,7.58101410153764,7.98165850021887,FALSE,0.86223519079336
"CAN","cpi",0.2,1977,3,1976,NA,1,3.26249669889806,4.18019628397398,7.58101410153764,3.72134649143602,FALSE,9.41974412898508
"CAN","cpi",0.2,1977,3,1976,NA,1.5,7.44693813308354,8.55850275642873,7.58101410153764,8.00272044475614,TRUE,1.11156462334519
"CAN","cpi",0.2,1978,3,1978,NA,0,8.62385612759676,8.7187006795801,8.50208927062595,8.67127840358843,FALSE,0.399261694410371
"CAN","cpi",0.2,1978,3,1978,NA,0.5,8.09804159173478,8.65961304464382,8.50208927062595,8.3788273181893,TRUE,0.561571452909035
"CAN","cpi",0.2,1978,3,1977,NA,1,6.99922643286638,8.09645013545463,8.50208927062595,7.54783828416051,FALSE,2.11132154051654
"CAN","cpi",0.2,1978,3,1977,NA,1.5,9.15364194051591,10.2976131863285,8.50208927062595,9.72562756342223,FALSE,2.77285292053755
"CAN","cpi",0.2,1979,3,1979,NA,0,8.51860439608676,8.60892340856263,8.65147652410481,8.56376390232469,FALSE,0.19670180133132
"CAN","cpi",0.2,1979,3,1979,NA,0.5,8.02049388196016,8.57149181737513,8.65147652410481,8.29599284966764,FALSE,0.750959702239174
"CAN","cpi",0.2,1979,3,1978,NA,1,8.65054288735785,9.75568712282052,8.65147652410481,9.20311500508918,TRUE,1.10514423546267
"CAN","cpi",0.2,1979,3,1978,NA,1.5,7.98278157030903,9.13015663274946,8.65147652410481,8.55646910152924,TRUE,1.14737506244042
"CAN","cpi",0.2,1980,3,1980,NA,0,9.46033984395145,9.54779459818717,9.5171912664748,9.50406722106931,TRUE,0.0874547542357291
"CAN","cpi",0.2,1980,3,1980,NA,0.5,8.30453994150912,8.85143834519272,9.5171912664748,8.57798914335092,FALSE,2.21128070688879
"CAN","cpi",0.2,1980,3,1979,NA,1,7.64586427997552,8.71163979424078,9.5171912664748,8.17875203710815,FALSE,3.0796541948503
"CAN","cpi",0.2,1980,3,1979,NA,1.5,7.81228332666939,8.97181199457284,9.5171912664748,8.39204766062112,FALSE,2.52297684765834
"CAN","cpi",0.2,1981,3,1981,NA,0,11.6676562580301,11.7551195388097,11.5813425032741,11.7113878984199,FALSE,0.303247667669551
"CAN","cpi",0.2,1981,3,1981,NA,0.5,11.9521586984992,12.4790806520542,11.5813425032741,12.2156196752767,FALSE,1.45396244161773
"CAN","cpi",0.2,1981,3,1980,NA,1,10.55168009054,11.5476905940647,11.5813425032741,11.0496853423024,FALSE,1.08014027654822
"CAN","cpi",0.2,1981,3,1980,NA,1.5,7.76476709481287,8.91142874868502,11.5813425032741,8.33809792174894,FALSE,7.82144604034495
"CAN","cpi",0.2,1982,3,1982,NA,0,10.2158157603194,10.2975178699,10.1124203763629,10.2566668151097,FALSE,0.340190569471771
"CAN","cpi",0.2,1982,3,1982,NA,0.5,9.86783165585613,10.3492395388529,10.1124203763629,10.1085355973545,TRUE,0.481407882996745
"CAN","cpi",0.2,1982,3,1981,NA,1,11.2936363125368,12.2483410537111,10.1124203763629,11.770988683124,FALSE,3.90774458160894
"CAN","cpi",0.2,1982,3,1981,NA,1.5,12.2796075882105,13.4606424820457,10.1124203763629,12.8701250351281,FALSE,6.59900292345411
"CAN","cpi",0.2,1983,3,1983,NA,0,5.69150235661747,5.77052192668032,5.67091787896303,5.7310121416489,FALSE,0.130480764198941
"CAN","cpi",0.2,1983,3,1983,NA,0.5,4.67207604246927,5.15478427772381,5.67091787896303,4.91343016009654,FALSE,1.77304223835261
"CAN","cpi",0.2,1983,3,1982,NA,1,8.67913610813727,9.69086688918387,5.67091787896303,9.18500149866057,FALSE,8.53227635398218
"CAN","cpi",0.2,1983,3,1982,NA,1.5,9.06821871083871,10.3052273205486,5.67091787896303,9.68672301569366,FALSE,9.73026068939909
"CAN","cpi",0.2,1984,3,1984,NA,0,NA,NA,4.19799576814029,NA,NA,NA
"CAN","cpi",0.2,1984,3,1984,NA,0.5,5.61861798148687,6.09679573900227,4.19799576814029,5.85770686024457,FALSE,4.02973329088186
"CAN","cpi",0.2,1984,3,1983,NA,1,5.1881486427167,6.34291851721187,4.19799576814029,5.76553357996429,FALSE,3.6301520609362
"CAN","cpi",0.2,1984,3,1983,NA,1.5,2.18774921901125,3.65185013993216,4.19799576814029,2.9197996794717,FALSE,2.82946499144123
"CAN","cpi",0.2,1985,3,1985,NA,0,3.81706761987734,3.89129218283022,3.86444262005169,3.85417990135378,TRUE,0.0742245629528755
"CAN","cpi",0.2,1985,3,1985,NA,0.5,3.96101364810694,4.47878719955103,3.86444262005169,4.21990042382899,FALSE,0.759201121582214
"CAN","cpi",0.2,1985,3,1984,NA,1,NA,NA,3.86444262005169,NA,NA,NA
"CAN","cpi",0.2,1985,3,1984,NA,1.5,7.90690068355526,9.35309252255185,3.86444262005169,8.62999660305356,FALSE,11.5523369977555
"CAN","cpi",0.2,1986,3,1986,NA,0,4.01239966810186,4.063028115898,4.08685396749431,4.03771389199993,FALSE,0.110193076786924
"CAN","cpi",0.2,1986,3,1986,NA,0.5,4.16813720776298,4.5962494423076,4.08685396749431,4.38219332503529,FALSE,0.631320335216285
"CAN","cpi",0.2,1986,3,1985,NA,1,2.80822092513769,3.94877859647929,4.08685396749431,3.37849976080849,FALSE,1.48574609887916
"CAN","cpi",0.2,1986,3,1985,NA,1.5,4.27052959461508,5.63566758340404,4.08685396749431,4.95309858900956,FALSE,1.82432705659089
"CAN","cpi",0.2,1987,3,1987,NA,0,NA,NA,4.23980729277887,NA,NA,NA
"CAN","cpi",0.2,1987,3,1987,NA,0.5,3.94010218661748,4.32674103498422,4.23980729277887,4.13342161080085,TRUE,0.386638848366733
"CAN","cpi",0.2,1987,3,1986,NA,1,3.12132917916588,4.20149058413008,4.23980729277887,3.66140988164798,FALSE,1.17595317658617
"CAN","cpi",0.2,1987,3,1986,NA,1.5,4.22168017812761,5.38317518474267,4.23980729277887,4.80242768143514,TRUE,1.16149500661506
"CAN","cpi",0.2,1988,3,1988,NA,0,3.92147626053363,3.96618697937356,3.92899537638065,3.9438316199536,TRUE,0.0447107188399336
"CAN","cpi",0.2,1988,3,1988,NA,0.5,3.1827423098597,3.52564199695655,3.92899537638065,3.35419215340812,FALSE,1.35128313565712
"CAN","cpi",0.2,1988,3,1987,NA,1,NA,NA,3.92899537638065,NA,NA,NA
"CAN","cpi",0.2,1988,3,1987,NA,1.5,3.32577268527137,4.46346590525756,3.92899537638065,3.89461929526446,TRUE,1.13769321998619
"CAN","cpi",0.2,1989,3,1989,NA,0,4.92955744772447,4.97304892013224,4.82821664544208,4.95130318392835,FALSE,0.296843478113749
"CAN","cpi",0.2,1989,3,1989,NA,0.5,4.05424303632469,4.40625581861677,4.82821664544208,4.23024942747073,FALSE,1.40691484935534
"CAN","cpi",0.2,1989,3,1988,NA,1,3.67551835004817,4.44131754201508,4.82821664544208,4.05841794603162,FALSE,1.7330469505344
"CAN","cpi",0.2,1989,3,1988,NA,1.5,2.0262335916455,3.16945352712049,4.82821664544208,2.597843559383,FALSE,5.29012773127895
"CAN","cpi",0.2,1990,3,1990,NA,0,4.45466340001208,4.49472663852052,4.64347549432717,4.4746950192663,FALSE,0.411935378025075
"CAN","cpi",0.2,1990,3,1990,NA,0.5,4.78349118663677,5.14625219141281,4.64347549432717,4.96487168902479,FALSE,0.71280023555003
"CAN","cpi",0.2,1990,3,1989,NA,1,5.06004838779749,5.81737909158403,4.64347549432717,5.43871373969076,FALSE,1.79876293746234
"CAN","cpi",0.2,1990,3,1989,NA,1.5,2.76371496213585,3.98279303834035,4.64347549432717,3.3732540002381,FALSE,2.87078421617156
"CAN","cpi",0.2,1991,3,1991,NA,0,5.58635845415419,5.63470894469345,5.4258100696218,5.61053369942382,FALSE,0.449721451870249
"CAN","cpi",0.2,1991,3,1991,NA,0.5,7.64088086497848,8.00310504457341,5.4258100696218,7.82199295477594,FALSE,5.89990116798664
"CAN","cpi",0.2,1991,3,1990,NA,1,3.28719298629973,4.0471433813822,5.4258100696218,3.66716818384097,FALSE,4.20661711568145
"CAN","cpi",0.2,1991,3,1990,NA,1.5,4.20324638028622,5.44639259299705,5.4258100696218,4.82481948664164,TRUE,1.24314621271083
"CAN","cpi",0.2,1992,3,1992,NA,0,NA,NA,1.47496888572843,NA,NA,NA
"CAN","cpi",0.2,1992,3,1992,NA,0.5,NA,NA,1.47496888572843,NA,NA,NA
"CAN","cpi",0.2,1992,3,1991,NA,1,2.37293155732696,3.1626798673373,1.47496888572843,2.76780571233213,FALSE,3.03465498900666
"CAN","cpi",0.2,1992,3,1991,NA,1.5,6.53389613813125,7.76486751507214,1.47496888572843,7.14938182660169,FALSE,13.8782895079479
"CAN","cpi",0.2,1993,3,1993,NA,0,NA,NA,NA,NA,NA,NA
"CAN","cpi",0.2,1993,3,1993,NA,0.5,NA,NA,NA,NA,NA,NA
"CAN","cpi",0.2,1993,3,1992,NA,1,NA,NA,NA,NA,NA,NA
"CAN","cpi",0.2,1993,3,1992,NA,1.5,NA,NA,NA,NA,NA,NA
"CAN","cpi",0.2,1994,3,1994,NA,0,NA,NA,NA,NA,NA,NA
"CAN","cpi",0.2,1994,3,1994,NA,0.5,NA,NA,NA,NA,NA,NA
"CAN","cpi",0.2,1994,3,1993,NA,1,NA,NA,NA,NA,NA,NA
"CAN","cpi",0.2,1994,3,1993,NA,1.5,NA,NA,NA,NA,NA,NA
"CAN","cpi",0.2,1995,3,1995,NA,0,NA,NA,2.11688403676572,NA,NA,NA
"CAN","cpi",0.2,1995,3,1995,NA,0.5,2.2699296912587,2.76882653020299,2.11688403676572,2.51937811073084,FALSE,0.881510975176748
"CAN","cpi",0.2,1995,3,1994,NA,1,0.427707729124119,1.01108509251977,2.11688403676572,0.719396410821945,FALSE,3.34787472401051
"CAN","cpi",0.2,1995,3,1994,NA,1.5,-1.70031122172831,-0.392780856768259,2.11688403676572,-1.04654603924828,FALSE,7.58169259879498
"CAN","cpi",0.2,1996,3,1996,NA,0,1.39873451269553,1.45688045444499,1.55309584667184,1.42780748357026,FALSE,0.298684422316594
"CAN","cpi",0.2,1996,3,1996,NA,0.5,NA,NA,1.55309584667184,NA,NA,NA
"CAN","cpi",0.2,1996,3,1995,NA,1,NA,NA,1.55309584667184,NA,NA,NA
"CAN","cpi",0.2,1996,3,1995,NA,1.5,2.21267892892404,3.63196649458489,1.55309584667184,2.92232271175447,FALSE,3.06824527129135
"CAN","cpi",0.2,1997,3,1997,NA,0,1.70330872941913,1.76740822672321,1.60528783555959,1.73535847807117,FALSE,0.309151731952933
"CAN","cpi",0.2,1997,3,1997,NA,0.5,1.87347907762664,2.34808819432928,1.60528783555959,2.11078363597796,FALSE,1.14508722187026
"CAN","cpi",0.2,1997,3,1996,NA,1,0.724761814729101,1.24516085988601,1.60528783555959,0.984961337307556,FALSE,1.42071648434086
"CAN","cpi",0.2,1997,3,1996,NA,1.5,NA,NA,1.60528783555959,NA,NA,NA
"CAN","cpi",0.2,1998,3,1998,NA,0,1.00134723242668,1.06882219526752,0.988908029337191,1.0350847138471,FALSE,0.0985729705645653
"CAN","cpi",0.2,1998,3,1998,NA,0.5,1.44738142353359,1.92329168520855,0.988908029337191,1.68533655437107,FALSE,1.62209374716596
"CAN","cpi",0.2,1998,3,1997,NA,1,1.99209290303478,2.51109878366035,0.988908029337191,2.25159584334757,FALSE,3.02696806486955
"CAN","cpi",0.2,1998,3,1997,NA,1.5,1.74810313040253,3.031653207119,0.988908029337191,2.38987816876076,FALSE,3.18153782937982
"CAN","cpi",0.2,1999,3,1999,NA,0,1.74490058344495,1.80746818574428,1.7107350135213,1.77618438459462,FALSE,0.147981527108466
"CAN","cpi",0.2,1999,3,1999,NA,0.5,0.794173660183947,1.26401129964665,1.7107350135213,1.0290924799153,FALSE,1.58664692414931
"CAN","cpi",0.2,1999,3,1998,NA,1,1.55327971527055,2.15027116601354,1.7107350135213,1.85177544064205,TRUE,0.596991450742989
"CAN","cpi",0.2,1999,3,1998,NA,1.5,2.29541064996009,3.59750396578237,1.7107350135213,2.94645730787123,FALSE,2.76378240691926
"CAN","cpi",0.2,2000,3,2000,NA,0,2.67886276078553,2.74164559633746,2.6718361971244,2.7102541785615,FALSE,0.0803492447047616
"CAN","cpi",0.2,2000,3,2000,NA,0.5,2.10471080077892,2.5833932272882,2.6718361971244,2.34405201403356,FALSE,0.699789851099786
"CAN","cpi",0.2,2000,3,1999,NA,1,2.79499248653326,3.35586624909092,2.6718361971244,3.07542936781209,FALSE,0.86876448607982
"CAN","cpi",0.2,2000,3,1999,NA,1.5,1.62115175624846,2.93502895978601,2.6718361971244,2.27809035801724,TRUE,1.31387720353755
"CAN","cpi",0.2,2001,3,2001,NA,0,2.74534431582942,2.80558738385761,2.47906219852806,2.77546584984351,FALSE,0.725948361281578
"CAN","cpi",0.2,2001,3,2001,NA,0.5,2.20601195787987,2.66532315218221,2.47906219852806,2.43566755503104,TRUE,0.459311194302342
"CAN","cpi",0.2,2001,3,2000,NA,1,3.41336568362018,3.96580822277667,2.47906219852806,3.68958695319843,FALSE,2.88820125188679
"CAN","cpi",0.2,2001,3,2000,NA,1.5,2.39576367522037,3.62965211902309,2.47906219852806,3.01270789712173,TRUE,1.23388844380272
"CAN","cpi",0.2,2002,3,2002,NA,0,2.24097687516567,2.30294782456135,2.20880570551249,2.27196234986351,FALSE,0.14239887352863
"CAN","cpi",0.2,2002,3,2002,NA,0.5,1.34935319234209,1.81755504744042,2.20880570551249,1.58345411989126,FALSE,1.44632850027849
"CAN","cpi",0.2,2002,3,2001,NA,1,1.97751230114619,2.55269617577177,2.20880570551249,2.26510423845898,TRUE,0.575183874625576
"CAN","cpi",0.2,2002,3,2001,NA,1.5,2.42786421929587,3.61329664628431,2.20880570551249,3.02058043279009,FALSE,1.73307871144691
"CAN","cpi",0.2,2003,3,2003,NA,0,2.68382262458658,2.74271142782677,2.71189071546809,2.71326702620668,TRUE,0.0588888032401851
"CAN","cpi",0.2,2003,3,2003,NA,0.5,4.38349429686137,4.64515868860856,2.71189071546809,4.51432649273496,FALSE,4.44067334523039
"CAN","cpi",0.2,2003,3,2002,NA,1,3.62667844112123,4.08568719380352,2.71189071546809,3.85618281746238,FALSE,2.74597806681514
"CAN","cpi",0.2,2003,3,2002,NA,1.5,1.81562978424782,2.97241801273587,2.71189071546809,2.39402389849184,TRUE,1.15678822848805
"CAN","cpi",0.2,2004,3,2004,NA,0,1.74647095852508,1.80286608913522,1.83151661303942,1.77466852383015,FALSE,0.128021440370657
"CAN","cpi",0.2,2004,3,2004,NA,0.5,1.35753532283029,1.74767338020843,1.83151661303942,1.55260435151936,FALSE,0.599746139455621
"CAN","cpi",0.2,2004,3,2003,NA,1,1.56955713509266,2.01875871687304,1.83151661303942,1.79415792598285,TRUE,0.449201581780379
"CAN","cpi",0.2,2004,3,2003,NA,1.5,3.90537136766058,4.62861408325374,1.83151661303942,4.26699272545716,FALSE,5.90787960214605
"CAN","cpi",0.2,2005,3,2005,NA,0,2.31516820516893,2.37173886429013,2.18071628336509,2.34345353472953,FALSE,0.392700463630808
"CAN","cpi",0.2,2005,3,2005,NA,0.5,1.31512513520607,1.69130163114052,2.18071628336509,1.50321338317329,FALSE,1.59971312649588
"CAN","cpi",0.2,2005,3,2004,NA,1,1.42722782524354,1.85365142900113,2.18071628336509,1.64043962712234,FALSE,1.24408573966749
"CAN","cpi",0.2,2005,3,2004,NA,1.5,1.64875862765249,2.41910705461218,2.18071628336509,2.03393284113233,TRUE,0.770348426959693
"CAN","cpi",0.2,2006,3,2006,NA,0,2.06699792500624,2.1232896128469,1.97519342012289,2.09514376892657,FALSE,0.285802950049045
"CAN","cpi",0.2,2006,3,2006,NA,0.5,1.90488501061232,2.28384026136813,1.97519342012289,2.09436263599022,TRUE,0.378955250755817
"CAN","cpi",0.2,2006,3,2005,NA,1,2.74749839482777,3.16908401733344,1.97519342012289,2.9582912060806,FALSE,2.35234805926788
"CAN","cpi",0.2,2006,3,2005,NA,1.5,1.28078887293671,2.01693036667941,1.97519342012289,1.64885961980806,TRUE,0.736141493742708
"CAN","cpi",0.2,2007,3,2007,NA,0,2.07967220346386,2.13400023858229,2.10062087284572,2.10683622102307,TRUE,0.0543280351184254
"CAN","cpi",0.2,2007,3,2007,NA,0.5,1.99662953101429,2.35596851065277,2.10062087284572,2.17629902083353,TRUE,0.35933897963848
"CAN","cpi",0.2,2007,3,2006,NA,1,1.32894743727932,1.6882864169178,2.10062087284572,1.50861692709856,FALSE,1.39017511945829
"CAN","cpi",0.2,2007,3,2006,NA,1.5,1.9288607708985,2.3895115561096,2.10062087284572,2.15918616350405,TRUE,0.460650785211105
"CAN","cpi",0.2,2008,3,2008,NA,0,2.847688703303,2.89390039967356,2.31447335265955,2.87079455148828,FALSE,1.37925007297918
"CAN","cpi",0.2,2008,3,2008,NA,0.5,1.13120161662419,1.48890467728114,2.31447335265955,1.31005314695267,FALSE,2.42162474910298
"CAN","cpi",0.2,2008,3,2007,NA,1,1.29129605807138,1.64932494158198,2.31447335265955,1.47031049982668,FALSE,2.02089991120454
"CAN","cpi",0.2,2008,3,2007,NA,1.5,2.23860295432689,2.69046095252099,2.31447335265955,2.46453195342394,TRUE,0.451857998194096
"CAN","cpi",0.2,2009,3,2009,NA,0,0.145291232688122,0.228953460011321,0.284533874408197,0.187122346349721,FALSE,0.22261326331539
"CAN","cpi",0.2,2009,3,2009,NA,0.5,-0.260917843926544,0.115419319833311,0.284533874408197,-0.0727492620466167,FALSE,0.799123550197071
"CAN","cpi",0.2,2009,3,2008,NA,1,3.62963168168958,4.00596884544944,0.284533874408197,3.81780026356951,FALSE,8.73908168196332
"CAN","cpi",0.2,2009,3,2008,NA,1.5,1.46957454463601,1.90392850797238,0.284533874408197,1.68675152630419,FALSE,3.39695563890589
"CAN","cpi",0.2,2010,3,2010,NA,0,1.56450108946299,1.6534902398078,1.75525687020327,1.6089956646354,FALSE,0.343405726333484
"CAN","cpi",0.2,2010,3,2010,NA,0.5,1.73124019551338,2.09094985501028,1.75525687020327,1.91109502526183,TRUE,0.359709659496907
"CAN","cpi",0.2,2010,3,2009,NA,1,0.73547823021074,1.24911334677877,1.75525687020327,0.992295788494754,FALSE,1.77899392512929
"CAN","cpi",0.2,2010,3,2009,NA,1.5,0.628285494531854,1.14192061109988,1.75525687020327,0.885103052815867,FALSE,2.0469757643265
"CAN","cpi",0.2,2011,3,2011,NA,0,2.81853541472325,2.91477286651871,2.85717434028225,2.86665414062098,TRUE,0.0962374517954601
"CAN","cpi",0.2,2011,3,2011,NA,0.5,2.589248514505,2.94241912339042,2.85717434028225,2.76583381894771,TRUE,0.353170608885415
"CAN","cpi",0.2,2011,3,2010,NA,1,1.1235081180973,1.66238476529708,2.85717434028225,1.39294644169719,FALSE,3.52585058466269
"CAN","cpi",0.2,2011,3,2010,NA,1.5,1.37309228232374,1.91196892952351,2.85717434028225,1.64253060592363,FALSE,2.9018901740966
"CAN","cpi",0.2,2012,3,2012,NA,0,1.4798943412807,1.57655587570718,1.50118536134935,1.52822510849394,TRUE,0.0966615344264845
"CAN","cpi",0.2,2012,3,2012,NA,0.5,1.74860346907643,2.09997697037936,1.50118536134935,1.92429021972789,FALSE,0.969918770620632
"CAN","cpi",0.2,2012,3,2011,NA,1,1.70487978173805,2.29402506720352,1.50118536134935,1.99945242447079,FALSE,1.09838133643723
"CAN","cpi",0.2,2012,3,2011,NA,1.5,2.18693693124688,2.77608221671235,1.50118536134935,2.48150957397962,FALSE,2.30352421020931
"CAN","cpi",0.2,2013,3,2013,NA,0,1.01102244514979,1.10158782331443,0.931270594714462,1.05630513423211,FALSE,0.289945004252951
"CAN","cpi",0.2,2013,3,2013,NA,0.5,0.990074506090364,1.34919458500828,0.931270594714462,1.16963454554932,FALSE,0.506129857357667
"CAN","cpi",0.2,2013,3,2012,NA,1,0.795482661342557,1.38187912123228,0.931270594714462,1.08868089128742,TRUE,0.586396459889726
"CAN","cpi",0.2,2013,3,2012,NA,1.5,1.8525335653604,2.43893002525013,0.931270594714462,2.14573179530527,FALSE,2.88955388650458
"CAN","cpi",0.2,2014,3,2014,NA,0,1.95308678725223,2.0441701956501,1.87639912240215,1.99862849145116,FALSE,0.282802570523061
"CAN","cpi",0.2,2014,3,2014,NA,0.5,1.61820493427205,1.9664345873817,1.87639912240215,1.79231976082687,TRUE,0.34822965310965
"CAN","cpi",0.2,2014,3,2013,NA,1,1.11022993794053,1.70306985845743,1.87639912240215,1.40664989819898,FALSE,1.0261630803787
"CAN","cpi",0.2,2014,3,2013,NA,1.5,1.21794125752047,1.81078117803738,1.87639912240215,1.51436121777893,FALSE,0.756884781428836
"CAN","cpi",0.2,2015,3,2015,NA,0,1.16488916548343,1.25572384301216,1.11090953952792,1.2103065042478,FALSE,0.225783742417515
"CAN","cpi",0.2,2015,3,2015,NA,0.5,0.356941801150851,0.560152830285267,1.11090953952792,0.458547315718059,FALSE,1.58010280224104
"CAN","cpi",0.2,2015,3,2014,NA,1,1.27700502807159,1.86409060049111,1.11090953952792,1.57054781428135,FALSE,1.00232429377869
"CAN","cpi",0.2,2015,3,2014,NA,1.5,1.58874830920181,2.17583388162133,1.11090953952792,1.88229109541157,FALSE,1.78168249660425
"CAN","cpi",0.2,2016,3,2016,NA,0,1.37213377265067,1.46047957678917,1.41168586698797,1.41630667471992,TRUE,0.0883458041385041
"CAN","cpi",0.2,2016,3,2016,NA,0.5,1.07159157524148,1.28785159061703,1.41168586698797,1.17972158292925,FALSE,0.525845706302894
"CAN","cpi",0.2,2016,3,2015,NA,1,1.59819045654228,2.12954086449112,1.41168586698797,1.8638656605167,FALSE,0.997611881834625
"CAN","cpi",0.2,2016,3,2015,NA,1.5,0.80455482317644,1.33590523112528,1.41168586698797,1.07023002715086,FALSE,0.720801997605552
"CAN","cpi",0.2,2017,3,2017,NA,0,1.46078212668591,1.54907172624928,1.57888581671161,1.50492692646759,FALSE,0.162824825719209
"CAN","cpi",0.2,2017,3,2017,NA,0.5,1.99037148460703,2.1913608810358,1.57888581671161,2.09086618282141,FALSE,1.22970356616731
"CAN","cpi",0.2,2017,3,2016,NA,1,0.881362128801879,1.41167887825461,1.57888581671161,1.14652050352824,FALSE,0.948334095595236
"CAN","cpi",0.2,2017,3,2016,NA,1.5,1.0027224705039,1.53303921995663,1.57888581671161,1.26788084523026,FALSE,0.644933241340185
"CAN","cpi",0.2,2018,3,2018,NA,0,2.36793345494648,2.45841729497518,2.23316270166586,2.41317537496083,FALSE,0.427410723230255
"CAN","cpi",0.2,2018,3,2018,NA,0.5,2.41831295663429,2.63786942965961,2.23316270166586,2.52809119314695,FALSE,0.6824321104464
"CAN","cpi",0.2,2018,3,2017,NA,1,0.905033859942896,1.43096817837903,2.23316270166586,1.16800101916097,FALSE,2.5314206266532
"CAN","cpi",0.2,2018,3,2017,NA,1.5,1.81001686338286,2.335951181819,2.23316270166586,2.07298402260093,TRUE,0.525934318436139
"CAN","cpi",0.2,2019,3,2019,NA,0,NA,NA,1.91921619871868,NA,NA,NA
"CAN","cpi",0.2,2019,3,2019,NA,0.5,1.36043273581727,1.58614339024917,1.91921619871868,1.47328806303322,FALSE,1.05839267560567
"CAN","cpi",0.2,2019,3,2018,NA,1,1.96752800123315,2.5018776196935,1.91921619871868,2.23470281046333,FALSE,0.655129124746523
"CAN","cpi",0.2,2019,3,2018,NA,1.5,2.05313081644495,2.5874804349053,1.91921619871868,2.32030562567512,FALSE,0.869136162776019
"CAN","cpi",0.2,2020,3,2020,NA,0,0.647777989131676,0.699399284295519,0.71139989671781,0.673588636713597,FALSE,0.0816228262195723
"CAN","cpi",0.2,2020,3,2020,NA,0.5,NA,NA,0.71139989671781,NA,NA,NA
"CAN","cpi",0.2,2020,3,2019,NA,1,NA,NA,0.71139989671781,NA,NA,NA
"CAN","cpi",0.2,2020,3,2019,NA,1.5,1.56711759954445,1.98699223921363,0.71139989671781,1.77705491937904,FALSE,2.55916889673578
"CAN","cpi",0.2,2021,3,2021,NA,0,3.22821225363348,3.27691707730891,3.31148121717802,3.2525646654712,FALSE,0.135115173348209
"CAN","cpi",0.2,2021,3,2021,NA,0.5,2.07633756437421,2.25913204567966,3.31148121717802,2.16773480502693,FALSE,2.81366741005136
"CAN","cpi",0.2,2021,3,2020,NA,1,1.44033742557978,1.78107806394666,3.31148121717802,1.61070774476322,FALSE,4.1667485214453
"CAN","cpi",0.2,2021,3,2020,NA,1.5,NA,NA,3.31148121717802,NA,NA,NA
"CAN","cpi",0.2,2022,3,2022,NA,0,6.56589133059193,6.60776650542574,6.50977236228281,6.58682891800883,FALSE,0.182172595606599
"CAN","cpi",0.2,2022,3,2022,NA,0.5,5.46367486603858,5.71433539757938,6.50977236228281,5.58900513180898,FALSE,2.23925294329938
"CAN","cpi",0.2,2022,3,2021,NA,1,3.15923787061941,3.55270365983244,6.50977236228281,3.35597076522593,FALSE,7.78613754533895
"CAN","cpi",0.2,2022,3,2021,NA,1.5,1.69784932705774,2.09131511627077,6.50977236228281,1.89458222166426,FALSE,11.4396089042431
"CAN","cpi",0.2,2023,3,2023,NA,0,3.9412743682224,3.98315686009242,3.78831288758619,3.96221561415741,FALSE,0.424286193460543
"CAN","cpi",0.2,2023,3,2023,NA,0.5,3.47292488984534,3.75146922349387,3.78831288758619,3.6121970566696,FALSE,0.370653493879336
"CAN","cpi",0.2,2023,3,2022,NA,1,5.20033674693998,5.77203376534162,3.78831288758619,5.4861852561408,FALSE,4.10175666678612
"CAN","cpi",0.2,2023,3,2022,NA,1.5,3.44852965100818,4.26261185417052,3.78831288758619,3.85557075258935,TRUE,0.814082203162339
"CAN","cpi",0.2,2024,3,2023,NA,1,4.39830741357903,5.04730878449574,NA,4.72280809903739,NA,NA
"CAN","cpi",0.2,2024,3,2023,NA,1.5,3.9702963264202,4.76381386584206,NA,4.36705509613113,NA,NA
"CAN","cpi",0.3,1959,3,1959,NA,0,1.18876110174039,1.31106322688547,1.19382698397654,1.24991216431293,TRUE,0.122302125145082
"CAN","cpi",0.3,1959,3,1959,NA,0.5,-0.263957911846452,1.13963737502711,1.19382698397654,0.437839731590327,FALSE,1.5584227410148
"CAN","cpi",0.3,1959,3,1958,NA,1,0.534954334359361,2.98230092335956,1.19382698397654,1.75862762885946,TRUE,2.4473465890002
"CAN","cpi",0.3,1959,3,1958,NA,1.5,-0.724943678948335,4.27308713322365,1.19382698397654,1.77407172713766,TRUE,4.99803081217198
"CAN","cpi",0.3,1960,3,1960,NA,0,0.969740892682494,1.07748519250705,1.34209404870695,1.02361304259477,FALSE,0.863769603252846
"CAN","cpi",0.3,1960,3,1960,NA,0.5,-0.159613238393184,1.2375801987565,1.34209404870695,0.53898348018166,FALSE,1.69580443700811
"CAN","cpi",0.3,1960,3,1959,NA,1,2.95075896651665,4.9644285072722,1.34209404870695,3.95759373689442,FALSE,6.60985502021183
"CAN","cpi",0.3,1960,3,1959,NA,1.5,-3.21726733202419,1.47031370121443,1.34209404870695,-0.873476815404885,TRUE,4.68758103323862
"CAN","cpi",0.3,1961,3,1961,NA,0,0.942982715499612,1.07544424638053,1.00921348094007,1.00921348094007,TRUE,0.13246153088092
"CAN","cpi",0.3,1961,3,1961,NA,0.5,0.50017676598995,1.51825019589019,1.00921348094007,1.00921348094007,TRUE,1.01807342990024
"CAN","cpi",0.3,1961,3,1960,NA,1,-0.786701710217251,0.894242635424316,1.00921348094007,0.0537704626035329,FALSE,2.00943247568658
"CAN","cpi",0.3,1961,3,1960,NA,1.5,-3.07414256281953,1.34977896493946,1.00921348094007,-0.862181798940035,TRUE,4.42392152775899
"CAN","cpi",0.3,1962,3,1962,NA,0,1.04321059206649,1.16143746256307,1.04957947883042,1.10232402731478,TRUE,0.118226870496582
"CAN","cpi",0.3,1962,3,1962,NA,0.5,-0.432949693668812,0.432949693668812,1.04957947883042,0,FALSE,2.62769877351363
"CAN","cpi",0.3,1962,3,1961,NA,1,-0.889206630645011,0.889206630645011,1.04957947883042,0,FALSE,2.23662139896261
"CAN","cpi",0.3,1962,3,1961,NA,1.5,-1.82533975572885,1.82533975572885,1.04957947883042,0,TRUE,3.65067951145769
"CAN","cpi",0.3,1963,3,1963,NA,0,1.85572427592218,1.97411031470186,1.60677118395228,1.91491729531202,FALSE,0.829680587265085
"CAN","cpi",0.3,1963,3,1963,NA,0.5,0.402656280732362,1.27100114850265,1.60677118395228,0.836828714617504,FALSE,1.82768782619782
"CAN","cpi",0.3,1963,3,1962,NA,1,1.7661652898751,3.36206451842778,1.60677118395228,2.56411490415144,FALSE,2.05131095976072
"CAN","cpi",0.3,1963,3,1962,NA,1.5,-1.30508938899684,1.30508938899684,1.60677118395228,0,FALSE,3.47212676358066
"CAN","cpi",0.3,1964,3,1964,NA,0,1.92273879523212,2.05480633368884,1.88764670034376,1.98877256446048,FALSE,0.232330666709175
"CAN","cpi",0.3,1964,3,1964,NA,0.5,1.18918647211126,1.57819365244089,1.88764670034376,1.38369006227607,FALSE,1.27315874576641
"CAN","cpi",0.3,1964,3,1963,NA,1,4.75432547083005,6.02656033611507,1.88764670034376,5.39044290347256,FALSE,9.46274563810298
"CAN","cpi",0.3,1964,3,1963,NA,1.5,-1.11527931606511,1.11527931606511,1.88764670034376,0,FALSE,4.43732258721208
"CAN","cpi",0.3,1965,3,1965,NA,0,2.27935636486729,2.41178458351268,2.29538304394236,2.34557047418999,TRUE,0.13242821864539
"CAN","cpi",0.3,1965,3,1965,NA,0.5,1.41262491039312,1.80896404873995,2.29538304394236,1.61079447956654,FALSE,1.78610769606798
"CAN","cpi",0.3,1965,3,1964,NA,1,1.83622218789334,3.0141550557036,2.29538304394236,2.42518862179847,TRUE,1.17793286781026
"CAN","cpi",0.3,1965,3,1964,NA,1.5,0.22913611841127,1.40706898622153,2.29538304394236,0.818102552316399,FALSE,3.71597303272691
"CAN","cpi",0.3,1966,3,1966,NA,0,3.75739423745075,3.88282551982342,3.72486065470629,3.82010987863709,FALSE,0.218384375928277
"CAN","cpi",0.3,1966,3,1966,NA,0.5,3.793984366629,4.18848361128227,3.72486065470629,3.99123398895563,FALSE,0.591995564432442
"CAN","cpi",0.3,1966,3,1965,NA,1,2.61676855461234,3.79767282030473,3.72486065470629,3.20722068745854,TRUE,1.18090426569238
"CAN","cpi",0.3,1966,3,1965,NA,1.5,1.01618611347339,2.19709037916578,3.72486065470629,1.60663824631958,FALSE,5.54596219580814
"CAN","cpi",0.3,1967,3,1967,NA,0,3.70606117536822,3.82931581120442,3.49360316391996,3.76768849328632,FALSE,0.730277525688373
"CAN","cpi",0.3,1967,3,1967,NA,0.5,2.17995720648323,2.63495228191198,3.49360316391996,2.4074547441976,FALSE,2.90828330973727
"CAN","cpi",0.3,1967,3,1966,NA,1,2.60027224748552,3.76179421392015,3.49360316391996,3.18103323070284,TRUE,1.16152196643463
"CAN","cpi",0.3,1967,3,1966,NA,1.5,4.07052062165517,5.23204258808979,3.49360316391996,4.65128160487248,FALSE,2.80985755996379
"CAN","cpi",0.3,1968,3,1968,NA,0,4.10953624612608,4.23622266732184,3.95128347779386,4.17287945672396,FALSE,0.578837187859251
"CAN","cpi",0.3,1968,3,1968,NA,0.5,3.90377351111305,4.23817060448399,3.95128347779386,4.07097205779852,TRUE,0.334397093370937
"CAN","cpi",0.3,1968,3,1967,NA,1,5.22803559164626,6.4623980508307,3.95128347779386,5.84521682123848,FALSE,4.88222564161988
"CAN","cpi",0.3,1968,3,1967,NA,1.5,1.63847735281004,2.87283981199448,3.95128347779386,2.25565858240226,FALSE,4.31563007575408
"CAN","cpi",0.3,1969,3,1969,NA,0,4.40415698778195,4.53377975369591,4.42679496126681,4.46896837073893,TRUE,0.129622765913963
"CAN","cpi",0.3,1969,3,1969,NA,0.5,2.79042440221327,3.14181598570103,4.42679496126681,2.96612019395715,FALSE,4.02276008510429
"CAN","cpi",0.3,1969,3,1968,NA,1,6.24168314809491,7.20806945272123,4.42679496126681,6.72487630040807,FALSE,6.15178112413517
"CAN","cpi",0.3,1969,3,1968,NA,1.5,3.83345137713225,4.79983768175856,4.42679496126681,4.31664452944541,TRUE,0.966386304626317
"CAN","cpi",0.3,1970,3,1970,NA,0,3.46557960036162,3.58837071122567,3.28128405769805,3.52697515579364,FALSE,0.649349804188539
"CAN","cpi",0.3,1970,3,1970,NA,0.5,4.45528235421387,4.85213935132447,3.28128405769805,4.65371085276917,FALSE,3.75113784429867
"CAN","cpi",0.3,1970,3,1969,NA,1,4.03202717132075,5.0229303304334,3.28128405769805,4.52747875087707,FALSE,3.13588348374894
"CAN","cpi",0.3,1970,3,1969,NA,1.5,1.58428689327497,2.57519005238762,3.28128405769805,2.07973847283129,FALSE,3.00831460285673
"CAN","cpi",0.3,1971,3,1971,NA,0,2.77539533168984,2.90325118414396,2.64123406634756,2.8393232579169,FALSE,0.511173753432057
"CAN","cpi",0.3,1971,3,1971,NA,0.5,1.77253019442943,2.36131311968072,2.64123406634756,2.06692165705507,FALSE,1.38855705858513
"CAN","cpi",0.3,1971,3,1970,NA,1,2.17233441520202,3.10978547646787,2.64123406634756,2.64105994583495,TRUE,0.93745106126585
"CAN","cpi",0.3,1971,3,1970,NA,1.5,4.17105085837175,5.1085019196376,2.64123406634756,4.63977638900468,FALSE,5.30835618133496
"CAN","cpi",0.3,1972,3,1972,NA,0,4.99098043328072,5.06998163048366,4.83230569625923,5.03048103188219,FALSE,0.532357588692906
"CAN","cpi",0.3,1972,3,1972,NA,0.5,4.77562992429573,5.35848816282371,4.83230569625923,5.06705904355972,TRUE,0.582858238527979
"CAN","cpi",0.3,1972,3,1971,NA,1,5.40071683909549,6.43311521503951,4.83230569625923,5.9169160270675,FALSE,2.65643021261905
"CAN","cpi",0.3,1972,3,1971,NA,1.5,2.5765657664407,3.60896414238472,4.83230569625923,3.09276495441271,FALSE,4.52765995844262
"CAN","cpi",0.3,1973,3,1973,NA,0,6.95701942441879,7.02827569944409,7.12388603531779,6.99264756193144,FALSE,0.344428663235875
"CAN","cpi",0.3,1973,3,1973,NA,0.5,5.1778401984166,5.77155772982048,7.12388603531779,5.47469896411854,FALSE,4.45751268996763
"CAN","cpi",0.3,1973,3,1972,NA,1,6.19419478683801,7.18705088811873,7.12388603531779,6.69062283747837,TRUE,0.992856101280719
"CAN","cpi",0.3,1973,3,1972,NA,1.5,4.2353143852245,5.22817048650522,7.12388603531779,4.73174243586486,FALSE,6.40918624074521
"CAN","cpi",0.3,1974,3,1974,NA,0,9.8970953058744,9.99153510540625,10.2717243737774,9.94431520564033,FALSE,0.894980566306618
"CAN","cpi",0.3,1974,3,1974,NA,0.5,8.01624524113155,8.65948559389664,10.2717243737774,8.3378654175141,FALSE,5.24963686671017
"CAN","cpi",0.3,1974,3,1973,NA,1,6.69470184538256,7.63954660731981,10.2717243737774,7.16712422635118,FALSE,8.46535266610185
"CAN","cpi",0.3,1974,3,1973,NA,1.5,3.53111760389087,4.57237737967022,10.2717243737774,4.05174749178054,FALSE,17.3251083303713
"CAN","cpi",0.3,1975,3,1975,NA,0,10.0268501060481,10.1595146179076,10.0232981493341,10.0931823619779,FALSE,0.142812959613772
"CAN","cpi",0.3,1975,3,1975,NA,0.5,8.62111247462105,9.34423704732552,10.0232981493341,8.98267476097328,FALSE,2.6632991498719
"CAN","cpi",0.3,1975,3,1974,NA,1,7.13661820058772,8.43097824402308,10.0232981493341,7.7837982223054,FALSE,5.84384548718119
"CAN","cpi",0.3,1975,3,1974,NA,1.5,4.98025894300693,6.53837316316346,10.0232981493341,5.75931605308519,FALSE,11.5150427520727
"CAN","cpi",0.3,1976,3,1976,NA,0,7.00644061953714,7.1391184794972,7.22784311401172,7.07277954951717,FALSE,0.386176815715815
"CAN","cpi",0.3,1976,3,1976,NA,0.5,8.22511404671476,8.95666716205178,7.22784311401172,8.59089060438327,FALSE,3.58089863734572
"CAN","cpi",0.3,1976,3,1975,NA,1,9.81246566633776,11.0158298706906,7.22784311401172,10.4141477685142,FALSE,8.58800006814151
"CAN","cpi",0.3,1976,3,1975,NA,1.5,5.59037086290028,7.27065085979696,7.22784311401172,6.43051086134862,TRUE,1.68027999689668
"CAN","cpi",0.3,1977,3,1977,NA,0,7.48151735622111,7.62450567707433,7.58101410153764,7.55301151664772,TRUE,0.14298832085322
"CAN","cpi",0.3,1977,3,1977,NA,0.5,7.55769982949136,8.40561717094639,7.58101410153764,7.98165850021887,TRUE,0.847917341455034
"CAN","cpi",0.3,1977,3,1976,NA,1,3.02347304475614,4.4192199381159,7.58101410153764,3.72134649143602,FALSE,10.4294445031362
"CAN","cpi",0.3,1977,3,1976,NA,1.5,7.15742047130442,8.84802041820785,7.58101410153764,8.00272044475614,TRUE,1.69059994690343
"CAN","cpi",0.3,1978,3,1978,NA,0,8.59915295483828,8.74340385233858,8.50208927062595,8.67127840358843,FALSE,0.421575709535538
"CAN","cpi",0.3,1978,3,1978,NA,0.5,7.95177492351459,8.805879712864,8.50208927062595,8.3788273181893,TRUE,0.854104789349407
"CAN","cpi",0.3,1978,3,1977,NA,1,6.71344400137267,8.38223256694834,8.50208927062595,7.54783828416051,FALSE,2.01123629036882
"CAN","cpi",0.3,1978,3,1977,NA,1.5,8.8556836632603,10.5955714635842,8.50208927062595,9.72562756342223,FALSE,2.75015749356487
"CAN","cpi",0.3,1979,3,1979,NA,0,8.49507994347552,8.63244786117387,8.65147652410481,8.56376390232469,FALSE,0.191735526072467
"CAN","cpi",0.3,1979,3,1979,NA,0.5,7.87698118773066,8.71500451160463,8.65147652410481,8.29599284966764,TRUE,0.838023323873973
"CAN","cpi",0.3,1979,3,1978,NA,1,8.36269747714955,10.0435325330288,8.65147652410481,9.20311500508918,TRUE,1.68083505587926
"CAN","cpi",0.3,1979,3,1978,NA,1.5,7.6839367363832,9.42900146667529,8.65147652410481,8.55646910152924,TRUE,1.74506473029209
"CAN","cpi",0.3,1980,3,1980,NA,0,9.43756141485607,9.57057302728255,9.5171912664748,9.50406722106931,TRUE,0.133011612426479
"CAN","cpi",0.3,1980,3,1980,NA,0.5,8.1620950096178,8.99388327708404,9.5171912664748,8.57798914335092,FALSE,2.32695395143983
"CAN","cpi",0.3,1980,3,1979,NA,1,7.36827283059769,8.98923124361861,9.5171912664748,8.17875203710815,FALSE,3.12941562118144
"CAN","cpi",0.3,1980,3,1979,NA,1.5,7.51027296969439,9.27382235154784,9.5171912664748,8.39204766062112,FALSE,2.45888913878761
"CAN","cpi",0.3,1981,3,1981,NA,0,11.6448756081146,11.7779001887252,11.5813425032741,11.7113878984199,FALSE,0.314547737297706
"CAN","cpi",0.3,1981,3,1981,NA,0.5,11.8149168245412,12.6163225260122,11.5813425032741,12.2156196752767,FALSE,1.46876090509125
"CAN","cpi",0.3,1981,3,1980,NA,1,10.2922596069877,11.8071110776171,11.5813425032741,11.0496853423024,TRUE,1.51485147062941
"CAN","cpi",0.3,1981,3,1980,NA,1.5,7.46610807498748,9.2100877685104,11.5813425032741,8.33809792174894,FALSE,8.51899322141931
"CAN","cpi",0.3,1982,3,1982,NA,0,10.1945356626702,10.3187979675493,10.1124203763629,10.2566668151097,FALSE,0.358877408614032
"CAN","cpi",0.3,1982,3,1982,NA,0.5,9.74244435787987,10.4746268368291,10.1124203763629,10.1085355973545,TRUE,0.732182478949266
"CAN","cpi",0.3,1982,3,1981,NA,1,11.0449743107519,12.497003055496,10.1124203763629,11.770988683124,FALSE,4.11646855728401
"CAN","cpi",0.3,1982,3,1981,NA,1.5,11.9719957285296,13.7682543417266,10.1124203763629,12.8701250351281,FALSE,7.10933104795889
"CAN","cpi",0.3,1983,3,1983,NA,0,5.67092095210089,5.7911033311969,5.67091787896303,5.7310121416489,FALSE,0.120191159489886
"CAN","cpi",0.3,1983,3,1983,NA,0.5,4.54635005528209,5.28051026491099,5.67091787896303,4.91343016009654,FALSE,1.84961053549189
"CAN","cpi",0.3,1983,3,1982,NA,1,8.41562112760733,9.9543818697138,5.67091787896303,9.18500149866057,FALSE,9.38077002394732
"CAN","cpi",0.3,1983,3,1982,NA,1.5,8.74602796028561,10.6274180711017,5.67091787896303,9.68672301569366,FALSE,10.6674189145949
"CAN","cpi",0.3,1984,3,1984,NA,0,NA,NA,4.19799576814029,NA,NA,NA
"CAN","cpi",0.3,1984,3,1984,NA,0.5,5.49407200065671,6.22134171983243,4.19799576814029,5.85770686024457,FALSE,4.43034466922264
"CAN","cpi",0.3,1984,3,1983,NA,1,4.8873777591034,6.64368940082517,4.19799576814029,5.76553357996429,FALSE,3.72597447304495
"CAN","cpi",0.3,1984,3,1983,NA,1.5,1.80641009906155,4.03318925988186,4.19799576814029,2.9197996794717,FALSE,2.69765489870154
"CAN","cpi",0.3,1985,3,1985,NA,0,3.79773512092823,3.91062468177933,3.86444262005169,3.85417990135378,TRUE,0.112889560851103
"CAN","cpi",0.3,1985,3,1985,NA,0.5,3.8261545631767,4.61364628448128,3.86444262005169,4.21990042382899,TRUE,0.787491721304585
"CAN","cpi",0.3,1985,3,1984,NA,1,NA,NA,3.86444262005169,NA,NA,NA
"CAN","cpi",0.3,1985,3,1984,NA,1.5,7.53022615567195,9.72976705043516,3.86444262005169,8.62999660305356,FALSE,12.6732081393925
"CAN","cpi",0.3,1986,3,1986,NA,0,3.99921300354129,4.07621478045856,4.08685396749431,4.03771389199993,FALSE,0.107399454162265
"CAN","cpi",0.3,1986,3,1986,NA,0.5,4.05663127232633,4.70775537774424,4.08685396749431,4.38219332503529,TRUE,0.651124105417916
"CAN","cpi",0.3,1986,3,1985,NA,1,2.51115174607611,4.24584777554087,4.08685396749431,3.37849976080849,TRUE,1.73469602946477
"CAN","cpi",0.3,1986,3,1985,NA,1.5,3.91496631901299,5.99123085900614,4.08685396749431,4.95309858900956,TRUE,2.07626453999315
"CAN","cpi",0.3,1987,3,1987,NA,0,NA,NA,4.23980729277887,NA,NA,NA
"CAN","cpi",0.3,1987,3,1987,NA,0.5,3.8393983921811,4.4274448294206,4.23980729277887,4.13342161080085,TRUE,0.588046437239498
"CAN","cpi",0.3,1987,3,1986,NA,1,2.83999078665016,4.48282897664581,4.23980729277887,3.66140988164798,TRUE,1.64283818999565
"CAN","cpi",0.3,1987,3,1986,NA,1.5,3.91915766938555,5.68569769348473,4.23980729277887,4.80242768143514,TRUE,1.76654002409918
"CAN","cpi",0.3,1988,3,1988,NA,0,3.90983092520796,3.97783231469923,3.92899537638065,3.9438316199536,TRUE,0.068001389491263
"CAN","cpi",0.3,1988,3,1988,NA,0.5,3.09343079926636,3.61495350754988,3.92899537638065,3.35419215340812,FALSE,1.41878519065715
"CAN","cpi",0.3,1988,3,1987,NA,1,NA,NA,3.92899537638065,NA,NA,NA
"CAN","cpi",0.3,1988,3,1987,NA,1.5,3.02944958002437,4.75978901050456,3.92899537638065,3.89461929526446,TRUE,1.73033943048019
"CAN","cpi",0.3,1989,3,1989,NA,0,4.91822967681994,4.98437669103676,4.82821664544208,4.95130318392835,FALSE,0.323327103867868
"CAN","cpi",0.3,1989,3,1989,NA,0.5,3.96255793272823,4.49794092221324,4.82821664544208,4.23024942747073,FALSE,1.47902791299598
"CAN","cpi",0.3,1989,3,1988,NA,1,3.47605860943195,4.6407772826313,4.82821664544208,4.05841794603162,FALSE,1.70025970980157
"CAN","cpi",0.3,1989,3,1988,NA,1.5,1.7284710003695,3.46721611839649,4.82821664544208,2.597843559383,FALSE,5.62731805244294
"CAN","cpi",0.3,1990,3,1990,NA,0,4.44422854549021,4.50516149304239,4.64347549432717,4.4746950192663,FALSE,0.45611580836585
"CAN","cpi",0.3,1990,3,1990,NA,0.5,4.68900660546025,5.24073677258933,4.64347549432717,4.96487168902479,FALSE,0.681819056080727
"CAN","cpi",0.3,1990,3,1989,NA,1,4.86279434610808,6.01463313327344,4.64347549432717,5.43871373969076,FALSE,1.77846407796796
"CAN","cpi",0.3,1990,3,1989,NA,1.5,2.44619439091908,4.30031360955711,4.64347549432717,3.3732540002381,FALSE,2.83458174655248
"CAN","cpi",0.3,1991,3,1991,NA,0,5.57376510539803,5.64730229344962,5.4258100696218,5.61053369942382,FALSE,0.496265861697963
"CAN","cpi",0.3,1991,3,1991,NA,0.5,7.54653610506647,8.09744980448541,5.4258100696218,7.82199295477594,FALSE,6.61013094354659
"CAN","cpi",0.3,1991,3,1990,NA,1,3.08925662089952,4.24507974678241,5.4258100696218,3.66716818384097,FALSE,4.52933833399542
"CAN","cpi",0.3,1991,3,1990,NA,1.5,3.87945703219554,5.77018194108774,5.4258100696218,4.82481948664164,TRUE,1.8907249088922
"CAN","cpi",0.3,1992,3,1992,NA,0,NA,NA,1.47496888572843,NA,NA,NA
"CAN","cpi",0.3,1992,3,1992,NA,0.5,NA,NA,1.47496888572843,NA,NA,NA
"CAN","cpi",0.3,1992,3,1991,NA,1,2.16723403933642,3.36837738532785,1.47496888572843,2.76780571233213,FALSE,3.17904378487138
"CAN","cpi",0.3,1992,3,1991,NA,1.5,6.21327784272669,8.0854858104767,1.47496888572843,7.14938182660169,FALSE,15.4102335591736
"CAN","cpi",0.3,1993,3,1993,NA,0,NA,NA,NA,NA,NA,NA
"CAN","cpi",0.3,1993,3,1993,NA,0.5,NA,NA,NA,NA,NA,NA
"CAN","cpi",0.3,1993,3,1992,NA,1,NA,NA,NA,NA,NA,NA
"CAN","cpi",0.3,1993,3,1992,NA,1.5,NA,NA,NA,NA,NA,NA
"CAN","cpi",0.3,1994,3,1994,NA,0,NA,NA,NA,NA,NA,NA
"CAN","cpi",0.3,1994,3,1994,NA,0.5,NA,NA,NA,NA,NA,NA
"CAN","cpi",0.3,1994,3,1993,NA,1,NA,NA,NA,NA,NA,NA
"CAN","cpi",0.3,1994,3,1993,NA,1.5,NA,NA,NA,NA,NA,NA
"CAN","cpi",0.3,1995,3,1995,NA,0,NA,NA,2.11688403676572,NA,NA,NA
"CAN","cpi",0.3,1995,3,1995,NA,0.5,2.13998722705408,2.8987689944076,2.11688403676572,2.51937811073084,FALSE,0.824790882463144
"CAN","cpi",0.3,1995,3,1994,NA,1,0.275761502482894,1.163031319161,2.11688403676572,0.719396410821945,FALSE,3.61256329554873
"CAN","cpi",0.3,1995,3,1994,NA,1.5,-2.04087003946865,-0.0522220390279116,2.11688403676572,-1.04654603924828,FALSE,8.18609393127968
"CAN","cpi",0.3,1996,3,1996,NA,0,1.38358984477098,1.47202512236954,1.55309584667184,1.42780748357026,FALSE,0.320065918462282
"CAN","cpi",0.3,1996,3,1996,NA,0.5,NA,NA,1.55309584667184,NA,NA,NA
"CAN","cpi",0.3,1996,3,1995,NA,1,NA,NA,1.55309584667184,NA,NA,NA
"CAN","cpi",0.3,1996,3,1995,NA,1.5,1.84301187693952,4.00163354656942,1.55309584667184,2.92232271175447,FALSE,2.9869531846804
"CAN","cpi",0.3,1997,3,1997,NA,0,1.68661340087868,1.78410355526367,1.60528783555959,1.73535847807117,FALSE,0.329848912439523
"CAN","cpi",0.3,1997,3,1997,NA,0.5,1.7498625835057,2.47170468845022,1.60528783555959,2.11078363597796,FALSE,1.13491281336197
"CAN","cpi",0.3,1997,3,1996,NA,1,0.589218894792968,1.38070377982214,1.60528783555959,0.984961337307556,FALSE,1.4331536157076
"CAN","cpi",0.3,1997,3,1996,NA,1.5,NA,NA,1.60528783555959,NA,NA,NA
"CAN","cpi",0.3,1998,3,1998,NA,0,0.98377273152945,1.08639669616475,0.988908029337191,1.0350847138471,TRUE,0.1026239646353
"CAN","cpi",0.3,1998,3,1998,NA,0.5,1.32342603373163,2.04724707501051,0.988908029337191,1.68533655437107,FALSE,1.67958676812014
"CAN","cpi",0.3,1998,3,1997,NA,1,1.85691284615592,2.64627884053921,0.988908029337191,2.25159584334757,FALSE,3.26937975672252
"CAN","cpi",0.3,1998,3,1997,NA,1.5,1.41379020861395,3.36596612890758,0.988908029337191,2.38987816876076,FALSE,3.16612500394151
"CAN","cpi",0.3,1999,3,1999,NA,0,1.72860425164346,1.82376451754577,1.7107350135213,1.77618438459462,FALSE,0.146215231965639
"CAN","cpi",0.3,1999,3,1999,NA,0.5,0.671799943050254,1.38638501678035,1.7107350135213,1.0290924799153,FALSE,1.6412993501328
"CAN","cpi",0.3,1999,3,1998,NA,1,1.39778756907298,2.30576331221111,1.7107350135213,1.85177544064205,TRUE,0.907975743138125
"CAN","cpi",0.3,1999,3,1998,NA,1.5,1.95626796378806,3.9366466519544,1.7107350135213,2.94645730787123,FALSE,2.68190140321423
"CAN","cpi",0.3,2000,3,2000,NA,0,2.66251036942015,2.75799798770285,2.6718361971244,2.7102541785615,TRUE,0.0954876182826965
"CAN","cpi",0.3,2000,3,2000,NA,0.5,1.98003337407146,2.70807065399565,2.6718361971244,2.34405201403356,TRUE,0.728037279924194
"CAN","cpi",0.3,2000,3,1999,NA,1,2.64890753845326,3.50195119717093,2.6718361971244,3.07542936781209,TRUE,0.853043658717665
"CAN","cpi",0.3,2000,3,1999,NA,1.5,1.27893984355884,3.27724087247564,2.6718361971244,2.27809035801724,TRUE,1.9983010289168
"CAN","cpi",0.3,2001,3,2001,NA,0,2.7296534312622,2.82127826842483,2.47906219852806,2.77546584984351,FALSE,0.807599787831584
"CAN","cpi",0.3,2001,3,2001,NA,0.5,2.08637995429631,2.78495515576577,2.47906219852806,2.43566755503104,TRUE,0.698575201469459
"CAN","cpi",0.3,2001,3,2000,NA,1,3.26947672849801,4.10969717789884,2.47906219852806,3.68958695319843,FALSE,3.0985476778864
"CAN","cpi",0.3,2001,3,2000,NA,1.5,2.07438560178819,3.95103019245527,2.47906219852806,3.01270789712173,TRUE,1.87664459066708
"CAN","cpi",0.3,2002,3,2002,NA,0,2.22483594733254,2.31908875239447,2.20880570551249,2.27196234986351,FALSE,0.140053495976372
"CAN","cpi",0.3,2002,3,2002,NA,0.5,1.22740553092698,1.93950270885554,2.20880570551249,1.58345411989126,FALSE,1.48153431123413
"CAN","cpi",0.3,2002,3,2001,NA,1,1.82770014719917,2.70250832971879,2.20880570551249,2.26510423845898,TRUE,0.874808182519616
"CAN","cpi",0.3,2002,3,2001,NA,1.5,2.11910697994978,3.92205388563041,2.20880570551249,3.02058043279009,TRUE,1.80294690568063
"CAN","cpi",0.3,2003,3,2003,NA,0,2.66848447126558,2.75804958114777,2.71189071546809,2.71326702620668,TRUE,0.0895651098821864
"CAN","cpi",0.3,2003,3,2003,NA,0.5,4.31534129767584,4.71331168779408,2.71189071546809,4.51432649273496,FALSE,4.97925776785468
"CAN","cpi",0.3,2003,3,2002,NA,1,3.50712521135686,4.20524042356789,2.71189071546809,3.85618281746238,FALSE,2.97021377189324
"CAN","cpi",0.3,2003,3,2002,NA,1.5,1.51433320098883,3.27371459599485,2.71189071546809,2.39402389849184,TRUE,1.75938139500602
"CAN","cpi",0.3,2004,3,2004,NA,0,1.7317823061453,1.81755474151499,1.83151661303942,1.77466852383015,FALSE,0.125663496868065
"CAN","cpi",0.3,2004,3,2004,NA,0.5,1.25592012586293,1.84928857717579,1.83151661303942,1.55260435151936,TRUE,0.593368451312864
"CAN","cpi",0.3,2004,3,2003,NA,1,1.45255827700274,2.13575757496296,1.83151661303942,1.79415792598285,TRUE,0.683199297960216
"CAN","cpi",0.3,2004,3,2003,NA,1.5,3.71699586926881,4.81698958164551,1.83151661303942,4.26699272545716,FALSE,6.48707730160351
"CAN","cpi",0.3,2005,3,2005,NA,0,2.30043383470581,2.38647323475326,2.18071628336509,2.34345353472953,FALSE,0.428089546735215
"CAN","cpi",0.3,2005,3,2005,NA,0.5,1.21714636075439,1.7892804055922,2.18071628336509,1.50321338317329,FALSE,1.69052226704607
"CAN","cpi",0.3,2005,3,2004,NA,1,1.31616170988284,1.96471754436183,2.18071628336509,1.64043962712234,FALSE,1.26569508877402
"CAN","cpi",0.3,2005,3,2004,NA,1.5,1.44811399517273,2.61975168709193,2.18071628336509,2.03393284113233,TRUE,1.1716376919192
"CAN","cpi",0.3,2006,3,2006,NA,0,2.05233621528739,2.13795132256575,1.97519342012289,2.09514376892657,FALSE,0.306023093462656
"CAN","cpi",0.3,2006,3,2006,NA,0.5,1.80618248282984,2.38254278915061,1.97519342012289,2.09436263599022,TRUE,0.576360306320765
"CAN","cpi",0.3,2006,3,2005,NA,1,2.63769237806177,3.27889003409944,1.97519342012289,2.9582912060806,FALSE,2.53405182157733
"CAN","cpi",0.3,2006,3,2005,NA,1.5,1.08905376412622,2.2086654754899,1.97519342012289,1.64885961980806,TRUE,1.11961171136368
"CAN","cpi",0.3,2007,3,2007,NA,0,2.06552194592039,2.14815049612575,2.10062087284572,2.10683622102307,TRUE,0.0826285502053574
"CAN","cpi",0.3,2007,3,2007,NA,0.5,1.9030362490889,2.44956179257815,2.10062087284572,2.17629902083353,TRUE,0.546525543489243
"CAN","cpi",0.3,2007,3,2006,NA,1,1.23535415535394,1.78187969884318,2.10062087284572,1.50861692709856,FALSE,1.45721461206794
"CAN","cpi",0.3,2007,3,2006,NA,1.5,1.80887985802123,2.50949246898687,2.10062087284572,2.15918616350405,TRUE,0.700612610965646
"CAN","cpi",0.3,2008,3,2008,NA,0,2.83565242399088,2.90593667898568,2.31447335265955,2.87079455148828,FALSE,1.55936731594145
"CAN","cpi",0.3,2008,3,2008,NA,0.5,1.03803442547972,1.58207186842561,2.31447335265955,1.31005314695267,FALSE,2.63661311218573
"CAN","cpi",0.3,2008,3,2007,NA,1,1.19804400324128,1.74257699641207,2.31447335265955,1.47031049982668,FALSE,2.1785225824493
"CAN","cpi",0.3,2008,3,2007,NA,1.5,2.12091220711721,2.80815169973068,2.31447335265955,2.46453195342394,TRUE,0.687239492613468
"CAN","cpi",0.3,2009,3,2009,NA,0,0.12350060358286,0.250744089116583,0.284533874408197,0.187122346349721,FALSE,0.223785729224049
"CAN","cpi",0.3,2009,3,2009,NA,0.5,-0.358938465853536,0.213439941760303,0.284533874408197,-0.0727492620466167,FALSE,0.775503929464966
"CAN","cpi",0.3,2009,3,2008,NA,1,3.53161105976259,4.10398946737643,0.284533874408197,3.81780026356951,FALSE,9.84974179434068
"CAN","cpi",0.3,2009,3,2008,NA,1.5,1.35644289110138,2.01706016150701,0.284533874408197,1.68675152630419,FALSE,3.72321446095757
"CAN","cpi",0.3,2010,3,2010,NA,0,1.54132301219205,1.67666831707874,1.75525687020327,1.6089956646354,FALSE,0.35988402809963
"CAN","cpi",0.3,2010,3,2010,NA,0.5,1.63755036646547,2.18463968405819,1.75525687020327,1.91109502526183,TRUE,0.547089317592713
"CAN","cpi",0.3,2010,3,2009,NA,1,0.601697040315638,1.38289453667387,1.75525687020327,0.992295788494754,FALSE,1.84508987787081
"CAN","cpi",0.3,2010,3,2009,NA,1.5,0.494504304636752,1.27570180099498,1.75525687020327,0.885103052815867,FALSE,2.15135483695334
"CAN","cpi",0.3,2011,3,2011,NA,0,2.79346944785616,2.9398388333858,2.85717434028225,2.86665414062098,TRUE,0.146369385529645
"CAN","cpi",0.3,2011,3,2011,NA,0.5,2.49726184387321,3.03440579402222,2.85717434028225,2.76583381894771,TRUE,0.537143950149012
"CAN","cpi",0.3,2011,3,2010,NA,1,0.983152529579981,1.8027403538144,2.85717434028225,1.39294644169719,FALSE,3.83225635699969
"CAN","cpi",0.3,2011,3,2010,NA,1.5,1.23273669380642,2.05232451804084,2.85717434028225,1.64253060592363,FALSE,3.11915874492416
"CAN","cpi",0.3,2012,3,2012,NA,0,1.45471791802704,1.60173229896085,1.50118536134935,1.52822510849394,TRUE,0.147014380933812
"CAN","cpi",0.3,2012,3,2012,NA,0.5,1.65708487234183,2.19149556711395,1.50118536134935,1.92429021972789,FALSE,0.979837869036366
"CAN","cpi",0.3,2012,3,2011,NA,1,1.55143124450156,2.44747360444002,1.50118536134935,1.99945242447079,FALSE,1.03960202608763
"CAN","cpi",0.3,2012,3,2011,NA,1.5,2.03348839401039,2.92953075394885,1.50118536134935,2.48150957397962,FALSE,2.41690816754143
"CAN","cpi",0.3,2013,3,2013,NA,0,0.987433824233207,1.12517644423101,0.931270594714462,1.05630513423211,FALSE,0.298208990051356
"CAN","cpi",0.3,2013,3,2013,NA,0.5,0.896538238956069,1.44273085214257,0.931270594714462,1.16963454554932,TRUE,0.546192613186501
"CAN","cpi",0.3,2013,3,2012,NA,1,0.642750082077928,1.53461170049691,0.931270594714462,1.08868089128742,TRUE,0.891861618418985
"CAN","cpi",0.3,2013,3,2012,NA,1.5,1.69980098609578,2.59166260451476,0.931270594714462,2.14573179530527,FALSE,3.08766273665131
"CAN","cpi",0.3,2014,3,2014,NA,0,1.92936324039549,2.06789374250683,1.87639912240215,1.99862849145116,FALSE,0.289856553520884
"CAN","cpi",0.3,2014,3,2014,NA,0.5,1.52750518293681,2.05713433871694,1.87639912240215,1.79231976082687,TRUE,0.529629155780133
"CAN","cpi",0.3,2014,3,2013,NA,1,0.955819097587546,1.85748069881041,1.87639912240215,1.40664989819898,FALSE,0.955714240056404
"CAN","cpi",0.3,2014,3,2013,NA,1.5,1.06353041716749,1.96519201839036,1.87639912240215,1.51436121777893,TRUE,0.901661601222867
"CAN","cpi",0.3,2015,3,2015,NA,0,1.14123040296593,1.27938260552966,1.11090953952792,1.2103065042478,FALSE,0.224783240958058
"CAN","cpi",0.3,2015,3,2015,NA,0.5,0.304013540600718,0.6130810908354,1.11090953952792,0.458547315718059,FALSE,1.73143454649902
"CAN","cpi",0.3,2015,3,2014,NA,1,1.12409296284263,2.01700266572006,1.11090953952792,1.57054781428135,FALSE,0.930576626633758
"CAN","cpi",0.3,2015,3,2014,NA,1.5,1.43583624397285,2.32874594685028,1.11090953952792,1.88229109541157,FALSE,1.82127171557725
"CAN","cpi",0.3,2016,3,2016,NA,0,1.34912326106638,1.48349008837347,1.41168586698797,1.41630667471992,TRUE,0.134366827307092
"CAN","cpi",0.3,2016,3,2016,NA,0.5,1.01526458113526,1.34417858472325,1.41168586698797,1.17972158292925,FALSE,0.521791952915755
"CAN","cpi",0.3,2016,3,2015,NA,1,1.45979514918554,2.26793617184785,1.41168586698797,1.8638656605167,FALSE,0.945596114655393
"CAN","cpi",0.3,2016,3,2015,NA,1.5,0.666159515819705,1.47430053848202,1.41168586698797,1.07023002715086,TRUE,0.80814102266231
"CAN","cpi",0.3,2017,3,2017,NA,0,1.43778625412199,1.57206759881319,1.57888581671161,1.50492692646759,FALSE,0.153761967258116
"CAN","cpi",0.3,2017,3,2017,NA,0.5,1.93802186959199,2.24371049605084,1.57888581671161,2.09086618282141,FALSE,1.3317916346885
"CAN","cpi",0.3,2017,3,2016,NA,1,0.743236047709266,1.54980495934722,1.57888581671161,1.14652050352824,FALSE,0.889657075536212
"CAN","cpi",0.3,2017,3,2016,NA,1.5,0.864596389411286,1.67116530104924,1.57888581671161,1.26788084523026,TRUE,0.806568911637957
"CAN","cpi",0.3,2018,3,2018,NA,0,2.34436607141904,2.48198467850262,2.23316270166586,2.41317537496083,FALSE,0.455342520664102
"CAN","cpi",0.3,2018,3,2018,NA,0.5,2.36112736853284,2.69505501776106,2.23316270166586,2.52809119314695,FALSE,0.699540983133883
"CAN","cpi",0.3,2018,3,2017,NA,1,0.768049225019209,1.56795281330272,2.23316270166586,1.16800101916097,FALSE,2.70050326932105
"CAN","cpi",0.3,2018,3,2017,NA,1.5,1.67303222845918,2.47293581674269,2.23316270166586,2.07298402260093,TRUE,0.799903588283512
"CAN","cpi",0.3,2019,3,2019,NA,0,NA,NA,1.91921619871868,NA,NA,NA
"CAN","cpi",0.3,2019,3,2019,NA,0.5,1.30164423217355,1.64493189389289,1.91921619871868,1.47328806303322,FALSE,1.12695710407873
"CAN","cpi",0.3,2019,3,2018,NA,1,1.8283515207478,2.64105410017885,1.91921619871868,2.23470281046333,TRUE,0.812702579431051
"CAN","cpi",0.3,2019,3,2018,NA,1.5,1.9139543359596,2.72665691539065,1.91921619871868,2.32030562567512,TRUE,0.812702579431051
"CAN","cpi",0.3,2020,3,2020,NA,0,0.634332727956605,0.71284454547059,0.71139989671781,0.673588636713597,TRUE,0.0785118175139849
"CAN","cpi",0.3,2020,3,2020,NA,0.5,NA,NA,0.71139989671781,NA,NA,NA
"CAN","cpi",0.3,2020,3,2019,NA,1,NA,NA,0.71139989671781,NA,NA,NA
"CAN","cpi",0.3,2020,3,2019,NA,1.5,1.45775722465995,2.09635261409813,0.71139989671781,1.77705491937904,FALSE,2.7710448978443
"CAN","cpi",0.3,2021,3,2021,NA,0,3.21552661541531,3.28960271552708,3.31148121717802,3.2525646654712,FALSE,0.136586104828745
"CAN","cpi",0.3,2021,3,2021,NA,0.5,2.02872698942229,2.30674262063158,3.31148121717802,2.16773480502693,FALSE,3.1486973356277
"CAN","cpi",0.3,2021,3,2020,NA,1,1.35158825992514,1.8698272296013,3.31148121717802,1.61070774476322,FALSE,4.63725036275252
"CAN","cpi",0.3,2021,3,2020,NA,1.5,NA,NA,3.31148121717802,NA,NA,NA
"CAN","cpi",0.3,2022,3,2022,NA,0,6.55498453988462,6.61867329613305,6.50977236228281,6.58682891800883,FALSE,0.192866406539302
"CAN","cpi",0.3,2022,3,2022,NA,0.5,5.3983879277285,5.77962233588946,6.50977236228281,5.58900513180898,FALSE,2.46737734071339
"CAN","cpi",0.3,2022,3,2021,NA,1,3.05675593399551,3.65518559645635,6.50977236228281,3.35597076522593,FALSE,8.75439185053645
"CAN","cpi",0.3,2022,3,2021,NA,1.5,1.59536739043384,2.19379705289467,6.50977236228281,1.89458222166426,FALSE,12.9297876892841
"CAN","cpi",0.3,2023,3,2023,NA,0,3.93036567172287,3.99406555659195,3.78831288758619,3.96221561415741,FALSE,0.469564982402446
"CAN","cpi",0.3,2023,3,2023,NA,0.5,3.40037534797791,3.8240187653613,3.78831288758619,3.6121970566696,TRUE,0.423643417383398
"CAN","cpi",0.3,2023,3,2022,NA,1,5.05143277812202,5.92093773415958,3.78831288758619,5.4861852561408,FALSE,4.47841892899708
"CAN","cpi",0.3,2023,3,2022,NA,1.5,3.23649413727777,4.47464736790094,3.78831288758619,3.85557075258935,TRUE,1.23815323062317
"CAN","cpi",0.3,2024,3,2023,NA,1,4.22926878509715,5.21634741297762,NA,4.72280809903739,NA,NA
"CAN","cpi",0.3,2024,3,2023,NA,1.5,3.76361707649701,4.97049311576525,NA,4.36705509613113,NA,NA
"CAN","cpi",0.4,1959,3,1959,NA,0,1.16668884408638,1.33313548453948,1.19382698397654,1.24991216431293,TRUE,0.166446640453107
"CAN","cpi",0.4,1959,3,1959,NA,0.5,-0.517269264998165,1.39294872817882,1.19382698397654,0.437839731590327,TRUE,1.91021799317698
"CAN","cpi",0.4,1959,3,1958,NA,1,0.0932738286690347,3.42398142904989,1.19382698397654,1.75862762885946,TRUE,3.33070760038085
"CAN","cpi",0.4,1959,3,1958,NA,1.5,-1.62695436533737,5.17509781961269,1.19382698397654,1.77407172713766,TRUE,6.80205218495006
"CAN","cpi",0.4,1960,3,1960,NA,0,0.950295932558885,1.09693015263066,1.34209404870695,1.02361304259477,FALSE,0.963847206992749
"CAN","cpi",0.4,1960,3,1960,NA,0.5,-0.411769229147065,1.48973618951038,1.34209404870695,0.53898348018166,TRUE,1.90150541865745
"CAN","cpi",0.4,1960,3,1959,NA,1,2.58734555173854,5.3278419220503,1.34209404870695,3.95759373689442,FALSE,6.8913347137504
"CAN","cpi",0.4,1960,3,1959,NA,1.5,-4.0632501488965,2.31629651808673,1.34209404870695,-0.873476815404885,TRUE,6.37954666698323
"CAN","cpi",0.4,1961,3,1961,NA,0,0.919076957235965,1.09935000464418,1.00921348094007,1.00921348094007,TRUE,0.180273047408214
"CAN","cpi",0.4,1961,3,1961,NA,0.5,0.316441781591226,1.70198518028892,1.00921348094007,1.00921348094007,TRUE,1.38554339869769
"CAN","cpi",0.4,1961,3,1960,NA,1,-1.0900671395182,1.19760806472527,1.00921348094007,0.0537704626035329,TRUE,2.28767520424347
"CAN","cpi",0.4,1961,3,1960,NA,1.5,-3.87254190122837,2.1481783033483,1.00921348094007,-0.862181798940035,TRUE,6.02072020457668
"CAN","cpi",0.4,1962,3,1962,NA,0,1.02187380871843,1.18277424591113,1.04957947883042,1.10232402731478,TRUE,0.160900437192706
"CAN","cpi",0.4,1962,3,1962,NA,0.5,-0.589221339456614,0.589221339456614,1.04957947883042,0,FALSE,2.71296981015923
"CAN","cpi",0.4,1962,3,1961,NA,1,-1.21016258845802,1.21016258845802,1.04957947883042,0,TRUE,2.42032517691604
"CAN","cpi",0.4,1962,3,1961,NA,1.5,-2.48418962193952,2.48418962193952,1.04957947883042,0,TRUE,4.96837924387905
"CAN","cpi",0.4,1963,3,1963,NA,0,1.83435876696243,1.9954758236616,1.60677118395228,1.91491729531202,FALSE,0.91974233339966
"CAN","cpi",0.4,1963,3,1963,NA,0.5,0.245943291230103,1.4277141380049,1.60677118395228,0.836828714617504,FALSE,1.7786276665994
"CAN","cpi",0.4,1963,3,1962,NA,1,1.47814822622499,3.65008158207789,1.60677118395228,2.56411490415144,TRUE,2.1719333558529
"CAN","cpi",0.4,1963,3,1962,NA,1.5,-1.77615674324411,1.77615674324411,1.60677118395228,0,TRUE,3.55231348648822
"CAN","cpi",0.4,1964,3,1964,NA,0,1.89890414204772,2.07864098687323,1.88764670034376,1.98877256446048,FALSE,0.217261650505389
"CAN","cpi",0.4,1964,3,1964,NA,0.5,1.1189810958489,1.64839902870324,1.88764670034376,1.38369006227607,FALSE,1.32691017165606
"CAN","cpi",0.4,1964,3,1963,NA,1,4.52472115520857,6.25616465173655,1.88764670034376,5.39044290347256,FALSE,10.5216916794107
"CAN","cpi",0.4,1964,3,1963,NA,1.5,-1.5178354023339,1.5178354023339,1.88764670034376,0,FALSE,4.26837513136734
"CAN","cpi",0.4,1965,3,1965,NA,0,2.25545661856987,2.4356843298101,2.29538304394236,2.34557047418999,TRUE,0.180227711240233
"CAN","cpi",0.4,1965,3,1965,NA,0.5,1.34109631209949,1.88049264703359,2.29538304394236,1.61079447956654,FALSE,1.92236432462999
"CAN","cpi",0.4,1965,3,1964,NA,1,1.62363685688134,3.22674038671559,2.29538304394236,2.42518862179847,TRUE,1.60310352983425
"CAN","cpi",0.4,1965,3,1964,NA,1.5,0.0165507873992734,1.61965431723352,2.29538304394236,0.818102552316399,FALSE,3.85553261886369
"CAN","cpi",0.4,1966,3,1966,NA,0,3.73475725073349,3.90546250654069,3.72486065470629,3.82010987863709,FALSE,0.20369390923119
"CAN","cpi",0.4,1966,3,1966,NA,0.5,3.72278781986441,4.25968015804686,3.72486065470629,3.99123398895563,TRUE,0.536892338182446
"CAN","cpi",0.4,1966,3,1965,NA,1,2.40364696587327,4.0107944090438,3.72486065470629,3.20722068745854,TRUE,1.60714744317053
"CAN","cpi",0.4,1966,3,1965,NA,1.5,0.803064524734318,2.41021196790485,3.72486065470629,1.60663824631958,FALSE,5.98930973250867
"CAN","cpi",0.4,1967,3,1967,NA,0,3.68381701504802,3.85155997152462,3.49360316391996,3.76768849328632,FALSE,0.801789126903471
"CAN","cpi",0.4,1967,3,1967,NA,0.5,2.09784278268024,2.71706670571497,3.49360316391996,2.4074547441976,FALSE,3.20767878371803
"CAN","cpi",0.4,1967,3,1966,NA,1,2.39064864459614,3.97141781680953,3.49360316391996,3.18103323070284,TRUE,1.58076917221339
"CAN","cpi",0.4,1967,3,1966,NA,1.5,3.86089701876578,5.44166619097918,3.49360316391996,4.65128160487248,FALSE,2.80508202169947
"CAN","cpi",0.4,1968,3,1968,NA,0,4.08667274047088,4.25908617297704,3.95128347779386,4.17287945672396,FALSE,0.623710974762901
"CAN","cpi",0.4,1968,3,1968,NA,0.5,3.8434237927833,4.29852032281375,3.95128347779386,4.07097205779852,TRUE,0.455096530030447
"CAN","cpi",0.4,1968,3,1967,NA,1,5.00526623089117,6.6851674115858,3.95128347779386,5.84521682123848,FALSE,5.19317702435233
"CAN","cpi",0.4,1968,3,1967,NA,1.5,1.41570799205495,3.09560917274958,3.95128347779386,2.25565858240226,FALSE,4.53214886417556
"CAN","cpi",0.4,1969,3,1969,NA,0,4.38076355055684,4.55717319092102,4.42679496126681,4.46896837073893,TRUE,0.176409640364179
"CAN","cpi",0.4,1969,3,1969,NA,0.5,2.72700763362488,3.20523275428941,4.42679496126681,2.96612019395715,FALSE,4.55009914392254
"CAN","cpi",0.4,1969,3,1968,NA,1,6.06727630533795,7.3824762954782,4.42679496126681,6.72487630040807,FALSE,6.78347113704402
"CAN","cpi",0.4,1969,3,1968,NA,1.5,3.65904453437528,4.97424452451553,4.42679496126681,4.31664452944541,TRUE,1.31519999014025
"CAN","cpi",0.4,1970,3,1970,NA,0,3.4434190938831,3.61053121770419,3.28128405769805,3.52697515579364,FALSE,0.707562244437932
"CAN","cpi",0.4,1970,3,1970,NA,0.5,4.38366029628453,4.92376140925381,3.28128405769805,4.65371085276917,FALSE,4.21468857492422
"CAN","cpi",0.4,1970,3,1969,NA,1,3.85319569302743,5.20176180872672,3.28128405769805,4.52747875087707,FALSE,3.25493823346389
"CAN","cpi",0.4,1970,3,1969,NA,1.5,1.40545541498165,2.75402153068094,3.28128405769805,2.07973847283129,FALSE,3.10610787242299
"CAN","cpi",0.4,1971,3,1971,NA,0,2.75232077501641,2.92632574081739,2.64123406634756,2.8393232579169,FALSE,0.544293994697143
