isdrw/probabilistic-benchmark-forecasts/results/gauss_quantiles_prediction/mean 0 assumption/gauss_prediction_arima1_1_0_2026-02-15_11-28.csv
"country","target","tau","target_year","target_quarter","forecast_year","forecast_quarter","horizon","lower_bound","upper_bound","truth_value","prediction","covered","IS"
"CAN","cpi",0.1,1959,3,1959,NA,0,1.1754072414377,1.21818693849401,1.19382698397654,1.19679708996586,TRUE,0.0427796970563086
"CAN","cpi",0.1,1959,3,1959,NA,0.5,0.479766419193093,0.830585570460725,1.19382698397654,0.655175994826909,FALSE,1.15802229241389
"CAN","cpi",0.1,1959,3,1958,NA,1,1.37375423320795,2.14502292311168,1.19382698397654,1.75938857815981,FALSE,1.17110702152908
"CAN","cpi",0.1,1959,3,1958,NA,1.5,0.939576929201448,2.61035629105755,1.19382698397654,1.7749666101295,TRUE,1.6707793618561
"CAN","cpi",0.1,1960,3,1960,NA,0,1.01258289416552,1.05002203606146,1.34209404870695,1.03130246511349,FALSE,0.686488058885925
"CAN","cpi",0.1,1960,3,1960,NA,0.5,0.611977026082949,0.879228280181541,1.34209404870695,0.745602653132245,FALSE,1.29584185082173
"CAN","cpi",0.1,1960,3,1959,NA,1,2.954742973351,3.71700477271775,1.34209404870695,3.33587387303437,FALSE,4.34592607635352
"CAN","cpi",0.1,1960,3,1959,NA,1.5,-1.07352782750313,0.422689638927347,1.34209404870695,-0.32541909428789,FALSE,3.53933837705182
"CAN","cpi",0.1,1961,3,1961,NA,0,0.987502072673356,1.03092488920679,1.00921348094007,1.00921348094007,TRUE,0.0434228165334316
"CAN","cpi",0.1,1961,3,1961,NA,0.5,1.18000251349561,1.44282011666698,1.00921348094007,1.31141131508129,FALSE,0.642348786628115
"CAN","cpi",0.1,1961,3,1960,NA,1,-0.183665456325715,0.470917267665639,1.00921348094007,0.143625905669962,FALSE,1.85079653126787
"CAN","cpi",0.1,1961,3,1960,NA,1.5,-0.89645713847439,0.216234290169949,1.00921348094007,-0.34011142415222,FALSE,2.8748674081335
"CAN","cpi",0.1,1962,3,1962,NA,0,1.09279722691296,1.12986273770456,1.04957947883042,1.11132998230876,FALSE,0.133104950975038
"CAN","cpi",0.1,1962,3,1962,NA,0.5,-0.110458462801298,0.110458462801298,1.04957947883042,1.64134322488006e-44,FALSE,2.30785251677841
"CAN","cpi",0.1,1962,3,1961,NA,1,-0.327236674605632,0.327236674605632,1.04957947883042,-9.44308782563385e-19,FALSE,2.25967958082189
"CAN","cpi",0.1,1962,3,1961,NA,1.5,0.198014636339801,1.3107538610417,1.04957947883042,0.754384248690751,TRUE,1.1127392247019
"CAN","cpi",0.1,1963,3,1963,NA,0,1.83801588414233,1.87397433363096,1.60677118395228,1.85599510888664,FALSE,0.549835561022063
"CAN","cpi",0.1,1963,3,1963,NA,0.5,0.820119952923448,1.0444806343514,1.60677118395228,0.932300293637426,FALSE,1.47389523609658
"CAN","cpi",0.1,1963,3,1962,NA,1,2.37838938397692,2.95658106289763,1.60677118395228,2.66748522343727,FALSE,2.29289879008657
"CAN","cpi",0.1,1963,3,1962,NA,1.5,-0.406827448875566,0.406827448875566,1.60677118395228,4.10321927477868e-44,FALSE,3.48019653125495
"CAN","cpi",0.1,1964,3,1964,NA,0,1.96940601028544,2.00847708109461,1.88764670034376,1.98894154569002,FALSE,0.220758426235124
"CAN","cpi",0.1,1964,3,1964,NA,0.5,1.31765879217571,1.44989286276617,1.88764670034376,1.38377582747094,FALSE,1.10502037631844
"CAN","cpi",0.1,1964,3,1963,NA,1,4.52687363245407,4.89885742565454,1.88764670034376,4.71286552905431,FALSE,6.23693253122339
"CAN","cpi",0.1,1964,3,1963,NA,1.5,-0.00383813075801492,0.481397477102669,1.88764670034376,0.238779673172327,FALSE,3.61023388172977
"CAN","cpi",0.1,1965,3,1965,NA,0,2.33530515986507,2.374585050346,2.29538304394236,2.35494510510554,FALSE,0.127995703642517
"CAN","cpi",0.1,1965,3,1965,NA,0.5,1.4951196749557,1.62577825423907,2.29538304394236,1.56044896459738,FALSE,1.61866922306845
"CAN","cpi",0.1,1965,3,1964,NA,1,2.24839056121137,2.60582407676077,2.29538304394236,2.42710731898607,TRUE,0.357433515549402
"CAN","cpi",0.1,1965,3,1964,NA,1.5,0.639599000128415,0.997032515677817,2.29538304394236,0.818315757903116,FALSE,3.24265691169282
"CAN","cpi",0.1,1966,3,1966,NA,0,3.8279835144077,3.86529921339252,3.72486065470629,3.84664136390011,FALSE,0.266477609432403
"CAN","cpi",0.1,1966,3,1966,NA,0.5,3.78169655293469,3.91213145167136,3.72486065470629,3.84691400230302,FALSE,0.256736894799778
"CAN","cpi",0.1,1966,3,1965,NA,1,3.13895093927617,3.48840900251811,3.72486065470629,3.31367997089714,FALSE,0.874906179215668
"CAN","cpi",0.1,1966,3,1965,NA,1.5,1.30677479251416,1.6562328557561,3.72486065470629,1.48150382413513,FALSE,4.94640872757569
"CAN","cpi",0.1,1967,3,1967,NA,0,3.75013558699662,3.78712379426621,3.49360316391996,3.76862969063141,FALSE,0.607060258551055
"CAN","cpi",0.1,1967,3,1967,NA,0.5,2.29095872969909,2.43252968483968,3.49360316391996,2.36174420726938,FALSE,2.49951201976344
"CAN","cpi",0.1,1967,3,1966,NA,1,3.31041591085606,3.65426099824474,3.49360316391996,3.4823384545504,TRUE,0.343845087388684
"CAN","cpi",0.1,1967,3,1966,NA,1.5,4.12065446074188,4.46449954813056,3.49360316391996,4.29257700443622,FALSE,1.73729241365962
"CAN","cpi",0.1,1968,3,1968,NA,0,4.09370944579599,4.13309657938941,3.95128347779386,4.1134030125927,FALSE,0.355889284709271
"CAN","cpi",0.1,1968,3,1968,NA,0.5,3.83701543831333,3.94747323656533,3.95128347779386,3.89224433743933,FALSE,0.118925000982059
"CAN","cpi",0.1,1968,3,1967,NA,1,5.68033843506946,6.0315957951151,3.95128347779386,5.85596711509228,FALSE,4.19360170954698
"CAN","cpi",0.1,1968,3,1967,NA,1.5,1.96523430926132,2.31850759374683,3.95128347779386,2.14187095150408,FALSE,3.98166413792335
"CAN","cpi",0.1,1969,3,1969,NA,0,4.62293054368438,4.66233075924196,4.42679496126681,4.64263065146317,FALSE,0.475257065374389
"CAN","cpi",0.1,1969,3,1969,NA,0.5,3.00638270630979,3.11760715124564,4.42679496126681,3.06199492877772,FALSE,3.02053068942734
"CAN","cpi",0.1,1969,3,1968,NA,1,5.91778097993209,6.1938665950405,4.42679496126681,6.05582378748629,FALSE,3.58938787880901
"CAN","cpi",0.1,1969,3,1968,NA,1.5,3.73423204363902,4.01031765874743,4.42679496126681,3.87227485119322,FALSE,1.20159073181816
"CAN","cpi",0.1,1970,3,1970,NA,0,3.57066197729513,3.60926752119332,3.28128405769805,3.58996474924422,FALSE,0.681667587447263
"CAN","cpi",0.1,1970,3,1970,NA,0.5,4.10929084126403,4.234314551791,3.28128405769805,4.17180269652751,FALSE,1.96503878511804
"CAN","cpi",0.1,1970,3,1969,NA,1,5.30180676710347,5.57550316219729,3.28128405769805,5.43865496465038,FALSE,4.76374686043921
"CAN","cpi",0.1,1970,3,1969,NA,1.5,2.17987911225175,2.45357550734557,3.28128405769805,2.31672730979866,FALSE,2.11304872921043
"CAN","cpi",0.1,1971,3,1971,NA,0,2.87369834510547,2.91479645125526,2.64123406634756,2.89424739818036,FALSE,0.557685392278468
"CAN","cpi",0.1,1971,3,1971,NA,0.5,0.993567215728806,1.15711266354232,2.64123406634756,1.07533993963556,FALSE,3.46159300960294
"CAN","cpi",0.1,1971,3,1970,NA,1,2.84945644412009,3.11376285855477,2.64123406634756,2.98160965133743,FALSE,0.727022809484741
"CAN","cpi",0.1,1971,3,1970,NA,1.5,4.02492939969389,4.28923581412858,2.64123406634756,4.15708260691123,FALSE,3.33918493298209
"CAN","cpi",0.1,1972,3,1972,NA,0,5.09093140416276,5.11549838987479,4.83230569625923,5.10321489701878,FALSE,0.599290781053215
"CAN","cpi",0.1,1972,3,1972,NA,0.5,4.48384158438192,4.66669410510754,4.83230569625923,4.57526784474473,FALSE,0.550878278840481
"CAN","cpi",0.1,1972,3,1971,NA,1,6.42027539508679,6.7143873352064,4.83230569625923,6.5673313651466,FALSE,3.82293349306975
"CAN","cpi",0.1,1972,3,1971,NA,1.5,1.05421495510866,1.34832689522827,4.83230569625923,1.20127092516847,FALSE,8.03628705352174
"CAN","cpi",0.1,1973,3,1973,NA,0,7.35178791408762,7.37358706824983,7.12388603531779,7.36268749116872,FALSE,0.528247773650721
"CAN","cpi",0.1,1973,3,1973,NA,0.5,5.80807720223675,5.98058265924959,7.12388603531779,5.89432993074317,FALSE,2.71317962605329
"CAN","cpi",0.1,1973,3,1972,NA,1,7.2256899999605,7.5171087208015,7.12388603531779,7.371399360381,FALSE,0.517649753380357
"CAN","cpi",0.1,1973,3,1972,NA,1.5,4.33242873792869,4.6740646877139,7.12388603531779,4.50324671282129,FALSE,5.78568338890497
"CAN","cpi",0.1,1974,3,1974,NA,0,10.3125404903945,10.3320357760514,10.2717243737774,10.3222881332229,FALSE,0.11019776702814
"CAN","cpi",0.1,1974,3,1974,NA,0.5,8.75922654539995,8.93503151332745,10.2717243737774,8.8471290293637,FALSE,3.14623354670521
"CAN","cpi",0.1,1974,3,1973,NA,1,10.861842247282,11.1150383177925,10.2717243737774,10.9884402825372,FALSE,1.56456912274287
"CAN","cpi",0.1,1974,3,1973,NA,1.5,6.01955309201099,6.37154394958347,10.2717243737774,6.19554852079723,FALSE,9.01905846689237
"CAN","cpi",0.1,1975,3,1975,NA,0,10.2536777555864,10.2757105848855,10.0232981493341,10.2646941702359,FALSE,0.533987509859712
"CAN","cpi",0.1,1975,3,1975,NA,0.5,9.12560557680767,9.3115021872987,10.0232981493341,9.21855388205318,FALSE,1.76766541501419
"CAN","cpi",0.1,1975,3,1974,NA,1,11.8633285978348,12.1177001889458,10.0232981493341,11.9905143933903,FALSE,4.34332814333482
"CAN","cpi",0.1,1975,3,1974,NA,1.5,8.47724880432159,8.88293377828689,10.0232981493341,8.68009129130424,FALSE,2.93982802073692
"CAN","cpi",0.1,1976,3,1976,NA,0,7.24322494357033,7.26443640287411,7.22784311401172,7.25383067322222,FALSE,0.0553933027673731
"CAN","cpi",0.1,1976,3,1976,NA,0.5,7.32261807903582,7.50833543305961,7.22784311401172,7.41547675604771,FALSE,0.396328387410681
"CAN","cpi",0.1,1976,3,1975,NA,1,11.8024561192289,12.0278459969996,7.22784311401172,11.9151510581142,FALSE,10.3911965560311
"CAN","cpi",0.1,1976,3,1975,NA,1.5,7.81045292094952,8.21617784144421,7.22784311401172,8.01331538119686,FALSE,1.70041338035648
"CAN","cpi",0.1,1977,3,1977,NA,0,7.60738104814614,7.62996154567401,7.58101410153764,7.61867129691007,FALSE,0.0811737122134094
"CAN","cpi",0.1,1977,3,1977,NA,0.5,6.92486234384598,7.12089509595066,7.58101410153764,7.02287871989832,FALSE,1.21851943118686
"CAN","cpi",0.1,1977,3,1976,NA,1,5.70193766572734,6.04330041179741,7.58101410153764,5.87261903876238,FALSE,3.75850427882614
"CAN","cpi",0.1,1977,3,1976,NA,1.5,5.93430487875724,6.37214802172464,7.58101410153764,6.15322645024094,FALSE,3.12421220921853
"CAN","cpi",0.1,1978,3,1978,NA,0,8.66881185102255,8.69369629387755,8.50208927062595,8.68125407245005,FALSE,0.395379065958564
"CAN","cpi",0.1,1978,3,1978,NA,0.5,8.03130951602924,8.2188653305752,8.50208927062595,8.12508742330222,FALSE,0.816942347992061
"CAN","cpi",0.1,1978,3,1977,NA,1,8.44844257774347,8.83793275931576,8.50208927062595,8.64318766852961,TRUE,0.389490181572299
"CAN","cpi",0.1,1978,3,1977,NA,1.5,7.44452958659273,7.87604914933734,8.50208927062595,7.66028936796504,FALSE,1.82271983227484
"CAN","cpi",0.1,1979,3,1979,NA,0,8.59879495037578,8.62272397781997,8.65147652410481,8.61075946409788,FALSE,0.0878235747438308
"CAN","cpi",0.1,1979,3,1979,NA,0.5,8.00828869527286,8.19296801021857,8.65147652410481,8.10062835274572,FALSE,1.20358712358179
"CAN","cpi",0.1,1979,3,1978,NA,1,9.38922451049759,9.77604525886821,8.65147652410481,9.5826348846829,FALSE,2.02626071813236
"CAN","cpi",0.1,1979,3,1978,NA,1.5,7.74035760871502,8.14331928481553,8.65147652410481,7.94183844676527,FALSE,1.53219998563224
"CAN","cpi",0.1,1980,3,1980,NA,0,9.516686541278,9.54549439372771,9.5171912664748,9.53109046750286,TRUE,0.028807852449706
"CAN","cpi",0.1,1980,3,1980,NA,0.5,8.59572942444147,8.77554287386696,9.5171912664748,8.68563614915422,FALSE,1.82792098855401
"CAN","cpi",0.1,1980,3,1979,NA,1,8.13357119637794,8.51740348695372,9.5171912664748,8.32548734166583,FALSE,2.60558291173373
"CAN","cpi",0.1,1980,3,1979,NA,1.5,7.77858942850826,8.18235261341416,9.5171912664748,7.98047102096121,FALSE,3.37007130281842
"CAN","cpi",0.1,1981,3,1981,NA,0,11.6938086949196,11.7241032601263,11.5813425032741,11.708955977523,FALSE,0.280219435529957
"CAN","cpi",0.1,1981,3,1981,NA,0.5,12.0406835957019,12.2121089857879,11.5813425032741,12.1263962907449,FALSE,1.1921833732589
"CAN","cpi",0.1,1981,3,1980,NA,1,10.7806524784704,11.1892278521353,11.5813425032741,10.9849401653028,FALSE,1.27994126508461
"CAN","cpi",0.1,1981,3,1980,NA,1.5,8.42306456582403,8.83163993948891,11.5813425032741,8.62735225265647,FALSE,6.51902551540984
"CAN","cpi",0.1,1982,3,1982,NA,0,10.2973222621912,10.3246276873413,10.1124203763629,10.3109749747662,FALSE,0.438198504768339
"CAN","cpi",0.1,1982,3,1982,NA,0.5,10.0220231641794,10.17734415982,10.1124203763629,10.0996836619997,TRUE,0.155320995640658
"CAN","cpi",0.1,1982,3,1981,NA,1,11.4115018494463,11.8274571903843,10.1124203763629,11.6194795199153,FALSE,3.30280305890097
"CAN","cpi",0.1,1982,3,1981,NA,1.5,12.5114580056752,12.9274133466133,10.1124203763629,12.7194356761443,FALSE,5.74715007274312
"CAN","cpi",0.1,1983,3,1983,NA,0,5.81458667615622,5.84070813108447,5.67091787896303,5.82764740362034,FALSE,0.345385448690882
"CAN","cpi",0.1,1983,3,1983,NA,0.5,4.90486851867315,5.04601037721347,5.67091787896303,4.97543944794331,FALSE,1.52982519576158
"CAN","cpi",0.1,1983,3,1982,NA,1,9.02748446966718,9.44808346397794,5.67091787896303,9.23778396682256,FALSE,7.8796358625422
"CAN","cpi",0.1,1983,3,1982,NA,1.5,9.55613819651195,10.0212646869651,5.67091787896303,9.78870144173853,FALSE,9.09894941833965
"CAN","cpi",0.1,1984,3,1984,NA,0,4.20179250516565,4.22535824070078,4.19799576814029,4.21357537293321,FALSE,0.0320029289248147
"CAN","cpi",0.1,1984,3,1984,NA,0.5,4.5722570965729,4.71292156469841,4.19799576814029,4.64258933063566,FALSE,0.972356309086871
"CAN","cpi",0.1,1984,3,1983,NA,1,5.8996517108663,6.36310138655806,4.19799576814029,6.13137654871218,FALSE,4.244907326194
"CAN","cpi",0.1,1984,3,1983,NA,1.5,3.1793344981058,3.75731427383233,4.19799576814029,3.46832438596907,FALSE,1.55727198529977
"CAN","cpi",0.1,1985,3,1985,NA,0,3.908027043303,3.93015947190136,3.86444262005169,3.91909325760218,FALSE,0.118986702490149
"CAN","cpi",0.1,1985,3,1985,NA,0.5,3.8193371488359,3.96366661506487,3.86444262005169,3.89150188195039,TRUE,0.144329466228965
"CAN","cpi",0.1,1985,3,1984,NA,1,3.06140854476239,3.52653295477832,3.86444262005169,3.29397074977035,FALSE,1.2160347772901
"CAN","cpi",0.1,1985,3,1984,NA,1.5,4.18750061755976,4.74572007763703,3.86444262005169,4.4666103475984,FALSE,1.27612612120631
"CAN","cpi",0.1,1986,3,1986,NA,0,4.09484306006434,4.11693402124746,4.08685396749431,4.1058885406559,FALSE,0.0398445002276247
"CAN","cpi",0.1,1986,3,1986,NA,0.5,4.35030249313328,4.4697256300417,4.08685396749431,4.41001406158749,FALSE,0.704864304995012
"CAN","cpi",0.1,1986,3,1985,NA,1,3.75300771794948,4.23306986843935,4.08685396749431,3.99303879319441,TRUE,0.480062150489873
"CAN","cpi",0.1,1986,3,1985,NA,1.5,3.98000596594258,4.4665205116755,4.08685396749431,4.22326323880904,TRUE,0.48651454573292
"CAN","cpi",0.1,1987,3,1987,NA,0,4.35022429237007,4.36931007724757,4.23980729277887,4.35976718480882,FALSE,0.264456895080166
"CAN","cpi",0.1,1987,3,1987,NA,0.5,3.85111537148216,3.96761105641321,4.23980729277887,3.90936321394769,FALSE,0.721376210188071
"CAN","cpi",0.1,1987,3,1986,NA,1,4.09211036377162,4.56988281925748,4.23980729277887,4.33099659151455,TRUE,0.477772455485857
"CAN","cpi",0.1,1987,3,1986,NA,1.5,4.51358499261923,4.99135744810508,4.23980729277887,4.75247122036215,FALSE,1.08616734401998
"CAN","cpi",0.1,1988,3,1988,NA,0,4.00319447547776,4.02219672757041,3.92899537638065,4.01269560152408,FALSE,0.183889138975107
"CAN","cpi",0.1,1988,3,1988,NA,0.5,3.41364730157765,3.52786461670905,3.92899537638065,3.47075595914335,FALSE,1.00561900329052
"CAN","cpi",0.1,1988,3,1987,NA,1,4.39915402076736,4.76409474913397,3.92899537638065,4.58162438495066,FALSE,1.40973771589261
"CAN","cpi",0.1,1988,3,1987,NA,1.5,3.57623897498782,4.05105655165233,3.92899537638065,3.81364776332008,TRUE,0.474817576664508
"CAN","cpi",0.1,1989,3,1989,NA,0,5.01460360631275,5.0333028111494,4.82821664544208,5.02395320873108,FALSE,0.432892451215926
"CAN","cpi",0.1,1989,3,1989,NA,0.5,4.31162310576302,4.42417385114002,4.82821664544208,4.36789847845152,FALSE,1.01042362160379
"CAN","cpi",0.1,1989,3,1988,NA,1,4.29878045183922,4.62447078487984,4.82821664544208,4.46162561835953,FALSE,0.778458912067814
"CAN","cpi",0.1,1989,3,1988,NA,1.5,3.04749757828639,3.50926547399383,4.82821664544208,3.27838152614011,FALSE,3.39277049892577
"CAN","cpi",0.1,1990,3,1990,NA,0,4.51002487039748,4.52923769999386,4.64347549432717,4.51963128519567,FALSE,0.27307459478151
"CAN","cpi",0.1,1990,3,1990,NA,0.5,4.92755974171312,5.04112879825498,4.64347549432717,4.98434426998405,FALSE,0.744867384066186
"CAN","cpi",0.1,1990,3,1989,NA,1,5.75193785645466,6.08356092832755,4.64347549432717,5.9177493923911,FALSE,2.79487276548953
"CAN","cpi",0.1,1990,3,1989,NA,1.5,4.32548163511766,4.79823553265252,4.64347549432717,4.56185858388509,TRUE,0.472753897534862
"CAN","cpi",0.1,1991,3,1991,NA,0,5.61259957092195,5.635535684987,5.4258100696218,5.62406762795447,FALSE,0.438023894732055
"CAN","cpi",0.1,1991,3,1991,NA,0.5,8.33412440882929,8.44931726784604,5.4258100696218,8.39172083833767,FALSE,6.57811361281118
"CAN","cpi",0.1,1991,3,1990,NA,1,3.7017267602831,4.03662557075483,5.4258100696218,3.86917616551897,FALSE,3.42197547462054
"CAN","cpi",0.1,1991,3,1990,NA,1.5,4.88826439771971,5.35750555938454,5.4258100696218,5.12288497855213,FALSE,0.621028962192064
"CAN","cpi",0.1,1992,3,1992,NA,0,1.46869925697757,1.49251260282626,1.47496888572843,1.48060592990191,TRUE,0.0238133458486933
"CAN","cpi",0.1,1992,3,1992,NA,0.5,1.05295446915294,1.2910198356777,1.47496888572843,1.17198715241532,FALSE,0.646841033304166
"CAN","cpi",0.1,1992,3,1991,NA,1,2.34688774373063,2.69360281773329,1.47496888572843,2.52024528073196,FALSE,2.28431253622976
"CAN","cpi",0.1,1992,3,1991,NA,1.5,9.92691994296012,10.379755475445,1.47496888572843,10.1533377092026,FALSE,19.2349489929998
"CAN","cpi",0.1,1993,3,1993,NA,0,1.79038236568608,1.81486052082709,1.84351085411351,1.80262144325658,FALSE,0.0881455624441779
"CAN","cpi",0.1,1993,3,1993,NA,0.5,2.22251521694989,2.46231109422173,1.84351085411351,2.34241315558581,FALSE,1.08202779468601
"CAN","cpi",0.1,1993,3,1992,NA,1,1.64996432889142,1.98615459936026,1.84351085411351,1.81805946412584,TRUE,0.336190270468836
"CAN","cpi",0.1,1993,3,1992,NA,1.5,0.790425971703278,1.49010123034954,1.84351085411351,1.14026360102641,FALSE,1.48502997812175
"CAN","cpi",0.1,1994,3,1994,NA,0,0.151539170414203,0.175694086302451,0.161630694655448,0.163616628358327,TRUE,0.0241549158882485
"CAN","cpi",0.1,1994,3,1994,NA,0.5,-0.50535876506948,-0.264921430989279,0.161630694655448,-0.385140098029379,FALSE,1.18833094662404
"CAN","cpi",0.1,1994,3,1993,NA,1,1.20836455518787,1.54113000747978,0.161630694655448,1.37474728133383,FALSE,2.65884069791952
"CAN","cpi",0.1,1994,3,1993,NA,1.5,2.24486520553573,2.94884710069476,0.161630694655448,2.59685615311524,FALSE,5.33339191933743
"CAN","cpi",0.1,1995,3,1995,NA,0,2.18193987535228,2.20518908851358,2.11688403676572,2.19356448193293,FALSE,0.167817743353666
"CAN","cpi",0.1,1995,3,1995,NA,0.5,2.55879456480137,2.79622350605557,2.11688403676572,2.67750903542847,FALSE,1.21945233688899
"CAN","cpi",0.1,1995,3,1994,NA,1,1.2206556140066,1.46119674809737,2.11688403676572,1.34092618105198,FALSE,1.69762399779821
"CAN","cpi",0.1,1995,3,1994,NA,1.5,-1.64915567179778,-0.978812763323225,2.11688403676572,-1.3139842175605,FALSE,7.54966913089442
"CAN","cpi",0.1,1996,3,1996,NA,0,1.47047688020455,1.49365336784987,1.55309584667184,1.48206512402721,FALSE,0.155270885027482
"CAN","cpi",0.1,1996,3,1996,NA,0.5,1.1227073608563,1.34926625664894,1.55309584667184,1.23598680875262,FALSE,0.679513540287984
"CAN","cpi",0.1,1996,3,1995,NA,1,1.21655516571715,1.44311406150979,1.55309584667184,1.32983461361347,FALSE,0.470962862819421
"CAN","cpi",0.1,1996,3,1995,NA,1.5,3.06004258624023,3.79156953276249,1.55309584667184,3.42580605950136,FALSE,4.08029747889645
"CAN","cpi",0.1,1997,3,1997,NA,0,1.67806790223484,1.70293274616243,1.60528783555959,1.69050032419864,FALSE,0.186598325428143
"CAN","cpi",0.1,1997,3,1997,NA,0.5,2.00691174358751,2.23267203611084,1.60528783555959,2.11979188984917,FALSE,1.1182578659187
"CAN","cpi",0.1,1997,3,1996,NA,1,1.08236070247525,1.30812099499858,1.60528783555959,1.19524084873691,FALSE,0.886131049325584
"CAN","cpi",0.1,1997,3,1996,NA,1.5,0.986777851284166,1.72444022595788,1.60528783555959,1.35560903862103,TRUE,0.737662374673718
"CAN","cpi",0.1,1998,3,1998,NA,0,0.967603578759513,0.992572463103536,0.988908029337191,0.980088020931525,TRUE,0.0249688843440228
"CAN","cpi",0.1,1998,3,1998,NA,0.5,1.19692236327227,1.42464457965256,0.988908029337191,1.31078347146242,FALSE,0.689976291791582
"CAN","cpi",0.1,1998,3,1997,NA,1,0.951846817510633,1.17956903389093,0.988908029337191,1.06570792570078,TRUE,0.227722216380294
"CAN","cpi",0.1,1998,3,1997,NA,1.5,1.88370039796006,2.62351298736982,0.988908029337191,2.25360669266494,FALSE,2.72824007523836
"CAN","cpi",0.1,1999,3,1999,NA,0,1.80482423389686,1.82940167296602,1.7107350135213,1.81711295343144,FALSE,0.233664595459303
"CAN","cpi",0.1,1999,3,1999,NA,0.5,0.675532774322267,0.901242357126822,1.7107350135213,0.788387565724544,FALSE,2.02458215257005
"CAN","cpi",0.1,1999,3,1998,NA,1,0.462511701451848,0.688221284256402,1.7107350135213,0.575366492854125,FALSE,2.49796231450432
"CAN","cpi",0.1,1999,3,1998,NA,1.5,1.31664473391627,2.05769480029489,1.7107350135213,1.68716976710558,TRUE,0.741050066378626
"CAN","cpi",0.1,2000,3,2000,NA,0,2.71755412145675,2.74243385307319,2.6718361971244,2.72999398726497,FALSE,0.126475119021661
"CAN","cpi",0.1,2000,3,2000,NA,0.5,1.94968579687106,2.18629155163953,2.6718361971244,2.06798867425529,FALSE,1.31559385584596
"CAN","cpi",0.1,2000,3,1999,NA,1,2.97322108323883,3.2098268380073,2.6718361971244,3.09152396062306,FALSE,0.906349946133867
"CAN","cpi",0.1,2000,3,1999,NA,1.5,0.472615821314945,1.21310788921312,2.6718361971244,0.842861855264031,FALSE,3.98211052992324
"CAN","cpi",0.1,2001,3,2001,NA,0,2.83124912954704,2.85292018422517,2.47906219852806,2.84208465688611,FALSE,0.804308679164747
"CAN","cpi",0.1,2001,3,2001,NA,0.5,1.76709303424942,2.00567633780882,2.47906219852806,1.88638468602912,FALSE,1.2905518829355
"CAN","cpi",0.1,2001,3,2000,NA,1,3.57860188848544,3.81718519204484,2.47906219852806,3.69789354026514,FALSE,2.68200483679802
"CAN","cpi",0.1,2001,3,2000,NA,1.5,1.49533213584809,2.2409919149145,2.47906219852806,1.8681620253813,FALSE,1.27470485376321
"CAN","cpi",0.1,2002,3,2002,NA,0,2.36126216013304,2.39072915379209,2.20880570551249,2.37599565696257,FALSE,0.368259115038059
"CAN","cpi",0.1,2002,3,2002,NA,0.5,0.79308773607664,1.03406549929892,2.20880570551249,0.913576617687781,FALSE,2.85151155480798
"CAN","cpi",0.1,2002,3,2001,NA,1,1.81685193924363,2.05782970246591,2.20880570551249,1.93734082085477,FALSE,0.576479992214666
"CAN","cpi",0.1,2002,3,2001,NA,1.5,0.847783618803625,1.59757241032416,2.20880570551249,1.22267801456389,FALSE,2.10808500305015
"CAN","cpi",0.1,2003,3,2003,NA,0,2.71813371098475,2.74690401644838,2.71189071546809,2.73251886371656,FALSE,0.0426436288339866
"CAN","cpi",0.1,2003,3,2003,NA,0.5,4.24086977721255,4.39264391617583,2.71189071546809,4.31675684669419,FALSE,3.5495053872843
"CAN","cpi",0.1,2003,3,2002,NA,1,4.523534133368,4.71371405816283,2.71189071546809,4.61862409576541,FALSE,4.21605418679463
"CAN","cpi",0.1,2003,3,2002,NA,1.5,0.987412918797772,1.74376033454143,2.71189071546809,1.3655866266696,FALSE,2.90774826224734
"CAN","cpi",0.1,2004,3,2004,NA,0,1.81560358047488,1.84420842624062,1.83151661303942,1.82990600335775,TRUE,0.0286048457657424
"CAN","cpi",0.1,2004,3,2004,NA,0.5,1.33889834345288,1.54075403166638,1.83151661303942,1.43982618755963,FALSE,0.847994757931368
"CAN","cpi",0.1,2004,3,2003,NA,1,0.918376875400966,1.14055947105531,1.83151661303942,1.02946817322814,FALSE,1.75764291117459
"CAN","cpi",0.1,2004,3,2003,NA,1.5,4.44356908366202,4.84942129881883,1.83151661303942,4.64649519124043,FALSE,6.21041326098481
"CAN","cpi",0.1,2005,3,2005,NA,0,2.37060814800244,2.39847822591427,2.18071628336509,2.38454318695835,FALSE,0.449851999328155
"CAN","cpi",0.1,2005,3,2005,NA,0.5,1.50734788319836,1.7049858659148,2.18071628336509,1.60616687455658,FALSE,1.25481668816153
"CAN","cpi",0.1,2005,3,2004,NA,1,1.53524525100879,1.76839056429982,2.18071628336509,1.65181790765431,FALSE,1.14942468899163
"CAN","cpi",0.1,2005,3,2004,NA,1.5,1.53120328197297,1.9939827089775,2.18071628336509,1.76259299547523,FALSE,0.877742925643624
"CAN","cpi",0.1,2006,3,2006,NA,0,2.12198215740474,2.15072053461655,1.97519342012289,2.13635134601064,FALSE,0.354935571171485
"CAN","cpi",0.1,2006,3,2006,NA,0.5,1.68786736113978,1.88583417639821,1.97519342012289,1.78685076876899,FALSE,0.396542912424384
"CAN","cpi",0.1,2006,3,2005,NA,1,3.3951431948498,3.61455585695173,1.97519342012289,3.50484952590076,FALSE,3.37485660593951
"CAN","cpi",0.1,2006,3,2005,NA,1.5,1.25801843901559,1.67825840700465,1.97519342012289,1.46813842301012,FALSE,1.08009555269625
"CAN","cpi",0.1,2007,3,2007,NA,0,2.19017973342174,2.21932377936989,2.10062087284572,2.20475175639581,FALSE,0.228163736117074
"CAN","cpi",0.1,2007,3,2007,NA,0.5,1.89044716086124,2.08010777394052,2.10062087284572,1.98527746740088,FALSE,0.235245277313061
"CAN","cpi",0.1,2007,3,2006,NA,1,1.12843912496277,1.36636551269088,2.10062087284572,1.24740231882683,FALSE,1.86960496584998
"CAN","cpi",0.1,2007,3,2006,NA,1.5,1.43540867355053,1.77453548625879,2.10062087284572,1.60497207990466,FALSE,1.06376100512367
"CAN","cpi",0.1,2008,3,2008,NA,0,3.00474906673751,3.03060245484378,2.31447335265955,3.01767576079065,FALSE,1.55979941939062
"CAN","cpi",0.1,2008,3,2008,NA,0.5,0.942803005332807,1.13244427886783,2.31447335265955,1.03762364210032,FALSE,2.81637254862774
"CAN","cpi",0.1,2008,3,2007,NA,1,1.27894961273798,1.52687465264439,2.31447335265955,1.40291213269118,FALSE,1.99814437327344
"CAN","cpi",0.1,2008,3,2007,NA,1.5,2.54661711471368,2.85207821829523,2.31447335265955,2.69934766650446,FALSE,0.821336130368507
"CAN","cpi",0.1,2009,3,2009,NA,0,0.296955787990781,0.346496674678031,0.284533874408197,0.321726231334406,FALSE,0.0771451390929911
"CAN","cpi",0.1,2009,3,2009,NA,0.5,-1.4223243240825,-1.2275530815972,0.284533874408197,-1.32493870283985,FALSE,3.55496447805285
"CAN","cpi",0.1,2009,3,2008,NA,1,4.94790456143301,5.20431029691792,0.284533874408197,5.07610742917547,FALSE,10.6194517066512
"CAN","cpi",0.1,2009,3,2008,NA,1.5,0.856817368851039,1.16531381173078,0.284533874408197,1.01106559029091,FALSE,1.58023754164161
"CAN","cpi",0.1,2010,3,2010,NA,0,1.72998202017088,1.7786699135576,1.75525687020327,1.75432596686424,TRUE,0.0486878933867256
"CAN","cpi",0.1,2010,3,2010,NA,0.5,1.3908136394068,1.5960789607049,1.75525687020327,1.49344630005585,FALSE,0.558994009072263
"CAN","cpi",0.1,2010,3,2009,NA,1,0.949120181701466,1.31108722880198,1.75525687020327,1.13010370525173,FALSE,1.34901069465894
"CAN","cpi",0.1,2010,3,2009,NA,1.5,-2.44017536681744,-2.07820831971692,1.75525687020327,-2.25919184326718,FALSE,8.8807785802565
"CAN","cpi",0.1,2011,3,2011,NA,0,2.8832483607674,2.93339808636609,2.85717434028225,2.90832322356675,FALSE,0.108091993343481
"CAN","cpi",0.1,2011,3,2011,NA,0.5,2.71305750703447,2.91684320584681,2.85717434028225,2.81495035644064,TRUE,0.203785698812347
"CAN","cpi",0.1,2011,3,2010,NA,1,2.04469846373958,2.45521403487478,2.85717434028225,2.24995624930718,FALSE,1.30376069426289
"CAN","cpi",0.1,2011,3,2010,NA,1.5,1.48595439748358,1.89646996861878,2.85717434028225,1.69121218305118,FALSE,2.5454141748318
"CAN","cpi",0.1,2012,3,2012,NA,0,1.48347469814928,1.5337127156359,1.50118536134935,1.50859370689259,TRUE,0.0502380174866159
"CAN","cpi",0.1,2012,3,2012,NA,0.5,1.64830730730587,1.85419799018796,1.50118536134935,1.75125264874692,FALSE,0.532828340563257
"CAN","cpi",0.1,2012,3,2011,NA,1,1.64244040977496,2.05244871173864,1.50118536134935,1.8474445607568,FALSE,0.723908409576161
"CAN","cpi",0.1,2012,3,2011,NA,1.5,2.86425642954891,3.27426473151259,1.50118536134935,3.06926058053075,FALSE,3.43905512018493
"CAN","cpi",0.1,2013,3,2013,NA,0,1.03179900608637,1.08051289323762,0.931270594714462,1.05615594966199,FALSE,0.272110356866597
"CAN","cpi",0.1,2013,3,2013,NA,0.5,0.918661986177011,1.12969674292156,0.931270594714462,1.02417936454929,TRUE,0.211034756744548
"CAN","cpi",0.1,2013,3,2012,NA,1,-0.142121978955132,0.279291016107362,0.931270594714462,0.0685845185761151,FALSE,1.87025650307827
"CAN","cpi",0.1,2013,3,2012,NA,1.5,1.5084630896365,1.929876084699,0.931270594714462,1.71916958716775,FALSE,1.70406298377814
"CAN","cpi",0.1,2014,3,2014,NA,0,2.03955233436263,2.08818717753911,1.87639912240215,2.06386975595087,FALSE,0.411197536421993
"CAN","cpi",0.1,2014,3,2014,NA,0.5,1.82765438882783,2.02664983558641,1.87639912240215,1.92715211220712,TRUE,0.198995446758577
"CAN","cpi",0.1,2014,3,2013,NA,1,0.900416434046719,1.32703003474275,1.87639912240215,1.11372323439473,FALSE,1.6474337954947
"CAN","cpi",0.1,2014,3,2013,NA,1.5,1.18709708205323,1.61371068274925,1.87639912240215,1.40040388240124,FALSE,1.01036568881358
"CAN","cpi",0.1,2015,3,2015,NA,0,1.28332571371761,1.33132984910696,1.11090953952792,1.30732778141228,FALSE,0.431151189144217
"CAN","cpi",0.1,2015,3,2015,NA,0.5,0.0134544519295597,0.153051627481608,1.11090953952792,0.0832530397055839,FALSE,2.26817031343273
"CAN","cpi",0.1,2015,3,2014,NA,1,1.22662330128279,1.64125343231095,1.11090953952792,1.43393836679687,FALSE,0.671771823816765
"CAN","cpi",0.1,2015,3,2014,NA,1.5,2.46799459938715,2.88305229560534,1.11090953952792,2.67552344749624,FALSE,3.43080227368315
"CAN","cpi",0.1,2016,3,2016,NA,0,1.4855742933711,1.53225642985922,1.41168586698797,1.50891536161516,FALSE,0.210878639561757
"CAN","cpi",0.1,2016,3,2016,NA,0.5,0.713096475260067,0.860607008778365,1.41168586698797,0.786851742019216,FALSE,1.37213021842852
"CAN","cpi",0.1,2016,3,2015,NA,1,1.96114098799458,2.35206400468924,1.41168586698797,2.15660249634191,FALSE,1.61193439670936
"CAN","cpi",0.1,2016,3,2015,NA,1.5,-0.312681793853084,0.0782412228415789,1.41168586698797,-0.117220285505753,FALSE,3.35413333701997
"CAN","cpi",0.1,2017,3,2017,NA,0,1.5254325239968,1.57219422041852,1.57888581671161,1.54881337220766,FALSE,0.0616319104063593
"CAN","cpi",0.1,2017,3,2017,NA,0.5,1.83944861254183,1.98729134582512,1.57888581671161,1.91336997918348,FALSE,0.72687116846156
"CAN","cpi",0.1,2017,3,2016,NA,1,0.989650602992027,1.38572651043306,1.57888581671161,1.18768855671255,FALSE,0.825318810282255
"CAN","cpi",0.1,2017,3,2016,NA,1.5,0.466453749118882,0.862529656559918,1.57888581671161,0.6644917028394,FALSE,1.98797848555591
"CAN","cpi",0.1,2018,3,2018,NA,0,2.42095659464845,2.46950452690679,2.23316270166586,2.44523056077762,FALSE,0.465867694441877
"CAN","cpi",0.1,2018,3,2018,NA,0.5,2.72290800797712,2.88022231939795,2.23316270166586,2.80156516368753,FALSE,1.24563721433474
"CAN","cpi",0.1,2018,3,2017,NA,1,0.624103374712242,1.0162791385395,2.23316270166586,0.82019125662587,FALSE,3.09636145966361
"CAN","cpi",0.1,2018,3,2017,NA,1.5,2.23647707041704,2.62865283424429,2.23316270166586,2.43256495233066,FALSE,0.399541027718759
"CAN","cpi",0.1,2019,3,2019,NA,0,2.06049987029013,2.10928750021981,1.91921619871868,2.08489368525497,FALSE,0.362751344532901
"CAN","cpi",0.1,2019,3,2019,NA,0.5,1.38623038183407,1.55740882997461,1.91921619871868,1.47181960590434,FALSE,0.975194823127362
"CAN","cpi",0.1,2019,3,2018,NA,1,1.98234750261233,2.38013082767027,1.91921619871868,2.1812391651413,FALSE,0.538075111488272
"CAN","cpi",0.1,2019,3,2018,NA,1.5,3.39458830782189,3.79237163287983,1.91921619871868,3.59347997035086,FALSE,3.67638801195396
"CAN","cpi",0.1,2020,3,2020,NA,0,0.681673287201768,0.702593194167518,0.71139989671781,0.692133240684643,FALSE,0.0404903570775108
"CAN","cpi",0.1,2020,3,2020,NA,0.5,0.978441717800992,1.13271934942196,0.71139989671781,1.05558053361148,FALSE,0.747703900694709
"CAN","cpi",0.1,2020,3,2019,NA,1,1.8152969918815,2.21444252770515,0.71139989671781,2.01486975979332,FALSE,2.85225019174296
"CAN","cpi",0.1,2020,3,2019,NA,1.5,1.56673898314228,1.97864134893249,0.71139989671781,1.77269016603738,FALSE,2.31265589117791
"CAN","cpi",0.1,2021,3,2021,NA,0,3.3630187606469,3.38519915515464,3.31148121717802,3.37410895790077,FALSE,0.136708268883017
"CAN","cpi",0.1,2021,3,2021,NA,0.5,2.6245573854921,2.73925849410955,3.31148121717802,2.68190793980083,FALSE,1.38630715988072
"CAN","cpi",0.1,2021,3,2020,NA,1,1.09569589491065,1.28925343750093,3.31148121717802,1.19247466620579,FALSE,4.68739705298383
"CAN","cpi",0.1,2021,3,2020,NA,1.5,0.785774778540492,1.20242027042692,3.31148121717802,0.994097524483704,FALSE,5.10344759577778
"CAN","cpi",0.1,2022,3,2022,NA,0,6.70158796249737,6.7227196942832,6.50977236228281,6.71215382839029,FALSE,0.447388621151525
"CAN","cpi",0.1,2022,3,2022,NA,0.5,6.3609726438132,6.48211348039795,6.50977236228281,6.42154306210558,FALSE,0.182605018551107
"CAN","cpi",0.1,2022,3,2021,NA,1,4.85239621636526,5.09159284951346,6.50977236228281,4.97199453293936,FALSE,3.39070666152454
"CAN","cpi",0.1,2022,3,2021,NA,1.5,3.28924434565497,3.62479243055211,6.50977236228281,3.45701838810354,FALSE,6.74661459985425
"CAN","cpi",0.1,2023,3,2023,NA,0,4.03107526373404,4.05316841919395,3.78831288758619,4.042121841464,FALSE,0.561565102455134
"CAN","cpi",0.1,2023,3,2023,NA,0.5,2.99944478127166,3.12049907461217,3.78831288758619,3.05997192794191,FALSE,1.60508498883834
"CAN","cpi",0.1,2023,3,2022,NA,1,5.15590604630459,5.41112926693289,3.78831288758619,5.28351765661874,FALSE,3.29431912889141
"CAN","cpi",0.1,2023,3,2022,NA,1.5,7.08920135112053,7.48585297633371,3.78831288758619,7.28752716372712,FALSE,7.73195932195615
"CAN","cpi",0.1,2024,3,2023,NA,1,4.23517441923574,4.52069949925857,NA,4.37793695924716,NA,NA
"CAN","cpi",0.1,2024,3,2023,NA,1.5,2.13742701683004,2.60053265798531,NA,2.36897983740768,NA,NA
"CAN","cpi",0.2,1959,3,1959,NA,0,1.15367280157691,1.2399213783548,1.19382698397654,1.19679708996586,TRUE,0.0862485767778898
"CAN","cpi",0.2,1959,3,1959,NA,0.5,0.301530988137942,1.00882100151588,1.19382698397654,0.655175994826909,FALSE,1.1698049695296
"CAN","cpi",0.2,1959,3,1958,NA,1,0.981907303222469,2.53686985309716,1.19382698397654,1.75938857815981,TRUE,1.55496254987469
"CAN","cpi",0.2,1959,3,1958,NA,1.5,0.0907290864242052,3.45920413383479,1.19382698397654,1.7749666101295,TRUE,3.36847504741059
"CAN","cpi",0.2,1960,3,1960,NA,0,0.993561750165696,1.06904318006128,1.34209404870695,1.03130246511349,FALSE,0.758108601509761
"CAN","cpi",0.2,1960,3,1960,NA,0.5,0.476198684729077,1.01500662153541,1.34209404870695,0.745602653132245,FALSE,1.35652650473518
"CAN","cpi",0.2,1960,3,1959,NA,1,2.56747203932105,4.1042757067477,1.34209404870695,3.33587387303437,FALSE,4.60024864396189
"CAN","cpi",0.2,1960,3,1959,NA,1.5,-1.83368862293826,1.18285043436248,1.34209404870695,-0.32541909428789,FALSE,3.41464809316192
"CAN","cpi",0.2,1961,3,1961,NA,0,0.965440892733494,1.05298606914665,1.00921348094007,1.00921348094007,TRUE,0.0875451764131561
"CAN","cpi",0.2,1961,3,1961,NA,0.5,1.04647671075402,1.57634591940856,1.00921348094007,1.31141131508129,FALSE,0.623027283189417
"CAN","cpi",0.2,1961,3,1960,NA,1,-0.516229495518801,0.803481306858725,1.00921348094007,0.143625905669962,FALSE,1.83404123758089
"CAN","cpi",0.2,1961,3,1960,NA,1.5,-1.46176560495688,0.781542756652444,1.00921348094007,-0.34011142415222,FALSE,2.8124851723284
"CAN","cpi",0.2,1962,3,1962,NA,0,1.07396590807148,1.14869405654604,1.04957947883042,1.11132998230876,FALSE,0.135694221577226
"CAN","cpi",0.2,1962,3,1962,NA,0.5,-0.222696415945763,0.222696415945763,1.04957947883042,1.64134322488006e-44,FALSE,2.51260048910316
"CAN","cpi",0.2,1962,3,1961,NA,1,-0.659745145392587,0.659745145392587,1.04957947883042,-9.44308782563385e-19,FALSE,2.29407612437974
"CAN","cpi",0.2,1962,3,1961,NA,1.5,-0.367318113169695,1.8760866105512,1.04957947883042,0.754384248690751,TRUE,2.24340472372089
"CAN","cpi",0.2,1963,3,1963,NA,0,1.81974701335371,1.89224320441958,1.60677118395228,1.85599510888664,FALSE,0.604935764569431
"CAN","cpi",0.2,1963,3,1963,NA,0.5,0.706132382342866,1.15846820493198,1.60677118395228,0.932300293637426,FALSE,1.57309327013987
"CAN","cpi",0.2,1963,3,1962,NA,1,2.08463619874582,3.25033424812872,1.60677118395228,2.66748522343727,FALSE,2.36036058636675
"CAN","cpi",0.2,1963,3,1962,NA,1.5,-0.820208904553775,0.820208904553775,1.60677118395228,4.10321927477868e-44,FALSE,3.60682350760382
"CAN","cpi",0.2,1964,3,1964,NA,0,1.9495557566083,2.02832733477175,1.88764670034376,1.98894154569002,FALSE,0.233544218824799
"CAN","cpi",0.2,1964,3,1964,NA,0.5,1.25047660874386,1.51707504619802,1.88764670034376,1.38377582747094,FALSE,1.19302757281851
"CAN","cpi",0.2,1964,3,1963,NA,1,4.33788539880991,5.08784565929871,1.88764670034376,4.71286552905431,FALSE,6.87555700665417
"CAN","cpi",0.2,1964,3,1963,NA,1.5,-0.25036451741009,0.727923863754744,1.88764670034376,0.238779673172327,FALSE,3.87759547263737
"CAN","cpi",0.2,1965,3,1965,NA,0,2.31534881430535,2.39454139590572,2.29538304394236,2.35494510510554,FALSE,0.129107007507853
"CAN","cpi",0.2,1965,3,1965,NA,0.5,1.42873792779201,1.69216000140275,2.29538304394236,1.56044896459738,FALSE,1.77147967995975
"CAN","cpi",0.2,1965,3,1964,NA,1,2.06679466917609,2.78741996879605,2.29538304394236,2.42710731898607,TRUE,0.720625299619962
"CAN","cpi",0.2,1965,3,1964,NA,1.5,0.458003108093135,1.1786284077131,2.29538304394236,0.818315757903116,FALSE,3.51251189019311
"CAN","cpi",0.2,1966,3,1966,NA,0,3.80902508619861,3.88425764160162,3.72486065470629,3.84664136390011,FALSE,0.285643634133801
"CAN","cpi",0.2,1966,3,1966,NA,0.5,3.71542844779573,3.97839955681032,3.72486065470629,3.84691400230302,TRUE,0.262971109014591
"CAN","cpi",0.2,1966,3,1965,NA,1,2.96140701582568,3.6659529259686,3.72486065470629,3.31367997089714,FALSE,0.851815231987139
"CAN","cpi",0.2,1966,3,1965,NA,1.5,1.12923086906367,1.83377677920659,3.72486065470629,1.48150382413513,FALSE,5.43225559889216
"CAN","cpi",0.2,1967,3,1967,NA,0,3.73134354259759,3.80591583866524,3.49360316391996,3.76862969063141,FALSE,0.668923242761723
"CAN","cpi",0.2,1967,3,1967,NA,0.5,2.21903289519662,2.50445551934215,3.49360316391996,2.36174420726938,FALSE,2.75829173559006
"CAN","cpi",0.2,1967,3,1966,NA,1,3.13572368796722,3.82895322113358,3.49360316391996,3.4823384545504,TRUE,0.693229533166358
"CAN","cpi",0.2,1967,3,1966,NA,1.5,3.94596223785304,4.6391917710194,3.49360316391996,4.29257700443622,FALSE,1.82412721799907
"CAN","cpi",0.2,1968,3,1968,NA,0,4.07369861483455,4.15310741035085,3.95128347779386,4.1134030125927,FALSE,0.385446638118034
"CAN","cpi",0.2,1968,3,1968,NA,0.5,3.78089679936871,4.00359187550995,3.95128347779386,3.89224433743933,TRUE,0.222695076141237
"CAN","cpi",0.2,1968,3,1967,NA,1,5.50188036984465,6.21005386033991,3.95128347779386,5.85596711509228,FALSE,4.58466572062224
"CAN","cpi",0.2,1968,3,1967,NA,1.5,1.78575204350408,2.49798985950407,3.95128347779386,2.14187095150408,FALSE,4.34547186172446
"CAN","cpi",0.2,1969,3,1969,NA,0,4.60291306636538,4.68234823656096,4.42679496126681,4.64263065146317,FALSE,0.51973043294199
"CAN","cpi",0.2,1969,3,1969,NA,0.5,2.94987456866856,3.17411528888687,4.42679496126681,3.06199492877772,FALSE,3.35593990116816
"CAN","cpi",0.2,1969,3,1968,NA,1,5.77751429711512,6.33413327785746,4.42679496126681,6.05582378748629,FALSE,3.93341732036311
"CAN","cpi",0.2,1969,3,1968,NA,1.5,3.59396536082205,4.1505843415644,4.42679496126681,3.87227485119322,FALSE,1.24714552999839
"CAN","cpi",0.2,1970,3,1970,NA,0,3.55104823690226,3.62888126158619,3.28128405769805,3.58996474924422,FALSE,0.752243472694461
"CAN","cpi",0.2,1970,3,1970,NA,0.5,4.04577191746134,4.29783347559369,3.28128405769805,4.17180269652751,FALSE,2.16328120754058
"CAN","cpi",0.2,1970,3,1969,NA,1,5.16275393950977,5.71455598979099,3.28128405769805,5.43865496465038,FALSE,5.25547675481053
"CAN","cpi",0.2,1970,3,1969,NA,1.5,2.04082628465805,2.59262833493927,3.28128405769805,2.31672730979866,FALSE,2.27344135717816
"CAN","cpi",0.2,1971,3,1971,NA,0,2.852818245947,2.93567655041372,2.64123406634756,2.89424739818036,FALSE,0.611818753465319
"CAN","cpi",0.2,1971,3,1971,NA,0.5,0.910477129903041,1.24020274936809,2.64123406634756,1.07533993963556,FALSE,3.83230391191373
"CAN","cpi",0.2,1971,3,1970,NA,1,2.71517424334175,3.24804505933311,2.64123406634756,2.98160965133743,FALSE,0.717721258476829
"CAN","cpi",0.2,1971,3,1970,NA,1.5,3.89064719891556,4.42351801490691,2.64123406634756,4.15708260691123,FALSE,3.65640364741134
"CAN","cpi",0.2,1972,3,1972,NA,0,5.07845002373559,5.12797977030197,4.83230569625923,5.10321489701878,FALSE,0.664890565257275
"CAN","cpi",0.2,1972,3,1972,NA,0.5,4.39094244323387,4.7595932462556,4.83230569625923,4.57526784474473,FALSE,0.550431928030811
"CAN","cpi",0.2,1972,3,1971,NA,1,6.27085034734847,6.86381238294473,4.83230569625923,6.5673313651466,FALSE,4.18932366331936
"CAN","cpi",0.2,1972,3,1971,NA,1.5,0.904789907370336,1.4977519429666,4.83230569625923,1.20127092516847,FALSE,8.92934641882784
"CAN","cpi",0.2,1973,3,1973,NA,0,7.34071274437497,7.38466223796248,7.12388603531779,7.36268749116872,FALSE,0.58601626623046
"CAN","cpi",0.2,1973,3,1973,NA,0.5,5.72043493875441,6.06822492273192,7.12388603531779,5.89432993074317,FALSE,2.98694276544218
"CAN","cpi",0.2,1973,3,1972,NA,1,7.07763325579772,7.66516546496428,7.12388603531779,7.371399360381,TRUE,0.587532209166559
"CAN","cpi",0.2,1973,3,1972,NA,1.5,4.15885887849006,4.84763454715252,7.12388603531779,4.50324671282129,FALSE,6.37940438907562
"CAN","cpi",0.2,1974,3,1974,NA,0,10.3026358126423,10.3419404538036,10.2717243737774,10.3222881332229,FALSE,0.116583238323454
"CAN","cpi",0.2,1974,3,1974,NA,0.5,8.66990794883253,9.02435010989486,10.2717243737774,8.8471290293637,FALSE,3.47287782076872
"CAN","cpi",0.2,1974,3,1973,NA,1,10.7332047125127,11.2436758525617,10.2717243737774,10.9884402825372,FALSE,1.66417198688729
"CAN","cpi",0.2,1974,3,1973,NA,1.5,5.84072236968522,6.55037467190923,10.2717243737774,6.19554852079723,FALSE,10.0130265568945
"CAN","cpi",0.2,1975,3,1975,NA,0,10.2424838660474,10.2869044744245,10.0232981493341,10.2646941702359,FALSE,0.592384900160262
"CAN","cpi",0.2,1975,3,1975,NA,0.5,9.03115987057174,9.40594789353463,10.0232981493341,9.21855388205318,FALSE,1.91816366246162
"CAN","cpi",0.2,1975,3,1974,NA,1,11.7340938339229,12.2469349528578,10.0232981493341,11.9905143933903,FALSE,4.78983033040684
"CAN","cpi",0.2,1975,3,1974,NA,1.5,8.27113851659633,9.08904406601215,10.0232981493341,8.68009129130424,FALSE,3.15354075772075
"CAN","cpi",0.2,1976,3,1976,NA,0,7.23244835518096,7.27521299126348,7.22784311401172,7.25383067322222,FALSE,0.0542777390056384
"CAN","cpi",0.2,1976,3,1976,NA,0.5,7.22826344494801,7.60269006714741,7.22784311401172,7.41547675604771,FALSE,0.375477449540139
"CAN","cpi",0.2,1976,3,1975,NA,1,11.6879456602795,12.142356455949,7.22784311401172,11.9151510581142,FALSE,11.6046671613389
"CAN","cpi",0.2,1976,3,1975,NA,1.5,7.60432233818945,8.42230842420428,7.22784311401172,8.01331538119686,FALSE,1.75918414645917
"CAN","cpi",0.2,1977,3,1977,NA,0,7.5959089130139,7.64143368080625,7.58101410153764,7.61867129691007,FALSE,0.0827617964829814
"CAN","cpi",0.2,1977,3,1977,NA,0.5,6.82526691997572,7.22049051982092,7.58101410153764,7.02287871989832,FALSE,1.29653255413701
"CAN","cpi",0.2,1977,3,1976,NA,1,5.52850660880778,6.21673146871698,7.58101410153764,5.87261903876238,FALSE,4.09893144196087
"CAN","cpi",0.2,1977,3,1976,NA,1.5,5.71185647182348,6.59459642865839,7.58101410153764,6.15322645024094,FALSE,3.34878413903304
"CAN","cpi",0.2,1978,3,1978,NA,0,8.65616918490012,8.70633895999998,8.50208927062595,8.68125407245005,FALSE,0.435369560785296
"CAN","cpi",0.2,1978,3,1978,NA,0.5,7.93602084284332,8.31415400376112,8.50208927062595,8.12508742330222,FALSE,0.847971328079867
"CAN","cpi",0.2,1978,3,1977,NA,1,8.25056013559786,9.03581520146137,8.50208927062595,8.64318766852961,TRUE,0.78525506586351
"CAN","cpi",0.2,1978,3,1977,NA,1.5,7.22529390633809,8.09528482959198,8.50208927062595,7.66028936796504,FALSE,1.8870020258388
"CAN","cpi",0.2,1979,3,1979,NA,0,8.58663768784939,8.63488124034637,8.65147652410481,8.61075946409788,FALSE,0.0897317618930895
"CAN","cpi",0.2,1979,3,1979,NA,0.5,7.91446144215004,8.28679526334139,8.65147652410481,8.10062835274572,FALSE,1.28403697309989
"CAN","cpi",0.2,1979,3,1978,NA,1,9.19269828729174,9.97257148207407,8.65147652410481,9.5826348846829,FALSE,2.13292760274965
"CAN","cpi",0.2,1979,3,1978,NA,1.5,7.53563090614202,8.34804598738853,8.65147652410481,7.94183844676527,FALSE,1.57099142303721
"CAN","cpi",0.2,1980,3,1980,NA,0,9.50205056721389,9.56013036779182,9.5171912664748,9.53109046750286,TRUE,0.0580798005779251
"CAN","cpi",0.2,1980,3,1980,NA,0.5,8.50437429872482,8.86689799958362,9.5171912664748,8.68563614915422,FALSE,1.98825686808675
"CAN","cpi",0.2,1980,3,1979,NA,1,7.93856327415801,8.71241140917365,9.5171912664748,8.32548734166583,FALSE,2.78579777826851
"CAN","cpi",0.2,1980,3,1979,NA,1.5,7.57345551536279,8.38748652655964,9.5171912664748,7.98047102096121,FALSE,3.63829286098475
"CAN","cpi",0.2,1981,3,1981,NA,0,11.6784173889754,11.7394945660705,11.5813425032741,11.708955977523,FALSE,0.303764391348258
"CAN","cpi",0.2,1981,3,1981,NA,0.5,11.9535900656442,12.2992025158457,11.5813425032741,12.1263962907449,FALSE,1.27623135612662
"CAN","cpi",0.2,1981,3,1980,NA,1,10.5730737086668,11.3968066219389,11.5813425032741,10.9849401653028,FALSE,1.28507261661028
"CAN","cpi",0.2,1981,3,1980,NA,1.5,8.21548579602043,9.03921870929251,11.5813425032741,8.62735225265647,FALSE,7.17904239822616
"CAN","cpi",0.2,1982,3,1982,NA,0,10.2834496038594,10.338500345673,10.1124203763629,10.3109749747662,FALSE,0.482623810554744
"CAN","cpi",0.2,1982,3,1982,NA,0.5,9.94311155257008,10.2562557714293,10.1124203763629,10.0996836619997,TRUE,0.313144218859215
"CAN","cpi",0.2,1982,3,1981,NA,1,11.2001736502191,12.0387853896115,10.1124203763629,11.6194795199153,FALSE,3.55799492403275
"CAN","cpi",0.2,1982,3,1981,NA,1.5,12.3001298064481,13.1387415458404,10.1124203763629,12.7194356761443,FALSE,6.30788531460517
"CAN","cpi",0.2,1983,3,1983,NA,0,5.80131553983968,5.853979267401,5.67091787896303,5.82764740362034,FALSE,0.378657879752943
"CAN","cpi",0.2,1983,3,1983,NA,0.5,4.83316068885268,5.11771820703394,5.67091787896303,4.97543944794331,FALSE,1.667556698004
"CAN","cpi",0.2,1983,3,1982,NA,1,8.81379703903101,9.66177089461411,5.67091787896303,9.23778396682256,FALSE,8.70517175575304
"CAN","cpi",0.2,1983,3,1982,NA,1.5,9.31982834791464,10.2575745355624,5.67091787896303,9.78870144173853,FALSE,10.0600223600268
"CAN","cpi",0.2,1984,3,1984,NA,0,4.18981981491753,4.2373309309489,4.19799576814029,4.21357537293321,TRUE,0.0475111160313695
"CAN","cpi",0.2,1984,3,1984,NA,0.5,4.50079180734937,4.78438685392194,4.19799576814029,4.64258933063566,FALSE,1.04058514459528
"CAN","cpi",0.2,1984,3,1983,NA,1,5.66419377642681,6.59855932099755,4.19799576814029,6.13137654871218,FALSE,4.59986056528704
"CAN","cpi",0.2,1984,3,1983,NA,1.5,2.88568897135636,4.05095980058177,4.19799576814029,3.46832438596907,FALSE,1.5328607481217
"CAN","cpi",0.2,1985,3,1985,NA,0,3.89678255183988,3.94140396336448,3.86444262005169,3.91909325760218,FALSE,0.125471240995063
"CAN","cpi",0.2,1985,3,1985,NA,0.5,3.74600983892615,4.03699392497463,3.86444262005169,3.89150188195039,TRUE,0.290984086048478
"CAN","cpi",0.2,1985,3,1984,NA,1,2.82509975314167,3.76284174639904,3.86444262005169,3.29397074977035,FALSE,1.19174417738901
"CAN","cpi",0.2,1985,3,1984,NA,1.5,3.90389441838068,5.02932627681612,3.86444262005169,4.4666103475984,FALSE,1.2240613542579
"CAN","cpi",0.2,1986,3,1986,NA,0,4.08361963632972,4.12815744498208,4.08685396749431,4.1058885406559,TRUE,0.0445378086523576
"CAN","cpi",0.2,1986,3,1986,NA,0.5,4.28962896887464,4.53039915430033,4.08685396749431,4.41001406158749,FALSE,0.747707688876519
"CAN","cpi",0.2,1986,3,1985,NA,1,3.50910973228748,4.47696785410134,4.08685396749431,3.99303879319441,TRUE,0.967858121813857
"CAN","cpi",0.2,1986,3,1985,NA,1.5,3.73282980848373,4.71369666913435,4.08685396749431,4.22326323880904,TRUE,0.980866860650616
"CAN","cpi",0.2,1987,3,1987,NA,0,4.34052766354472,4.37900670607293,4.23980729277887,4.35976718480882,FALSE,0.290279969442823
"CAN","cpi",0.2,1987,3,1987,NA,0.5,3.79192915389762,4.02679727399775,4.23980729277887,3.90936321394769,FALSE,0.767393167052927
"CAN","cpi",0.2,1987,3,1986,NA,1,3.84937566915161,4.81261751387749,4.23980729277887,4.33099659151455,TRUE,0.963241844725879
"CAN","cpi",0.2,1987,3,1986,NA,1.5,4.27085029799921,5.23409214272509,4.23980729277887,4.75247122036215,FALSE,1.04084935777674
"CAN","cpi",0.2,1988,3,1988,NA,0,3.99354028590312,4.03185091714504,3.92899537638065,4.01269560152408,FALSE,0.199672905048096
"CAN","cpi",0.2,1988,3,1988,NA,0.5,3.35561862120816,3.58589329707854,3.92899537638065,3.47075595914335,FALSE,1.08802987412566
"CAN","cpi",0.2,1988,3,1987,NA,1,4.21374405157106,4.94950471833027,3.92899537638065,4.58162438495066,FALSE,1.44763235473521
"CAN","cpi",0.2,1988,3,1987,NA,1.5,3.33500552138768,4.29229000525247,3.92899537638065,3.81364776332008,TRUE,0.957284483864788
"CAN","cpi",0.2,1989,3,1989,NA,0,5.00510338141795,5.0428030360442,4.82821664544208,5.02395320873108,FALSE,0.479916494565933
"CAN","cpi",0.2,1989,3,1989,NA,0.5,4.2544411345241,4.48135582237895,4.82821664544208,4.36789847845152,FALSE,1.09406674551267
"CAN","cpi",0.2,1989,3,1988,NA,1,4.1333118430411,4.78993939367796,4.82821664544208,4.46162561835953,FALSE,0.752320680047155
"CAN","cpi",0.2,1989,3,1988,NA,1.5,2.81289408061115,3.74386897166906,4.82821664544208,3.27838152614011,FALSE,3.64184407549045
"CAN","cpi",0.2,1990,3,1990,NA,0,4.50026369586488,4.53899887452646,4.64347549432717,4.51963128519567,FALSE,0.299926728163353
"CAN","cpi",0.2,1990,3,1990,NA,0.5,4.86986041237455,5.09882812759354,4.64347549432717,4.98434426998405,FALSE,0.794930010337445
"CAN","cpi",0.2,1990,3,1989,NA,1,5.58345508990807,6.25204369487414,4.64347549432717,5.9177493923911,FALSE,3.01853759391832
"CAN","cpi",0.2,1990,3,1989,NA,1.5,4.08529664405984,5.03842052371034,4.64347549432717,4.56185858388509,TRUE,0.953123879650507
"CAN","cpi",0.2,1991,3,1991,NA,0,5.60094676302266,5.64718849288628,5.4258100696218,5.62406762795447,FALSE,0.484083463365786
"CAN","cpi",0.2,1991,3,1991,NA,0.5,8.27560009849122,8.50784157818411,5.4258100696218,8.39172083833767,FALSE,7.35671655186645
"CAN","cpi",0.2,1991,3,1990,NA,1,3.53157973829584,4.20677259274209,5.4258100696218,3.86917616551897,FALSE,3.72278654664551
"CAN","cpi",0.2,1991,3,1990,NA,1.5,4.64986406975602,5.59590588734824,5.4258100696218,5.12288497855213,TRUE,0.946041817592221
"CAN","cpi",0.2,1992,3,1992,NA,0,1.45660076706654,1.50461109273729,1.47496888572843,1.48060592990191,TRUE,0.0480103256707518
"CAN","cpi",0.2,1992,3,1992,NA,0.5,0.932004164505877,1.41197014032476,1.47496888572843,1.17198715241532,FALSE,0.637462839328061
"CAN","cpi",0.2,1992,3,1991,NA,1,2.17073740973407,2.86975315172985,1.47496888572843,2.52024528073196,FALSE,2.43843705200987
"CAN","cpi",0.2,1992,3,1991,NA,1.5,9.69685457726415,10.609820841141,1.47496888572843,10.1533377092026,FALSE,21.4676804927162
"CAN","cpi",0.2,1993,3,1993,NA,0,1.77794611607647,1.82729677043669,1.84351085411351,1.80262144325658,FALSE,0.0898858635522722
"CAN","cpi",0.2,1993,3,1993,NA,0.5,2.10068571762991,2.58414059354171,1.84351085411351,2.34241315558581,FALSE,1.1263920347028
"CAN","cpi",0.2,1993,3,1992,NA,1,1.47916117416898,2.1569577540827,1.84351085411351,1.81805946412584,TRUE,0.677796579913718
"CAN","cpi",0.2,1993,3,1992,NA,1.5,0.434952443896056,1.84557475815676,1.84351085411351,1.14026360102641,TRUE,1.41062231426071
"CAN","cpi",0.2,1994,3,1994,NA,0,0.139267144129758,0.187966112586896,0.161630694655448,0.163616628358327,TRUE,0.0486989684571376
"CAN","cpi",0.2,1994,3,1994,NA,0.5,-0.627514159741315,-0.142766036317443,0.161630694655448,-0.385140098029379,FALSE,1.2457399508561
"CAN","cpi",0.2,1994,3,1993,NA,1,1.03930139653418,1.71019316613347,0.161630694655448,1.37474728133383,FALSE,2.86506852429612
"CAN","cpi",0.2,1994,3,1993,NA,1.5,1.88720366942714,3.30650863680335,0.161630694655448,2.59685615311524,FALSE,5.73323740430544
"CAN","cpi",0.2,1995,3,1995,NA,0,2.17012799588526,2.2170009679806,2.11688403676572,2.19356448193293,FALSE,0.1799828698942
"CAN","cpi",0.2,1995,3,1995,NA,0.5,2.43816759920812,2.91685047164882,2.11688403676572,2.67750903542847,FALSE,1.28189177854672
"CAN","cpi",0.2,1995,3,1994,NA,1,1.09844748321827,1.5834048788857,2.11688403676572,1.34092618105198,FALSE,1.81865529036747
"CAN","cpi",0.2,1995,3,1994,NA,1.5,-1.98972675184003,-0.638241683280968,2.11688403676572,-1.3139842175605,FALSE,8.23929936867577
"CAN","cpi",0.2,1996,3,1996,NA,0,1.45870194930104,1.50542829875339,1.55309584667184,1.48206512402721,FALSE,0.165895219248494
"CAN","cpi",0.2,1996,3,1996,NA,0.5,1.00760297643181,1.46437064107342,1.55309584667184,1.23598680875262,FALSE,0.67858067863766
"CAN","cpi",0.2,1996,3,1995,NA,1,1.10145078129266,1.55821844593428,1.55309584667184,1.32983461361347,TRUE,0.456767664641614
"CAN","cpi",0.2,1996,3,1995,NA,1.5,2.68838664849929,4.16322547050343,1.55309584667184,3.42580605950136,FALSE,4.31306582657275
"CAN","cpi",0.2,1997,3,1997,NA,0,1.66543519344588,1.71556545495139,1.60528783555959,1.69050032419864,FALSE,0.200498656221233
"CAN","cpi",0.2,1997,3,1997,NA,0.5,1.89221309356331,2.34737068613504,1.60528783555959,2.11979188984917,FALSE,1.17247073758102
"CAN","cpi",0.2,1997,3,1996,NA,1,0.967662052451045,1.42281964502278,1.60528783555959,1.19524084873691,FALSE,0.911328068913764
"CAN","cpi",0.2,1997,3,1996,NA,1.5,0.612004778468551,2.0992132987735,1.60528783555959,1.35560903862103,TRUE,1.48720852030495
"CAN","cpi",0.2,1998,3,1998,NA,0,0.954918011714663,1.00525803014839,0.988908029337191,0.980088020931525,TRUE,0.0503400184337237
"CAN","cpi",0.2,1998,3,1998,NA,0.5,1.08122694798289,1.54033999494194,0.988908029337191,1.31078347146242,FALSE,0.689910343573303
"CAN","cpi",0.2,1998,3,1997,NA,1,0.836151402221254,1.29526444918031,0.988908029337191,1.06570792570078,TRUE,0.459113046959052
"CAN","cpi",0.2,1998,3,1997,NA,1.5,1.50783489775286,2.99937848757702,0.988908029337191,2.25360669266494,FALSE,2.78886076086333
"CAN","cpi",0.2,1999,3,1999,NA,0,1.79233754258912,1.84188836427376,1.7107350135213,1.81711295343144,FALSE,0.2535571443542
"CAN","cpi",0.2,1999,3,1999,NA,0.5,0.560859887625275,1.01591524382381,1.7107350135213,0.788387565724544,FALSE,2.19210478044224
"CAN","cpi",0.2,1999,3,1998,NA,1,0.347838814754856,0.802894170953394,1.7107350135213,0.575366492854125,FALSE,2.72465746261829
"CAN","cpi",0.2,1999,3,1998,NA,1.5,0.940150527322397,2.43418900688877,1.7107350135213,1.68716976710558,TRUE,1.49403847956637
"CAN","cpi",0.2,2000,3,2000,NA,0,2.70491384890272,2.75507412562722,2.6718361971244,2.72999398726497,FALSE,0.1328544061703
"CAN","cpi",0.2,2000,3,2000,NA,0.5,1.82947705530463,2.30650029320596,2.6718361971244,2.06798867425529,FALSE,1.39036299769743
"CAN","cpi",0.2,2000,3,1999,NA,1,2.85301234167239,3.33003557957373,2.6718361971244,3.09152396062306,FALSE,0.929963599271324
"CAN","cpi",0.2,2000,3,1999,NA,1.5,0.096405108650444,1.58931860187762,2.6718361971244,0.842861855264031,FALSE,4.19920748134413
"CAN","cpi",0.2,2001,3,2001,NA,0,2.82023904142038,2.86393027235184,2.47906219852806,2.84208465688611,FALSE,0.896633338162242
"CAN","cpi",0.2,2001,3,2001,NA,0.5,1.64587958909166,2.12688978296658,2.47906219852806,1.88638468602912,FALSE,1.36144123277863
"CAN","cpi",0.2,2001,3,2000,NA,1,3.45738844332768,3.9383986372026,2.47906219852806,3.69789354026514,FALSE,2.92682580587397
"CAN","cpi",0.2,2001,3,2000,NA,1.5,1.11649594158058,2.61982810918201,2.47906219852806,1.8681620253813,TRUE,1.50333216760143
"CAN","cpi",0.2,2002,3,2002,NA,0,2.34629130606837,2.40570000785676,2.20880570551249,2.37599565696257,FALSE,0.4031227031781
"CAN","cpi",0.2,2002,3,2002,NA,0.5,0.670657773665998,1.15649546170957,2.20880570551249,0.913576617687781,FALSE,3.11661329755087
"CAN","cpi",0.2,2002,3,2001,NA,1,1.69442197683299,2.18025966487656,2.20880570551249,1.93734082085477,FALSE,0.557202789633392
"CAN","cpi",0.2,2002,3,2001,NA,1.5,0.466849659029482,1.9785063700983,2.20880570551249,1.22267801456389,FALSE,2.08740504960428
"CAN","cpi",0.2,2003,3,2003,NA,0,2.70351681285542,2.76152091457771,2.71189071546809,2.73251886371656,TRUE,0.0580041017222843
"CAN","cpi",0.2,2003,3,2003,NA,0.5,4.16376016394486,4.46975352944352,2.71189071546809,4.31675684669419,FALSE,3.93566698669059
"CAN","cpi",0.2,2003,3,2002,NA,1,4.42691226779606,4.81033592373476,2.71189071546809,4.61862409576541,FALSE,4.67097753675863
"CAN","cpi",0.2,2003,3,2002,NA,1.5,0.603146817060131,2.12802643627908,2.71189071546809,1.3655866266696,FALSE,2.98454031719148
"CAN","cpi",0.2,2004,3,2004,NA,0,1.80107074497573,1.85874126173977,1.83151661303942,1.82990600335775,TRUE,0.0576705167640386
"CAN","cpi",0.2,2004,3,2004,NA,0.5,1.23634454765905,1.64330782746022,1.83151661303942,1.43982618755963,FALSE,0.877485243749185
"CAN","cpi",0.2,2004,3,2003,NA,1,0.805495892232536,1.25344045422374,1.83151661303942,1.02946817322814,FALSE,1.89313495903041
"CAN","cpi",0.2,2004,3,2003,NA,1.5,4.23737382820979,5.05561655427106,1.83151661303942,4.64649519124043,FALSE,6.83288576398719
"CAN","cpi",0.2,2005,3,2005,NA,0,2.3564486150003,2.41263775891641,2.18071628336509,2.38454318695835,FALSE,0.495519973004126
"CAN","cpi",0.2,2005,3,2005,NA,0.5,1.40693691385689,1.80539683525627,2.18071628336509,1.60616687455658,FALSE,1.33675854167143
"CAN","cpi",0.2,2005,3,2004,NA,1,1.41679460410777,1.88684121120084,2.18071628336509,1.65181790765431,FALSE,1.2047342875037
"CAN","cpi",0.2,2005,3,2004,NA,1.5,1.29608587074395,2.22910012020652,2.18071628336509,1.76259299547523,TRUE,0.933014249462577
"CAN","cpi",0.2,2006,3,2006,NA,0,2.10738148058404,2.16532121143725,1.97519342012289,2.13635134601064,FALSE,0.388409882006094
"CAN","cpi",0.2,2006,3,2006,NA,0.5,1.58728932677448,1.98641221076351,1.97519342012289,1.78685076876899,TRUE,0.399122883989029
"CAN","cpi",0.2,2006,3,2005,NA,1,3.28366949032886,3.72602956147267,1.97519342012289,3.50484952590076,FALSE,3.71355024665874
"CAN","cpi",0.2,2006,3,2005,NA,1.5,1.04451341350461,1.89176343251563,1.97519342012289,1.46813842301012,FALSE,1.05582498802916
"CAN","cpi",0.2,2007,3,2007,NA,0,2.17537295456292,2.23413055822871,2.10062087284572,2.20475175639581,FALSE,0.245637807958779
"CAN","cpi",0.2,2007,3,2007,NA,0.5,1.79408913421354,2.17646580058822,2.10062087284572,1.98527746740088,TRUE,0.38237666637468
"CAN","cpi",0.2,2007,3,2006,NA,1,1.00755942919107,1.48724520846258,2.10062087284572,1.24740231882683,FALSE,2.01312494022936
"CAN","cpi",0.2,2007,3,2006,NA,1.5,1.26311359380073,1.94683056600859,2.10062087284572,1.60497207990466,FALSE,1.06819273930069
"CAN","cpi",0.2,2008,3,2008,NA,0,2.99161412311568,3.04373739846561,2.31447335265955,3.01767576079065,FALSE,1.74497520149025
"CAN","cpi",0.2,2008,3,2008,NA,0.5,0.846454804237659,1.22879247996298,2.31447335265955,1.03762364210032,FALSE,3.09653985746675
"CAN","cpi",0.2,2008,3,2007,NA,1,1.15299005152983,1.65283421385253,2.31447335265955,1.40291213269118,FALSE,2.15394200934025
"CAN","cpi",0.2,2008,3,2007,NA,1.5,2.39142606750114,3.00726926550777,2.31447335265955,2.69934766650446,FALSE,0.808224985110606
"CAN","cpi",0.2,2009,3,2009,NA,0,0.271786291794091,0.37166617087472,0.284533874408197,0.321726231334406,TRUE,0.0998798790806291
"CAN","cpi",0.2,2009,3,2009,NA,0.5,-1.52127883165734,-1.12859857402236,0.284533874408197,-1.32493870283985,FALSE,3.92551137871137
"CAN","cpi",0.2,2009,3,2008,NA,1,4.81763634025969,5.33457851809124,0.284533874408197,5.07610742917547,FALSE,11.8496983424603
"CAN","cpi",0.2,2009,3,2008,NA,1.5,0.700084202269423,1.32204697831239,0.284533874408197,1.01106559029091,FALSE,1.66083859569604
"CAN","cpi",0.2,2010,3,2010,NA,0,1.70524589150289,1.80340604222559,1.75525687020327,1.75432596686424,TRUE,0.0981601507227006
"CAN","cpi",0.2,2010,3,2010,NA,0.5,1.28652756240661,1.70036503770509,1.75525687020327,1.49344630005585,FALSE,0.551067056543937
"CAN","cpi",0.2,2010,3,2009,NA,1,0.765221006201485,1.49498640430197,1.75525687020327,1.13010370525173,FALSE,1.38044156285375
"CAN","cpi",0.2,2010,3,2009,NA,1.5,-2.62407454231742,-1.89430914421694,1.75525687020327,-2.25919184326718,FALSE,9.853680434151
"CAN","cpi",0.2,2011,3,2011,NA,0,2.85776954090514,2.95887690622836,2.85717434028225,2.90832322356675,FALSE,0.102595366880447
"CAN","cpi",0.2,2011,3,2011,NA,0.5,2.60952315966646,3.02037755321482,2.85717434028225,2.81495035644064,TRUE,0.410854393548368
"CAN","cpi",0.2,2011,3,2010,NA,1,1.83613396687061,2.66377853174376,2.85717434028225,2.24995624930718,FALSE,1.31113408621937
"CAN","cpi",0.2,2011,3,2010,NA,1.5,1.27738990061461,2.10503446548775,2.85717434028225,1.69121218305118,FALSE,2.70799425185938
"CAN","cpi",0.2,2012,3,2012,NA,0,1.4579510211501,1.55923639263508,1.50118536134935,1.50859370689259,TRUE,0.101285371484986
"CAN","cpi",0.2,2012,3,2012,NA,0.5,1.54370351221336,1.95880178528047,1.50118536134935,1.75125264874692,FALSE,0.521393650227146
"CAN","cpi",0.2,2012,3,2011,NA,1,1.43413363355528,2.26075548795832,1.50118536134935,1.8474445607568,TRUE,0.826621854403046
"CAN","cpi",0.2,2012,3,2011,NA,1.5,2.65594965332923,3.48257150773227,1.50118536134935,3.06926058053075,FALSE,3.71353258435274
"CAN","cpi",0.2,2013,3,2013,NA,0,1.00704967115581,1.10526222816818,0.931270594714462,1.05615594966199,FALSE,0.287660248115737
"CAN","cpi",0.2,2013,3,2013,NA,0.5,0.811444718533352,1.23691401056522,0.931270594714462,1.02417936454929,TRUE,0.425469292031867
"CAN","cpi",0.2,2013,3,2012,NA,1,-0.35622296675983,0.49339200391206,0.931270594714462,0.0685845185761151,FALSE,1.94431144767789
"CAN","cpi",0.2,2013,3,2012,NA,1.5,1.29436210183181,2.1439770725037,0.931270594714462,1.71916958716775,FALSE,1.75734373846525
"CAN","cpi",0.2,2014,3,2014,NA,0,2.01484315812029,2.11289635378145,1.87639912240215,2.06386975595087,FALSE,0.444163284956511
"CAN","cpi",0.2,2014,3,2014,NA,0.5,1.72655375306473,2.1277504713495,1.87639912240215,1.92715211220712,TRUE,0.40119671828477
"CAN","cpi",0.2,2014,3,2013,NA,1,0.683673252440766,1.5437732163487,1.87639912240215,1.11372323439473,FALSE,1.69166472904156
"CAN","cpi",0.2,2014,3,2013,NA,1.5,0.970353900447273,1.83045386435521,1.87639912240215,1.40040388240124,FALSE,0.974963109025295
"CAN","cpi",0.2,2015,3,2015,NA,0,1.25893697173293,1.35571859109164,1.11090953952792,1.30732778141228,FALSE,0.466850199871234
"CAN","cpi",0.2,2015,3,2015,NA,0.5,-0.0574685939437817,0.22397467335495,1.11090953952792,0.0832530397055839,FALSE,2.49878043273115
"CAN","cpi",0.2,2015,3,2014,NA,1,1.01596838160344,1.85190835199029,1.11090953952792,1.43393836679687,TRUE,0.835939970386849
"CAN","cpi",0.2,2015,3,2014,NA,1.5,2.25712245306646,3.09392444192603,1.11090953952792,2.67552344749624,FALSE,3.70233427270592
"CAN","cpi",0.2,2016,3,2016,NA,0,1.46185719956516,1.55597352366517,1.41168586698797,1.50891536161516,FALSE,0.21954465554299
"CAN","cpi",0.2,2016,3,2016,NA,0.5,0.638153008143723,0.935550475894708,1.41168586698797,0.786851742019216,FALSE,1.48773594548413
"CAN","cpi",0.2,2016,3,2015,NA,1,1.76253058677165,2.55067440591217,1.41168586698797,2.15660249634191,FALSE,1.66525561859973
"CAN","cpi",0.2,2016,3,2015,NA,1.5,-0.511292195076017,0.276851624064512,1.41168586698797,-0.117220285505753,FALSE,3.62522942644916
"CAN","cpi",0.2,2017,3,2017,NA,0,1.50167500936717,1.59595173504816,1.57888581671161,1.54881337220766,TRUE,0.0942767256809844
"CAN","cpi",0.2,2017,3,2017,NA,0.5,1.76433636966711,2.06240358869985,1.57888581671161,1.91336997918348,FALSE,0.761693601421482
"CAN","cpi",0.2,2017,3,2016,NA,1,0.788422249755809,1.58695486366928,1.57888581671161,1.18768855671255,TRUE,0.798532613913473
"CAN","cpi",0.2,2017,3,2016,NA,1.5,0.265225395882664,1.06375800979614,1.57888581671161,0.6644917028394,FALSE,2.08635213120216
"CAN","cpi",0.2,2018,3,2018,NA,0,2.3962915739344,2.49416954762084,2.23316270166586,2.44523056077762,FALSE,0.505700154357793
"CAN","cpi",0.2,2018,3,2018,NA,0.5,2.64298368227847,2.96014664509659,2.23316270166586,2.80156516368753,FALSE,1.34171541434965
"CAN","cpi",0.2,2018,3,2017,NA,1,0.424856509019299,1.21552600423244,2.23316270166586,0.82019125662587,FALSE,3.33476123879669
"CAN","cpi",0.2,2018,3,2017,NA,1.5,2.03723020472409,2.82789969993723,2.23316270166586,2.43256495233066,TRUE,0.790669495213143
"CAN","cpi",0.2,2019,3,2019,NA,0,2.03571306997078,2.13407430053916,1.91921619871868,2.08489368525497,FALSE,0.38960340869863
"CAN","cpi",0.2,2019,3,2019,NA,0.5,1.29926231187142,1.64437689993726,1.91921619871868,1.47181960590434,FALSE,1.03221283501939
"CAN","cpi",0.2,2019,3,2018,NA,1,1.78025168728392,2.58222664299868,1.91921619871868,2.1812391651413,TRUE,0.801974955714766
"CAN","cpi",0.2,2019,3,2018,NA,1.5,3.19249249249348,3.99446744820824,1.91921619871868,3.59347997035086,FALSE,3.98516569015176
"CAN","cpi",0.2,2020,3,2020,NA,0,0.671044823441448,0.713221657927838,0.71139989671781,0.692133240684643,TRUE,0.0421768344863893
"CAN","cpi",0.2,2020,3,2020,NA,0.5,0.900060192520024,1.21110087470293,0.71139989671781,1.05558053361148,FALSE,0.782691421688442
"CAN","cpi",0.2,2020,3,2019,NA,1,1.61250909853472,2.41723042105193,0.71139989671781,2.01486975979332,FALSE,3.05749432705948
"CAN","cpi",0.2,2020,3,2019,NA,1.5,1.35746991828655,2.18791041378821,0.71139989671781,1.77269016603738,FALSE,2.44561554942352
"CAN","cpi",0.2,2021,3,2021,NA,0,3.35174989986272,3.39646801593882,3.31148121717802,3.37410895790077,FALSE,0.145389822787837
"CAN","cpi",0.2,2021,3,2021,NA,0.5,2.56628291141318,2.79753296818847,3.31148121717802,2.68190793980083,FALSE,1.51612067924917
"CAN","cpi",0.2,2021,3,2020,NA,1,0.997358013660726,1.38759131875085,3.31148121717802,1.19247466620579,FALSE,5.19995805115807
"CAN","cpi",0.2,2021,3,2020,NA,1.5,0.574095944659184,1.41409910430822,3.31148121717802,0.994097524483704,FALSE,5.58345844182354
"CAN","cpi",0.2,2022,3,2022,NA,0,6.69085188007376,6.73345577670681,6.50977236228281,6.71215382839029,FALSE,0.495302691110433
"CAN","cpi",0.2,2022,3,2022,NA,0.5,6.29942643361047,6.54365969060068,6.50977236228281,6.42154306210558,TRUE,0.244233256990213
"CAN","cpi",0.2,2022,3,2021,NA,1,4.73087116603074,5.21311789984797,6.50977236228281,4.97199453293936,FALSE,3.72388288990433
"CAN","cpi",0.2,2022,3,2021,NA,1.5,3.11876745653626,3.79526931967083,6.50977236228281,3.45701838810354,FALSE,7.46275946966453
"CAN","cpi",0.2,2023,3,2023,NA,0,4.01985072518608,4.06439295774191,3.78831288758619,4.042121841464,FALSE,0.623386826555558
"CAN","cpi",0.2,2023,3,2023,NA,0.5,2.93794253979864,3.18200131608519,3.78831288758619,3.05997192794191,FALSE,1.75983770503906
"CAN","cpi",0.2,2023,3,2022,NA,1,5.02623860774088,5.5407967054966,3.78831288758619,5.28351765661874,FALSE,3.60937239814244
"CAN","cpi",0.2,2023,3,2022,NA,1.5,6.88768050157984,7.6873738258744,3.78831288758619,7.28752716372712,FALSE,8.54811235927868
"CAN","cpi",0.2,2024,3,2023,NA,1,4.09011196887909,4.66576194961523,NA,4.37793695924716,NA,NA
"CAN","cpi",0.2,2024,3,2023,NA,1.5,1.90214387086401,2.83581580395135,NA,2.36897983740768,NA,NA
"CAN","cpi",0.3,1959,3,1959,NA,0,1.13120853296304,1.26238564696868,1.19382698397654,1.19679708996586,TRUE,0.131177114005648
"CAN","cpi",0.3,1959,3,1959,NA,0.5,0.117310523963174,1.19304146569064,1.19382698397654,0.655175994826909,FALSE,1.07797527968717
"CAN","cpi",0.3,1959,3,1958,NA,1,0.576902400998252,2.94187475532137,1.19382698397654,1.75938857815981,TRUE,2.36497235432312
"CAN","cpi",0.3,1959,3,1958,NA,1.5,-0.786622530392022,4.33655575065102,1.19382698397654,1.7749666101295,TRUE,5.12317828104304
"CAN","cpi",0.3,1960,3,1960,NA,0,0.973901888172833,1.08870304205414,1.34209404870695,1.03130246511349,FALSE,0.838775458603618
"CAN","cpi",0.3,1960,3,1960,NA,0.5,0.335860992492394,1.1553443137721,1.34209404870695,0.745602653132245,FALSE,1.35305399252215
"CAN","cpi",0.3,1960,3,1959,NA,1,2.16719679210425,4.50455095396449,1.34209404870695,3.33587387303437,FALSE,4.69479057156682
"CAN","cpi",0.3,1960,3,1959,NA,1.5,-2.61937513741803,1.96853694884225,1.34209404870695,-0.32541909428789,TRUE,4.58791208626028
"CAN","cpi",0.3,1961,3,1961,NA,0,0.942638912315207,1.07578804956494,1.00921348094007,1.00921348094007,TRUE,0.13314913724973
"CAN","cpi",0.3,1961,3,1961,NA,0.5,0.908467195952495,1.71435543421009,1.00921348094007,1.31141131508129,TRUE,0.805888238257594
"CAN","cpi",0.3,1961,3,1960,NA,1,-0.859960824948071,1.14721263628799,1.00921348094007,0.143625905669962,TRUE,2.00717346123607
"CAN","cpi",0.3,1961,3,1960,NA,1.5,-2.04605677243585,1.36583392413141,1.00921348094007,-0.34011142415222,TRUE,3.41189069656727
"CAN","cpi",0.3,1962,3,1962,NA,0,1.05450224544579,1.16815771917173,1.04957947883042,1.11132998230876,FALSE,0.127720521198446
"CAN","cpi",0.3,1962,3,1962,NA,0.5,-0.33870324861587,0.33870324861587,1.04957947883042,1.64134322488006e-44,FALSE,2.70848144070187
"CAN","cpi",0.3,1962,3,1961,NA,1,-1.00341904046377,1.00341904046377,1.04957947883042,-9.44308782563385e-19,FALSE,2.13872504768938
"CAN","cpi",0.3,1962,3,1961,NA,1.5,-0.951634379084362,2.46040287646586,1.04957947883042,0.754384248690751,TRUE,3.41203725555023
"CAN","cpi",0.3,1963,3,1963,NA,0,1.800864685431,1.91112553234229,1.60677118395228,1.85599510888664,FALSE,0.664813708279046
"CAN","cpi",0.3,1963,3,1963,NA,0.5,0.588317181188999,1.27628340608585,1.60677118395228,0.932300293637426,FALSE,1.63221701880094
"CAN","cpi",0.3,1963,3,1962,NA,1,1.78101896722386,3.55395147965068,1.60677118395228,2.66748522343727,FALSE,2.27078332177419
"CAN","cpi",0.3,1963,3,1962,NA,1.5,-1.24747144823241,1.24747144823241,1.60677118395228,4.10321927477868e-44,FALSE,3.52151356995018
"CAN","cpi",0.3,1964,3,1964,NA,0,1.92903894395921,2.04884414742084,1.88764670034376,1.98894154569002,FALSE,0.238068756648627
"CAN","cpi",0.3,1964,3,1964,NA,0.5,1.18103849005544,1.58651316488644,1.88764670034376,1.38377582747094,FALSE,1.26585620470906
"CAN","cpi",0.3,1964,3,1963,NA,1,4.14255105973158,5.28317999837703,1.88764670034376,4.71286552905431,FALSE,7.58321282261066
"CAN","cpi",0.3,1964,3,1963,NA,1.5,-0.50516910430685,0.982728450651503,1.88764670034376,0.238779673172327,FALSE,4.0733782683648
"CAN","cpi",0.3,1965,3,1965,NA,0,2.2947223472753,2.41516786293577,2.29538304394236,2.35494510510554,TRUE,0.120445515660462
"CAN","cpi",0.3,1965,3,1965,NA,0.5,1.36012712351572,1.76077080567904,2.29538304394236,1.56044896459738,FALSE,1.9281072200585
"CAN","cpi",0.3,1965,3,1964,NA,1,1.87910090186549,2.97511373610665,2.29538304394236,2.42710731898607,TRUE,1.09601283424117
"CAN","cpi",0.3,1965,3,1964,NA,1.5,0.270309340782533,1.3663221750237,2.29538304394236,0.818315757903116,FALSE,3.75047245972305
"CAN","cpi",0.3,1966,3,1966,NA,0,3.78943004595308,3.90385268184714,3.72486065470629,3.84664136390011,FALSE,0.298906610884894
"CAN","cpi",0.3,1966,3,1966,NA,0.5,3.64693510157152,4.04689290303453,3.72486065470629,3.84691400230302,TRUE,0.399957801463011
"CAN","cpi",0.3,1966,3,1965,NA,1,2.77790127964387,3.84945866215042,3.72486065470629,3.31367997089714,TRUE,1.07155738250655
"CAN","cpi",0.3,1966,3,1965,NA,1.5,0.945725132881857,2.01728251538841,3.72486065470629,1.48150382413513,FALSE,5.95035206627193
"CAN","cpi",0.3,1967,3,1967,NA,0,3.71192047322531,3.82533890803752,3.49360316391996,3.76862969063141,FALSE,0.737182175684637
"CAN","cpi",0.3,1967,3,1967,NA,0.5,2.14469183663289,2.57879657790588,3.49360316391996,2.36174420726938,FALSE,3.04783784417036
"CAN","cpi",0.3,1967,3,1966,NA,1,2.95516541064947,4.00951149845132,3.49360316391996,3.4823384545504,TRUE,1.05434608780185
"CAN","cpi",0.3,1967,3,1966,NA,1.5,3.7654039605353,4.81975004833714,3.49360316391996,4.29257700443622,FALSE,1.8309197924171
"CAN","cpi",0.3,1968,3,1968,NA,0,4.05301583281745,4.17379019236795,3.95128347779386,4.1134030125927,FALSE,0.411438231046477
"CAN","cpi",0.3,1968,3,1968,NA,0.5,3.72289373199859,4.06159494288007,3.95128347779386,3.89224433743933,TRUE,0.338701210881479
"CAN","cpi",0.3,1968,3,1967,NA,1,5.31742979558553,6.39450443459903,3.95128347779386,5.85596711509228,FALSE,4.980349832704
"CAN","cpi",0.3,1968,3,1967,NA,1.5,1.600242876706,2.68349902630215,3.95128347779386,2.14187095150408,FALSE,4.70549743957246
"CAN","cpi",0.3,1969,3,1969,NA,0,4.58222341481023,4.70303788811611,4.42679496126681,4.64263065146317,FALSE,0.564895769144202
"CAN","cpi",0.3,1969,3,1969,NA,0.5,2.89146892348179,3.23252093407365,4.42679496126681,3.06199492877772,FALSE,3.75326351685805
"CAN","cpi",0.3,1969,3,1968,NA,1,5.63253754774591,6.47911002722668,4.42679496126681,6.05582378748629,FALSE,4.29155129799246
"CAN","cpi",0.3,1969,3,1968,NA,1.5,3.44898861145284,4.29556109093361,4.42679496126681,3.87227485119322,FALSE,1.2215263947185
"CAN","cpi",0.3,1970,3,1970,NA,0,3.53077587950402,3.64915361898443,3.28128405769805,3.58996474924422,FALSE,0.831211516068906
"CAN","cpi",0.3,1970,3,1970,NA,0.5,3.98012006834504,4.36348532470999,3.28128405769805,4.17180269652751,FALSE,2.38003957249922
"CAN","cpi",0.3,1970,3,1969,NA,1,5.01903180585499,5.85827812344577,3.28128405769805,5.43865496465038,FALSE,5.80423988375348
"CAN","cpi",0.3,1970,3,1969,NA,1.5,1.89710415100327,2.73635046859405,3.28128405769805,2.31672730979866,FALSE,2.39619942931648
"CAN","cpi",0.3,1971,3,1971,NA,0,2.83123700625623,2.95725779010449,2.64123406634756,2.89424739818036,FALSE,0.668886326444461
"CAN","cpi",0.3,1971,3,1971,NA,0.5,0.824596931513039,1.32608294775809,2.64123406634756,1.07533993963556,FALSE,4.2590606407864
"CAN","cpi",0.3,1971,3,1970,NA,1,2.57638293113548,3.38683637153938,2.64123406634756,2.98160965133743,TRUE,0.810453440403905
"CAN","cpi",0.3,1971,3,1970,NA,1.5,3.75185588670928,4.56230932711319,2.64123406634756,4.15708260691123,FALSE,3.98365864143739
"CAN","cpi",0.3,1972,3,1972,NA,0,5.06554952644263,5.14088026759492,4.83230569625923,5.10321489701878,FALSE,0.741741684533442
"CAN","cpi",0.3,1972,3,1972,NA,0.5,4.29492380764375,4.85561188184571,4.83230569625923,4.57526784474473,TRUE,0.560688074201963
"CAN","cpi",0.3,1972,3,1971,NA,1,6.11640770095246,7.01825502934074,4.83230569625923,6.5673313651466,FALSE,4.57071019894036
"CAN","cpi",0.3,1972,3,1971,NA,1.5,0.750347260974325,1.65219458936261,4.83230569625923,1.20127092516847,FALSE,9.98787906237863
"CAN","cpi",0.3,1973,3,1973,NA,0,7.32926567746352,7.39610930487392,7.12388603531779,7.36268749116872,FALSE,0.653642604969641
"CAN","cpi",0.3,1973,3,1973,NA,0.5,5.62984970345937,6.15881015802697,7.12388603531779,5.89432993074317,FALSE,3.28632010396995
"CAN","cpi",0.3,1973,3,1972,NA,1,6.92460485974647,7.81819386101553,7.12388603531779,7.371399360381,TRUE,0.893589001269055
"CAN","cpi",0.3,1973,3,1972,NA,1.5,3.97946065287779,5.0270327727648,7.12388603531779,4.50324671282129,FALSE,7.03858144146698
"CAN","cpi",0.3,1974,3,1974,NA,0,10.2923985420715,10.3521777243743,10.2717243737774,10.3222881332229,FALSE,0.118848234571682
"CAN","cpi",0.3,1974,3,1974,NA,0.5,8.57759009024696,9.11666796848043,10.2717243737774,8.8471290293637,FALSE,3.83923903622486
"CAN","cpi",0.3,1974,3,1973,NA,1,10.6002476106324,11.3766329544421,10.2717243737774,10.9884402825372,FALSE,1.71502316339531
"CAN","cpi",0.3,1974,3,1973,NA,1.5,5.65588662473523,6.73521041685922,10.2717243737774,6.19554852079723,FALSE,11.1836493833188
"CAN","cpi",0.3,1975,3,1975,NA,0,10.2309140927728,10.2984742476991,10.0232981493341,10.2646941702359,FALSE,0.660748564751047
"CAN","cpi",0.3,1975,3,1975,NA,0.5,8.93354273721562,9.50356502689074,10.0232981493341,9.21855388205318,FALSE,2.05497406808477
"CAN","cpi",0.3,1975,3,1974,NA,1,11.6005194483228,12.3805093384579,10.0232981493341,11.9905143933903,FALSE,5.28633645867413
"CAN","cpi",0.3,1975,3,1974,NA,1.5,8.05810717568301,9.30207540692547,10.0232981493341,8.68009129130424,FALSE,3.30460463812432
"CAN","cpi",0.3,1976,3,1976,NA,0,7.22130989576492,7.28635145067953,7.22784311401172,7.25383067322222,TRUE,0.0650415549146128
"CAN","cpi",0.3,1976,3,1976,NA,0.5,7.13074044188518,7.70021307021024,7.22784311401172,7.41547675604771,TRUE,0.569472628325061
"CAN","cpi",0.3,1976,3,1975,NA,1,11.5695900124958,12.2607121037327,7.22784311401172,11.9151510581142,FALSE,13.0961132297628
"CAN","cpi",0.3,1976,3,1975,NA,1.5,7.39127002074688,8.63536074164685,7.22784311401172,8.01331538119686,FALSE,1.7110247401433
"CAN","cpi",0.3,1977,3,1977,NA,0,7.58405155083497,7.65329104298517,7.58101410153764,7.61867129691007,FALSE,0.0779179187139964
"CAN","cpi",0.3,1977,3,1977,NA,0.5,6.72232714472203,7.32343029507461,7.58101410153764,7.02287871989832,FALSE,1.3370568831041
"CAN","cpi",0.3,1977,3,1976,NA,1,5.34925184661542,6.39598623090933,7.58101410153764,5.87261903876238,FALSE,4.4325283003748
"CAN","cpi",0.3,1977,3,1976,NA,1.5,5.48193838798529,6.82451451249658,7.58101410153764,6.15322645024094,FALSE,3.50400352177147
"CAN","cpi",0.3,1978,3,1978,NA,0,8.64310198604021,8.71940615885989,8.50208927062595,8.68125407245005,FALSE,0.479197645431862
"CAN","cpi",0.3,1978,3,1978,NA,0.5,7.83753243623984,8.4126424103646,8.50208927062595,8.12508742330222,FALSE,0.830672432014322
"CAN","cpi",0.3,1978,3,1977,NA,1,8.04603292611828,9.24034241094095,8.50208927062595,8.64318766852961,TRUE,1.19430948482267
"CAN","cpi",0.3,1978,3,1977,NA,1.5,6.99869643051027,8.3218823054198,8.50208927062595,7.66028936796504,FALSE,1.83806291835566
"CAN","cpi",0.3,1979,3,1979,NA,0,8.57407219213146,8.64744673606429,8.65147652410481,8.61075946409788,FALSE,0.0848882240485962
"CAN","cpi",0.3,1979,3,1979,NA,0.5,7.81748352917167,8.38377317631976,8.65147652410481,8.10062835274572,FALSE,1.33115635510537
"CAN","cpi",0.3,1979,3,1978,NA,1,8.98957283772669,10.1756969316391,8.65147652410481,9.5826348846829,FALSE,2.15211356140351
"CAN","cpi",0.3,1979,3,1978,NA,1.5,7.32402961029586,8.55964728323469,8.65147652410481,7.94183844676527,FALSE,1.49798693256775
"CAN","cpi",0.3,1980,3,1980,NA,0,9.4869231263915,9.57525780861421,9.5171912664748,9.53109046750286,TRUE,0.0883346822227082
"CAN","cpi",0.3,1980,3,1980,NA,0.5,8.40995152562838,8.96132077268006,9.5171912664748,8.68563614915422,FALSE,2.13957065789379
"CAN","cpi",0.3,1980,3,1979,NA,1,7.73700710916634,8.91396757416532,9.5171912664748,8.32548734166583,FALSE,2.90045672874035
"CAN","cpi",0.3,1980,3,1979,NA,1.5,7.36143333507051,8.59950870685191,9.5171912664748,7.98047102096121,FALSE,3.8600255421325
"CAN","cpi",0.3,1981,3,1981,NA,0,11.6625092527058,11.7554027023401,11.5813425032741,11.708955977523,FALSE,0.324798448010469
"CAN","cpi",0.3,1981,3,1981,NA,0.5,11.8635719898952,12.3892205915947,11.5813425032741,12.1263962907449,FALSE,1.33201856347398
"CAN","cpi",0.3,1981,3,1980,NA,1,10.3585245749751,11.6113557556305,11.5813425032741,10.9849401653028,TRUE,1.25283118065545
"CAN","cpi",0.3,1981,3,1980,NA,1.5,8.00093666232874,9.25376784298419,11.5813425032741,8.62735225265647,FALSE,7.90304449576959
"CAN","cpi",0.3,1982,3,1982,NA,0,10.2691111104292,10.3528388391032,10.1124203763629,10.3109749747662,FALSE,0.531415540291878
"CAN","cpi",0.3,1982,3,1982,NA,0.5,9.86155013891971,10.3378171850797,10.1124203763629,10.0996836619997,TRUE,0.476267046159943
"CAN","cpi",0.3,1982,3,1981,NA,1,10.9817491836337,12.2572098561969,10.1124203763629,11.6194795199153,FALSE,3.75925726476531
"CAN","cpi",0.3,1982,3,1981,NA,1.5,12.0817053398626,13.3571660124259,10.1124203763629,12.7194356761443,FALSE,6.90198913970521
"CAN","cpi",0.3,1983,3,1983,NA,0,5.78759876715377,5.86769604008691,5.67091787896303,5.82764740362034,FALSE,0.413471239192395
"CAN","cpi",0.3,1983,3,1983,NA,0.5,4.75904495543038,5.19183394045623,5.67091787896303,4.97543944794331,FALSE,1.80160023790243
"CAN","cpi",0.3,1983,3,1982,NA,1,8.59293411953703,9.88263381410809,5.67091787896303,9.23778396682256,FALSE,9.63831752478248
"CAN","cpi",0.3,1983,3,1982,NA,1.5,9.07558336396308,10.501819519514,5.67091787896303,9.78870144173853,FALSE,11.1538518269796
"CAN","cpi",0.3,1984,3,1984,NA,0,4.17744508929832,4.24970565656811,4.19799576814029,4.21357537293321,TRUE,0.0722605672697902
"CAN","cpi",0.3,1984,3,1984,NA,0.5,4.42692675888395,4.85825190238736,4.19799576814029,4.64258933063566,FALSE,1.08541368848531
"CAN","cpi",0.3,1984,3,1983,NA,1,5.42082931337202,6.84192378405234,4.19799576814029,6.13137654871218,FALSE,4.91490459991384
"CAN","cpi",0.3,1984,3,1983,NA,1.5,2.58218301341982,4.35446575851831,4.19799576814029,3.46832438596907,TRUE,1.77228274509849
"CAN","cpi",0.3,1985,3,1985,NA,0,3.8851604774606,3.95302603774375,3.86444262005169,3.91909325760218,FALSE,0.127059438594322
"CAN","cpi",0.3,1985,3,1985,NA,0.5,3.67022024429677,4.112783519604,3.86444262005169,3.89150188195039,TRUE,0.442563275307235
"CAN","cpi",0.3,1985,3,1984,NA,1,2.5808558616593,4.00708563788141,3.86444262005169,3.29397074977035,TRUE,1.42622977622211
"CAN","cpi",0.3,1985,3,1984,NA,1.5,3.61076490228886,5.32245579290793,3.86444262005169,4.4666103475984,TRUE,1.71169089061907
"CAN","cpi",0.3,1986,3,1986,NA,0,4.07201933711995,4.13975774419184,4.08685396749431,4.1058885406559,TRUE,0.0677384070718912
"CAN","cpi",0.3,1986,3,1986,NA,0.5,4.22691806602062,4.59311005715436,4.08685396749431,4.41001406158749,FALSE,0.766375129780332
"CAN","cpi",0.3,1986,3,1985,NA,1,3.25702180642475,4.72905577996407,4.08685396749431,3.99303879319441,TRUE,1.47203397353932
"CAN","cpi",0.3,1986,3,1985,NA,1.5,3.4773536318872,4.96917284573088,4.08685396749431,4.22326323880904,TRUE,1.49181921384368
"CAN","cpi",0.3,1987,3,1987,NA,0,4.33050542805224,4.3890289415654,4.23980729277887,4.35976718480882,FALSE,0.317661042865649
"CAN","cpi",0.3,1987,3,1987,NA,0.5,3.73075550053574,4.08797092735963,4.23980729277887,3.90936321394769,FALSE,0.791033613736
"CAN","cpi",0.3,1987,3,1986,NA,1,3.59849009690878,5.06350308612032,4.23980729277887,4.33099659151455,TRUE,1.46501298921154
"CAN","cpi",0.3,1987,3,1986,NA,1.5,4.01996472575639,5.48497771496792,4.23980729277887,4.75247122036215,TRUE,1.46501298921154
"CAN","cpi",0.3,1988,3,1988,NA,0,3.98356191474458,4.04182928830359,3.92899537638065,4.01269560152408,FALSE,0.214171768884514
"CAN","cpi",0.3,1988,3,1988,NA,0.5,3.29564137442937,3.64587054385733,3.92899537638065,3.47075595914335,FALSE,1.15915726235174
"CAN","cpi",0.3,1988,3,1987,NA,1,4.02210813279909,5.14114063710224,3.92899537638065,4.58162438495066,FALSE,1.38506895121296
"CAN","cpi",0.3,1988,3,1987,NA,1.5,3.0856716008893,4.54162392575085,3.92899537638065,3.81364776332008,TRUE,1.45595232486155
"CAN","cpi",0.3,1989,3,1989,NA,0,4.99528414497587,5.05262227248628,4.82821664544208,5.02395320873108,FALSE,0.534673840464108
"CAN","cpi",0.3,1989,3,1989,NA,0.5,4.19533902883332,4.54045792806972,4.82821664544208,4.36789847845152,FALSE,1.16728666315741
"CAN","cpi",0.3,1989,3,1988,NA,1,3.96228690294538,4.96096433377368,4.82821664544208,4.46162561835953,TRUE,0.998677430828295
"CAN","cpi",0.3,1989,3,1988,NA,1.5,2.57041274576711,3.98635030651311,4.82821664544208,3.27838152614011,FALSE,3.82126995768591
"CAN","cpi",0.3,1990,3,1990,NA,0,4.49017474726111,4.54908782313023,4.64347549432717,4.51963128519567,FALSE,0.328592136431805
"CAN","cpi",0.3,1990,3,1990,NA,0.5,4.81022357602615,5.15846496394194,4.64347549432717,4.98434426998405,FALSE,0.82466447848431
"CAN","cpi",0.3,1990,3,1989,NA,1,5.40931477855181,6.4261840062304,4.64347549432717,5.9177493923911,FALSE,3.20498146832041
"CAN","cpi",0.3,1990,3,1989,NA,1.5,3.83704639281325,5.28667077495693,4.64347549432717,4.56185858388509,TRUE,1.44962438214367
"CAN","cpi",0.3,1991,3,1991,NA,0,5.58890266119937,5.65923259470958,5.4258100696218,5.62406762795447,FALSE,0.536308766588988
"CAN","cpi",0.3,1991,3,1991,NA,0.5,8.21511057880279,8.56833109787254,5.4258100696218,8.39172083833767,FALSE,8.32265054530116
"CAN","cpi",0.3,1991,3,1990,NA,1,3.35571928685312,4.38263304418481,5.4258100696218,3.86917616551897,FALSE,4.0074195442945
"CAN","cpi",0.3,1991,3,1990,NA,1.5,4.40345840946224,5.84231154764201,5.4258100696218,5.12288497855213,TRUE,1.43885313817976
"CAN","cpi",0.3,1992,3,1992,NA,0,1.44409601751125,1.51711584229258,1.47496888572843,1.48060592990191,TRUE,0.0730198247813285
"CAN","cpi",0.3,1992,3,1992,NA,0.5,0.806992425076433,1.53698187975421,1.47496888572843,1.17198715241532,TRUE,0.729989454677774
"CAN","cpi",0.3,1992,3,1991,NA,1,1.98867205885922,3.0518185026047,1.47496888572843,2.52024528073196,FALSE,2.53086979554772
"CAN","cpi",0.3,1992,3,1991,NA,1.5,9.45906376200287,10.8476116564023,1.47496888572843,10.1533377092026,FALSE,24.2002475408978
"CAN","cpi",0.3,1993,3,1993,NA,0,1.76509226506542,1.84015062144775,1.84351085411351,1.80262144325658,FALSE,0.0846590211416606
"CAN","cpi",0.3,1993,3,1993,NA,0.5,1.97476526072614,2.71006105044548,1.84351085411351,2.34241315558581,FALSE,1.11030838004113
"CAN","cpi",0.3,1993,3,1992,NA,1,1.30262255746854,2.33349637078314,1.84351085411351,1.81805946412584,TRUE,1.03087381331459
"CAN","cpi",0.3,1993,3,1992,NA,1.5,0.0675423397051236,2.21298486234769,1.84351085411351,1.14026360102641,TRUE,2.14544252264257
"CAN","cpi",0.3,1994,3,1994,NA,0,0.126583030959321,0.200650225757334,0.161630694655448,0.163616628358327,TRUE,0.0740671947980133
"CAN","cpi",0.3,1994,3,1994,NA,0.5,-0.753771455356878,-0.0165087407018805,0.161630694655448,-0.385140098029379,FALSE,1.24623252996165
"CAN","cpi",0.3,1994,3,1993,NA,1,0.864561203870709,1.88493335879694,0.161630694655448,1.37474728133383,FALSE,3.02874503839841
"CAN","cpi",0.3,1994,3,1993,NA,1.5,1.51753208499903,3.67618022123145,0.161630694655448,2.59685615311524,FALSE,6.03265210864266
"CAN","cpi",0.3,1995,3,1995,NA,0,2.15791948097153,2.22920948289433,2.11688403676572,2.19356448193293,FALSE,0.188534128225128
"CAN","cpi",0.3,1995,3,1995,NA,0.5,2.31349005635356,3.04152801450338,2.11688403676572,2.67750903542847,FALSE,1.28976944268652
"CAN","cpi",0.3,1995,3,1994,NA,1,0.972135680640756,1.70971668146321,2.11688403676572,1.34092618105198,FALSE,1.90091630168675
"CAN","cpi",0.3,1995,3,1994,NA,1.5,-2.34173399348927,-0.28623444163173,2.11688403676572,-1.3139842175605,FALSE,8.92155234727881
"CAN","cpi",0.3,1996,3,1996,NA,0,1.44653162366022,1.5175986243942,1.55309584667184,1.48206512402721,FALSE,0.172487635812961
"CAN","cpi",0.3,1996,3,1996,NA,0.5,0.888633459531054,1.58334015797418,1.55309584667184,1.23598680875262,TRUE,0.694706698443128
"CAN","cpi",0.3,1996,3,1995,NA,1,0.982481264391908,1.67718796283504,1.55309584667184,1.32983461361347,TRUE,0.694706698443127
"CAN","cpi",0.3,1996,3,1995,NA,1.5,2.3042507392773,4.54736137972542,1.55309584667184,3.42580605950136,FALSE,4.3892674764637
"CAN","cpi",0.3,1997,3,1997,NA,0,1.6523782862804,1.72862236211687,1.60528783555959,1.69050032419864,FALSE,0.210788220753068
"CAN","cpi",0.3,1997,3,1997,NA,0.5,1.77366293536755,2.4659208443308,1.60528783555959,2.11979188984917,FALSE,1.17332962270027
"CAN","cpi",0.3,1997,3,1996,NA,1,0.849111894255285,1.54136980321854,1.60528783555959,1.19524084873691,FALSE,0.874880858509117
"CAN","cpi",0.3,1997,3,1996,NA,1.5,0.224647062746286,2.48657101449576,1.60528783555959,1.35560903862103,TRUE,2.26192395174948
"CAN","cpi",0.3,1998,3,1998,NA,0,0.941806471346466,1.01836957051658,0.988908029337191,0.980088020931525,TRUE,0.0765630991701167
"CAN","cpi",0.3,1998,3,1998,NA,0.5,0.961646553774363,1.65992038915047,0.988908029337191,1.31078347146242,TRUE,0.698273835376108
"CAN","cpi",0.3,1998,3,1997,NA,1,0.716571008012726,1.41484484338883,0.988908029337191,1.06570792570078,TRUE,0.698273835376108
"CAN","cpi",0.3,1998,3,1997,NA,1.5,1.11934807161767,3.38786531371221,0.988908029337191,2.25360669266494,FALSE,2.64120307718162
"CAN","cpi",0.3,1999,3,1999,NA,0,1.77943155607958,1.8547943507833,1.7107350135213,1.81711295343144,FALSE,0.271638630584535
"CAN","cpi",0.3,1999,3,1999,NA,0.5,0.442336357872968,1.13443877357612,1.7107350135213,0.788387565724544,FALSE,2.3386631012608
"CAN","cpi",0.3,1999,3,1998,NA,1,0.229315285002549,0.921417700705701,1.7107350135213,0.575366492854125,FALSE,2.94729473803342
"CAN","cpi",0.3,1999,3,1998,NA,1.5,0.551013883237458,2.8233256509737,1.7107350135213,1.68716976710558,TRUE,2.27231176773625
"CAN","cpi",0.3,2000,3,2000,NA,0,2.69184912398573,2.76813885054421,2.6718361971244,2.72999398726497,FALSE,0.133469517590847
"CAN","cpi",0.3,2000,3,2000,NA,0.5,1.70523178017534,2.43074556833525,2.6718361971244,2.06798867425529,FALSE,1.41434415612891
"CAN","cpi",0.3,2000,3,1999,NA,1,2.72876706654311,3.45428085470301,2.6718361971244,3.09152396062306,FALSE,0.888173415070509
"CAN","cpi",0.3,2000,3,1999,NA,1.5,-0.29243852195816,1.97816223248622,2.6718361971244,0.842861855264031,FALSE,4.25252636769632
"CAN","cpi",0.3,2001,3,2001,NA,0,2.80885924149344,2.87531007227877,2.47906219852806,2.84208465688611,FALSE,1.00872809640069
"CAN","cpi",0.3,2001,3,2001,NA,0.5,1.52059587305948,2.25217349899875,2.47906219852806,1.88638468602912,FALSE,1.37983105316587
"CAN","cpi",0.3,2001,3,2000,NA,1,3.33210472729551,4.06368235323478,2.47906219852806,3.69789354026514,FALSE,3.16884199384625
"CAN","cpi",0.3,2001,3,2000,NA,1.5,0.724938667356191,3.0113853834064,2.47906219852806,1.8681620253813,TRUE,2.28644671605021
"CAN","cpi",0.3,2002,3,2002,NA,0,2.33081774018666,2.42117357373847,2.20880570551249,2.37599565696257,FALSE,0.438961646906596
"CAN","cpi",0.3,2002,3,2002,NA,0.5,0.544116690500501,1.28303654487506,2.20880570551249,0.913576617687781,FALSE,3.38397459905292
"CAN","cpi",0.3,2002,3,2001,NA,1,1.56788089366749,2.30680074804205,2.20880570551249,1.93734082085477,TRUE,0.738919854374561
"CAN","cpi",0.3,2002,3,2001,NA,1.5,0.0731241776586629,2.37223185146912,2.20880570551249,1.22267801456389,TRUE,2.29910767381046
"CAN","cpi",0.3,2003,3,2003,NA,0,2.68840908852564,2.77662863890749,2.71189071546809,2.73251886371656,TRUE,0.0882195503818419
"CAN","cpi",0.3,2003,3,2003,NA,0.5,4.08406125860144,4.54945243478694,2.71189071546809,4.31675684669419,FALSE,4.38587844228078
"CAN","cpi",0.3,2003,3,2002,NA,1,4.32704590104889,4.91020229048194,2.71189071546809,4.61862409576541,FALSE,5.19788549109247
"CAN","cpi",0.3,2003,3,2002,NA,1.5,0.205977302504786,2.52519595083442,2.71189071546809,1.3655866266696,FALSE,2.85263226156869
"CAN","cpi",0.3,2004,3,2004,NA,0,1.78604990604612,1.87376210066937,1.83151661303942,1.82990600335775,TRUE,0.0877121946232537
"CAN","cpi",0.3,2004,3,2004,NA,0.5,1.13034706022245,1.74930531489681,1.83151661303942,1.43982618755963,FALSE,0.853847677938963
"CAN","cpi",0.3,2004,3,2003,NA,1,0.688824436996693,1.37011190945958,1.83151661303942,1.02946817322814,FALSE,1.99958662554814
"CAN","cpi",0.3,2004,3,2003,NA,1.5,4.02425466640694,5.26873571607391,1.83151661303942,4.64649519124043,FALSE,7.50944691643131
"CAN","cpi",0.3,2005,3,2005,NA,0,2.3418136138296,2.4272727600871,2.18071628336509,2.38454318695835,FALSE,0.54573723329896
"CAN","cpi",0.3,2005,3,2005,NA,0.5,1.30315420763054,1.90917954148262,2.18071628336509,1.60616687455658,FALSE,1.38184459637342
"CAN","cpi",0.3,2005,3,2004,NA,1,1.29436645935156,2.00926935595705,2.18071628336509,1.65181790765431,FALSE,1.20475126062846
"CAN","cpi",0.3,2005,3,2004,NA,1.5,1.05307336545381,2.47211262549666,2.18071628336509,1.76259299547523,TRUE,1.41903926004286
"CAN","cpi",0.3,2006,3,2006,NA,0,2.09229052226418,2.18041216975711,1.97519342012289,2.13635134601064,FALSE,0.422684796468056
"CAN","cpi",0.3,2006,3,2006,NA,0.5,1.48333394558639,2.09036759195159,1.97519342012289,1.78685076876899,TRUE,0.607033646365205
"CAN","cpi",0.3,2006,3,2005,NA,1,3.168452569268,3.84124648253352,1.97519342012289,3.50484952590076,FALSE,4.08210576796585
"CAN","cpi",0.3,2006,3,2005,NA,1.5,0.823839024184641,2.1124378218356,1.97519342012289,1.46813842301012,TRUE,1.28859879765096
"CAN","cpi",0.3,2007,3,2007,NA,0,2.16006897342877,2.24943453936286,2.10062087284572,2.20475175639581,FALSE,0.259217281885649
"CAN","cpi",0.3,2007,3,2007,NA,0.5,1.69449546593492,2.27605946886684,2.10062087284572,1.98527746740088,TRUE,0.581564002931922
"CAN","cpi",0.3,2007,3,2006,NA,1,0.882620669638402,1.61218396801525,2.10062087284572,1.24740231882683,FALSE,2.12509731217819
"CAN","cpi",0.3,2007,3,2006,NA,1.5,1.08503295417349,2.12491120563583,2.10062087284572,1.60497207990466,TRUE,1.03987825146234
"CAN","cpi",0.3,2008,3,2008,NA,0,2.97803811638909,3.0573134051922,2.31447335265955,3.01767576079065,FALSE,1.97517461374465
"CAN","cpi",0.3,2008,3,2008,NA,0.5,0.746871291447434,1.3283759927532,2.31447335265955,1.03762364210032,FALSE,3.39892572960962
"CAN","cpi",0.3,2008,3,2007,NA,1,1.02280084787013,1.78302341751224,2.31447335265955,1.40291213269118,FALSE,2.2786509557773
"CAN","cpi",0.3,2008,3,2007,NA,1.5,2.23102380301302,3.16767152999589,2.31447335265955,2.69934766650446,TRUE,0.936647726982869
"CAN","cpi",0.3,2009,3,2009,NA,0,0.24577161982371,0.397680842845101,0.284533874408197,0.321726231334406,TRUE,0.151909223021391
"CAN","cpi",0.3,2009,3,2009,NA,0.5,-1.62355616905151,-1.02632123662818,0.284533874408197,-1.32493870283985,FALSE,4.34253524967013
"CAN","cpi",0.3,2009,3,2008,NA,1,4.68299379455651,5.46922106379442,0.284533874408197,5.07610742917547,FALSE,13.3532556125188
"CAN","cpi",0.3,2009,3,2008,NA,1.5,0.538088035018522,1.48404314556329,0.284533874408197,1.01106559029091,FALSE,1.67039556943142
"CAN","cpi",0.3,2010,3,2010,NA,0,1.67967913926891,1.82897279445957,1.75525687020327,1.75432596686424,TRUE,0.149293655190658
"CAN","cpi",0.3,2010,3,2010,NA,0.5,1.17873962485564,1.80815297525605,1.75525687020327,1.49344630005585,TRUE,0.629413350400409
"CAN","cpi",0.3,2010,3,2009,NA,1,0.575146612623246,1.6850607978802,1.75525687020327,1.13010370525173,FALSE,1.3104743918943
"CAN","cpi",0.3,2010,3,2009,NA,1.5,-2.81414893589566,-1.7042347506387,1.75525687020327,-2.25919184326718,FALSE,10.9941759590912
"CAN","cpi",0.3,2011,3,2011,NA,0,2.831435158376,2.98521128875749,2.85717434028225,2.90832322356675,TRUE,0.153776130381495
"CAN","cpi",0.3,2011,3,2011,NA,0.5,2.50251219435359,3.12738851852769,2.85717434028225,2.81495035644064,TRUE,0.624876324174101
"CAN","cpi",0.3,2011,3,2010,NA,1,1.62056600602174,2.87934649259263,2.85717434028225,2.24995624930718,TRUE,1.25878048657089
"CAN","cpi",0.3,2011,3,2010,NA,1.5,1.06182193976573,2.32060242633662,2.85717434028225,1.69121218305118,FALSE,2.7918430978441
"CAN","cpi",0.3,2012,3,2012,NA,0,1.43157027520974,1.58561713857544,1.50118536134935,1.50859370689259,TRUE,0.154046863365708
"CAN","cpi",0.3,2012,3,2012,NA,0.5,1.43558718779735,2.06691810969648,1.50118536134935,1.75125264874692,TRUE,0.631330921899127
"CAN","cpi",0.3,2012,3,2011,NA,1,1.2188320474522,2.4760570740614,1.50118536134935,1.8474445607568,TRUE,1.2572250266092
"CAN","cpi",0.3,2012,3,2011,NA,1.5,2.44064806722615,3.69787309383535,1.50118536134935,3.06926058053075,FALSE,3.94140418625721
"CAN","cpi",0.3,2013,3,2013,NA,0,0.981469269201311,1.13084263012268,0.931270594714462,1.05615594966199,FALSE,0.292798145169505
"CAN","cpi",0.3,2013,3,2013,NA,0.5,0.700627162809801,1.34773156628877,0.931270594714462,1.02417936454929,TRUE,0.647104403478969
"CAN","cpi",0.3,2013,3,2012,NA,1,-0.577513330410666,0.714682367562896,0.931270594714462,0.0685845185761151,FALSE,1.91101920412089
"CAN","cpi",0.3,2013,3,2012,NA,1.5,1.07307173818097,2.36526743615453,0.931270594714462,1.71916958716775,FALSE,1.69734182216359
"CAN","cpi",0.3,2014,3,2014,NA,0,1.98930426335737,2.13843524854437,1.87639912240215,2.06386975595087,FALSE,0.471717102201919
"CAN","cpi",0.3,2014,3,2014,NA,0.5,1.62205822185423,2.23224600256001,1.87639912240215,1.92715211220712,TRUE,0.610187780705784
"CAN","cpi",0.3,2014,3,2013,NA,1,0.459651971790851,1.76779449699861,1.87639912240215,1.11372323439473,FALSE,1.61844145493215
"CAN","cpi",0.3,2014,3,2013,NA,1.5,0.746332619797358,2.05447514500512,1.87639912240215,1.40040388240124,TRUE,1.30814252520776
"CAN","cpi",0.3,2015,3,2015,NA,0,1.23372927120751,1.38092629161705,1.11090953952792,1.30732778141228,FALSE,0.498110539494096
"CAN","cpi",0.3,2015,3,2015,NA,0.5,-0.130773190870037,0.297279270281205,1.11090953952792,0.0832530397055839,FALSE,2.7527103732847
"CAN","cpi",0.3,2015,3,2014,NA,1,0.798239802867498,2.06963693072624,1.11090953952792,1.43393836679687,TRUE,1.27139712785874
"CAN","cpi",0.3,2015,3,2014,NA,1.5,2.03916935335585,3.31187754163663,1.11090953952792,2.67552344749624,FALSE,3.92487908493202
"CAN","cpi",0.3,2016,3,2016,NA,0,1.4373437007398,1.58048702249052,1.41168586698797,1.50891536161516,FALSE,0.216451418184539
"CAN","cpi",0.3,2016,3,2016,NA,0.5,0.560692986770267,1.01301049726816,1.41168586698797,0.786851742019216,FALSE,1.59138999541161
"CAN","cpi",0.3,2016,3,2015,NA,1,1.55725097380903,2.75595401887479,1.41168586698797,2.15660249634191,FALSE,1.61460335026881
"CAN","cpi",0.3,2016,3,2015,NA,1.5,-0.716571808038629,0.482131237027123,1.41168586698797,-0.117220285505753,FALSE,3.85457341638244
"CAN","cpi",0.3,2017,3,2017,NA,0,1.47711973241242,1.62050701200291,1.57888581671161,1.54881337220766,TRUE,0.143387279590496
"CAN","cpi",0.3,2017,3,2017,NA,0.5,1.68670190515198,2.14003805321497,1.57888581671161,1.91336997918348,FALSE,0.76138211503548
"CAN","cpi",0.3,2017,3,2016,NA,1,0.580436775606005,1.79494033781908,1.57888581671161,1.18768855671255,TRUE,1.21450356221308
"CAN","cpi",0.3,2017,3,2016,NA,1.5,0.0572399217328601,1.27174348394594,1.57888581671161,0.6644917028394,FALSE,2.09205308440071
"CAN","cpi",0.3,2018,3,2018,NA,0,2.3707983174145,2.51966280414074,2.23316270166586,2.44523056077762,FALSE,0.542109103150934
"CAN","cpi",0.3,2018,3,2018,NA,0.5,2.56037554823972,3.04275477913534,2.23316270166586,2.80156516368753,FALSE,1.41727307824951
"CAN","cpi",0.3,2018,3,2017,NA,1,0.218919059512057,1.42146345373968,2.23316270166586,0.82019125662587,FALSE,3.52168510258813
"CAN","cpi",0.3,2018,3,2017,NA,1.5,1.83129275521685,3.03383714944448,2.23316270166586,2.43256495233066,TRUE,1.20254439422763
"CAN","cpi",0.3,2019,3,2019,NA,0,2.01009394456342,2.15969342594652,1.91921619871868,2.08489368525497,FALSE,0.409250183796638
"CAN","cpi",0.3,2019,3,2019,NA,0.5,1.20937390908834,1.73426530272035,1.91921619871868,1.47181960590434,FALSE,1.05332252505582
"CAN","cpi",0.3,2019,3,2018,NA,1,1.57136962221315,2.79110870806945,1.91921619871868,2.1812391651413,TRUE,1.2197390858563
"CAN","cpi",0.3,2019,3,2018,NA,1.5,2.98361042742271,4.20334951327901,1.91921619871868,3.59347997035086,FALSE,4.2608654535821
"CAN","cpi",0.3,2020,3,2020,NA,0,0.660059462585868,0.724207018783418,0.71139989671781,0.692133240684643,TRUE,0.0641475561975504
"CAN","cpi",0.3,2020,3,2020,NA,0.5,0.819046665161828,1.29211440206113,0.71139989671781,1.05558053361148,FALSE,0.780629932453636
"CAN","cpi",0.3,2020,3,2019,NA,1,1.40291171590316,2.62682780368349,0.71139989671781,2.01486975979332,FALSE,3.19966414259561
"CAN","cpi",0.3,2020,3,2019,NA,1.5,1.14117373050326,2.4042066015715,0.71139989671781,1.77269016603738,FALSE,2.49095811045525
"CAN","cpi",0.3,2021,3,2021,NA,0,3.34010263785599,3.40811527794555,3.31148121717802,3.37410895790077,FALSE,0.149788127740885
"CAN","cpi",0.3,2021,3,2021,NA,0.5,2.50605161732757,2.85776426227409,3.31148121717802,2.68190793980083,FALSE,1.64804680181491
"CAN","cpi",0.3,2021,3,2020,NA,1,0.895718008513725,1.48923132389785,3.31148121717802,1.19247466620579,FALSE,5.79994158189891
"CAN","cpi",0.3,2021,3,2020,NA,1.5,0.355309069329543,1.63288597963787,3.31148121717802,0.994097524483704,FALSE,6.0735633032802
"CAN","cpi",0.3,2022,3,2022,NA,0,6.6797552867882,6.74455236999237,6.50977236228281,6.71215382839029,FALSE,0.550462581791007
"CAN","cpi",0.3,2022,3,2022,NA,0.5,6.23581354056993,6.60727258364122,6.50977236228281,6.42154306210558,TRUE,0.371459043071292
"CAN","cpi",0.3,2022,3,2021,NA,1,4.60526538131693,5.33872368456178,6.50977236228281,4.97199453293936,FALSE,4.07931166816207
"CAN","cpi",0.3,2022,3,2021,NA,1.5,2.9425660612323,3.97147071497478,6.50977236228281,3.45701838810354,FALSE,8.28119507462257
"CAN","cpi",0.3,2023,3,2023,NA,0,4.00824927372825,4.07599440919974,3.78831288758619,4.042121841464,FALSE,0.696134810163092
"CAN","cpi",0.3,2023,3,2023,NA,0.5,2.87437509192997,3.24556876395386,3.78831288758619,3.05997192794191,FALSE,1.92189116811627
"CAN","cpi",0.3,2023,3,2022,NA,1,4.8922170185476,5.67481829468988,3.78831288758619,5.28351765661874,FALSE,3.93661307888916
"CAN","cpi",0.3,2023,3,2022,NA,1.5,6.67939270928453,7.8956616181697,3.78831288758619,7.28752716372712,FALSE,9.47649697088043
"CAN","cpi",0.3,2024,3,2023,NA,1,3.94017841312741,4.81569550536691,NA,4.37793695924716,NA,NA
"CAN","cpi",0.3,2024,3,2023,NA,1.5,1.65896006556914,3.07899960924621,NA,2.36897983740768,NA,NA
"CAN","cpi",0.4,1959,3,1959,NA,0,1.10753457754151,1.28605960239021,1.19382698397654,1.19679708996586,TRUE,0.178525024848698
"CAN","cpi",0.4,1959,3,1959,NA,0.5,-0.0768300969298481,1.38718208658367,1.19382698397654,0.655175994826909,TRUE,1.46401218351351
"CAN","cpi",0.4,1959,3,1958,NA,1,0.150088238224599,3.36868891809503,1.19382698397654,1.75938857815981,TRUE,3.21860067987043
"CAN","cpi",0.4,1959,3,1958,NA,1.5,-1.7112189827634,5.2611522030224,1.19382698397654,1.7749666101295,TRUE,6.9723711857858
"CAN","cpi",0.4,1960,3,1960,NA,0,0.953183354913985,1.10942157531299,1.34209404870695,1.03130246511349,FALSE,0.931813131712205
"CAN","cpi",0.4,1960,3,1960,NA,0.5,0.187966203346297,1.30323910291819,1.34209404870695,0.745602653132245,FALSE,1.24478938553442
"CAN","cpi",0.4,1960,3,1959,NA,1,1.74536697330055,4.9263807727682,1.34209404870695,3.33587387303437,FALSE,4.52525688144631
"CAN","cpi",0.4,1960,3,1959,NA,1.5,-3.44737037905237,2.79653219047659,1.34209404870695,-0.32541909428789,TRUE,6.24390256952895
"CAN","cpi",0.4,1961,3,1961,NA,0,0.918609059519933,1.09981790236021,1.00921348094007,1.00921348094007,TRUE,0.181208842840278
"CAN","cpi",0.4,1961,3,1961,NA,0.5,0.763025955139557,1.85979667502303,1.00921348094007,1.31141131508129,TRUE,1.09677071988347
"CAN","cpi",0.4,1961,3,1960,NA,1,-1.22220187137424,1.50945368271416,1.00921348094007,0.143625905669962,TRUE,2.7316555540884
