isdrw/probabilistic-benchmark-forecasts/results/gauss_quantiles_prediction/mean 0 assumption/gauss_prediction_ar1_2026-02-25_21-18.csv
"country","target","tau","target_year","target_quarter","forecast_year","forecast_quarter","horizon","lower_bound","upper_bound","truth_value","prediction","covered","IS"
"CAN","cpi",0.1,1959,3,1959,NA,0,1.17085317361519,1.20823880940833,1.19382698397654,1.18954599151176,TRUE,0.0373856357931412
"CAN","cpi",0.1,1959,3,1959,NA,0.5,0.420218420384319,0.670398233937531,1.19382698397654,0.545308327160925,FALSE,1.4133548136399
"CAN","cpi",0.1,1959,3,1958,NA,1,0.739488688981576,1.52641359599935,1.19382698397654,1.13295114249046,TRUE,0.786924907017771
"CAN","cpi",0.1,1959,3,1958,NA,1.5,0.121048152666606,1.31379602349197,1.19382698397654,0.717422088079289,TRUE,1.19274787082537
"CAN","cpi",0.1,1960,3,1960,NA,0,1.00622999098387,1.04099609420568,1.34209404870695,1.02361304259477,FALSE,0.703872668780197
"CAN","cpi",0.1,1960,3,1960,NA,0.5,0.528911259328617,0.768310756098697,1.34209404870695,0.648611007713657,FALSE,1.51447348034398
"CAN","cpi",0.1,1960,3,1959,NA,1,2.07868165453709,2.67465580917563,1.34209404870695,2.37666873185636,FALSE,2.23283550092774
"CAN","cpi",0.1,1960,3,1959,NA,1.5,-0.789550715012925,0.0913663558783711,1.34209404870695,-0.349092179567277,FALSE,3.6603119438437
"CAN","cpi",0.1,1961,3,1961,NA,0,0.988900713022296,1.02952624885785,1.00921348094007,1.00921348094007,TRUE,0.0406255358355523
"CAN","cpi",0.1,1961,3,1961,NA,0.5,0.890297850417539,1.1281291114626,1.00921348094007,1.00921348094007,TRUE,0.237831261045065
"CAN","cpi",0.1,1961,3,1960,NA,1,-0.221735786765761,0.329276711972827,1.00921348094007,0.0537704626035329,FALSE,2.06198309644358
"CAN","cpi",0.1,1961,3,1960,NA,1.5,-0.738391976011425,0.0737592036986277,1.00921348094007,-0.332316386156399,FALSE,2.89093846246882
"CAN","cpi",0.1,1962,3,1962,NA,0,1.04885034015273,1.08190988494386,1.04957947883042,1.0653801125483,TRUE,0.0330595447911355
"CAN","cpi",0.1,1962,3,1962,NA,0.5,-0.0949843849546456,0.0949843849546458,1.04957947883042,0,FALSE,2.31129120074433
"CAN","cpi",0.1,1962,3,1961,NA,1,-0.273039564295503,0.273039564295503,1.04957947883042,0,FALSE,2.27172338311303
"CAN","cpi",0.1,1962,3,1961,NA,1.5,-0.406327660846607,0.406327660846608,1.04957947883042,0,FALSE,2.24210380610168
"CAN","cpi",0.1,1963,3,1963,NA,0,1.81369179282865,1.84680729271831,1.60677118395228,1.83024954277348,FALSE,0.49293907517047
"CAN","cpi",0.1,1963,3,1963,NA,0.5,0.744401241879384,0.929256187355624,1.60677118395228,0.836828714617504,FALSE,1.69044382680215
"CAN","cpi",0.1,1963,3,1962,NA,1,1.43465585751665,1.78404615638987,1.60677118395228,1.60935100695326,TRUE,0.349390298873224
"CAN","cpi",0.1,1963,3,1962,NA,1.5,-0.206140936467925,0.206140936467925,1.60677118395228,0,FALSE,3.5247935340122
"CAN","cpi",0.1,1964,3,1964,NA,0,1.93348495664389,1.9704080122166,1.88764670034376,1.95194648443024,FALSE,0.138785847350774
"CAN","cpi",0.1,1964,3,1964,NA,0.5,1.21806284050175,1.32809349636621,1.88764670034376,1.27307816843398,FALSE,1.35348222025901
"CAN","cpi",0.1,1964,3,1963,NA,1,3.0790736553709,3.32437299737927,1.88764670034376,3.20172332637508,FALSE,2.89291479762423
"CAN","cpi",0.1,1964,3,1963,NA,1.5,-0.15813813830889,0.15813813830889,1.88764670034376,0,FALSE,4.15962863669527
"CAN","cpi",0.1,1965,3,1965,NA,0,2.27945354327148,2.31655024612497,2.29538304394236,2.29800189469823,TRUE,0.0370967028534919
"CAN","cpi",0.1,1965,3,1965,NA,0.5,1.33911955161211,1.44974481352441,2.29538304394236,1.39443218256826,FALSE,1.98982132950774
"CAN","cpi",0.1,1965,3,1964,NA,1,1.36242164388692,1.59914571690205,2.29538304394236,1.48078368039448,FALSE,1.7839181331047
"CAN","cpi",0.1,1965,3,1964,NA,1.5,0.174895363025893,0.411619436041029,2.29538304394236,0.293257399533461,FALSE,4.42286542390698
"CAN","cpi",0.1,1966,3,1966,NA,0,3.75781067537199,3.79241468952494,3.72486065470629,3.77511268244847,FALSE,0.107826282298956
"CAN","cpi",0.1,1966,3,1966,NA,0.5,3.32193920948211,3.43293518508632,3.72486065470629,3.37743719728421,FALSE,0.759719241426367
"CAN","cpi",0.1,1966,3,1965,NA,1,1.86651717546974,2.10322228742114,3.72486065470629,1.98486973144544,FALSE,3.84034592814062
"CAN","cpi",0.1,1966,3,1965,NA,1.5,0.460288278025334,0.696993389976741,3.72486065470629,0.578640834001038,FALSE,6.96529903357263
"CAN","cpi",0.1,1967,3,1967,NA,0,3.6666382921752,3.70087712211697,3.49360316391996,3.68375770714608,FALSE,0.418761337175636
"CAN","cpi",0.1,1967,3,1967,NA,0.5,2.05281936725299,2.16827479371218,3.49360316391996,2.11054708048259,FALSE,3.06062958247648
"CAN","cpi",0.1,1967,3,1966,NA,1,1.90050599406371,2.13956015660632,3.49360316391996,2.02003307533501,FALSE,3.24803862323959
"CAN","cpi",0.1,1967,3,1966,NA,1.5,1.59605828252542,1.83511244506803,3.49360316391996,1.71558536379673,FALSE,3.92458909332467
"CAN","cpi",0.1,1968,3,1968,NA,0,4.05308951473442,4.08862484165273,3.95128347779386,4.07085717819357,FALSE,0.261770964564002
"CAN","cpi",0.1,1968,3,1968,NA,0.5,3.45974465002347,3.55490001550656,3.95128347779386,3.50732233276501,FALSE,0.976007503899307
"CAN","cpi",0.1,1968,3,1967,NA,1,3.53972405546213,3.78634953057172,3.95128347779386,3.66303679301692,FALSE,0.613145357825458
"CAN","cpi",0.1,1968,3,1967,NA,1.5,0.711568781490257,0.958194256599849,3.95128347779386,0.834881519045053,FALSE,6.89793485554072
"CAN","cpi",0.1,1969,3,1969,NA,0,4.50747287319118,4.54317992697388,4.42679496126681,4.52532640008253,FALSE,0.214991302503515
"CAN","cpi",0.1,1969,3,1969,NA,0.5,2.64538658297908,2.73642583271455,4.42679496126681,2.69090620784681,FALSE,3.84741509096273
"CAN","cpi",0.1,1969,3,1968,NA,1,3.97123538435787,4.18464327090993,4.42679496126681,4.0779393276339,FALSE,0.751522754011806
"CAN","cpi",0.1,1969,3,1968,NA,1.5,1.50551477007856,1.71892265663061,4.42679496126681,1.61221871335458,FALSE,6.23090189685473
"CAN","cpi",0.1,1970,3,1970,NA,0,3.5418115689121,3.57576053980748,3.28128405769805,3.55878605435979,FALSE,0.612898995815498
"CAN","cpi",0.1,1970,3,1970,NA,0.5,3.69191608927694,3.80746945879314,3.28128405769805,3.74969277403504,FALSE,1.02806899524708
"CAN","cpi",0.1,1970,3,1969,NA,1,3.00416917738708,3.21956298826509,3.28128405769805,3.11186608282608,FALSE,0.352551742951251
"CAN","cpi",0.1,1970,3,1969,NA,1.5,0.65724507182063,0.872638882698645,3.28128405769805,0.764941977259638,FALSE,5.56793864421002
"CAN","cpi",0.1,1971,3,1971,NA,0,2.79628321614412,2.8340078496333,2.64123406634756,2.81514553288871,FALSE,0.382278299703756
"CAN","cpi",0.1,1971,3,1971,NA,0.5,1.04332086829621,1.19015374703421,2.64123406634756,1.11673730766521,FALSE,3.37145581054544
"CAN","cpi",0.1,1971,3,1970,NA,1,1.82076084917108,2.02010816003682,2.64123406634756,1.92043450460395,FALSE,1.57962710266739
"CAN","cpi",0.1,1971,3,1970,NA,1.5,1.60226709657314,1.80161440743888,2.64123406634756,1.70194075200601,FALSE,2.06516877510725
"CAN","cpi",0.1,1972,3,1972,NA,0,5.03693211669891,5.05964312642056,4.83230569625923,5.04828762155974,FALSE,0.477436388476496
"CAN","cpi",0.1,1972,3,1972,NA,0.5,4.01649120336127,4.17555650383308,4.83230569625923,4.09602385359717,FALSE,1.6185079503077
"CAN","cpi",0.1,1972,3,1971,NA,1,4.07163635380102,4.2646058788733,4.83230569625923,4.16812111633716,FALSE,1.45452467481879
"CAN","cpi",0.1,1972,3,1971,NA,1.5,0.59554524281495,0.788514767887228,4.83230569625923,0.692030005351089,FALSE,9.17917158812117
"CAN","cpi",0.1,1973,3,1973,NA,0,7.23994910877605,7.2619735357636,7.12388603531779,7.25096132226983,FALSE,0.279942368005908
"CAN","cpi",0.1,1973,3,1973,NA,0.5,5.2307201285733,5.37820021722833,7.12388603531779,5.30446017290082,FALSE,4.02678190663161
"CAN","cpi",0.1,1973,3,1972,NA,1,4.82495311626156,5.02056759958375,7.12388603531779,4.92276035792265,FALSE,4.86965545162006
"CAN","cpi",0.1,1973,3,1972,NA,1.5,1.67510316630291,1.90865441518116,7.12388603531779,1.79187879074203,FALSE,11.8229548491819
"CAN","cpi",0.1,1974,3,1974,NA,0,10.1388671710879,10.1589552492141,10.2717243737774,10.148911210151,FALSE,0.270686132711348
"CAN","cpi",0.1,1974,3,1974,NA,0.5,7.82251839476658,7.98640739013441,10.2717243737774,7.90446289245049,FALSE,5.24237118124119
"CAN","cpi",0.1,1974,3,1973,NA,1,7.1908410214144,7.41868091371777,10.2717243737774,7.30476096756609,FALSE,6.5679364702137
"CAN","cpi",0.1,1974,3,1973,NA,1.5,2.4162158196521,2.71644237202171,10.2717243737774,2.5663290958369,FALSE,17.0897421118267
"CAN","cpi",0.1,1975,3,1975,NA,0,10.1614401607008,10.1878740600577,10.0232981493341,10.1746571103793,FALSE,0.333416146838449
"CAN","cpi",0.1,1975,3,1975,NA,0.5,7.9741235919139,8.16892254637539,10.0232981493341,8.07152306914465,FALSE,4.31563362770311
"CAN","cpi",0.1,1975,3,1974,NA,1,7.68109147881788,7.95646419256493,10.0232981493341,7.8187778356914,FALSE,4.86833706212304
"CAN","cpi",0.1,1975,3,1974,NA,1.5,3.4197975893056,3.87848790470312,10.0232981493341,3.64914274700436,FALSE,14.1138241923553
"CAN","cpi",0.1,1976,3,1976,NA,0,7.17678140794397,7.20312145293213,7.22784311401172,7.18995143043805,FALSE,0.0812770696094629
"CAN","cpi",0.1,1976,3,1976,NA,0.5,6.51234287789495,6.71432440781121,7.22784311401172,6.61333364285308,FALSE,1.34313421036183
"CAN","cpi",0.1,1976,3,1975,NA,1,8.47277416435554,8.69716798745045,7.22784311401172,8.584971075903,FALSE,2.99090726830341
"CAN","cpi",0.1,1976,3,1975,NA,1.5,2.89888119594462,3.3958902039672,7.22784311401172,3.14738569995591,FALSE,9.01245991923262
"CAN","cpi",0.1,1977,3,1977,NA,0,7.48802664985302,7.51551224022589,7.58101410153764,7.50176944503946,FALSE,0.17304528217676
"CAN","cpi",0.1,1977,3,1977,NA,0.5,6.30315951892852,6.50827325760896,7.58101410153764,6.40571638826874,FALSE,2.58898228074419
"CAN","cpi",0.1,1977,3,1976,NA,1,3.90291305979938,4.19527266174091,7.58101410153764,4.04909286077014,FALSE,7.8162294681565
"CAN","cpi",0.1,1977,3,1976,NA,1.5,2.35409148670021,2.83456346784963,7.58101410153764,2.59432747727492,FALSE,11.0281400560117
"CAN","cpi",0.1,1978,3,1978,NA,0,8.57574816251374,8.60634878516925,8.50208927062595,8.59104847384149,FALSE,0.194287049072824
"CAN","cpi",0.1,1978,3,1978,NA,0.5,7.24343179984785,7.43884637482204,8.50208927062595,7.34113908733495,FALSE,2.55817656564954
"CAN","cpi",0.1,1978,3,1977,NA,1,5.70823835467298,6.04981901569004,8.50208927062595,5.87902868518151,FALSE,5.79107011643018
"CAN","cpi",0.1,1978,3,1977,NA,1.5,3.65083885430665,4.13503086253764,8.50208927062595,3.89293485842214,FALSE,10.1887662484272
"CAN","cpi",0.1,1979,3,1979,NA,0,8.47162639322464,8.50140180965088,8.65147652410481,8.48651410143776,FALSE,0.363274781879411
"CAN","cpi",0.1,1979,3,1979,NA,0.5,7.36440360733445,7.55933133396301,8.65147652410481,7.46186747064873,FALSE,2.62191703805478
"CAN","cpi",0.1,1979,3,1978,NA,1,6.75855521305619,7.11516595453718,8.65147652410481,6.93686058379669,FALSE,3.77063422940906
"CAN","cpi",0.1,1979,3,1978,NA,1.5,3.69176413730163,4.14417790364396,8.65147652410481,3.9179710204728,FALSE,10.468632922922
"CAN","cpi",0.1,1980,3,1980,NA,0,9.41965149211865,9.45457107098572,9.5171912664748,9.43711128155219,FALSE,0.174075568842793
"CAN","cpi",0.1,1980,3,1980,NA,0.5,7.7985255919138,7.98435593780322,9.5171912664748,7.89144076485851,FALSE,3.5921310762707
"CAN","cpi",0.1,1980,3,1979,NA,1,5.51986204844586,5.86789384579021,9.5171912664748,5.69387794711803,FALSE,8.45758162108788
"CAN","cpi",0.1,1980,3,1979,NA,1.5,4.049782799226,4.49419816590875,9.5171912664748,4.27199048256738,FALSE,11.6066222568295
"CAN","cpi",0.1,1981,3,1981,NA,0,11.5993754111774,11.6357021071306,11.5813425032741,11.617538759154,FALSE,0.0763998246271641
"CAN","cpi",0.1,1981,3,1981,NA,0.5,11.2116464282541,11.3960053919273,11.5813425032741,11.3038259100907,FALSE,0.596219211110594
"CAN","cpi",0.1,1981,3,1980,NA,1,8.04161371322588,8.41683573858301,11.5813425032741,8.22922472590444,FALSE,7.40745928022631
"CAN","cpi",0.1,1981,3,1980,NA,1.5,4.333406747567,4.76296060336543,11.5813425032741,4.54818367546621,FALSE,15.5815136333733
"CAN","cpi",0.1,1982,3,1982,NA,0,10.1706406164796,10.2021538081901,10.1124203763629,10.1863972123348,FALSE,0.160891503080822
"CAN","cpi",0.1,1982,3,1982,NA,0.5,9.30559489033665,9.45463691302262,10.1124203763629,9.38011590167964,FALSE,1.61078305233113
"CAN","cpi",0.1,1982,3,1981,NA,1,8.74345709866152,9.11204209139257,10.1124203763629,8.92774959502704,FALSE,2.59164784822077
"CAN","cpi",0.1,1982,3,1981,NA,1.5,7.44320051348288,7.87056070534625,10.1124203763629,7.65688060941457,FALSE,5.40927057190047
"CAN","cpi",0.1,1983,3,1983,NA,0,5.7775005947382,5.80712840400412,5.67091787896303,5.79231449937116,FALSE,0.266478288766289
"CAN","cpi",0.1,1983,3,1983,NA,0.5,4.41259997681069,4.56610975820009,5.67091787896303,4.48935486750539,FALSE,2.60863893864039
"CAN","cpi",0.1,1983,3,1982,NA,1,6.50557963927979,6.86163723397203,5.67091787896303,6.68360843662591,FALSE,2.21086150650725
"CAN","cpi",0.1,1983,3,1982,NA,1.5,5.62690056609816,5.9829581607904,5.67091787896303,5.80492936344428,TRUE,0.35605759469224
"CAN","cpi",0.1,1984,3,1984,NA,0,4.17301667941115,4.19967179617766,4.19799576814029,4.1863442377944,TRUE,0.0266551167665074
"CAN","cpi",0.1,1984,3,1984,NA,0.5,4.29949444703372,4.44788393367058,4.19799576814029,4.37368919035215,FALSE,0.373942106400034
"CAN","cpi",0.1,1984,3,1983,NA,1,4.61790990147408,5.03256981579271,4.19799576814029,4.8252398586334,FALSE,1.34780243283817
"CAN","cpi",0.1,1984,3,1983,NA,1.5,1.37729791286372,1.89573908903835,4.19799576814029,1.63651850095104,FALSE,5.63456712973449
"CAN","cpi",0.1,1985,3,1985,NA,0,3.8623895208877,3.88738974738186,3.86444262005169,3.87488963413478,TRUE,0.0250002264941598
"CAN","cpi",0.1,1985,3,1985,NA,0.5,3.58226379989071,3.75682540347477,3.86444262005169,3.66954460168274,FALSE,0.413710973754998
"CAN","cpi",0.1,1985,3,1984,NA,1,2.29127827585855,2.74394000867207,3.86444262005169,2.51760914226531,FALSE,2.94266753587935
"CAN","cpi",0.1,1985,3,1984,NA,1.5,2.47504722584297,3.01433123421274,3.86444262005169,2.74468923002786,FALSE,2.42842042134522
"CAN","cpi",0.1,1986,3,1986,NA,0,4.07854820853433,4.10163941188121,4.08685396749431,4.09009381020777,TRUE,0.0230912033468762
"CAN","cpi",0.1,1986,3,1986,NA,0.5,4.11204084157056,4.26531403147002,4.08685396749431,4.18867743652029,FALSE,0.209244021180007
"CAN","cpi",0.1,1986,3,1985,NA,1,2.74293702631803,3.18399370757469,4.08685396749431,2.96346536694636,FALSE,2.44741281441138
"CAN","cpi",0.1,1986,3,1985,NA,1.5,2.39385482714131,2.91905546290317,4.08685396749431,2.65645514502224,FALSE,3.12030842374218
"CAN","cpi",0.1,1987,3,1987,NA,0,4.29373985244564,4.31391512594226,4.23980729277887,4.30382748919395,FALSE,0.140025406089435
"CAN","cpi",0.1,1987,3,1987,NA,0.5,3.53540314353613,3.679497743655,4.23980729277887,3.60745044359556,FALSE,1.38922693150525
"CAN","cpi",0.1,1987,3,1986,NA,1,3.27033756339274,3.70875032212854,4.23980729277887,3.48954394276064,FALSE,1.61853936018098
"CAN","cpi",0.1,1987,3,1986,NA,1.5,2.79380874427545,3.3074235521786,4.23980729277887,3.05061614822702,FALSE,2.58557867590376
"CAN","cpi",0.1,1988,3,1988,NA,0,3.95625134291935,3.97677267458002,3.92899537638065,3.96651200874969,FALSE,0.0810901461911094
"CAN","cpi",0.1,1988,3,1988,NA,0.5,3.20387022275565,3.34789846850866,3.92899537638065,3.27588434563216,FALSE,1.43535470769077
"CAN","cpi",0.1,1988,3,1987,NA,1,3.17322783980199,3.55792922496344,3.92899537638065,3.36557853238272,FALSE,1.20929283275526
"CAN","cpi",0.1,1988,3,1987,NA,1.5,1.9610351364696,2.49677818330026,3.92899537638065,2.22890665988493,FALSE,3.71844792034264
"CAN","cpi",0.1,1989,3,1989,NA,0,4.95251448696106,4.97196795794129,4.82821664544208,4.96224122245117,FALSE,0.295670896577969
"CAN","cpi",0.1,1989,3,1989,NA,0.5,4.08277985408896,4.22214378116459,4.82821664544208,4.15246181762677,FALSE,1.48619251435894
"CAN","cpi",0.1,1989,3,1988,NA,1,3.1711843777606,3.5300511577191,4.82821664544208,3.35061776773985,FALSE,3.24367897489845
"CAN","cpi",0.1,1989,3,1988,NA,1.5,1.77021880063505,2.29564541208153,4.82821664544208,2.03293210635829,FALSE,6.15336268558103
"CAN","cpi",0.1,1990,3,1990,NA,0,4.48083951828697,4.50149513088111,4.64347549432717,4.49116732458404,FALSE,0.33616753136316
"CAN","cpi",0.1,1990,3,1990,NA,0.5,4.73942628661852,4.87327639138431,4.64347549432717,4.80635133900141,FALSE,0.347074087635455
"CAN","cpi",0.1,1990,3,1989,NA,1,4.28093590263808,4.62572270788595,4.64347549432717,4.45332930526201,FALSE,0.384237441783917
"CAN","cpi",0.1,1990,3,1989,NA,1.5,2.68610731549184,3.19377555044679,4.64347549432717,2.93994143296931,FALSE,3.72922366580024
"CAN","cpi",0.1,1991,3,1991,NA,0,5.58663458417248,5.60664848607373,5.4258100696218,5.5966415351231,FALSE,0.377401712013882
"CAN","cpi",0.1,1991,3,1991,NA,0.5,7.97406908969758,8.11085179061401,5.4258100696218,8.0424604401558,FALSE,5.79958052330707
"CAN","cpi",0.1,1991,3,1990,NA,1,2.83245697357496,3.18287073422249,5.4258100696218,3.00766385389873,FALSE,5.33472339486821
"CAN","cpi",0.1,1991,3,1990,NA,1.5,3.18158508108059,3.66764137393814,5.4258100696218,3.42461322750937,FALSE,4.39309783882122
"CAN","cpi",0.1,1992,3,1992,NA,0,1.45073770156412,1.47162831742819,1.47496888572843,1.46118300949616,FALSE,0.0283141009757152
"CAN","cpi",0.1,1992,3,1992,NA,0.5,1.11759494880991,1.35834140235948,1.47496888572843,1.2379681755847,FALSE,0.499918638813903
"CAN","cpi",0.1,1992,3,1991,NA,1,1.72295823927707,2.02171481901513,1.47496888572843,1.8723365291461,FALSE,0.849844032068363
"CAN","cpi",0.1,1992,3,1991,NA,1.5,6.68279784311382,7.11587609366492,1.47496888572843,6.89933696838937,FALSE,12.0060314891853
"CAN","cpi",0.1,1993,3,1993,NA,0,1.79155050477832,1.81286084633974,1.84351085411351,1.80220567555903,FALSE,0.0894214699475767
"CAN","cpi",0.1,1993,3,1993,NA,0.5,2.09788028253943,2.33848968204749,1.84351085411351,2.21818498229346,FALSE,0.80587479601009
"CAN","cpi",0.1,1993,3,1992,NA,1,1.22911252649853,1.47497345726387,1.84351085411351,1.3520429918812,FALSE,1.06483292376455
"CAN","cpi",0.1,1993,3,1992,NA,1.5,0.658836204669233,1.20813477000449,1.84351085411351,0.933485487336859,FALSE,1.96124541891087
"CAN","cpi",0.1,1994,3,1994,NA,0,0.191175230308217,0.213044084666166,0.161630694655448,0.202109657487191,FALSE,0.0875233780307695
"CAN","cpi",0.1,1994,3,1994,NA,0.5,-0.691408965903993,-0.453870449021561,0.161630694655448,-0.572639707462777,FALSE,1.60531883616467
"CAN","cpi",0.1,1994,3,1993,NA,1,1.02006461271542,1.2621460488213,0.161630694655448,1.14110533076836,FALSE,2.14971236512804
"CAN","cpi",0.1,1994,3,1993,NA,1.5,1.38143839032884,1.91903085558963,0.161630694655448,1.65023462295923,FALSE,3.24827623342388
"CAN","cpi",0.1,1995,3,1995,NA,0,2.13818227518527,2.15884271506101,2.11688403676572,2.14851249512314,FALSE,0.067989858585854
"CAN","cpi",0.1,1995,3,1995,NA,0.5,2.48729356513986,2.714155301045,2.11688403676572,2.60072443309243,FALSE,1.04999402118102
"CAN","cpi",0.1,1995,3,1994,NA,1,1.31332006499705,1.55415938784677,2.11688403676572,1.43373972642191,FALSE,1.4913385426696
"CAN","cpi",0.1,1995,3,1994,NA,1.5,-1.54656054033461,-0.985666128156939,2.11688403676572,-1.26611333424577,FALSE,7.45545033422801
"CAN","cpi",0.1,1996,3,1996,NA,0,1.42640663136061,1.44689877714016,1.55309584667184,1.43665270425039,FALSE,0.256485633627735
"CAN","cpi",0.1,1996,3,1996,NA,0.5,1.12024465248632,1.34528195481441,1.55309584667184,1.23276330365037,FALSE,0.686845950900158
"CAN","cpi",0.1,1996,3,1995,NA,1,0.617234608229872,0.842271910557957,1.55309584667184,0.729753259393914,FALSE,1.80464604924783
"CAN","cpi",0.1,1996,3,1995,NA,1.5,2.02965106412976,2.60844571960111,1.55309584667184,2.31904839186543,FALSE,1.63780624982228
"CAN","cpi",0.1,1997,3,1997,NA,0,1.66802219993738,1.69096737453453,1.60528783555959,1.67949478723595,FALSE,0.162354873214456
"CAN","cpi",0.1,1997,3,1997,NA,0.5,1.82157876782591,2.04426107414223,1.60528783555959,1.93291992098407,FALSE,0.703328822463695
"CAN","cpi",0.1,1997,3,1996,NA,1,0.503289298462795,0.725971604779114,1.60528783555959,0.614630451620954,FALSE,2.17671837471738
"CAN","cpi",0.1,1997,3,1996,NA,1.5,0.667346569625021,1.25697655877273,1.60528783555959,0.962161564198873,FALSE,1.36365504867408
"CAN","cpi",0.1,1998,3,1998,NA,0,0.955404855221724,0.978722505553859,0.988908029337191,0.967063680387792,FALSE,0.0459521476284276
"CAN","cpi",0.1,1998,3,1998,NA,0.5,1.23777546398539,1.46017373334134,0.988908029337191,1.34897459866337,FALSE,0.77543701301862
"CAN","cpi",0.1,1998,3,1997,NA,1,0.681490824568156,0.903889093924102,0.988908029337191,0.792689959246129,FALSE,0.411329236940588
"CAN","cpi",0.1,1998,3,1997,NA,1.5,0.990549855269418,1.57713015226951,0.988908029337191,1.28384000376946,FALSE,0.590228799071705
"CAN","cpi",0.1,1999,3,1999,NA,0,1.75703184273745,1.78026083515462,1.7107350135213,1.76864633894604,FALSE,0.126110835119744
"CAN","cpi",0.1,1999,3,1999,NA,0.5,0.621924408593916,0.842275012607145,1.7107350135213,0.732099710600531,FALSE,2.15026171715579
"CAN","cpi",0.1,1999,3,1998,NA,1,0.258877269953015,0.479227873966244,1.7107350135213,0.369052571959629,FALSE,2.95703313635779
"CAN","cpi",0.1,1999,3,1998,NA,1.5,0.974529491754003,1.56241064870859,1.7107350135213,1.26847007023129,FALSE,0.917490856538384
"CAN","cpi",0.1,2000,3,2000,NA,0,2.69087875259506,2.71427746088563,2.6718361971244,2.70257810674034,FALSE,0.0657154982253696
"CAN","cpi",0.1,2000,3,2000,NA,0.5,1.84567205177123,2.07329406584628,2.6718361971244,1.95948305880876,FALSE,1.55771563913753
"CAN","cpi",0.1,2000,3,1999,NA,1,2.04773561282246,2.27535762689751,2.6718361971244,2.16154661985999,FALSE,1.10868550346814
"CAN","cpi",0.1,2000,3,1999,NA,1.5,0.212919974683093,0.792647781444428,2.6718361971244,0.50278387806376,FALSE,4.75570206382794
"CAN","cpi",0.1,2001,3,2001,NA,0,2.72080033766164,2.7422906500601,2.47906219852806,2.73154549386087,FALSE,0.558686177139743
"CAN","cpi",0.1,2001,3,2001,NA,0.5,1.54704674814465,1.77018981713387,2.47906219852806,1.65861828263926,FALSE,1.79841502764299
"CAN","cpi",0.1,2001,3,2000,NA,1,2.72976742339526,2.95291049238447,2.47906219852806,2.84133895788986,FALSE,0.780265790916313
"CAN","cpi",0.1,2001,3,2000,NA,1.5,0.858814084066742,1.42501300489264,2.47906219852806,1.14191354447969,FALSE,2.90853046223795
"CAN","cpi",0.1,2002,3,2002,NA,0,2.30074494530063,2.32490560400344,2.20880570551249,2.31282527465204,FALSE,0.228470080454241
"CAN","cpi",0.1,2002,3,2002,NA,0.5,1.13104094129251,1.36359803138935,2.20880570551249,1.24731948634093,FALSE,2.11079636592603
"CAN","cpi",0.1,2002,3,2001,NA,1,0.579212995838454,0.811770085935296,2.20880570551249,0.695491540886875,FALSE,3.33708068915727
"CAN","cpi",0.1,2002,3,2001,NA,1.5,0.195273398568257,0.756849839074424,2.20880570551249,0.47606161882134,FALSE,3.78814503259075
"CAN","cpi",0.1,2003,3,2003,NA,0,2.74333020211347,2.76587774344303,2.71189071546809,2.75460397277825,FALSE,0.0924130672081801
"CAN","cpi",0.1,2003,3,2003,NA,0.5,4.09079368146618,4.23114573438235,2.71189071546809,4.16096970792426,FALSE,3.20458086624526
"CAN","cpi",0.1,2003,3,2002,NA,1,3.18588077351292,3.36995739025649,2.71189071546809,3.27791908188471,FALSE,1.2373878568432
"CAN","cpi",0.1,2003,3,2002,NA,1.5,1.23973648726022,1.79686376787779,2.71189071546809,1.51830012756901,FALSE,2.5905204974849
"CAN","cpi",0.1,2004,3,2004,NA,0,1.7504334253505,1.77262865268827,1.83151661303942,1.76153103901938,FALSE,0.153057361451447
"CAN","cpi",0.1,2004,3,2004,NA,0.5,1.29509664858427,1.48381544102716,1.83151661303942,1.38945604480572,FALSE,0.961388063581246
"CAN","cpi",0.1,2004,3,2003,NA,1,0.924340799504335,1.11315158368761,1.83151661303942,1.01874619159597,FALSE,1.78517751607619
"CAN","cpi",0.1,2004,3,2003,NA,1.5,2.826364621891,3.15574256019721,1.83151661303942,2.99105359104411,FALSE,2.54015129130972
"CAN","cpi",0.1,2005,3,2005,NA,0,2.33917777602581,2.36207184682053,2.18071628336509,2.35062481142317,FALSE,0.375030721151869
"CAN","cpi",0.1,2005,3,2005,NA,0.5,1.36271470593785,1.54785273652275,2.18071628336509,1.4552837212303,FALSE,1.59150146801232
"CAN","cpi",0.1,2005,3,2004,NA,1,0.701034332863247,0.891939091184293,2.18071628336509,0.79648671202377,FALSE,3.05485407427837
"CAN","cpi",0.1,2005,3,2004,NA,1.5,0.957066645803729,1.31655238121221,2.18071628336509,1.13680951350797,FALSE,2.27984996241488
"CAN","cpi",0.1,2006,3,2006,NA,0,2.05208888101838,2.07687196546865,1.97519342012289,2.06448042324351,FALSE,0.195661886440254
"CAN","cpi",0.1,2006,3,2006,NA,0.5,1.68357815957145,1.85788812283265,1.97519342012289,1.77073314120205,FALSE,0.43498840168394
"CAN","cpi",0.1,2006,3,2005,NA,1,2.50092706555881,2.67523702882001,1.97519342012289,2.58808204718941,FALSE,1.34260695311881
"CAN","cpi",0.1,2006,3,2005,NA,1.5,0.603645482132457,0.920505055700999,1.97519342012289,0.762075268916728,FALSE,2.66061149450607
"CAN","cpi",0.1,2007,3,2007,NA,0,2.09563285542927,2.12051395473027,2.10062087284572,2.10807340507977,TRUE,0.0248810993010071
"CAN","cpi",0.1,2007,3,2007,NA,0.5,2.00929849832197,2.18590693017153,2.10062087284572,2.09760271424675,TRUE,0.176608431849559
"CAN","cpi",0.1,2007,3,2006,NA,1,0.344937602569934,0.53278731467781,2.10062087284572,0.438862458623872,FALSE,3.67192428581435
"CAN","cpi",0.1,2007,3,2006,NA,1.5,0.955686410208454,1.20609754529604,2.10062087284572,1.08089197775225,FALSE,2.23824075186466
"CAN","cpi",0.1,2008,3,2008,NA,0,2.90401123323688,2.92532383438651,2.31447335265955,2.9146675338117,FALSE,1.33139678021036
"CAN","cpi",0.1,2008,3,2008,NA,0.5,0.956812926747416,1.13444197768789,2.31447335265955,1.04562745221765,FALSE,2.79992099532195
"CAN","cpi",0.1,2008,3,2007,NA,1,0.263043442957709,0.467016917814637,2.31447335265955,0.365030180386173,FALSE,4.30943221895674
"CAN","cpi",0.1,2008,3,2007,NA,1.5,1.9297640218331,2.15238376720959,2.31447335265955,2.04107389452134,FALSE,0.582818824154187
"CAN","cpi",0.1,2009,3,2009,NA,0,0.250584644114748,0.294653028318111,0.284533874408197,0.272618836216429,TRUE,0.0440683842033627
"CAN","cpi",0.1,2009,3,2009,NA,0.5,-0.900069600664904,-0.714783076371166,0.284533874408197,-0.807426338518035,FALSE,2.40599085935899
"CAN","cpi",0.1,2009,3,2008,NA,1,3.17126787513267,3.39584602016704,0.284533874408197,3.28355694764985,FALSE,6.63954259108875
"CAN","cpi",0.1,2009,3,2008,NA,1.5,0.590297627439159,0.816456283038666,0.284533874408197,0.703376955238912,FALSE,0.905633662334978
"CAN","cpi",0.1,2010,3,2010,NA,0,1.7051318178454,1.74902891016807,1.75525687020327,1.72708036400674,FALSE,0.0577370035120072
"CAN","cpi",0.1,2010,3,2010,NA,0.5,1.33187502838455,1.51299029557877,1.75525687020327,1.42243266198166,FALSE,0.71948543302645
"CAN","cpi",0.1,2010,3,2009,NA,1,0.370827633734791,0.660831240424126,1.75525687020327,0.515829437079458,FALSE,2.7220605617541
"CAN","cpi",0.1,2010,3,2009,NA,1.5,-0.81140143535146,-0.521397828662126,1.75525687020327,-0.666399632006793,FALSE,5.34923627083466
"CAN","cpi",0.1,2011,3,2011,NA,0,2.80622350096972,2.85119887359724,2.85717434028225,2.82871118728348,FALSE,0.0582541874830862
"CAN","cpi",0.1,2011,3,2011,NA,0.5,2.50416737171454,2.68194554718632,2.85717434028225,2.59305645945043,FALSE,0.567175493462733
"CAN","cpi",0.1,2011,3,2010,NA,1,1.43101030313732,1.73288668310557,2.85717434028225,1.58194849312145,FALSE,2.80029339591641
"CAN","cpi",0.1,2011,3,2010,NA,1.5,0.857724127593115,1.15960050756137,2.85717434028225,1.00866231757724,FALSE,4.07426267490354
"CAN","cpi",0.1,2012,3,2012,NA,0,1.44393994672938,1.48969508217816,1.50118536134935,1.46681751445377,FALSE,0.0712890891625242
"CAN","cpi",0.1,2012,3,2012,NA,0.5,1.55009391803453,1.72723802318057,1.50118536134935,1.63866597060755,FALSE,0.285829786668681
"CAN","cpi",0.1,2012,3,2011,NA,1,0.697812402132066,0.998668695842799,1.50118536134935,0.848240548987433,FALSE,1.41755999483639
"CAN","cpi",0.1,2012,3,2011,NA,1.5,1.53341484502978,1.83427113874051,1.50118536134935,1.68384299188515,FALSE,0.372477368556141
"CAN","cpi",0.1,2013,3,2013,NA,0,1.00830904142169,1.05335326686087,0.931270594714462,1.03083115414128,FALSE,0.21624077367746
"CAN","cpi",0.1,2013,3,2013,NA,0.5,0.912663303817421,1.0910179601131,0.931270594714462,1.00184063196526,TRUE,0.178354656295674
"CAN","cpi",0.1,2013,3,2012,NA,1,-0.424052569711566,-0.121039412033206,0.931270594714462,-0.272545990872386,FALSE,2.64147983933984
"CAN","cpi",0.1,2013,3,2012,NA,1.5,0.807102225296891,1.11011538297525,0.931270594714462,0.958608804136071,TRUE,0.30301315767836
"CAN","cpi",0.1,2014,3,2014,NA,0,1.96361794038853,2.0086476298255,1.87639912240215,1.98613278510701,FALSE,0.238849284962259
"CAN","cpi",0.1,2014,3,2014,NA,0.5,1.86568022232399,2.03879748015204,1.87639912240215,1.95223885123801,TRUE,0.173117257828059
"CAN","cpi",0.1,2014,3,2013,NA,1,0.53932245213566,0.837994922432034,1.87639912240215,0.688658687283847,FALSE,2.60623735911886
"CAN","cpi",0.1,2014,3,2013,NA,1.5,0.742257964736315,1.04093043503269,1.87639912240215,0.891594199884501,FALSE,2.15526955333962
"CAN","cpi",0.1,2015,3,2015,NA,0,1.22391596589866,1.26892136164642,1.11090953952792,1.24641866377254,FALSE,0.296130787682742
"CAN","cpi",0.1,2015,3,2015,NA,0.5,0.140835351018958,0.255398973160438,1.11090953952792,0.198117162089698,FALSE,2.01569821406921
"CAN","cpi",0.1,2015,3,2014,NA,1,0.385628470704973,0.67858367448856,1.11090953952792,0.532106072596766,FALSE,1.25367934831549
"CAN","cpi",0.1,2015,3,2014,NA,1.5,1.66388160046089,1.95683680424447,1.11090953952792,1.81035920235268,FALSE,1.52178200585685
"CAN","cpi",0.1,2016,3,2016,NA,0,1.42012988632241,1.46356926156937,1.41168586698797,1.44184957394589,FALSE,0.0622038626568335
"CAN","cpi",0.1,2016,3,2016,NA,0.5,0.782516432825885,0.903683661986359,1.41168586698797,0.843100047406122,FALSE,1.25006101805293
"CAN","cpi",0.1,2016,3,2015,NA,1,1.09269385080512,1.37700322460034,1.41168586698797,1.23484853770273,FALSE,0.361381912434389
"CAN","cpi",0.1,2016,3,2015,NA,1.5,-0.034691934720325,0.249617439074891,1.41168586698797,0.107462752177283,FALSE,2.86668365804649
"CAN","cpi",0.1,2017,3,2017,NA,0,1.49573130827561,1.53906720451785,1.57888581671161,1.51739925639673,FALSE,0.131821701117257
"CAN","cpi",0.1,2017,3,2017,NA,0.5,1.82203003114583,1.94137535441191,1.57888581671161,1.88170269277887,FALSE,0.659665799786571
"CAN","cpi",0.1,2017,3,2016,NA,1,0.276207854791799,0.560468838718689,1.57888581671161,0.418338346755244,FALSE,2.54740982391116
"CAN","cpi",0.1,2017,3,2016,NA,1.5,0.383445595373846,0.667706579300736,1.57888581671161,0.52557608733729,FALSE,2.30910373372884
"CAN","cpi",0.1,2018,3,2018,NA,0,2.38378335814499,2.42844421355811,2.23316270166586,2.40611378585155,FALSE,0.379373425366741
"CAN","cpi",0.1,2018,3,2018,NA,0.5,2.55744436918883,2.68669604729525,2.23316270166586,2.62207020824204,FALSE,0.849877605935244
"CAN","cpi",0.1,2018,3,2017,NA,1,0.265386060083151,0.542840141129189,2.23316270166586,0.40411310060617,FALSE,4.03372643779419
"CAN","cpi",0.1,2018,3,2017,NA,1.5,1.39914820662625,1.67660228767228,2.23316270166586,1.53787524714926,FALSE,1.51425500103176
"CAN","cpi",0.1,2019,3,2019,NA,0,1.98900987281919,2.03384692508329,1.91921619871868,2.01142839895124,FALSE,0.199934105820782
"CAN","cpi",0.1,2019,3,2019,NA,0.5,1.44978672612619,1.58788743468554,1.91921619871868,1.51883708040586,FALSE,0.874386850855228
"CAN","cpi",0.1,2019,3,2018,NA,1,1.28031652030988,1.55854316172709,1.91921619871868,1.41942984101848,FALSE,1.0797222791763
"CAN","cpi",0.1,2019,3,2018,NA,1.5,1.92193839019152,2.20016503160872,1.91921619871868,2.06105171090012,FALSE,0.28427595580128
"CAN","cpi",0.1,2020,3,2020,NA,0,0.716462727884852,0.735896977697297,0.71139989671781,0.726179852791075,FALSE,0.0306849857392044
"CAN","cpi",0.1,2020,3,2020,NA,0.5,1.01417694901692,1.13034195194413,0.71139989671781,1.07225945048052,FALSE,0.789002896925229
"CAN","cpi",0.1,2020,3,2019,NA,1,0.882144604694957,1.15613468186117,0.71139989671781,1.01913964327806,FALSE,0.653422761559875
"CAN","cpi",0.1,2020,3,2019,NA,1.5,1.09062141492207,1.36461149208829,0.71139989671781,1.22761645350518,FALSE,1.11670456206458
"CAN","cpi",0.1,2021,3,2021,NA,0,3.30034160552838,3.31943345828946,3.31148121717802,3.30988753190892,TRUE,0.0190918527610791
"CAN","cpi",0.1,2021,3,2021,NA,0.5,2.43933337687433,2.54047478044708,3.31148121717802,2.4899040786607,FALSE,1.81448904075263
"CAN","cpi",0.1,2021,3,2020,NA,1,1.12548854126913,1.27032486779708,3.31148121717802,1.1979067045331,FALSE,4.68073932515227
"CAN","cpi",0.1,2021,3,2020,NA,1.5,0.549473401854534,0.791780220126772,3.31148121717802,0.670626810990653,FALSE,5.84164236727502
"CAN","cpi",0.1,2022,3,2022,NA,0,6.53626216323647,6.55485362034065,6.50977236228281,6.54555789178856,FALSE,0.0774576814456485
"CAN","cpi",0.1,2022,3,2022,NA,0.5,5.90820583540797,6.02117413671609,6.50977236228281,5.96468998606203,FALSE,1.19874213590083
"CAN","cpi",0.1,2022,3,2021,NA,1,3.33628505993457,3.50582023652504,6.50977236228281,3.42105264822981,FALSE,6.84498434494107
"CAN","cpi",0.1,2022,3,2021,NA,1.5,1.8067497826279,2.05877553505133,6.50977236228281,1.93276265883962,FALSE,10.1431298129378
"CAN","cpi",0.1,2023,3,2023,NA,0,3.96307343496748,3.98070026991887,3.78831288758619,3.97188685244318,FALSE,0.40598360690981
"CAN","cpi",0.1,2023,3,2023,NA,0.5,2.78100277758396,2.89739742950864,3.78831288758619,2.8392001035463,FALSE,2.09620678098591
"CAN","cpi",0.1,2023,3,2022,NA,1,2.75392224148814,2.98377758830703,3.78831288758619,2.86884991489758,FALSE,2.01771156743925
"CAN","cpi",0.1,2023,3,2022,NA,1.5,3.84577145460641,4.22057349571178,3.78831288758619,4.03317247515909,FALSE,0.502487745594745
"CAN","cpi",0.1,2024,3,2023,NA,1,2.78565568493111,3.01327939865612,NA,2.89946754179362,NA,NA
"CAN","cpi",0.1,2024,3,2023,NA,1.5,0.991996066251606,1.36783696939141,NA,1.17991651782151,NA,NA
"CAN","cpi",0.2,1959,3,1959,NA,0,1.15185921365952,1.22723276936401,1.19382698397654,1.18954599151176,TRUE,0.0753735557044917
"CAN","cpi",0.2,1959,3,1959,NA,0.5,0.293113310105044,0.797503344216806,1.19382698397654,0.545308327160925,FALSE,1.4951991335111
"CAN","cpi",0.2,1959,3,1958,NA,1,0.339687539290785,1.92621474569014,1.19382698397654,1.13295114249046,TRUE,1.58652720639935
"CAN","cpi",0.2,1959,3,1958,NA,1.5,-0.484933391181588,1.91977756734017,1.19382698397654,0.717422088079289,TRUE,2.40471095852176
"CAN","cpi",0.2,1960,3,1960,NA,0,0.988566897702164,1.05865918748738,1.34209404870695,1.02361304259477,FALSE,0.778679442834145
"CAN","cpi",0.2,1960,3,1960,NA,0.5,0.407283143112549,0.889938872314765,1.34209404870695,0.648611007713657,FALSE,1.61304367018268
"CAN","cpi",0.2,1960,3,1959,NA,1,1.77589399324237,2.97744347047035,1.34209404870695,2.37666873185636,FALSE,2.28604933856652
"CAN","cpi",0.2,1960,3,1959,NA,1.5,-1.23710505543823,0.538920696303677,1.34209404870695,-0.349092179567277,FALSE,3.78395913275009
"CAN","cpi",0.2,1961,3,1961,NA,0,0.968260705584468,1.05016625629568,1.00921348094007,1.00921348094007,TRUE,0.0819055507112068
"CAN","cpi",0.2,1961,3,1961,NA,0.5,0.769466484234743,1.2489604776454,1.00921348094007,1.00921348094007,TRUE,0.479493993410658
"CAN","cpi",0.2,1961,3,1960,NA,1,-0.501680453054877,0.609221378261942,1.00921348094007,0.0537704626035329,FALSE,2.11088208801214
"CAN","cpi",0.2,1961,3,1960,NA,1.5,-1.15100946018959,0.486376687876796,1.00921348094007,-0.332316386156399,FALSE,2.94447813072458
"CAN","cpi",0.2,1962,3,1962,NA,0,1.03205427244934,1.09870595264725,1.04957947883042,1.0653801125483,TRUE,0.0666516801979053
"CAN","cpi",0.2,1962,3,1962,NA,0.5,-0.191498972226904,0.191498972226904,1.04957947883042,0,FALSE,2.52819921096259
"CAN","cpi",0.2,1962,3,1961,NA,1,-0.550477807113632,0.550477807113632,1.04957947883042,0,FALSE,2.34870979351922
"CAN","cpi",0.2,1962,3,1961,NA,1.5,-0.819201276890317,0.819201276890317,1.04957947883042,0,FALSE,2.21434805863088
"CAN","cpi",0.2,1963,3,1963,NA,0,1.79686729685654,1.86363178869042,1.60677118395228,1.83024954277348,FALSE,0.542004774094515
"CAN","cpi",0.2,1963,3,1963,NA,0.5,0.650484758783798,1.02317267045121,1.60677118395228,0.836828714617504,FALSE,1.8316841954201
"CAN","cpi",0.2,1963,3,1962,NA,1,1.25714636209389,1.96155565181263,1.60677118395228,1.60935100695326,TRUE,0.704409289718739
"CAN","cpi",0.2,1963,3,1962,NA,1.5,-0.415602811834266,0.415602811834266,1.60677118395228,0,FALSE,3.80912655396358
"CAN","cpi",0.2,1964,3,1964,NA,0,1.91472601289154,1.98916695596894,1.88764670034376,1.95194648443024,FALSE,0.142139224446859
"CAN","cpi",0.2,1964,3,1964,NA,0.5,1.16216121339154,1.38399512347642,1.88764670034376,1.27307816843398,FALSE,1.48096285225323
"CAN","cpi",0.2,1964,3,1963,NA,1,2.95444809316191,3.44899855958825,1.88764670034376,3.20172332637508,FALSE,3.16155394847172
"CAN","cpi",0.2,1964,3,1963,NA,1.5,-0.318823888479022,0.318823888479022,1.88764670034376,0,FALSE,4.55970480661989
"CAN","cpi",0.2,1965,3,1965,NA,0,2.26060637714636,2.3353974122501,2.29538304394236,2.29800189469823,TRUE,0.0747910351037451
"CAN","cpi",0.2,1965,3,1965,NA,0.5,1.28291583191414,1.50594853322238,2.29538304394236,1.39443218256826,FALSE,2.19661897810818
"CAN","cpi",0.2,1965,3,1964,NA,1,1.24215279014125,1.71941457064771,2.29538304394236,1.48078368039448,FALSE,1.91718296374307
"CAN","cpi",0.2,1965,3,1964,NA,1.5,0.0546265092802317,0.53188828978669,2.29538304394236,0.293257399533461,FALSE,4.88599866589562
"CAN","cpi",0.2,1966,3,1966,NA,0,3.74022993225548,3.80999543264145,3.72486065470629,3.77511268244847,FALSE,0.108188694258951
"CAN","cpi",0.2,1966,3,1966,NA,0.5,3.26554714683183,3.4893272477366,3.72486065470629,3.37743719728421,FALSE,0.812613618328997
"CAN","cpi",0.2,1966,3,1965,NA,1,1.7462579549877,2.22348150790318,3.72486065470629,1.98486973144544,FALSE,4.23067141992325
"CAN","cpi",0.2,1966,3,1965,NA,1.5,0.340029057543294,0.817252610458782,3.72486065470629,0.578640834001038,FALSE,7.74624366353426
"CAN","cpi",0.2,1967,3,1967,NA,0,3.64924308273055,3.71827233156162,3.49360316391996,3.68375770714608,FALSE,0.458129045857545
"CAN","cpi",0.2,1967,3,1967,NA,0.5,1.99416165820759,2.22693250275758,3.49360316391996,2.11054708048259,FALSE,3.39944749745594
"CAN","cpi",0.2,1967,3,1966,NA,1,1.77905332663563,2.2610128240344,3.49360316391996,2.02003307533501,FALSE,3.56343534711267
"CAN","cpi",0.2,1967,3,1966,NA,1.5,1.47460561509734,1.95656511249611,3.49360316391996,1.71558536379673,FALSE,4.32455462595839
"CAN","cpi",0.2,1968,3,1968,NA,0,4.03503561349189,4.10667874289526,3.95128347779386,4.07085717819357,FALSE,0.281023468648451
"CAN","cpi",0.2,1968,3,1968,NA,0.5,3.41140048887148,3.60324417665855,3.95128347779386,3.50732233276501,FALSE,1.06194194062534
"CAN","cpi",0.2,1968,3,1967,NA,1,3.41442474467334,3.9116488413605,3.95128347779386,3.66303679301692,FALSE,0.59631068777055
"CAN","cpi",0.2,1968,3,1967,NA,1.5,0.586269470701476,1.08349356738863,3.95128347779386,0.834881519045053,FALSE,7.66669887270022
"CAN","cpi",0.2,1969,3,1969,NA,0,4.48933172525308,4.56132107491199,4.42679496126681,4.52532640008253,FALSE,0.228331259624564
"CAN","cpi",0.2,1969,3,1969,NA,0.5,2.59913363509722,2.7826787805964,4.42679496126681,2.69090620784681,FALSE,4.29383559717521
"CAN","cpi",0.2,1969,3,1968,NA,1,3.86281243620144,4.29306621906636,4.42679496126681,4.0779393276339,FALSE,0.764575638366058
"CAN","cpi",0.2,1969,3,1968,NA,1.5,1.39709182192212,1.82734560478704,4.42679496126681,1.61221871335458,FALSE,6.92887717406435
"CAN","cpi",0.2,1970,3,1970,NA,0,3.52456362381118,3.5930084849084,3.28128405769805,3.55878605435979,FALSE,0.676643776380053
"CAN","cpi",0.2,1970,3,1970,NA,0.5,3.63320861976972,3.86617692830036,3.28128405769805,3.74969277403504,FALSE,1.11277971370982
"CAN","cpi",0.2,1970,3,1969,NA,1,2.8947372704067,3.32899489524547,3.28128405769805,3.11186608282608,TRUE,0.434257624838772
"CAN","cpi",0.2,1970,3,1969,NA,1.5,0.547813164840252,0.982070789679023,3.28128405769805,0.764941977259638,FALSE,6.18229079488633
"CAN","cpi",0.2,1971,3,1971,NA,0,2.77711702670707,2.85317403907035,2.64123406634756,2.81514553288871,FALSE,0.415764413262052
"CAN","cpi",0.2,1971,3,1971,NA,0.5,0.968721687093104,1.26475292823732,2.64123406634756,1.11673730766521,FALSE,3.73723408641982
"CAN","cpi",0.2,1971,3,1970,NA,1,1.71948144708184,2.12138756212606,2.64123406634756,1.92043450460395,FALSE,1.70152237559798
"CAN","cpi",0.2,1971,3,1970,NA,1.5,1.50098769448391,1.90289380952812,2.64123406634756,1.70194075200601,FALSE,2.24775675709282
"CAN","cpi",0.2,1972,3,1972,NA,0,5.0253936741914,5.07118156892807,4.83230569625923,5.04828762155974,FALSE,0.528507839567097
"CAN","cpi",0.2,1972,3,1972,NA,0.5,3.9356772788846,4.25637042830975,4.83230569625923,4.09602385359717,FALSE,1.76053131929886
"CAN","cpi",0.2,1972,3,1971,NA,1,3.97359721780321,4.36264501487111,4.83230569625923,4.16812111633716,FALSE,1.5631995005382
"CAN","cpi",0.2,1972,3,1971,NA,1.5,0.497506106817135,0.886553903885043,4.83230569625923,0.692030005351089,FALSE,10.2534272780034
"CAN","cpi",0.2,1973,3,1973,NA,0,7.22875948807352,7.27316315646613,7.12388603531779,7.25096132226983,FALSE,0.306587300281939
"CAN","cpi",0.2,1973,3,1973,NA,0.5,5.15579212912258,5.45312821667905,7.12388603531779,5.30446017290082,FALSE,4.47423063415332
"CAN","cpi",0.2,1973,3,1972,NA,1,4.72557019594612,5.11995051989919,7.12388603531779,4.92276035792265,FALSE,5.40421911249957
"CAN","cpi",0.2,1973,3,1972,NA,1.5,1.55644628178885,2.02731129969521,7.12388603531779,1.79187879074203,FALSE,13.2123018569628
"CAN","cpi",0.2,1974,3,1974,NA,0,10.1286613221456,10.1691610981564,10.2717243737774,10.148911210151,FALSE,0.296907965063362
"CAN","cpi",0.2,1974,3,1974,NA,0.5,7.7392537678811,8.06967201701989,10.2717243737774,7.90446289245049,FALSE,5.83554914103262
"CAN","cpi",0.2,1974,3,1973,NA,1,7.07508582028153,7.53443611485065,10.2717243737774,7.30476096756609,FALSE,7.30257094188605
"CAN","cpi",0.2,1974,3,1973,NA,1.5,2.26368421246234,2.86897397921147,10.2717243737774,2.5663290958369,FALSE,19.112165753164
"CAN","cpi",0.2,1975,3,1975,NA,0,10.1480102854237,10.2013039353349,10.0232981493341,10.1746571103793,FALSE,0.365073990135069
"CAN","cpi",0.2,1975,3,1975,NA,0.5,7.87515500513042,8.26789113315887,10.0232981493341,8.07152306914465,FALSE,4.78125366846657
"CAN","cpi",0.2,1975,3,1974,NA,1,7.54118698911661,8.0963686822662,10.0232981493341,7.8187778356914,FALSE,5.3725053608194
"CAN","cpi",0.2,1975,3,1974,NA,1.5,3.18675767175751,4.11152782225121,10.0232981493341,3.64914274700436,FALSE,15.704195968201
"CAN","cpi",0.2,1976,3,1976,NA,0,7.16339921585009,7.21650364502601,7.22784311401172,7.18995143043805,FALSE,0.081453101640184
"CAN","cpi",0.2,1976,3,1976,NA,0.5,6.40972514759225,6.81694213811391,7.22784311401172,6.61333364285308,FALSE,1.43446943026618
"CAN","cpi",0.2,1976,3,1975,NA,1,8.35876975598468,8.81117239582131,7.22784311401172,8.584971075903,FALSE,3.27971924476904
"CAN","cpi",0.2,1976,3,1975,NA,1.5,2.64637327423307,3.64839812567875,7.22784311401172,3.14738569995591,FALSE,9.9506373222781
"CAN","cpi",0.2,1977,3,1977,NA,0,7.47406245767534,7.52947643240358,7.58101410153764,7.50176944503946,FALSE,0.184258147563403
"CAN","cpi",0.2,1977,3,1977,NA,0.5,6.19895045423823,6.61248232229924,7.58101410153764,6.40571638826874,FALSE,2.83486131615701
"CAN","cpi",0.2,1977,3,1976,NA,1,3.75437829626987,4.34380742527041,7.58101410153764,4.04909286077014,FALSE,8.68244581966862
"CAN","cpi",0.2,1977,3,1976,NA,1.5,2.10998528451412,3.07866967003572,7.58101410153764,2.59432747727492,FALSE,12.2245454642764
"CAN","cpi",0.2,1978,3,1978,NA,0,8.56020136254613,8.62189558513685,8.50208927062595,8.59104847384149,FALSE,0.206974452391187
"CAN","cpi",0.2,1978,3,1978,NA,0.5,7.14415044397223,7.53812773069766,8.50208927062595,7.34113908733495,FALSE,2.80388113654614
"CAN","cpi",0.2,1978,3,1977,NA,1,5.53469658497057,6.22336078539245,8.50208927062595,5.87902868518151,FALSE,6.38548541350562
"CAN","cpi",0.2,1978,3,1977,NA,1.5,3.40484267368573,4.38102704315856,8.50208927062595,3.89293485842214,FALSE,11.2788399381413
"CAN","cpi",0.2,1979,3,1979,NA,0,8.45649884342469,8.51652935945084,8.65147652410481,8.48651410143776,FALSE,0.397398427661081
"CAN","cpi",0.2,1979,3,1979,NA,0.5,7.265369597205,7.65836534409246,8.65147652410481,7.46186747064873,FALSE,2.87577369691833
"CAN","cpi",0.2,1979,3,1978,NA,1,6.57737733551703,7.29634383207634,8.65147652410481,6.93686058379669,FALSE,4.10679822663048
"CAN","cpi",0.2,1979,3,1978,NA,1.5,3.46191305201184,4.37402898893376,8.65147652410481,3.9179710204728,FALSE,11.6057347748496
"CAN","cpi",0.2,1980,3,1980,NA,0,9.40191042476487,9.47231213833951,9.5171912664748,9.43711128155219,FALSE,0.182599533912867
"CAN","cpi",0.2,1980,3,1980,NA,0.5,7.7041135517414,8.07876797797562,9.5171912664748,7.89144076485851,FALSE,3.97071264748216
"CAN","cpi",0.2,1980,3,1979,NA,1,5.34304274654507,6.04471314769099,9.5171912664748,5.69387794711803,FALSE,9.38286569810543
"CAN","cpi",0.2,1980,3,1979,NA,1.5,3.82399534103845,4.7199856240963,9.5171912664748,4.27199048256738,FALSE,12.8890043890041
"CAN","cpi",0.2,1981,3,1981,NA,0,11.5809194509238,11.6541580673843,11.5813425032741,11.617538759154,TRUE,0.0732386164604684
"CAN","cpi",0.2,1981,3,1981,NA,0.5,11.1179819312035,11.4896698889779,11.5813425032741,11.3038259100907,FALSE,0.600869493514976
"CAN","cpi",0.2,1981,3,1980,NA,1,7.85098027947729,8.6074691723316,11.5813425032741,8.22922472590444,FALSE,8.19117222021066
"CAN","cpi",0.2,1981,3,1980,NA,1.5,4.115169754595,4.98119759633743,11.5813425032741,4.54818367546621,FALSE,17.3663901090842
"CAN","cpi",0.2,1982,3,1982,NA,0,10.1546301812221,10.2181642434476,10.1124203763629,10.1863972123348,FALSE,0.169058574373377
"CAN","cpi",0.2,1982,3,1982,NA,0.5,9.22987334245998,9.53035846089929,10.1124203763629,9.38011590167964,FALSE,1.75563990709844
"CAN","cpi",0.2,1982,3,1981,NA,1,8.55619564265918,9.29930354739491,10.1124203763629,8.92774959502704,FALSE,2.77589997715582
"CAN","cpi",0.2,1982,3,1981,NA,1.5,7.22607802248618,8.08768319634296,10.1124203763629,7.65688060941457,FALSE,5.92344812390675
"CAN","cpi",0.2,1983,3,1983,NA,0,5.76244803749709,5.82218096124523,5.67091787896303,5.79231449937116,FALSE,0.288558320083282
"CAN","cpi",0.2,1983,3,1983,NA,0.5,4.33460856169478,4.64410117331599,5.67091787896303,4.48935486750539,FALSE,2.87653437573882
"CAN","cpi",0.2,1983,3,1982,NA,1,6.32468279074367,7.04253408250815,5.67091787896303,6.68360843662591,FALSE,2.35226357121607
"CAN","cpi",0.2,1983,3,1982,NA,1.5,5.44600371756204,6.16385500932652,5.67091787896303,5.80492936344428,TRUE,0.717851291764484
"CAN","cpi",0.2,1984,3,1984,NA,0,4.15947441351849,4.21321406207032,4.19799576814029,4.1863442377944,TRUE,0.0537396485518276
"CAN","cpi",0.2,1984,3,1984,NA,0.5,4.22410442337279,4.5232739573315,4.19799576814029,4.37368919035215,FALSE,0.364441172039967
"CAN","cpi",0.2,1984,3,1983,NA,1,4.4072398502445,5.24323986702229,4.19799576814029,4.8252398586334,FALSE,1.35911022203832
"CAN","cpi",0.2,1984,3,1983,NA,1.5,1.1139012705244,2.15913573137768,4.19799576814029,1.63651850095104,FALSE,6.14238455275981
"CAN","cpi",0.2,1985,3,1985,NA,0,3.84968803030613,3.90009123796344,3.86444262005169,3.87488963413478,TRUE,0.0504032076573155
"CAN","cpi",0.2,1985,3,1985,NA,0.5,3.49357690082017,3.84551230254531,3.86444262005169,3.66954460168274,FALSE,0.399261195491096
"CAN","cpi",0.2,1985,3,1984,NA,1,2.06130120995818,2.97391707457244,3.86444262005169,2.51760914226531,FALSE,3.1389297283124
"CAN","cpi",0.2,1985,3,1984,NA,1.5,2.20106127796749,3.28831718208822,3.86444262005169,2.74468923002786,FALSE,2.52756949902941
"CAN","cpi",0.2,1986,3,1986,NA,0,4.0668166067468,4.11337101366875,4.08685396749431,4.09009381020777,TRUE,0.0465544069219472
"CAN","cpi",0.2,1986,3,1986,NA,0.5,4.03416962794891,4.34318524509166,4.08685396749431,4.18867743652029,TRUE,0.309015617142755
"CAN","cpi",0.2,1986,3,1985,NA,1,2.51885596512316,3.40807476876956,4.08685396749431,2.96346536694636,FALSE,2.58616680045828
"CAN","cpi",0.2,1986,3,1985,NA,1.5,2.12702400742348,3.185886282621,4.08685396749431,2.65645514502224,FALSE,3.3112814873808
"CAN","cpi",0.2,1987,3,1987,NA,0,4.28348970345766,4.32416527493023,4.23980729277887,4.30382748919395,FALSE,0.149881598169551
"CAN","cpi",0.2,1987,3,1987,NA,0.5,3.46219515853272,3.7527057286584,4.23980729277887,3.60745044359556,FALSE,1.50826448042685
"CAN","cpi",0.2,1987,3,1986,NA,1,3.04759976030814,3.93148812521314,4.23980729277887,3.48954394276064,FALSE,1.65468628381933
"CAN","cpi",0.2,1987,3,1986,NA,1.5,2.53286416256676,3.56836813388728,4.23980729277887,3.05061614822702,FALSE,2.71410186854949
"CAN","cpi",0.2,1988,3,1988,NA,0,3.94582537734379,3.98719864015559,3.92899537638065,3.96651200874969,FALSE,0.0834482652196318
"CAN","cpi",0.2,1988,3,1988,NA,0.5,3.13069594942094,3.42107274184337,3.92899537638065,3.27588434563216,FALSE,1.56018337876564
"CAN","cpi",0.2,1988,3,1987,NA,1,2.97777836971461,3.75337869505082,3.92899537638065,3.36557853238272,FALSE,1.2146420286608
"CAN","cpi",0.2,1988,3,1987,NA,1.5,1.68884819188112,2.76896512788875,3.92899537638065,2.22890665988493,FALSE,3.98019255723739
"CAN","cpi",0.2,1989,3,1989,NA,0,4.94263105336528,4.98185139153707,4.82821664544208,4.96224122245117,FALSE,0.325256357979798
"CAN","cpi",0.2,1989,3,1989,NA,0.5,4.01197531127506,4.29294832397848,4.82821664544208,4.15246181762677,FALSE,1.6191438163624
"CAN","cpi",0.2,1989,3,1988,NA,1,2.98886030854672,3.71237522693298,4.82821664544208,3.35061776773985,FALSE,3.513118464659
"CAN","cpi",0.2,1989,3,1988,NA,1.5,1.50327317283616,2.56259103988042,4.82821664544208,2.03293210635829,FALSE,6.7233818809484
"CAN","cpi",0.2,1990,3,1990,NA,0,4.47034533060902,4.51198931855907,4.64347549432717,4.49116732458404,FALSE,0.370359427370309
"CAN","cpi",0.2,1990,3,1990,NA,0.5,4.67142306891076,4.94127960909207,4.64347549432717,4.80635133900141,FALSE,0.339725476640279
"CAN","cpi",0.2,1990,3,1989,NA,1,4.10576523526309,4.80089337526094,4.64347549432717,4.45332930526201,TRUE,0.695128139997855
"CAN","cpi",0.2,1990,3,1989,NA,1.5,2.42818392002369,3.45169894591494,4.64347549432717,2.93994143296931,FALSE,4.00295639692183
"CAN","cpi",0.2,1991,3,1991,NA,0,5.57646642083369,5.61681664941252,5.4258100696218,5.5966415351231,FALSE,0.416991106608565
"CAN","cpi",0.2,1991,3,1991,NA,0.5,7.90457595179267,8.18034492851892,5.4258100696218,8.0424604401558,FALSE,6.47268368215344
"CAN","cpi",0.2,1991,3,1990,NA,1,2.65442750325958,3.36090020453787,5.4258100696218,3.00766385389873,FALSE,5.8687473639881
"CAN","cpi",0.2,1991,3,1990,NA,1.5,2.93464174129569,3.91458471372304,5.4258100696218,3.42461322750937,FALSE,4.75800636217423
"CAN","cpi",0.2,1992,3,1992,NA,0,1.44012411929506,1.48224189969725,1.47496888572843,1.46118300949616,TRUE,0.0421177804021946
"CAN","cpi",0.2,1992,3,1992,NA,0.5,0.99528250443976,1.48065384672964,1.47496888572843,1.2379681755847,TRUE,0.485371342289878
"CAN","cpi",0.2,1992,3,1991,NA,1,1.57117345906262,2.17349959922958,1.47496888572843,1.8723365291461,FALSE,0.842837573502425
"CAN","cpi",0.2,1992,3,1991,NA,1.5,6.46277026369385,7.3359036730849,1.47496888572843,6.89933696838937,FALSE,13.3426368543046
"CAN","cpi",0.2,1993,3,1993,NA,0,1.78072367876153,1.82368767235653,1.84351085411351,1.80220567555903,FALSE,0.0925219479874524
"CAN","cpi",0.2,1993,3,1993,NA,0.5,1.97563746916313,2.46073249542378,1.84351085411351,2.21818498229346,FALSE,0.815411563884695
"CAN","cpi",0.2,1993,3,1992,NA,1,1.10420164630217,1.59988433746023,1.84351085411351,1.3520429918812,FALSE,1.10474898279127
"CAN","cpi",0.2,1993,3,1992,NA,1.5,0.379762310850318,1.4872086638234,1.84351085411351,0.933485487336859,FALSE,1.99820182869836
"CAN","cpi",0.2,1994,3,1994,NA,0,0.180064649061191,0.224154665913191,0.161630694655448,0.202109657487191,FALSE,0.0901749028663593
"CAN","cpi",0.2,1994,3,1994,NA,0.5,-0.81209160194527,-0.333187812980284,0.161630694655448,-0.572639707462777,FALSE,1.71595005805432
"CAN","cpi",0.2,1994,3,1993,NA,1,0.897073923755387,1.38513673778133,0.161630694655448,1.14110533076836,FALSE,2.32667088677579
"CAN","cpi",0.2,1994,3,1993,NA,1.5,1.10831183942209,2.19215740649637,0.161630694655448,1.65023462295923,FALSE,3.45054842899089
"CAN","cpi",0.2,1995,3,1995,NA,0,2.12768563498266,2.16933935526362,2.11688403676572,2.14851249512314,FALSE,0.068657715823313
"CAN","cpi",0.2,1995,3,1995,NA,0.5,2.37203532127584,2.82941354490901,2.11688403676572,2.60072443309243,FALSE,1.09525643490849
"CAN","cpi",0.2,1995,3,1994,NA,1,1.19096043791272,1.6765190149311,2.11688403676572,1.43373972642191,FALSE,1.58647113160491
"CAN","cpi",0.2,1995,3,1994,NA,1.5,-1.83152576235764,-0.700700906133908,2.11688403676572,-1.26611333424577,FALSE,8.17478721347279
"CAN","cpi",0.2,1996,3,1996,NA,0,1.41599549381848,1.45730991468229,1.55309584667184,1.43665270425039,FALSE,0.280779250837693
"CAN","cpi",0.2,1996,3,1996,NA,0.5,1.00591332126052,1.45961328604021,1.55309584667184,1.23276330365037,FALSE,0.687406366358766
"CAN","cpi",0.2,1996,3,1995,NA,1,0.502903277004069,0.95660324178376,1.55309584667184,0.729753259393914,FALSE,1.9449314769999
"CAN","cpi",0.2,1996,3,1995,NA,1.5,1.73559153363494,2.90250525009593,1.55309584667184,2.31904839186543,FALSE,1.62315293386873
"CAN","cpi",0.2,1997,3,1997,NA,0,1.65636478878927,1.70262478568264,1.60528783555959,1.67949478723595,FALSE,0.173952379967563
"CAN","cpi",0.2,1997,3,1997,NA,0.5,1.70844390414692,2.15739593782123,1.60528783555959,1.93291992098407,FALSE,0.706842205142619
"CAN","cpi",0.2,1997,3,1996,NA,1,0.3901544347838,0.839106468458109,1.60528783555959,0.614630451620954,FALSE,2.36440545142802
"CAN","cpi",0.2,1997,3,1996,NA,1.5,0.367782093458177,1.55654103493957,1.60528783555959,0.962161564198873,FALSE,1.31062594303145
"CAN","cpi",0.2,1998,3,1998,NA,0,0.943558205906474,0.990569154869109,0.988908029337191,0.967063680387792,TRUE,0.0470109489626345
"CAN","cpi",0.2,1998,3,1998,NA,0.5,1.1247849067101,1.57316429061664,0.988908029337191,1.34897459866337,FALSE,0.788071577338806
"CAN","cpi",0.2,1998,3,1997,NA,1,0.568500267292859,1.0168796511994,0.988908029337191,0.792689959246129,TRUE,0.44837938390654
"CAN","cpi",0.2,1998,3,1997,NA,1.5,0.692534790508853,1.87514521703007,0.988908029337191,1.28384000376946,TRUE,1.18261042652122
"CAN","cpi",0.2,1999,3,1999,NA,0,1.745230236521,1.79206244137108,1.7107350135213,1.76864633894604,FALSE,0.133070262349338
"CAN","cpi",0.2,1999,3,1999,NA,0.5,0.509974177976092,0.954225243224969,1.7107350135213,0.732099710600531,FALSE,2.33552549098969
"CAN","cpi",0.2,1999,3,1998,NA,1,0.14692703933519,0.591178104584068,1.7107350135213,0.369052571959629,FALSE,3.24314333759195
"CAN","cpi",0.2,1999,3,1998,NA,1.5,0.675853518562717,1.86108662189987,1.7107350135213,1.26847007023129,TRUE,1.18523310333715
"CAN","cpi",0.2,2000,3,2000,NA,0,2.67899092137708,2.7261652921036,2.6718361971244,2.70257810674034,FALSE,0.0650611813582318
"CAN","cpi",0.2,2000,3,2000,NA,0.5,1.73002754476609,2.18893857285143,2.6718361971244,1.95948305880876,FALSE,1.66615508876777
"CAN","cpi",0.2,2000,3,1999,NA,1,1.93209110581732,2.39100213390265,2.6718361971244,2.16154661985999,FALSE,1.1609961861397
"CAN","cpi",0.2,2000,3,1999,NA,1.5,-0.0816136480094076,1.08718140413693,2.6718361971244,0.50278387806376,FALSE,5.13043203461501
"CAN","cpi",0.2,2001,3,2001,NA,0,2.70988207655757,2.75320891116417,2.47906219852806,2.73154549386087,FALSE,0.620376529680369
"CAN","cpi",0.2,2001,3,2001,NA,0.5,1.43367779167647,1.88355877360204,2.47906219852806,1.65861828263926,FALSE,1.93863954424062
"CAN","cpi",0.2,2001,3,2000,NA,1,2.61639846692708,3.06627944885265,2.47906219852806,2.84133895788986,FALSE,0.793221652923112
"CAN","cpi",0.2,2001,3,2000,NA,1.5,0.571153879794204,1.71267320916518,2.47906219852806,1.14191354447969,FALSE,3.05749180277819
"CAN","cpi",0.2,2002,3,2002,NA,0,2.28847000135042,2.33718054795365,2.20880570551249,2.31282527465204,FALSE,0.247871286198063
"CAN","cpi",0.2,2002,3,2002,NA,0.5,1.01288914413842,1.48174982854344,2.20880570551249,1.24731948634093,FALSE,2.28650037682764
"CAN","cpi",0.2,2002,3,2001,NA,1,0.461061198684367,0.929921883089383,2.20880570551249,0.695491540886875,FALSE,3.66607024046277
"CAN","cpi",0.2,2002,3,2001,NA,1.5,-0.0900383313711263,1.04216156901381,2.20880570551249,0.47606161882134,FALSE,4.04881024163163
"CAN","cpi",0.2,2003,3,2003,NA,0,2.73187481054324,2.77733313501326,2.71189071546809,2.75460397277825,FALSE,0.0954185621578914
"CAN","cpi",0.2,2003,3,2003,NA,0.5,4.0194871163582,4.30245229949032,2.71189071546809,4.16096970792426,FALSE,3.55195618535741
"CAN","cpi",0.2,2003,3,2002,NA,1,3.09235972423749,3.46347843953192,2.71189071546809,3.27791908188471,FALSE,1.32229123721794
"CAN","cpi",0.2,2003,3,2002,NA,1.5,0.956685175338821,2.07991507979919,2.71189071546809,1.51830012756901,FALSE,2.70316899363261
"CAN","cpi",0.2,2004,3,2004,NA,0,1.73915702867256,1.78390504936621,1.83151661303942,1.76153103901938,FALSE,0.163776929876685
"CAN","cpi",0.2,2004,3,2004,NA,0.5,1.19921711863921,1.57969497097223,1.83151661303942,1.38945604480572,FALSE,1.01003195750101
"CAN","cpi",0.2,2004,3,2003,NA,1,0.828414532693736,1.20907785049821,1.83151661303942,1.01874619159597,FALSE,1.93676022415751
"CAN","cpi",0.2,2004,3,2003,NA,1.5,2.65902250672443,3.32308467536378,1.83151661303942,2.99105359104411,FALSE,2.73282690285187
"CAN","cpi",0.2,2005,3,2005,NA,0,2.32754632842108,2.37370329442525,2.18071628336509,2.35062481142317,FALSE,0.41323207864415
"CAN","cpi",0.2,2005,3,2005,NA,0.5,1.26865440003161,1.64191304242899,2.18071628336509,1.4552837212303,FALSE,1.72026674473763
"CAN","cpi",0.2,2005,3,2004,NA,1,0.604044211979358,0.988929212068183,2.18071628336509,0.79648671202377,FALSE,3.3643526783311
"CAN","cpi",0.2,2005,3,2004,NA,1.5,0.774428113166069,1.49919091384987,2.18071628336509,1.13680951350797,FALSE,2.42857622447185
"CAN","cpi",0.2,2006,3,2006,NA,0,2.03949771054234,2.08946313594469,1.97519342012289,2.06448042324351,FALSE,0.210726151450981
"CAN","cpi",0.2,2006,3,2006,NA,0.5,1.59501910763028,1.94644717477382,1.97519342012289,1.77073314120205,FALSE,0.423293680516197
"CAN","cpi",0.2,2006,3,2005,NA,1,2.41236801361764,2.76379608076118,1.97519342012289,2.58808204718941,FALSE,1.44436455088042
"CAN","cpi",0.2,2006,3,2005,NA,1.5,0.442663385018104,1.08148715281535,1.97519342012289,0.762075268916728,FALSE,2.87308943606608
"CAN","cpi",0.2,2007,3,2007,NA,0,2.08299188801624,2.1331549221433,2.10062087284572,2.10807340507977,TRUE,0.0501630341270669
"CAN","cpi",0.2,2007,3,2007,NA,0.5,1.91957169787525,2.27563373061825,2.10062087284572,2.09760271424675,TRUE,0.356062032743009
"CAN","cpi",0.2,2007,3,2006,NA,1,0.249499613252209,0.628225303995535,2.10062087284572,0.438862458623872,FALSE,4.0597146128688
"CAN","cpi",0.2,2007,3,2006,NA,1.5,0.828463775862313,1.33332017964218,2.10062087284572,1.08089197775225,FALSE,2.42310813678872
"CAN","cpi",0.2,2008,3,2008,NA,0,2.89318325922496,2.93615180839844,2.31447335265955,2.9146675338117,FALSE,1.48974331558699
"CAN","cpi",0.2,2008,3,2008,NA,0.5,0.866567595647632,1.22468730878767,2.31447335265955,1.04562745221765,FALSE,3.08258482281974
"CAN","cpi",0.2,2008,3,2007,NA,1,0.159413695027537,0.570646665744809,2.31447335265955,0.365030180386173,FALSE,4.77079968800413
"CAN","cpi",0.2,2008,3,2007,NA,1.5,1.81666094255366,2.26548684648902,2.31447335265955,2.04107389452134,FALSE,0.571292169361682
"CAN","cpi",0.2,2009,3,2009,NA,0,0.228195480279167,0.317042192153691,0.284533874408197,0.272618836216429,TRUE,0.0888467118745238
"CAN","cpi",0.2,2009,3,2009,NA,0.5,-0.99420534954542,-0.620647327490651,0.284533874408197,-0.807426338518035,FALSE,2.63651102680189
"CAN","cpi",0.2,2009,3,2008,NA,1,3.05716982107509,3.50994407422462,0.284533874408197,3.28355694764985,FALSE,7.38436411981676
"CAN","cpi",0.2,2009,3,2008,NA,1.5,0.475396587054165,0.931357323423659,0.284533874408197,0.703376955238912,FALSE,0.933117517984414
"CAN","cpi",0.2,2010,3,2010,NA,0,1.68282967970976,1.77133104830371,1.75525687020327,1.72708036400674,TRUE,0.0885013685939562
"CAN","cpi",0.2,2010,3,2010,NA,0.5,1.23985850761484,1.60500681634848,1.75525687020327,1.42243266198166,FALSE,0.740773443370624
"CAN","cpi",0.2,2010,3,2009,NA,1,0.223489845421206,0.808169028737711,1.75525687020327,0.515829437079458,FALSE,2.95239878698041
"CAN","cpi",0.2,2010,3,2009,NA,1.5,-0.958739223665045,-0.374060040348541,1.75525687020327,-0.666399632006793,FALSE,5.90797145969604
"CAN","cpi",0.2,2011,3,2011,NA,0,2.7833735371118,2.87404883745516,2.85717434028225,2.82871118728348,TRUE,0.0906753003433574
"CAN","cpi",0.2,2011,3,2011,NA,0.5,2.41384627714796,2.7722666417529,2.85717434028225,2.59305645945043,FALSE,0.570689610928312
"CAN","cpi",0.2,2011,3,2010,NA,1,1.27764049275327,1.88625649348962,2.85717434028225,1.58194849312145,FALSE,3.03591061771791
"CAN","cpi",0.2,2011,3,2010,NA,1.5,0.704354317209066,1.31297031794541,2.85717434028225,1.00866231757724,FALSE,4.46912605657843
"CAN","cpi",0.2,2012,3,2012,NA,0,1.4206938204554,1.51294120845214,1.50118536134935,1.46681751445377,TRUE,0.0922473879967414
"CAN","cpi",0.2,2012,3,2012,NA,0.5,1.46009496608024,1.81723697513487,1.50118536134935,1.63866597060755,TRUE,0.357142009054636
"CAN","cpi",0.2,2012,3,2011,NA,1,0.544960851692393,1.15152024628247,1.50118536134935,0.848240548987433,FALSE,1.48072218225726
"CAN","cpi",0.2,2012,3,2011,NA,1.5,1.38056329459011,1.98712268918019,1.50118536134935,1.68384299188515,TRUE,0.606559394590079
"CAN","cpi",0.2,2013,3,2013,NA,0,0.985424096547136,1.07623821173542,0.931270594714462,1.03083115414128,FALSE,0.226197869769968
"CAN","cpi",0.2,2013,3,2013,NA,0.5,0.822049325274096,1.18163193865642,0.931270594714462,1.00184063196526,TRUE,0.359582613382325
"CAN","cpi",0.2,2013,3,2012,NA,1,-0.577999925718318,0.0329079439735461,0.931270594714462,-0.272545990872386,FALSE,2.85681449654415
"CAN","cpi",0.2,2013,3,2012,NA,1.5,0.653154869290139,1.264062738982,0.931270594714462,0.958608804136071,TRUE,0.610907869691864
"CAN","cpi",0.2,2014,3,2014,NA,0,1.94074038060288,2.03152518961115,1.87639912240215,1.98613278510701,FALSE,0.251637954510096
"CAN","cpi",0.2,2014,3,2014,NA,0.5,1.77772713036598,2.12675057211004,1.87639912240215,1.95223885123801,TRUE,0.34902344174406
"CAN","cpi",0.2,2014,3,2013,NA,1,0.387580404145327,0.989736970422366,1.87639912240215,0.688658687283847,FALSE,2.8188119462265
"CAN","cpi",0.2,2014,3,2013,NA,1.5,0.590515916745982,1.19267248302302,1.87639912240215,0.891594199884501,FALSE,2.31147316472486
"CAN","cpi",0.2,2015,3,2015,NA,0,1.20105074864376,1.29178657890132,1.11090953952792,1.24641866377254,FALSE,0.316088853047168
"CAN","cpi",0.2,2015,3,2015,NA,0.5,0.0826307276343907,0.313603596545006,1.11090953952792,0.198117162089698,FALSE,2.22423772636789
"CAN","cpi",0.2,2015,3,2014,NA,1,0.236791108669446,0.827421036524087,1.11090953952792,0.532106072596766,FALSE,1.29935118536422
"CAN","cpi",0.2,2015,3,2014,NA,1.5,1.51504423842536,2.10567416628,1.11090953952792,1.81035920235268,FALSE,1.60096667509824
"CAN","cpi",0.2,2016,3,2016,NA,0,1.398060293645,1.48563885424677,1.41168586698797,1.44184957394589,TRUE,0.0875785606017701
"CAN","cpi",0.2,2016,3,2016,NA,0.5,0.720956813742547,0.965243281069697,1.41168586698797,0.843100047406122,FALSE,1.36039293212282
"CAN","cpi",0.2,2016,3,2015,NA,1,0.94824904610074,1.52144802930472,1.41168586698797,1.23484853770273,TRUE,0.57319898320398
"CAN","cpi",0.2,2016,3,2015,NA,1.5,-0.179136739424707,0.394062243779273,1.41168586698797,0.107462752177283,FALSE,3.11725804122571
"CAN","cpi",0.2,2017,3,2017,NA,0,1.47371428862606,1.5610842241674,1.57888581671161,1.51739925639673,FALSE,0.13187391690186
"CAN","cpi",0.2,2017,3,2017,NA,0.5,1.76139604049885,2.0020093450589,1.57888581671161,1.88170269277887,FALSE,0.69688886402814
"CAN","cpi",0.2,2017,3,2016,NA,1,0.131787634802956,0.704889058707532,1.57888581671161,0.418338346755244,FALSE,2.75809331891478
"CAN","cpi",0.2,2017,3,2016,NA,1.5,0.239025375385003,0.812126799289578,1.57888581671161,0.52557608733729,FALSE,2.48999896745966
"CAN","cpi",0.2,2018,3,2018,NA,0,2.36109318633685,2.45113438536625,2.23316270166586,2.40611378585155,FALSE,0.409867410706875
"CAN","cpi",0.2,2018,3,2018,NA,0.5,2.49177740523131,2.75236301125276,2.23316270166586,2.62207020824204,FALSE,0.907122364935089
"CAN","cpi",0.2,2018,3,2017,NA,1,0.124424121276322,0.683802079936018,2.23316270166586,0.40411310060617,FALSE,4.4327795129843
"CAN","cpi",0.2,2018,3,2017,NA,1.5,1.25818626781942,1.81756422647911,2.23316270166586,1.53787524714926,FALSE,1.59837414662656
"CAN","cpi",0.2,2019,3,2019,NA,0,1.96623018331633,2.05662661458615,1.91921619871868,2.01142839895124,FALSE,0.207931392763938
"CAN","cpi",0.2,2019,3,2019,NA,0.5,1.37962396782135,1.65805019299037,1.91921619871868,1.51883708040586,FALSE,0.931341239489795
"CAN","cpi",0.2,2019,3,2018,NA,1,1.13896207832792,1.69989760370905,1.91921619871868,1.41942984101848,FALSE,1.10923201290521
"CAN","cpi",0.2,2019,3,2018,NA,1.5,1.78058394820955,2.34151947359068,1.91921619871868,2.06105171090012,TRUE,0.560935525381133
"CAN","cpi",0.2,2020,3,2020,NA,0,0.706589059699868,0.745770645882281,0.71139989671781,0.726179852791075,TRUE,0.0391815861824139
"CAN","cpi",0.2,2020,3,2020,NA,0.5,0.955158736084589,1.18936016487646,0.71139989671781,1.07225945048052,FALSE,0.843598527208816
"CAN","cpi",0.2,2020,3,2019,NA,1,0.74294257044997,1.29533671610616,0.71139989671781,1.01913964327806,FALSE,0.631250829986588
"CAN","cpi",0.2,2020,3,2019,NA,1.5,0.951419380677087,1.50381352633328,0.71139989671781,1.22761645350518,FALSE,1.15244285555438
"CAN","cpi",0.2,2021,3,2021,NA,0,3.29064189388431,3.32913316993352,3.31148121717802,3.30988753190892,TRUE,0.0384912760492133
"CAN","cpi",0.2,2021,3,2021,NA,0.5,2.38794797901855,2.59186017830285,3.31148121717802,2.4899040786607,FALSE,2.00296479647223
"CAN","cpi",0.2,2021,3,2020,NA,1,1.05190371843983,1.34390969062638,3.31148121717802,1.1979067045331,FALSE,5.21093478856566
"CAN","cpi",0.2,2021,3,2020,NA,1.5,0.426368206353369,0.914885415627936,3.31148121717802,0.670626810990653,FALSE,6.48000671314979
"CAN","cpi",0.2,2022,3,2022,NA,0,6.52681668011808,6.56429910345905,6.50977236228281,6.54555789178856,FALSE,0.0800932179291354
"CAN","cpi",0.2,2022,3,2022,NA,0.5,5.85081172278195,6.07856824934211,6.50977236228281,5.96468998606203,FALSE,1.30576680891191
"CAN","cpi",0.2,2022,3,2021,NA,1,3.25015186233282,3.5919534341268,6.50977236228281,3.42105264822981,FALSE,7.63634889218402
"CAN","cpi",0.2,2022,3,2021,NA,1.5,1.67870683383826,2.18681848384098,6.50977236228281,1.93276265883962,FALSE,11.3154963461073
"CAN","cpi",0.2,2023,3,2023,NA,0,3.9541180329766,3.98965567190975,3.78831288758619,3.97188685244318,FALSE,0.450050502409174
"CAN","cpi",0.2,2023,3,2023,NA,0.5,2.72186789032553,2.95653231676706,3.78831288758619,2.8392001035463,FALSE,2.31411585348935
"CAN","cpi",0.2,2023,3,2022,NA,1,2.63714307857026,3.10055675122491,3.78831288758619,2.86884991489758,FALSE,2.18280401355785
"CAN","cpi",0.2,2023,3,2022,NA,1.5,3.65535139596542,4.41099355435277,3.78831288758619,4.03317247515909,TRUE,0.755642158387346
"CAN","cpi",0.2,2024,3,2023,NA,1,2.67001031441027,3.12892476917696,NA,2.89946754179362,NA,NA
"CAN","cpi",0.2,2024,3,2023,NA,1.5,0.801048208538512,1.5587848271045,NA,1.17991651782151,NA,NA
"CAN","cpi",0.3,1959,3,1959,NA,0,1.13222744853382,1.2468645344897,1.19382698397654,1.18954599151176,TRUE,0.114637085955879
"CAN","cpi",0.3,1959,3,1959,NA,0.5,0.161740090560453,0.928876563761396,1.19382698397654,0.545308327160925,FALSE,1.52413767381564
"CAN","cpi",0.3,1959,3,1958,NA,1,-0.0735386803089177,2.33944096528984,1.19382698397654,1.13295114249046,TRUE,2.41297964559876
"CAN","cpi",0.3,1959,3,1958,NA,1.5,-1.11126341225643,2.54610758841501,1.19382698397654,0.717422088079289,TRUE,3.65737100067144
"CAN","cpi",0.3,1960,3,1960,NA,0,0.970310688912171,1.07691539627737,1.34209404870695,1.02361304259477,FALSE,0.864258000021141
"CAN","cpi",0.3,1960,3,1960,NA,0.5,0.281570831630029,1.01565118379729,1.34209404870695,0.648611007713657,FALSE,1.66677425190916
"CAN","cpi",0.3,1960,3,1959,NA,1,1.46293891366087,3.29039855005185,1.34209404870695,2.37666873185636,FALSE,2.17273067911646
"CAN","cpi",0.3,1960,3,1959,NA,1.5,-1.69968798773451,1.00150362859995,1.34209404870695,-0.349092179567277,FALSE,3.67430710235446
"CAN","cpi",0.3,1961,3,1961,NA,0,0.94692761974257,1.07149934213757,1.00921348094007,1.00921348094007,TRUE,0.124571722395002
"CAN","cpi",0.3,1961,3,1961,NA,0.5,0.644577677148017,1.37384928473213,1.00921348094007,1.00921348094007,TRUE,0.729271607584109
"CAN","cpi",0.3,1961,3,1960,NA,1,-0.791025484296581,0.898566409503647,1.00921348094007,0.0537704626035329,FALSE,2.00572638361858
"CAN","cpi",0.3,1961,3,1960,NA,1.5,-1.57748237868809,0.912849606375288,1.00921348094007,-0.332316386156399,FALSE,2.76565734096276
"CAN","cpi",0.3,1962,3,1962,NA,0,1.01469420340858,1.11606602168802,1.04957947883042,1.0653801125483,TRUE,0.10137181827944
"CAN","cpi",0.3,1962,3,1962,NA,0.5,-0.291254458336901,0.291254458336901,1.04957947883042,0,FALSE,2.74915183236956
"CAN","cpi",0.3,1962,3,1961,NA,1,-0.837232250768401,0.837232250768401,1.04957947883042,0,FALSE,2.28117086742827
"CAN","cpi",0.3,1962,3,1961,NA,1.5,-1.24593892800051,1.24593892800051,1.04957947883042,0,TRUE,2.49187785600101
"CAN","cpi",0.3,1963,3,1963,NA,0,1.77947784494375,1.88102124060321,1.60677118395228,1.83024954277348,FALSE,0.594990998492215
"CAN","cpi",0.3,1963,3,1963,NA,0.5,0.553414619546572,1.12024280968844,1.60677118395228,0.836828714617504,FALSE,1.95690925946714
"CAN","cpi",0.3,1963,3,1962,NA,1,1.07367621001122,2.1450258038953,1.60677118395228,1.60935100695326,TRUE,1.07134959388408
"CAN","cpi",0.3,1963,3,1962,NA,1.5,-0.632098284583255,0.632098284583255,1.60677118395228,0,FALSE,4.04897628164945
"CAN","cpi",0.3,1964,3,1964,NA,0,1.89533715566474,2.00855581319574,1.88764670034376,1.95194648443024,FALSE,0.135191387019523
"CAN","cpi",0.3,1964,3,1964,NA,0.5,1.10438244497607,1.44177389189189,1.88764670034376,1.27307816843398,FALSE,1.6113137567783
"CAN","cpi",0.3,1964,3,1963,NA,1,2.82563768334459,3.57780896940557,1.88764670034376,3.20172332637508,FALSE,3.43214552320622
"CAN","cpi",0.3,1964,3,1963,NA,1.5,-0.484905364577076,0.484905364577076,1.88764670034376,0,FALSE,4.97764311705896
"CAN","cpi",0.3,1965,3,1965,NA,0,2.24112633509526,2.3548774543012,2.29538304394236,2.29800189469823,TRUE,0.113751119205939
"CAN","cpi",0.3,1965,3,1965,NA,0.5,1.22482482683275,1.56403953830377,2.29538304394236,1.39443218256826,FALSE,2.42876758472413
"CAN","cpi",0.3,1965,3,1964,NA,1,1.11784538430376,1.84372197648521,2.29538304394236,1.48078368039448,FALSE,2.01633678491616
"CAN","cpi",0.3,1965,3,1964,NA,1.5,-0.0696808965572601,0.656195695624182,2.29538304394236,0.293257399533461,FALSE,5.40926901594765
"CAN","cpi",0.3,1966,3,1966,NA,0,3.72205883889717,3.82816652599976,3.72486065470629,3.77511268244847,TRUE,0.106107687102586
"CAN","cpi",0.3,1966,3,1966,NA,0.5,3.20726147436084,3.54761292020759,3.72486065470629,3.37743719728421,FALSE,0.846773544414462
"CAN","cpi",0.3,1966,3,1965,NA,1,1.62196050589273,2.34777895699815,3.72486065470629,1.98486973144544,FALSE,4.66033758741439
"CAN","cpi",0.3,1966,3,1965,NA,1.5,0.215731608448325,0.94155005955375,3.72486065470629,0.578640834001038,FALSE,8.67813443725554
"CAN","cpi",0.3,1967,3,1967,NA,0,3.63126375314754,3.73625166114463,3.49360316391996,3.68375770714608,FALSE,0.498303877218747
"CAN","cpi",0.3,1967,3,1967,NA,0.5,1.93353426036755,2.28755990059762,3.49360316391996,2.11054708048259,FALSE,3.79986353543675
"CAN","cpi",0.3,1967,3,1966,NA,1,1.6535223554005,2.38654379526953,3.49360316391996,2.02003307533501,FALSE,3.89604820744169
"CAN","cpi",0.3,1967,3,1966,NA,1.5,1.34907464386221,2.08209608373124,3.49360316391996,1.71558536379673,FALSE,4.76589881183679
"CAN","cpi",0.3,1968,3,1968,NA,0,4.01637547365676,4.12533888273038,3.95128347779386,4.07085717819357,FALSE,0.294940540110496
"CAN","cpi",0.3,1968,3,1968,NA,0.5,3.36143296134434,3.65321170418569,3.95128347779386,3.50732233276501,FALSE,1.14341238172183
"CAN","cpi",0.3,1968,3,1967,NA,1,3.28491796222477,4.04115562380908,3.95128347779386,3.66303679301692,TRUE,0.756237661584308
"CAN","cpi",0.3,1968,3,1967,NA,1.5,0.456762688252899,1.21300034983721,3.95128347779386,0.834881519045053,FALSE,8.57990374146045
"CAN","cpi",0.3,1969,3,1969,NA,0,4.47058140903347,4.58007139113159,4.42679496126681,4.52532640008253,FALSE,0.234594118574282
"CAN","cpi",0.3,1969,3,1969,NA,0.5,2.55132754246006,2.83048487323356,4.42679496126681,2.69090620784681,FALSE,4.84004329658279
"CAN","cpi",0.3,1969,3,1968,NA,1,3.75074871397556,4.40512994129224,4.42679496126681,4.0779393276339,FALSE,0.716281284386893
"CAN","cpi",0.3,1969,3,1968,NA,1.5,1.28502809969624,1.93940932701293,4.42679496126681,1.61221871335458,FALSE,7.76119732518494
"CAN","cpi",0.3,1970,3,1970,NA,0,3.50673650361548,3.6108356051041,3.28128405769805,3.55878605435979,FALSE,0.748248946967
"CAN","cpi",0.3,1970,3,1970,NA,0.5,3.572529790543,3.92685575752709,3.28128405769805,3.74969277403504,FALSE,1.18645663225537
"CAN","cpi",0.3,1970,3,1969,NA,1,2.78163070915728,3.44210145649488,3.28128405769805,3.11186608282608,TRUE,0.660470747337601
"CAN","cpi",0.3,1970,3,1969,NA,1.5,0.434706603590837,1.09517735092844,3.28128405769805,0.764941977259638,FALSE,6.90648990953648
"CAN","cpi",0.3,1971,3,1971,NA,0,2.75730724874287,2.87298381703455,2.64123406634756,2.81514553288871,FALSE,0.44731423227828
"CAN","cpi",0.3,1971,3,1971,NA,0.5,0.891617512536238,1.34185710279419,2.64123406634756,1.11673730766521,FALSE,4.16274520041045
"CAN","cpi",0.3,1971,3,1970,NA,1,1.61480114668495,2.22606786252295,2.64123406634756,1.92043450460395,FALSE,1.79745586962261
"CAN","cpi",0.3,1971,3,1970,NA,1.5,1.39630739408701,2.00757410992501,2.64123406634756,1.70194075200601,FALSE,2.42172373418814
"CAN","cpi",0.3,1972,3,1972,NA,0,5.01346777807746,5.08310746504201,4.83230569625923,5.04828762155974,FALSE,0.587245635016636
"CAN","cpi",0.3,1972,3,1972,NA,0.5,3.85214967390313,4.33989803329121,4.83230569625923,4.09602385359717,FALSE,1.89462739643956
"CAN","cpi",0.3,1972,3,1971,NA,1,3.87226598958505,4.46397624308927,4.83230569625923,4.16812111633716,FALSE,1.64408011970411
"CAN","cpi",0.3,1972,3,1971,NA,1.5,0.396174878598981,0.987885132103197,4.83230569625923,0.692030005351089,FALSE,11.5757690082357
"CAN","cpi",0.3,1973,3,1973,NA,0,7.2171941269803,7.28472851755935,7.12388603531779,7.25096132226983,FALSE,0.334128938186223
"CAN","cpi",0.3,1973,3,1973,NA,0.5,5.07834809480919,5.53057225099244,7.12388603531779,5.30446017290082,FALSE,5.00454925425568
"CAN","cpi",0.3,1973,3,1972,NA,1,4.62285005998231,5.222670655863,7.12388603531779,4.92276035792265,FALSE,6.03186453718009
"CAN","cpi",0.3,1973,3,1972,NA,1.5,1.4338049740909,2.14995260739316,7.12388603531779,1.79187879074203,FALSE,14.9273859988012
"CAN","cpi",0.3,1974,3,1974,NA,0,10.1181127672466,10.1797096530554,10.2717243737774,10.148911210151,FALSE,0.324496087871694
"CAN","cpi",0.3,1974,3,1974,NA,0.5,7.65319316745292,8.15573261744807,10.2717243737774,7.90446289245049,FALSE,6.54823018236472
"CAN","cpi",0.3,1974,3,1973,NA,1,6.95544363265867,7.65407830247351,10.2717243737774,7.30476096756609,FALSE,8.17762344496887
"CAN","cpi",0.3,1974,3,1973,NA,1.5,2.10603069031204,3.02662750136176,10.2717243737774,2.5663290958369,FALSE,21.6208735893802
"CAN","cpi",0.3,1975,3,1975,NA,0,10.1341294434232,10.2151847773354,10.0232981493341,10.1746571103793,FALSE,0.39771617416664
"CAN","cpi",0.3,1975,3,1975,NA,0.5,7.77286311575669,8.37018302253261,10.0232981493341,8.07152306914465,FALSE,5.32050598335168
"CAN","cpi",0.3,1975,3,1974,NA,1,7.39658459507898,8.24097107630382,10.0232981493341,7.8187778356914,FALSE,5.93674954702569
"CAN","cpi",0.3,1975,3,1974,NA,1.5,2.945892421073,4.35239307293571,10.0232981493341,3.64914274700436,FALSE,17.6090865844296
"CAN","cpi",0.3,1976,3,1976,NA,0,7.14956765820402,7.23033520267208,7.22784311401172,7.18995143043805,TRUE,0.0807675444680616
"CAN","cpi",0.3,1976,3,1976,NA,0.5,6.30366157876639,6.92300570693977,7.22784311401172,6.61333364285308,FALSE,1.49030814837894
"CAN","cpi",0.3,1976,3,1975,NA,1,8.24093715163818,8.92900500016781,7.22784311401172,8.584971075903,FALSE,3.5826222417481
"CAN","cpi",0.3,1976,3,1975,NA,1.5,2.38538629611022,3.9093851038016,7.22784311401172,3.14738569995591,FALSE,11.0053074082917
"CAN","cpi",0.3,1977,3,1977,NA,0,7.45962935675051,7.54390953332841,7.58101410153764,7.50176944503946,FALSE,0.190293228604288
"CAN","cpi",0.3,1977,3,1977,NA,0.5,6.09124211502187,6.72019066151561,7.58101410153764,6.40571638826874,FALSE,3.08844408941384
"CAN","cpi",0.3,1977,3,1976,NA,1,3.6008558292637,4.49732989227659,7.58101410153764,4.04909286077014,FALSE,9.70700037518734
"CAN","cpi",0.3,1977,3,1976,NA,1.5,1.85768215034802,3.33097280420182,7.58101410153764,2.59432747727492,FALSE,13.616265789099
"CAN","cpi",0.3,1978,3,1978,NA,0,8.54413251086211,8.63796443682088,8.50208927062595,8.59104847384149,FALSE,0.213955469490662
"CAN","cpi",0.3,1978,3,1978,NA,0.5,7.04153528291793,7.64074289175196,8.50208927062595,7.34113908733495,FALSE,3.0601972627597
"CAN","cpi",0.3,1978,3,1977,NA,1,5.35532739233011,6.40272997803291,8.50208927062595,5.87902868518151,FALSE,7.04557199311147
"CAN","cpi",0.3,1978,3,1977,NA,1.5,3.15058609680353,4.63528362004076,8.50208927062595,3.89293485842214,FALSE,12.5327136677663
"CAN","cpi",0.3,1979,3,1979,NA,0,8.44086332006395,8.53216488281158,8.65147652410481,8.48651410143776,FALSE,0.43219196644258
"CAN","cpi",0.3,1979,3,1979,NA,0.5,7.16301008761069,7.76072485368677,8.65147652410481,7.46186747064873,FALSE,3.14271953869905
"CAN","cpi",0.3,1979,3,1978,NA,1,6.39011561936511,7.48360554822826,8.65147652410481,6.93686058379669,FALSE,4.43026414565329
"CAN","cpi",0.3,1979,3,1978,NA,1.5,3.22434371255734,4.61159832838826,8.65147652410481,3.9179710204728,FALSE,12.9297637464496
"CAN","cpi",0.3,1980,3,1980,NA,0,9.38357362358273,9.49064893952164,9.5171912664748,9.43711128155219,FALSE,0.18291053580507
"CAN","cpi",0.3,1980,3,1980,NA,0.5,7.60653121493394,8.17635031478308,9.5171912664748,7.89144076485851,FALSE,4.40079324753976
"CAN","cpi",0.3,1980,3,1979,NA,1,5.1602859642466,6.22746992998947,9.5171912664748,5.69387794711803,FALSE,10.4663877842724
"CAN","cpi",0.3,1980,3,1979,NA,1.5,3.59062608271584,4.95335488241891,9.5171912664748,4.27199048256738,FALSE,14.402261325577
"CAN","cpi",0.3,1981,3,1981,NA,0,11.5618437511901,11.673233767118,11.5813425032741,11.617538759154,TRUE,0.111390015927935
"CAN","cpi",0.3,1981,3,1981,NA,0.5,11.0211722395434,11.586479580638,11.5813425032741,11.3038259100907,TRUE,0.565307341094577
"CAN","cpi",0.3,1981,3,1980,NA,1,7.6539454955149,8.80450395629398,11.5813425032741,8.22922472590444,FALSE,9.08438288072238
"CAN","cpi",0.3,1981,3,1980,NA,1.5,3.88960450133755,5.20676284959488,11.5813425032741,4.54818367546621,FALSE,19.5302430730552
"CAN","cpi",0.3,1982,3,1982,NA,0,10.1380821256682,10.2347122990014,10.1124203763629,10.1863972123348,FALSE,0.169949457062612
"CAN","cpi",0.3,1982,3,1982,NA,0.5,9.15160911286606,9.60862269049322,10.1124203763629,9.38011590167964,FALSE,1.89643553725496
"CAN","cpi",0.3,1982,3,1981,NA,1,8.36264606532448,9.49285312472961,10.1124203763629,8.92774959502704,FALSE,2.90039920692895
"CAN","cpi",0.3,1982,3,1981,NA,1.5,7.00166469547591,8.31209652335322,10.1124203763629,7.65688060941457,FALSE,6.45421426504795
"CAN","cpi",0.3,1983,3,1983,NA,0,5.74689002489793,5.83773897384439,5.67091787896303,5.79231449937116,FALSE,0.307912223046161
"CAN","cpi",0.3,1983,3,1983,NA,0.5,4.25399824415443,4.72471149085635,5.67091787896303,4.48935486750539,FALSE,3.17416006986388
"CAN","cpi",0.3,1983,3,1982,NA,1,6.13771154037109,7.22950533288073,5.67091787896303,6.68360843662591,FALSE,2.42548996796123
"CAN","cpi",0.3,1983,3,1982,NA,1.5,5.25903246718946,6.3508262596991,5.67091787896303,5.80492936344428,TRUE,1.09179379250964
"CAN","cpi",0.3,1984,3,1984,NA,0,4.14547740689666,4.22721106869215,4.19799576814029,4.1863442377944,TRUE,0.0817336617954929
"CAN","cpi",0.3,1984,3,1984,NA,0.5,4.14618285036823,4.60119553033606,4.19799576814029,4.37368919035215,TRUE,0.455012679967833
"CAN","cpi",0.3,1984,3,1983,NA,1,4.18949563185042,5.46098408541638,4.19799576814029,4.8252398586334,TRUE,1.27148845356596
"CAN","cpi",0.3,1984,3,1983,NA,1.5,0.841659935417399,2.43137706648467,4.19799576814029,1.63651850095104,FALSE,6.6371991357976
"CAN","cpi",0.3,1985,3,1985,NA,0,3.8365600316989,3.91321923657066,3.86444262005169,3.87488963413478,TRUE,0.0766592048717598
"CAN","cpi",0.3,1985,3,1985,NA,0.5,3.40191195173415,3.93717725163133,3.86444262005169,3.66954460168274,TRUE,0.535265299897179
"CAN","cpi",0.3,1985,3,1984,NA,1,1.82360165954382,3.21161662498679,3.86444262005169,2.51760914226531,FALSE,3.25323209419983
"CAN","cpi",0.3,1985,3,1984,NA,1.5,1.91787505513749,3.57150340491822,3.86444262005169,2.74468923002786,FALSE,2.49059753587636
"CAN","cpi",0.3,1986,3,1986,NA,0,4.0546910651863,4.12549655522925,4.08685396749431,4.09009381020777,TRUE,0.0708054900429502
"CAN","cpi",0.3,1986,3,1986,NA,0.5,3.95368354819301,4.42367132484757,4.08685396749431,4.18867743652029,TRUE,0.469987776654563
"CAN","cpi",0.3,1986,3,1985,NA,1,2.2872504035257,3.63968033036702,4.08685396749431,2.96346536694636,FALSE,2.63006889006216
"CAN","cpi",0.3,1986,3,1985,NA,1.5,1.85123317743221,3.46167711261227,4.08685396749431,2.65645514502224,FALSE,3.39666352055732
"CAN","cpi",0.3,1987,3,1987,NA,0,4.27289536094537,4.33475961744253,4.23980729277887,4.30382748919395,FALSE,0.156401594115726
"CAN","cpi",0.3,1987,3,1987,NA,0.5,3.38652889566463,3.82837199152649,4.23980729277887,3.60745044359556,FALSE,1.61737252801151
"CAN","cpi",0.3,1987,3,1986,NA,1,2.81738256257928,4.16170532294199,4.23980729277887,3.48954394276064,FALSE,1.56747124561093
"CAN","cpi",0.3,1987,3,1986,NA,1.5,2.26315722673654,3.83807506971751,4.23980729277887,3.05061614822702,FALSE,2.72272419458486
"CAN","cpi",0.3,1988,3,1988,NA,0,3.93504931443401,3.99797470306536,3.92899537638065,3.96651200874969,FALSE,0.080222354498088
"CAN","cpi",0.3,1988,3,1988,NA,0.5,3.05506453023808,3.49670416102623,3.92899537638065,3.27588434563216,FALSE,1.67675738894365
"CAN","cpi",0.3,1988,3,1987,NA,1,2.77576582995719,3.95539123480824,3.92899537638065,3.36557853238272,TRUE,1.17962540485105
"CAN","cpi",0.3,1988,3,1987,NA,1.5,1.40752138173142,3.05029193803845,3.92899537638065,2.22890665988493,FALSE,4.15335180871333
"CAN","cpi",0.3,1989,3,1989,NA,0,4.93241574031627,4.99206670458608,4.82821664544208,4.96224122245117,FALSE,0.357362663910358
"CAN","cpi",0.3,1989,3,1989,NA,0.5,3.93879319666609,4.36613043858746,4.82821664544208,4.15246181762677,FALSE,1.74758354722028
"CAN","cpi",0.3,1989,3,1988,NA,1,2.8004139123281,3.9008216231516,4.82821664544208,3.35061776773985,FALSE,3.75010777451058
"CAN","cpi",0.3,1989,3,1988,NA,1.5,1.22736367958103,2.83850053313555,4.82821664544208,2.03293210635829,FALSE,7.29604003157317
"CAN","cpi",0.3,1990,3,1990,NA,0,4.45949875474178,4.52283589442631,4.64347549432717,4.49116732458404,FALSE,0.408021710829854
"CAN","cpi",0.3,1990,3,1990,NA,0.5,4.60113634613437,5.01156633186845,4.64347549432717,4.80635133900141,TRUE,0.410429985734082
"CAN","cpi",0.3,1990,3,1989,NA,1,3.92471244759574,4.98194616292829,4.64347549432717,4.45332930526201,TRUE,1.05723371533255
"CAN","cpi",0.3,1990,3,1989,NA,1.5,2.16159961995839,3.71828324598024,4.64347549432717,2.93994143296931,FALSE,4.20009004987022
"CAN","cpi",0.3,1991,3,1991,NA,0,5.56595681699686,5.62732625324935,5.4258100696218,5.5966415351231,FALSE,0.461788714466957
"CAN","cpi",0.3,1991,3,1991,NA,0.5,7.83274927824063,8.25217160207096,5.4258100696218,8.0424604401558,FALSE,7.29639149131272
"CAN","cpi",0.3,1991,3,1990,NA,1,2.47041991585604,3.54490779194141,5.4258100696218,3.00766385389873,FALSE,6.44849438374361
"CAN","cpi",0.3,1991,3,1990,NA,1.5,2.67940620024345,4.16982025477529,5.4258100696218,3.42461322750937,FALSE,5.07895638266472
"CAN","cpi",0.3,1992,3,1992,NA,0,1.42915413964181,1.49321187935051,1.47496888572843,1.46118300949616,TRUE,0.0640577397086957
"CAN","cpi",0.3,1992,3,1992,NA,0.5,0.868862885496274,1.60707346567312,1.47496888572843,1.2379681755847,TRUE,0.738210580176849
"CAN","cpi",0.3,1992,3,1991,NA,1,1.41429184186542,2.33038121642678,1.47496888572843,1.8723365291461,TRUE,0.916089374561356
"CAN","cpi",0.3,1992,3,1991,NA,1.5,6.23535429722726,7.56331963955149,1.47496888572843,6.89933696838937,FALSE,14.9290665180352
"CAN","cpi",0.3,1993,3,1993,NA,0,1.76953329477029,1.83487805634777,1.84351085411351,1.80220567555903,FALSE,0.0900098980510222
"CAN","cpi",0.3,1993,3,1993,NA,0.5,1.84928981937826,2.58708014520865,1.84351085411351,2.21818498229346,FALSE,0.754301655158243
"CAN","cpi",0.3,1993,3,1992,NA,1,0.975096337699796,1.7289896460626,1.84351085411351,1.3520429918812,FALSE,1.08109675993684
"CAN","cpi",0.3,1993,3,1992,NA,1.5,0.091317292067985,1.77565368260573,1.84351085411351,0.933485487336859,FALSE,1.87821402341712
"CAN","cpi",0.3,1994,3,1994,NA,0,0.168580981518428,0.235638333455955,0.161630694655448,0.202109657487191,FALSE,0.086915314403185
"CAN","cpi",0.3,1994,3,1994,NA,0.5,-0.93682668462633,-0.208452730299224,0.161630694655448,-0.572639707462777,FALSE,1.78575516848331
"CAN","cpi",0.3,1994,3,1993,NA,1,0.769953285197382,1.51225737633934,0.161630694655448,1.14110533076836,FALSE,2.48036863554748
"CAN","cpi",0.3,1994,3,1993,NA,1.5,0.826013871567857,2.47445537435061,0.161630694655448,1.65023462295923,FALSE,3.54667915110392
"CAN","cpi",0.3,1995,3,1995,NA,0,2.11683652423653,2.18018846600974,2.11688403676572,2.14851249512314,TRUE,0.0633519417732096
"CAN","cpi",0.3,1995,3,1995,NA,0.5,2.25290677843283,2.94854208775203,2.11688403676572,2.60072443309243,FALSE,1.08427171408238
"CAN","cpi",0.3,1995,3,1994,NA,1,1.06449205188934,1.80298740095449,2.11688403676572,1.43373972642191,FALSE,1.63534287995437
"CAN","cpi",0.3,1995,3,1994,NA,1.5,-2.12605993642152,-0.406166732070027,2.11688403676572,-1.26611333424577,FALSE,8.92860968673933
"CAN","cpi",0.3,1996,3,1996,NA,0,1.40523475685813,1.46807065164264,1.55309584667184,1.43665270425039,FALSE,0.305765023439377
"CAN","cpi",0.3,1996,3,1996,NA,0.5,0.887742816196244,1.57778379110449,1.55309584667184,1.23276330365037,TRUE,0.690040974908247
"CAN","cpi",0.3,1996,3,1995,NA,1,0.384732771939791,1.07477374684804,1.55309584667184,0.729753259393914,FALSE,2.0566755458334
"CAN","cpi",0.3,1996,3,1995,NA,1.5,1.43165766996892,3.20643911376195,1.55309584667184,2.31904839186543,TRUE,1.77478144379303
"CAN","cpi",0.3,1997,3,1997,NA,0,1.64431592914297,1.71467364532894,1.60528783555959,1.67949478723595,FALSE,0.181866554995618
"CAN","cpi",0.3,1997,3,1997,NA,0.5,1.59151004325343,2.27432979871471,1.60528783555959,1.93291992098407,TRUE,0.682819755461282
"CAN","cpi",0.3,1997,3,1996,NA,1,0.273220573890314,0.956040329351595,1.60528783555959,0.614630451620954,FALSE,2.53781263034127
"CAN","cpi",0.3,1997,3,1996,NA,1.5,0.0581584315239165,1.86616469687383,1.60528783555959,0.962161564198873,TRUE,1.80800626534991
"CAN","cpi",0.3,1998,3,1998,NA,0,0.931313753594994,1.00281360718059,0.988908029337191,0.967063680387792,TRUE,0.0714998535855962
"CAN","cpi",0.3,1998,3,1998,NA,0.5,1.00800019793813,1.6899489993886,0.988908029337191,1.34897459866337,FALSE,0.736497854596019
"CAN","cpi",0.3,1998,3,1997,NA,1,0.451715558520896,1.13366435997136,0.988908029337191,0.792689959246129,TRUE,0.681948801450465
"CAN","cpi",0.3,1998,3,1997,NA,1.5,0.384512568236578,2.18316743930235,0.988908029337191,1.28384000376946,TRUE,1.79865487106577
"CAN","cpi",0.3,1999,3,1999,NA,0,1.7330323398271,1.80426033806498,1.7107350135213,1.76864633894604,FALSE,0.134934644825892
"CAN","cpi",0.3,1999,3,1999,NA,0.5,0.394264729373213,1.06993469182785,1.7107350135213,0.732099710600531,FALSE,2.50652802443592
"CAN","cpi",0.3,1999,3,1998,NA,1,0.031217590732312,0.706887553186947,1.7107350135213,0.369052571959629,FALSE,3.54380556340992
"CAN","cpi",0.3,1999,3,1998,NA,1.5,0.367148194972348,2.16979194549024,1.7107350135213,1.26847007023129,TRUE,1.80264375051789
"CAN","cpi",0.3,2000,3,2000,NA,0,2.66670390430061,2.73845230918008,2.6718361971244,2.70257810674034,TRUE,0.0717484048794619
"CAN","cpi",0.3,2000,3,2000,NA,0.5,1.61049976830981,2.30846634930771,2.6718361971244,1.95948305880876,FALSE,1.73616614618844
"CAN","cpi",0.3,2000,3,1999,NA,1,1.81256332936103,2.51052991035894,2.6718361971244,2.16154661985999,FALSE,1.15884168604208
"CAN","cpi",0.3,2000,3,1999,NA,1.5,-0.386037523589449,1.39160527971697,2.6718361971244,0.50278387806376,FALSE,5.4354454244705
"CAN","cpi",0.3,2001,3,2001,NA,0,2.69859718714661,2.76449380057513,2.47906219852806,2.73154549386087,FALSE,0.693139438052938
"CAN","cpi",0.3,2001,3,2001,NA,0.5,1.31650197730591,2.00073458797261,2.47906219852806,1.65861828263926,FALSE,2.05088292653943
"CAN","cpi",0.3,2001,3,2000,NA,1,2.49922265255651,3.18345526322322,2.47906219852806,2.84133895788986,FALSE,0.741833907890847
"CAN","cpi",0.3,2001,3,2000,NA,1.5,0.273834227680265,2.00999286127912,2.47906219852806,1.14191354447969,FALSE,3.07635674002441
"CAN","cpi",0.3,2002,3,2002,NA,0,2.27578287254084,2.34986767676323,2.20880570551249,2.31282527465204,FALSE,0.265448138589112
"CAN","cpi",0.3,2002,3,2002,NA,0.5,0.890769884314744,1.60386908836711,2.20880570551249,1.24731948634093,FALSE,2.44148953875344
"CAN","cpi",0.3,2002,3,2001,NA,1,0.33894193886069,1.05204114291306,2.20880570551249,0.695491540886875,FALSE,4.0181408114793
"CAN","cpi",0.3,2002,3,2001,NA,1.5,-0.384930648868176,1.33705388651086,2.20880570551249,0.47606161882134,FALSE,4.21270401824083
"CAN","cpi",0.3,2003,3,2003,NA,0,2.72003475416455,2.78917319139195,2.71189071546809,2.75460397277825,FALSE,0.0924071192172855
"CAN","cpi",0.3,2003,3,2003,NA,0.5,3.94578612186382,4.3761532939847,2.71189071546809,4.16096970792426,FALSE,3.95578261896584
"CAN","cpi",0.3,2003,3,2002,NA,1,2.99569829723817,3.56013986653125,2.71189071546809,3.27791908188471,FALSE,1.37532037435045
"CAN","cpi",0.3,2003,3,2002,NA,1.5,0.66412917926808,2.37247107586994,2.71189071546809,1.51830012756901,FALSE,2.67811229545373
"CAN","cpi",0.3,2004,3,2004,NA,0,1.72750197772151,1.79556010031726,1.83151661303942,1.76153103901938,FALSE,0.170791016087648
"CAN","cpi",0.3,2004,3,2004,NA,0.5,1.10011801468006,1.67879407493138,1.83151661303942,1.38945604480572,FALSE,1.01502616913145
"CAN","cpi",0.3,2004,3,2003,NA,1,0.729267122474646,1.3082252607173,1.83151661303942,1.01874619159597,FALSE,2.07407628773444
"CAN","cpi",0.3,2004,3,2003,NA,1.5,2.48606114910058,3.49604603298764,1.83151661303942,2.99105359104411,FALSE,2.88011212977607
"CAN","cpi",0.3,2005,3,2005,NA,0,2.31552430415755,2.38572531868879,2.18071628336509,2.35062481142317,FALSE,0.455366788223974
"CAN","cpi",0.3,2005,3,2005,NA,0.5,1.17143560850465,1.73913183395595,2.18071628336509,1.4552837212303,FALSE,1.82936608090598
"CAN","cpi",0.3,2005,3,2004,NA,1,0.503797224139615,1.08917619990792,2.18071628336509,0.79648671202377,FALSE,3.70406492850307
"CAN","cpi",0.3,2005,3,2004,NA,1.5,0.58565669404067,1.68796233297527,2.18071628336509,1.13680951350797,FALSE,2.5101740686198
"CAN","cpi",0.3,2006,3,2006,NA,0,2.02648373652007,2.10247710996696,1.97519342012289,2.06448042324351,FALSE,0.222537134581696
"CAN","cpi",0.3,2006,3,2006,NA,0.5,1.50348629869943,2.03797998370468,1.97519342012289,1.77073314120205,TRUE,0.534493685005255
"CAN","cpi",0.3,2006,3,2005,NA,1,2.32083520468678,2.85532888969204,1.97519342012289,2.58808204718941,FALSE,1.5220416409021
"CAN","cpi",0.3,2006,3,2005,NA,1.5,0.276275610832752,1.2478749270007,1.97519342012289,0.762075268916728,FALSE,3.0496521536599
"CAN","cpi",0.3,2007,3,2007,NA,0,2.06992644490731,2.14622036525223,2.10062087284572,2.10807340507977,TRUE,0.0762939203449244
"CAN","cpi",0.3,2007,3,2007,NA,0.5,1.8268319281821,2.3683735003114,2.10062087284572,2.09760271424675,TRUE,0.541541572129291
"CAN","cpi",0.3,2007,3,2006,NA,1,0.150856876575586,0.726868040672158,2.10062087284572,0.438862458623872,FALSE,4.50101925602104
"CAN","cpi",0.3,2007,3,2006,NA,1.5,0.696969085866972,1.46481486963752,2.10062087284572,1.08089197775225,FALSE,2.58443436436541
"CAN","cpi",0.3,2008,3,2008,NA,0,2.88199168868963,2.94734337893377,2.31447335265955,2.9146675338117,FALSE,1.68683265033007
"CAN","cpi",0.3,2008,3,2008,NA,0.5,0.773291883369844,1.31796302106546,2.31447335265955,1.04562745221765,FALSE,3.39184351367873
"CAN","cpi",0.3,2008,3,2007,NA,1,0.0523041256619301,0.677756235110416,2.31447335265955,0.365030180386173,FALSE,5.30178673101745
"CAN","cpi",0.3,2008,3,2007,NA,1.5,1.69975993335979,2.3823878556829,2.31447335265955,2.04107389452134,TRUE,0.682627922323115
"CAN","cpi",0.3,2009,3,2009,NA,0,0.205054502473249,0.34018316995961,0.284533874408197,0.272618836216429,TRUE,0.135128667486361
"CAN","cpi",0.3,2009,3,2009,NA,0.5,-1.09150211737404,-0.523350559662026,0.284533874408197,-0.807426338518035,FALSE,2.87639279791266
"CAN","cpi",0.3,2009,3,2008,NA,1,2.9392404264789,3.62787346882081,0.284533874408197,3.28355694764985,FALSE,8.27350890540106
"CAN","cpi",0.3,2009,3,2008,NA,1.5,0.35663724235722,1.0501166681206,0.284533874408197,0.703376955238912,FALSE,0.899489048474879
"CAN","cpi",0.3,2010,3,2010,NA,0,1.65977864987178,1.79438207814169,1.75525687020327,1.72708036400674,TRUE,0.134603428269918
"CAN","cpi",0.3,2010,3,2010,NA,0.5,1.1447521302375,1.70011319372581,1.75525687020327,1.42243266198166,FALSE,0.712914424852477
"CAN","cpi",0.3,2010,3,2009,NA,1,0.0712045473021486,0.960454326856768,1.75525687020327,0.515829437079458,FALSE,3.16011418911606
"CAN","cpi",0.3,2010,3,2009,NA,1.5,-1.1110245217841,-0.221774742229483,1.75525687020327,-0.666399632006793,FALSE,6.53791152936249
"CAN","cpi",0.3,2011,3,2011,NA,0,2.75975628591005,2.89766608865692,2.85717434028225,2.82871118728348,TRUE,0.137909802746869
"CAN","cpi",0.3,2011,3,2011,NA,0.5,2.32049225731405,2.86562066158681,2.85717434028225,2.59305645945043,TRUE,0.545128404272764
"CAN","cpi",0.3,2011,3,2010,NA,1,1.11912062107522,2.04477636516768,2.85717434028225,1.58194849312145,FALSE,3.24679281584837
"CAN","cpi",0.3,2011,3,2010,NA,1.5,0.54583444553101,1.47149018962347,2.85717434028225,1.00866231757724,FALSE,4.88475331740325
"CAN","cpi",0.3,2012,3,2012,NA,0,1.39666710395405,1.53696792495349,1.50118536134935,1.46681751445377,TRUE,0.140300820999447
"CAN","cpi",0.3,2012,3,2012,NA,0.5,1.36707390620391,1.9102580350112,1.50118536134935,1.63866597060755,TRUE,0.543184128807282
"CAN","cpi",0.3,2012,3,2011,NA,1,0.386976642800074,1.30950445517479,1.50118536134935,0.848240548987433,FALSE,1.47018754430202
"CAN","cpi",0.3,2012,3,2011,NA,1.5,1.22257908569779,2.1451068980725,1.50118536134935,1.68384299188515,TRUE,0.922527812374716
"CAN","cpi",0.3,2013,3,2013,NA,0,0.961770689688319,1.09989161859424,0.931270594714462,1.03083115414128,FALSE,0.225264057402652
"CAN","cpi",0.3,2013,3,2013,NA,0.5,0.728392586604619,1.2752886773259,0.931270594714462,1.00184063196526,TRUE,0.546896090721279
"CAN","cpi",0.3,2013,3,2012,NA,1,-0.737116736636046,0.192024754891274,0.931270594714462,-0.272545990872386,FALSE,3.04127246245071
"CAN","cpi",0.3,2013,3,2012,NA,1.5,0.494038058372411,1.42317954989973,0.931270594714462,0.958608804136071,TRUE,0.92914149152732
"CAN","cpi",0.3,2014,3,2014,NA,0,1.91709460681959,2.05517096339444,1.87639912240215,1.98613278510701,FALSE,0.254349169196104
"CAN","cpi",0.3,2014,3,2014,NA,0.5,1.68682062917153,2.2176570733045,1.87639912240215,1.95223885123801,TRUE,0.530836444132966
"CAN","cpi",0.3,2014,3,2013,NA,1,0.230742954093326,1.14657442047437,1.87639912240215,0.688658687283847,FALSE,3.00104490046042
"CAN","cpi",0.3,2014,3,2013,NA,1.5,0.433678466693981,1.34950993307502,1.87639912240215,0.891594199884501,FALSE,2.42122915017284
"CAN","cpi",0.3,2015,3,2015,NA,0,1.17741773184561,1.31541959569947,1.11090953952792,1.24641866377254,FALSE,0.328025270475836
"CAN","cpi",0.3,2015,3,2015,NA,0.5,0.022471629785295,0.373762694394101,1.11090953952792,0.198117162089698,FALSE,2.45742490784828
"CAN","cpi",0.3,2015,3,2014,NA,1,0.0829558820906812,0.981256263102852,1.11090953952792,0.532106072596766,FALSE,1.26873831365521
"CAN","cpi",0.3,2015,3,2014,NA,1.5,1.36120901184659,2.25950939285876,1.11090953952792,1.81035920235268,FALSE,1.6134417304941
"CAN","cpi",0.3,2016,3,2016,NA,0,1.37524961799477,1.50844952989701,1.41168586698797,1.44184957394589,TRUE,0.133199911902245
"CAN","cpi",0.3,2016,3,2016,NA,0.5,0.65733006155967,1.02887003325257,1.41168586698797,0.843100047406122,FALSE,1.46529949665117
"CAN","cpi",0.3,2016,3,2015,NA,1,0.798953876151947,1.67074319925351,1.41168586698797,1.23484853770273,TRUE,0.871789323101564
"CAN","cpi",0.3,2016,3,2015,NA,1.5,-0.328431909373499,0.543357413728065,1.41168586698797,0.107462752177283,FALSE,3.35272776098699
"CAN","cpi",0.3,2017,3,2017,NA,0,1.45095795137273,1.58384056142074,1.57888581671161,1.51739925639673,TRUE,0.132882610048011
"CAN","cpi",0.3,2017,3,2017,NA,0.5,1.69872599877016,2.06467938678758,1.57888581671161,1.88170269277887,FALSE,0.708353908184709
"CAN","cpi",0.3,2017,3,2016,NA,1,-0.0174821248910874,0.854158818401576,1.57888581671161,0.418338346755244,FALSE,2.94228950989277
"CAN","cpi",0.3,2017,3,2016,NA,1.5,0.0897556156909589,0.961396558983622,1.57888581671161,0.52557608733729,FALSE,2.63589596537263
"CAN","cpi",0.3,2018,3,2018,NA,0,2.33764109290091,2.47458647880219,2.23316270166586,2.40611378585155,FALSE,0.43545507514428
"CAN","cpi",0.3,2018,3,2018,NA,0.5,2.42390538612946,2.82023503035462,2.23316270166586,2.62207020824204,FALSE,0.941308742692594
"CAN","cpi",0.3,2018,3,2017,NA,1,-0.0212712303394512,0.829497431551791,2.23316270166586,0.40411310060617,FALSE,4.86124086221715
"CAN","cpi",0.3,2018,3,2017,NA,1.5,1.11249091620364,1.96325957809489,2.23316270166586,1.53787524714926,FALSE,1.62192044352259
"CAN","cpi",0.3,2019,3,2019,NA,0,1.94268556623806,2.08017123166442,1.91921619871868,2.01142839895124,FALSE,0.20454100119601
"CAN","cpi",0.3,2019,3,2019,NA,0.5,1.30710518843961,1.73056897237211,1.91921619871868,1.51883708040586,FALSE,0.962455859208411
"CAN","cpi",0.3,2019,3,2018,NA,1,0.992861043528473,1.8459986385085,1.91921619871868,1.41942984101848,FALSE,1.06233062415198
"CAN","cpi",0.3,2019,3,2018,NA,1.5,1.63448291341011,2.48762050839013,1.91921619871868,2.06105171090012,TRUE,0.853137594980023
"CAN","cpi",0.3,2020,3,2020,NA,0,0.696383839977967,0.755975865604182,0.71139989671781,0.726179852791075,TRUE,0.0595920256262155
"CAN","cpi",0.3,2020,3,2020,NA,0.5,0.894158728864951,1.2503601720961,0.71139989671781,1.07225945048052,FALSE,0.878369535080118
"CAN","cpi",0.3,2020,3,2019,NA,1,0.599066219878861,1.43921306667727,0.71139989671781,1.01913964327806,TRUE,0.840146846798408
"CAN","cpi",0.3,2020,3,2019,NA,1.5,0.807543030105979,1.64768987690439,0.71139989671781,1.22761645350518,FALSE,1.11484151362175
"CAN","cpi",0.3,2021,3,2021,NA,0,3.28061647205402,3.33915859176381,3.31148121717802,3.30988753190892,TRUE,0.0585421197097933
"CAN","cpi",0.3,2021,3,2021,NA,0.5,2.33483709198136,2.64497106534005,3.31148121717802,2.4899040786607,FALSE,2.21444869289577
"CAN","cpi",0.3,2021,3,2020,NA,1,0.975847963769827,1.41996544529638,3.31148121717802,1.1979067045331,FALSE,5.84844825833125
"CAN","cpi",0.3,2021,3,2020,NA,1.5,0.299129216196958,1.04212440578435,3.31148121717802,0.670626810990653,FALSE,7.22687179356932
"CAN","cpi",0.3,2022,3,2022,NA,0,6.51705402364667,6.57406175993046,6.50977236228281,6.54555789178856,FALSE,0.0778124830376642
"CAN","cpi",0.3,2022,3,2022,NA,0.5,5.79149035213038,6.13788961999368,6.50977236228281,5.96468998606203,FALSE,1.40892138868938
"CAN","cpi",0.3,2022,3,2021,NA,1,3.16112636639682,3.6809789300628,6.50977236228281,3.42105264822981,FALSE,8.60211951286602
"CAN","cpi",0.3,2022,3,2021,NA,1.5,1.54636428375888,2.31916103392035,6.50977236228281,1.93276265883962,FALSE,12.7459719740542
"CAN","cpi",0.3,2023,3,2023,NA,0,3.94486191424721,3.99891179063914,3.78831288758619,3.97188685244318,FALSE,0.501332809709127
"CAN","cpi",0.3,2023,3,2023,NA,0.5,2.66074729092967,3.01765291616292,3.78831288758619,2.8392001035463,FALSE,2.55879125787116
"CAN","cpi",0.3,2023,3,2022,NA,1,2.51644254517285,3.22125728462232,3.78831288758619,2.86884991489758,FALSE,2.32497360506053
"CAN","cpi",0.3,2023,3,2022,NA,1.5,3.45853715211188,4.60780779820631,3.78831288758619,4.03317247515909,TRUE,1.14927064609443
"CAN","cpi",0.3,2024,3,2023,NA,1,2.55048164544198,3.24845343814525,NA,2.89946754179362,NA,NA
"CAN","cpi",0.3,2024,3,2023,NA,1.5,0.603688442453624,1.75614459318939,NA,1.17991651782151,NA,NA
"CAN","cpi",0.4,1959,3,1959,NA,0,1.11153852514086,1.26755345788267,1.19382698397654,1.18954599151176,TRUE,0.156014932741808
"CAN","cpi",0.4,1959,3,1959,NA,0.5,0.0232925053513209,1.06732414897053,1.19382698397654,0.545308327160925,FALSE,1.46570776030592
"CAN","cpi",0.4,1959,3,1958,NA,1,-0.509016873254164,2.77491915823509,1.19382698397654,1.13295114249046,TRUE,3.28393603148925
"CAN","cpi",0.4,1959,3,1958,NA,1.5,-1.7713209130347,3.20616508919328,1.19382698397654,0.717422088079289,TRUE,4.97748600222798
"CAN","cpi",0.4,1960,3,1960,NA,0,0.951071394702818,1.09615469048673,1.34209404870695,1.02361304259477,FALSE,0.964881156517993
"CAN","cpi",0.4,1960,3,1960,NA,0.5,0.149088990839746,1.14813302458757,1.34209404870695,0.648611007713657,FALSE,1.64558078081243
"CAN","cpi",0.4,1960,3,1959,NA,1,1.13313139887827,3.62020606483445,1.34209404870695,2.37666873185636,TRUE,2.48707466595618
"CAN","cpi",0.4,1960,3,1959,NA,1.5,-2.18718072146964,1.48899636233509,1.34209404870695,-0.349092179567277,TRUE,3.67617708380473
"CAN","cpi",0.4,1961,3,1961,NA,0,0.92444576057745,1.09398120130269,1.00921348094007,1.00921348094007,TRUE,0.169535440725243
"CAN","cpi",0.4,1961,3,1961,NA,0.5,0.512963685949928,1.50546327593022,1.00921348094007,1.00921348094007,TRUE,0.992499589980288
"CAN","cpi",0.4,1961,3,1960,NA,1,-1.09595156441048,1.20349248961755,1.00921348094007,0.0537704626035329,TRUE,2.29944405402803
