isdrw/probabilistic-benchmark-forecasts/results/gauss_quantiles_prediction/mean 0 assumption/gauss_prediction_rw_2026-02-15_11-28.csv
"country","target","tau","target_year","target_quarter","forecast_year","forecast_quarter","horizon","lower_bound","upper_bound","truth_value","prediction","covered","IS"
"CAN","cpi",0.1,1959,3,1959,NA,0,1.22963404366622,1.27019028495964,1.19382698397654,1.24991216431293,FALSE,0.120127485048265
"CAN","cpi",0.1,1959,3,1959,NA,0.5,0.274166060886859,0.601513402293796,1.19382698397654,0.437839731590327,FALSE,1.64359974514637
"CAN","cpi",0.1,1959,3,1958,NA,1,1.39908064217254,2.11817461554638,1.19382698397654,1.75862762885946,FALSE,1.1752132138094
"CAN","cpi",0.1,1959,3,1958,NA,1.5,0.9448085901392,2.60333486413611,1.19382698397654,1.77407172713766,TRUE,1.65852627399691
"CAN","cpi",0.1,1960,3,1960,NA,0,1.00562722722292,1.04159885796662,1.34209404870695,1.02361304259477,FALSE,0.703738721277766
"CAN","cpi",0.1,1960,3,1960,NA,0.5,0.405853357963547,0.672113602399772,1.34209404870695,0.53898348018166,FALSE,1.7551056806744
"CAN","cpi",0.1,1960,3,1959,NA,1,3.60434946715581,4.31083800663304,1.34209404870695,3.95759373689442,FALSE,5.73372280269691
"CAN","cpi",0.1,1960,3,1959,NA,1.5,-1.60731214311867,-0.139641487691095,1.34209404870695,-0.873476815404885,FALSE,4.76041629186768
"CAN","cpi",0.1,1961,3,1961,NA,0,0.987462830147732,1.03096413173241,1.00921348094007,1.00921348094007,TRUE,0.043501301584679
"CAN","cpi",0.1,1961,3,1961,NA,0.5,0.876935891583278,1.14149107029687,1.00921348094007,1.00921348094007,TRUE,0.264555178713587
"CAN","cpi",0.1,1961,3,1960,NA,1,-0.248837592178759,0.356378517385825,1.00921348094007,0.0537704626035329,FALSE,2.05596047301847
"CAN","cpi",0.1,1961,3,1960,NA,1.5,-1.43489351186314,-0.289470086016935,1.00921348094007,-0.862181798940035,FALSE,4.03138690797288
"CAN","cpi",0.1,1962,3,1962,NA,0,1.08291226374926,1.1217357908803,1.04957947883042,1.10232402731478,FALSE,0.11289638250625
"CAN","cpi",0.1,1962,3,1962,NA,0.5,-0.103154718150389,0.103154718150389,1.04957947883042,0,FALSE,2.30947557114528
"CAN","cpi",0.1,1962,3,1961,NA,1,-0.307196418483725,0.307196418483725,1.04957947883042,0,FALSE,2.26413297107121
"CAN","cpi",0.1,1962,3,1961,NA,1.5,-0.572263732776564,0.572263732776565,1.04957947883042,0,FALSE,2.20522912345057
"CAN","cpi",0.1,1963,3,1963,NA,0,1.89554729157453,1.9342872990495,1.60677118395228,1.91491729531202,FALSE,0.680464691079963
"CAN","cpi",0.1,1963,3,1963,NA,0.5,0.733359346561564,0.940298082673444,1.60677118395228,0.836828714617504,FALSE,1.68799007228708
"CAN","cpi",0.1,1963,3,1962,NA,1,2.28513956588908,2.8430902424138,1.60677118395228,2.56411490415144,FALSE,2.06543596971759
"CAN","cpi",0.1,1963,3,1962,NA,1.5,-0.407336413755004,0.407336413755004,1.60677118395228,0,FALSE,3.48008342794841
"CAN","cpi",0.1,1964,3,1964,NA,0,1.96723752258607,2.01030760633488,1.88764670034376,1.98877256446048,FALSE,0.219938577620618
"CAN","cpi",0.1,1964,3,1964,NA,0.5,1.31911037601991,1.44826974853224,1.88764670034376,1.38369006227607,FALSE,1.10555259876015
"CAN","cpi",0.1,1964,3,1963,NA,1,5.18035863565164,5.60052717129347,1.88764670034376,5.39044290347256,FALSE,7.73730616965935
"CAN","cpi",0.1,1964,3,1963,NA,1.5,-0.229587582891526,0.229587582891527,1.88764670034376,0,FALSE,4.14375098234357
"CAN","cpi",0.1,1965,3,1965,NA,0,2.32397661950619,2.36716432887379,2.29538304394236,2.34557047418999,FALSE,0.106728988398331
"CAN","cpi",0.1,1965,3,1965,NA,0.5,1.54616709239401,1.67542186673907,2.29538304394236,1.61079447956654,FALSE,1.50694627924125
"CAN","cpi",0.1,1965,3,1964,NA,1,2.22876597537078,2.62161126822615,2.29538304394236,2.42518862179847,TRUE,0.392845292855371
"CAN","cpi",0.1,1965,3,1964,NA,1.5,0.621679905888714,1.01452519874408,2.29538304394236,0.818102552316399,FALSE,3.23919605996264
"CAN","cpi",0.1,1966,3,1966,NA,0,3.79965695015958,3.84056280711459,3.72486065470629,3.82010987863709,FALSE,0.207119846851214
"CAN","cpi",0.1,1966,3,1966,NA,0.5,3.92690661636805,4.05556136154321,3.72486065470629,3.99123398895563,FALSE,0.577645771090192
"CAN","cpi",0.1,1966,3,1965,NA,1,3.01466146277302,3.39977991214406,3.72486065470629,3.20722068745854,FALSE,1.10752009950934
"CAN","cpi",0.1,1966,3,1965,NA,1.5,1.41407902163406,1.7991974710051,3.72486065470629,1.60663824631958,FALSE,4.66436996870701
"CAN","cpi",0.1,1967,3,1967,NA,0,3.7475904905904,3.78778649598225,3.49360316391996,3.76768849328632,FALSE,0.604612286881707
"CAN","cpi",0.1,1967,3,1967,NA,0.5,2.33326287148985,2.48164661690535,3.49360316391996,2.4074547441976,FALSE,2.39717607211462
"CAN","cpi",0.1,1967,3,1966,NA,1,2.99163449973906,3.37043196166662,3.49360316391996,3.18103323070284,FALSE,0.652511244712765
"CAN","cpi",0.1,1967,3,1966,NA,1.5,4.4618828739087,4.84068033583626,3.49360316391996,4.65128160487248,FALSE,2.53053015079143
"CAN","cpi",0.1,1968,3,1968,NA,0,4.15222186427354,4.19353704917438,3.95128347779386,4.17287945672396,FALSE,0.487844932633464
"CAN","cpi",0.1,1968,3,1968,NA,0.5,4.01644499162788,4.12549912396916,3.95128347779386,4.07097205779852,FALSE,0.253857496416891
"CAN","cpi",0.1,1968,3,1967,NA,1,5.6439406593795,6.04649298309747,3.95128347779386,5.84521682123848,FALSE,4.16401272724162
"CAN","cpi",0.1,1968,3,1967,NA,1.5,2.05438242054328,2.45693474426125,3.95128347779386,2.25565858240226,FALSE,3.72332728712377
"CAN","cpi",0.1,1969,3,1969,NA,0,4.57407024836135,4.61634303885102,4.42679496126681,4.59520664360618,FALSE,0.369551206255301
"CAN","cpi",0.1,1969,3,1969,NA,0.5,2.908821992195,3.02341839571929,4.42679496126681,2.96612019395715,FALSE,3.23321099362989
"CAN","cpi",0.1,1969,3,1968,NA,1,6.56729655159038,6.88245604922576,4.42679496126681,6.72487630040807,FALSE,5.07182969835442
"CAN","cpi",0.1,1969,3,1968,NA,1.5,4.15906478062771,4.4742242782631,4.42679496126681,4.31664452944541,TRUE,0.315159497635383
"CAN","cpi",0.1,1970,3,1970,NA,0,3.58741913056879,3.62781163442972,3.28128405769805,3.60761538249925,FALSE,0.720692665795915
"CAN","cpi",0.1,1970,3,1970,NA,0.5,4.29544894456675,4.42487260386708,3.28128405769805,4.36016077421692,FALSE,2.38312340789745
"CAN","cpi",0.1,1970,3,1969,NA,1,4.75211699069653,5.07527196540617,3.28128405769805,4.91369447805135,FALSE,3.59167260359516
"CAN","cpi",0.1,1970,3,1969,NA,1.5,1.91816098547647,2.24131596018611,3.28128405769805,2.07973847283129,FALSE,2.63419519140282
"CAN","cpi",0.1,1971,3,1971,NA,0,2.89692228307502,2.94053573653173,2.64123406634756,2.91872900980337,FALSE,0.611809490628837
"CAN","cpi",0.1,1971,3,1971,NA,0.5,1.29513576622712,1.47200634649902,2.64123406634756,1.38357105636307,FALSE,2.77515440215755
"CAN","cpi",0.1,1971,3,1970,NA,1,3.0232178700815,3.33051434950405,2.64123406634756,3.17686610979278,FALSE,1.15614937660908
"CAN","cpi",0.1,1971,3,1970,NA,1.5,4.46701488355148,4.77431136297402,2.64123406634756,4.62066312326275,FALSE,4.36458718432014
"CAN","cpi",0.1,1972,3,1972,NA,0,5.15813902245189,5.18607482086513,4.83230569625923,5.17210692165851,FALSE,0.752009856619151
"CAN","cpi",0.1,1972,3,1972,NA,0.5,4.66973298182654,4.85475212775239,4.83230569625923,4.76224255478946,TRUE,0.185019145925857
"CAN","cpi",0.1,1972,3,1971,NA,1,6.67029942379633,7.00697053743716,4.83230569625923,6.83863498061675,FALSE,4.42110161927883
"CAN","cpi",0.1,1972,3,1971,NA,1.5,1.78607606907023,2.12274718271105,4.83230569625923,1.95441162589064,FALSE,6.357912254859
"CAN","cpi",0.1,1973,3,1973,NA,0,7.39718197620162,7.42397453787828,7.12388603531779,7.41057825703995,FALSE,0.634116874751832
"CAN","cpi",0.1,1973,3,1973,NA,0.5,6.14989968547266,6.33392834080151,7.12388603531779,6.24191401313708,FALSE,1.93949019869837
"CAN","cpi",0.1,1973,3,1972,NA,1,7.95919259152238,8.29262508211631,7.12388603531779,8.12590883681935,FALSE,2.18966928215969
"CAN","cpi",0.1,1973,3,1972,NA,1.5,4.78763528150228,5.13497860632217,7.12388603531779,4.96130694391223,FALSE,4.76713761147682
"CAN","cpi",0.1,1974,3,1974,NA,0,10.2796900961266,10.3042707236198,10.2717243737774,10.2919804098732,FALSE,0.0422822327135799
"CAN","cpi",0.1,1974,3,1974,NA,0.5,8.92605083539153,9.10754720947433,10.2717243737774,9.01679902243293,FALSE,2.76855673920077
"CAN","cpi",0.1,1974,3,1973,NA,1,11.3621267812182,11.653150583732,10.2717243737774,11.5076386824751,FALSE,2.71414026349329
"CAN","cpi",0.1,1974,3,1973,NA,1.5,6.85970988095217,7.2173104772858,10.2717243737774,7.03851017911898,FALSE,7.14518703298167
"CAN","cpi",0.1,1975,3,1975,NA,0,10.30296832645,10.3304306140364,10.0232981493341,10.3166994702432,FALSE,0.64895157006609
"CAN","cpi",0.1,1975,3,1975,NA,0.5,8.78357544007097,8.97278107536412,10.0232981493341,8.87817825771755,FALSE,2.52368802189315
"CAN","cpi",0.1,1975,3,1974,NA,1,11.5182378522693,11.808659171048,10.0232981493341,11.6634485116586,FALSE,3.61250954752353
"CAN","cpi",0.1,1975,3,1974,NA,1.5,8.89715912018448,9.28615966676782,10.0232981493341,9.09165939347615,FALSE,2.02708606339733
"CAN","cpi",0.1,1976,3,1976,NA,0,7.24554331387504,7.27268403420348,7.22784311401172,7.25911367403926,FALSE,0.0664744978024901
"CAN","cpi",0.1,1976,3,1976,NA,0.5,7.12779333624532,7.32225796913552,7.22784311401172,7.22502565269042,TRUE,0.194464632890199
"CAN","cpi",0.1,1976,3,1975,NA,1,12.3623225484193,12.5938355391374,7.22784311401172,12.4780790437784,FALSE,11.6414672894017
"CAN","cpi",0.1,1976,3,1975,NA,1.5,6.99287768810778,7.37884258864358,7.22784311401172,7.18586013837568,TRUE,0.385964900535797
"CAN","cpi",0.1,1977,3,1977,NA,0,7.57747914283798,7.60530115635598,7.58101410153764,7.59139014959698,TRUE,0.0278220135180067
"CAN","cpi",0.1,1977,3,1977,NA,0.5,7.15111260845287,7.34966052263211,7.58101410153764,7.25038656554249,FALSE,0.712666978413769
"CAN","cpi",0.1,1977,3,1976,NA,1,5.74529459517158,6.11459577813724,7.58101410153764,5.92994518665441,FALSE,3.62800856829989
"CAN","cpi",0.1,1977,3,1976,NA,1.5,5.49310003379062,5.88598626548813,7.58101410153764,5.68954314963938,FALSE,4.15961475625198
"CAN","cpi",0.1,1978,3,1978,NA,0,8.67359816107902,8.70402337512222,8.50208927062595,8.68881076810062,FALSE,0.411556081716695
"CAN","cpi",0.1,1978,3,1978,NA,0.5,8.01734035371248,8.20682982158628,8.50208927062595,8.11208508764938,FALSE,0.845621576850841
"CAN","cpi",0.1,1978,3,1977,NA,1,8.14638432558593,8.54705413908892,8.50208927062595,8.34671923233743,TRUE,0.40066981350299
"CAN","cpi",0.1,1978,3,1977,NA,1.5,8.01377240950625,8.41444222300924,8.50208927062595,8.21410731625775,FALSE,0.595441030429003
"CAN","cpi",0.1,1979,3,1979,NA,0,8.54640087391834,8.57632979337988,8.65147652410481,8.56136533364911,FALSE,0.196921654405831
"CAN","cpi",0.1,1979,3,1979,NA,0.5,8.13829064677544,8.32356114693257,8.65147652410481,8.23092589685401,FALSE,0.913971338317658
"CAN","cpi",0.1,1979,3,1978,NA,1,9.4737498052172,9.85588711276938,8.65147652410481,9.66481845899329,FALSE,2.20941126557972
"CAN","cpi",0.1,1979,3,1978,NA,1.5,7.71907940992637,8.10121671747855,8.65147652410481,7.91014806370246,FALSE,1.60493687783275
"CAN","cpi",0.1,1980,3,1980,NA,0,9.51764681714287,9.55388730002706,9.5171912664748,9.53576705858497,FALSE,0.0372528177021335
"CAN","cpi",0.1,1980,3,1980,NA,0.5,8.55410144293228,8.73284777792493,9.5171912664748,8.6434746104286,FALSE,1.92173186510347
"CAN","cpi",0.1,1980,3,1979,NA,1,7.59931294365377,7.98003203915272,9.5171912664748,7.78967249140325,FALSE,3.79662848954801
"CAN","cpi",0.1,1980,3,1979,NA,1.5,8.10745617790238,8.48817527340132,9.5171912664748,8.29781572565185,FALSE,2.66742130232889
"CAN","cpi",0.1,1981,3,1981,NA,0,11.6931233468324,11.7309423003344,11.5813425032741,11.7120328235834,FALSE,0.286220828075899
"CAN","cpi",0.1,1981,3,1981,NA,0.5,12.2464583315421,12.4127787175403,11.5813425032741,12.3296185245412,FALSE,1.64435555992693
"CAN","cpi",0.1,1981,3,1980,NA,1,10.8354517922499,11.2358010759718,11.5813425032741,11.0356264341109,FALSE,1.16821912217151
"CAN","cpi",0.1,1981,3,1980,NA,1.5,8.3245739449809,8.72492322870281,11.5813425032741,8.52474858684185,FALSE,6.7479476716582
"CAN","cpi",0.1,1982,3,1982,NA,0,10.2355868929636,10.2708611697864,10.1124203763629,10.253224031375,FALSE,0.308977647046513
"CAN","cpi",0.1,1982,3,1982,NA,0.5,10.047596707619,10.1966663056279,10.1124203763629,10.1221315066235,TRUE,0.149069598008921
"CAN","cpi",0.1,1982,3,1981,NA,1,11.4436486709056,11.8619064228564,10.1124203763629,11.652777546881,FALSE,3.37654285093438
"CAN","cpi",0.1,1982,3,1981,NA,1.5,13.0048246076459,13.4230823595967,10.1124203763629,13.2139534836213,FALSE,6.8458227103574
"CAN","cpi",0.1,1983,3,1983,NA,0,5.82688685037,5.86036819656706,5.67091787896303,5.84362752346853,FALSE,0.380079060434767
"CAN","cpi",0.1,1983,3,1983,NA,0.5,4.63549854573202,4.77720441713869,5.67091787896303,4.70635148143536,FALSE,2.12773578657187
"CAN","cpi",0.1,1983,3,1982,NA,1,8.38939807131552,8.83934912735813,5.67091787896303,8.61437359933683,FALSE,6.49101815015925
"CAN","cpi",0.1,1983,3,1982,NA,1.5,9.61832750133408,10.0682785573767,5.67091787896303,9.84330302935538,FALSE,9.22197243908938
"CAN","cpi",0.1,1984,3,1984,NA,0,4.19854994952682,4.22776331405152,4.19799576814029,4.21315663178917,FALSE,0.0304448787169995
"CAN","cpi",0.1,1984,3,1984,NA,0.5,4.6581563820896,4.80192774696305,4.19799576814029,4.73004206452632,FALSE,1.16635050698303
"CAN","cpi",0.1,1984,3,1983,NA,1,6.06337139312832,6.54722784355406,4.19799576814029,6.30529961834119,FALSE,4.62913561706581
"CAN","cpi",0.1,1984,3,1983,NA,1.5,2.53226692845927,3.09152186789624,4.19799576814029,2.81189439817776,FALSE,3.01808582886818
"CAN","cpi",0.1,1985,3,1985,NA,0,3.89238394167787,3.91855394920498,3.86444262005169,3.90546894544143,FALSE,0.0882618333630633
"CAN","cpi",0.1,1985,3,1985,NA,0.5,3.93284409707176,4.09068588598163,3.86444262005169,4.0117649915267,FALSE,0.309845071176693
"CAN","cpi",0.1,1985,3,1984,NA,1,3.04394084291817,3.53490311832917,3.86444262005169,3.28942198062367,FALSE,1.22327227923883
"CAN","cpi",0.1,1985,3,1984,NA,1.5,4.40505391179688,4.95435348509499,3.86444262005169,4.67970369844593,FALSE,1.75065799939853
"CAN","cpi",0.1,1986,3,1986,NA,0,4.11431802368811,4.14023692522047,4.08685396749431,4.12727747445429,FALSE,0.0869501375185888
"CAN","cpi",0.1,1986,3,1986,NA,0.5,4.5027527411106,4.64752967539976,4.08685396749431,4.57514120825518,FALSE,1.06899643121425
"CAN","cpi",0.1,1986,3,1985,NA,1,3.59278358859926,4.09725142540739,4.08685396749431,3.84501750700332,TRUE,0.504467836808127
"CAN","cpi",0.1,1986,3,1985,NA,1.5,4.26115273258059,4.77132727919816,4.08685396749431,4.51624000588938,FALSE,0.897505135698192
"CAN","cpi",0.1,1987,3,1987,NA,0,4.32755991809552,4.34767292185208,4.23980729277887,4.3376164199738,FALSE,0.215118837793554
"CAN","cpi",0.1,1987,3,1987,NA,0.5,3.82276691148311,3.9569102289793,4.23980729277887,3.8898385702312,FALSE,0.762803459273017
"CAN","cpi",0.1,1987,3,1986,NA,1,4.30944151254658,4.81625721592496,4.23980729277887,4.56284936423577,FALSE,0.661558413973295
"CAN","cpi",0.1,1987,3,1986,NA,1.5,4.90103866247236,5.40845452614111,4.23980729277887,5.15474659430673,FALSE,1.97681890743205
"CAN","cpi",0.1,1988,3,1988,NA,0,3.9902446242971,4.01032136779943,3.92899537638065,4.00028299604827,FALSE,0.156186183316659
"CAN","cpi",0.1,1988,3,1988,NA,0.5,3.46426318539861,3.59936239283214,3.92899537638065,3.53181278911538,FALSE,0.86761694865245
"CAN","cpi",0.1,1988,3,1987,NA,1,4.16323564555512,4.5202300753641,3.92899537638065,4.34173286045961,FALSE,0.877528361307786
"CAN","cpi",0.1,1988,3,1987,NA,1.5,3.51024420778279,4.02200166385133,3.92899537638065,3.76612293581706,TRUE,0.511757456068536
"CAN","cpi",0.1,1989,3,1989,NA,0,4.99630717115571,5.01582907889997,4.82821664544208,5.00606812502784,FALSE,0.393056409330117
"CAN","cpi",0.1,1989,3,1989,NA,0.5,4.44733565387495,4.58309310557314,4.82821664544208,4.51521437972404,FALSE,0.680476429184726
"CAN","cpi",0.1,1989,3,1988,NA,1,4.16578142046705,4.48829653651314,4.82821664544208,4.3270389784901,FALSE,1.07789313588817
"CAN","cpi",0.1,1989,3,1988,NA,1.5,3.18285639337567,3.67112862278825,4.82821664544208,3.42699250808196,FALSE,3.05957894642109
"CAN","cpi",0.1,1990,3,1990,NA,0,4.51209277846715,4.53133169651402,4.64347549432717,4.52171223749059,FALSE,0.268447357631641
"CAN","cpi",0.1,1990,3,1990,NA,0.5,5.15583520605303,5.29086985914613,4.64347549432717,5.22335253259958,FALSE,1.27361179026168
"CAN","cpi",0.1,1990,3,1989,NA,1,5.56001513761915,5.88727134096345,4.64347549432717,5.7236432392913,FALSE,2.36401096621537
"CAN","cpi",0.1,1990,3,1989,NA,1.5,4.66963535511218,5.17119148755536,4.64347549432717,4.92041342133377,FALSE,0.559689156409876
"CAN","cpi",0.1,1991,3,1991,NA,0,5.6057522204384,5.6266111159958,5.4258100696218,5.6161816682171,FALSE,0.420730341816519
"CAN","cpi",0.1,1991,3,1991,NA,0.5,8.75319470780654,8.89490730422847,5.4258100696218,8.8240510060175,FALSE,7.53590068127691
"CAN","cpi",0.1,1991,3,1990,NA,1,3.72772063249472,4.05569363597366,5.4258100696218,3.89170713423419,FALSE,3.37267618936369
"CAN","cpi",0.1,1991,3,1990,NA,1.5,5.45625400279698,5.95298684615185,5.4258100696218,5.70462042447442,FALSE,0.564386028188621
"CAN","cpi",0.1,1992,3,1992,NA,0,1.4644323232493,1.48645702157856,1.47496888572843,1.47544467241393,TRUE,0.0220246983292647
"CAN","cpi",0.1,1992,3,1992,NA,0.5,1.22446334242965,1.49692434284672,1.47496888572843,1.36069384263819,TRUE,0.272461000417069
"CAN","cpi",0.1,1992,3,1991,NA,1,2.27457660627881,2.59543780929868,1.47496888572843,2.43500720778875,FALSE,2.09776724868738
"CAN","cpi",0.1,1992,3,1991,NA,1.5,10.9656394628089,11.4489557859398,1.47496888572843,11.2072976243743,FALSE,21.5736953833097
"CAN","cpi",0.1,1993,3,1993,NA,0,1.80368897247148,1.82623177232056,1.84351085411351,1.81496037239602,FALSE,0.0609407593889716
"CAN","cpi",0.1,1993,3,1993,NA,0.5,2.29718827772416,2.56958442402528,1.84351085411351,2.43338635087472,FALSE,1.28056819876923
"CAN","cpi",0.1,1993,3,1992,NA,1,1.6061819147111,1.91839341167613,1.84351085411351,1.76228766319361,TRUE,0.312211496965029
"CAN","cpi",0.1,1993,3,1992,NA,1.5,1.2162333722973,1.98126785489871,1.84351085411351,1.598750613598,TRUE,0.76503448260141
"CAN","cpi",0.1,1994,3,1994,NA,0,0.208635087187069,0.231659367128788,0.161630694655448,0.220147227157928,FALSE,0.127478485567544
"CAN","cpi",0.1,1994,3,1994,NA,0.5,-0.877735681746469,-0.605349370340913,0.161630694655448,-0.741542526043691,FALSE,1.97678645584191
"CAN","cpi",0.1,1994,3,1993,NA,1,1.35501941167341,1.66087322428265,0.161630694655448,1.50794631797803,FALSE,2.95782873931583
"CAN","cpi",0.1,1994,3,1993,NA,1.5,2.43616156119632,3.19979278562559,0.161630694655448,2.81797717341095,FALSE,5.81814426118676
"CAN","cpi",0.1,1995,3,1995,NA,0,2.14424028999163,2.16545342919814,2.11688403676572,2.15484685959489,FALSE,0.0820048130418779
"CAN","cpi",0.1,1995,3,1995,NA,0.5,2.77939047914411,3.03828795407105,2.11688403676572,2.90883921660758,FALSE,1.73113401354559
"CAN","cpi",0.1,1995,3,1994,NA,1,1.82228546374968,2.08118293867662,2.11688403676572,1.95173420121315,FALSE,0.338233248458265
"CAN","cpi",0.1,1995,3,1994,NA,1.5,-2.54852682661865,-1.81114229501787,2.11688403676572,-2.17983456081826,FALSE,9.4663319355643
"CAN","cpi",0.1,1996,3,1996,NA,0,1.43113603748722,1.45220175000854,1.55309584667184,1.44166889374788,FALSE,0.245274816217547
"CAN","cpi",0.1,1996,3,1996,NA,0.5,1.24373786473967,1.48099747519605,1.55309584667184,1.36236766996786,FALSE,0.397478213735931
"CAN","cpi",0.1,1996,3,1995,NA,1,0.792844462922509,1.03010407337889,1.55309584667184,0.911474268150699,FALSE,1.39946355110739
"CAN","cpi",0.1,1996,3,1995,NA,1.5,3.5784336560704,4.39726172292582,1.55309584667184,3.98784768949811,FALSE,5.31957875440777
"CAN","cpi",0.1,1997,3,1997,NA,0,1.67604182319228,1.7001924677093,1.60528783555959,1.68811714545079,FALSE,0.181381728145212
"CAN","cpi",0.1,1997,3,1997,NA,0.5,1.98660687998986,2.22581047325585,1.60528783555959,2.10620867662285,FALSE,1.08657924755547
"CAN","cpi",0.1,1997,3,1996,NA,1,0.638858489426389,0.878062082692377,1.60528783555959,0.758460286059383,FALSE,1.8552608218598
"CAN","cpi",0.1,1997,3,1996,NA,1.5,1.24932117817042,2.076435875683,1.60528783555959,1.66287852692671,TRUE,0.827114697512574
"CAN","cpi",0.1,1998,3,1998,NA,0,0.958557512693524,0.982930533447731,0.988908029337191,0.970744023070627,FALSE,0.0376563449530067
"CAN","cpi",0.1,1998,3,1998,NA,0.5,1.39883902188896,1.64309827819688,0.988908029337191,1.52096865004292,FALSE,1.15521701753407
"CAN","cpi",0.1,1998,3,1997,NA,1,0.917830961631033,1.16209021793895,0.988908029337191,1.03996058978499,TRUE,0.244259256307918
"CAN","cpi",0.1,1998,3,1997,NA,1.5,1.8061297020079,2.63506178014468,0.988908029337191,2.22059574107629,FALSE,2.64498023962725
"CAN","cpi",0.1,1999,3,1999,NA,0,1.77927875473991,1.80355054407384,1.7107350135213,1.79141464940687,FALSE,0.176591214264174
"CAN","cpi",0.1,1999,3,1999,NA,0.5,0.68001043846882,0.921094306953584,1.7107350135213,0.800552372711202,FALSE,1.99584099419079
"CAN","cpi",0.1,1999,3,1998,NA,1,0.353983490667229,0.595067359151993,1.7107350135213,0.474525424909611,FALSE,2.72034532263877
"CAN","cpi",0.1,1999,3,1998,NA,1.5,1.78315913634348,2.61237081057904,1.7107350135213,2.19776497346126,FALSE,0.990154169395967
"CAN","cpi",0.1,2000,3,2000,NA,0,2.72170314956859,2.74607406292596,2.6718361971244,2.73388860624727,FALSE,0.135186363233346
"CAN","cpi",0.1,2000,3,2000,NA,0.5,1.98823551504351,2.24228112966123,2.6718361971244,2.11525832235237,FALSE,1.20861243120253
"CAN","cpi",0.1,2000,3,1999,NA,1,2.68735802147927,2.94140363609699,2.6718361971244,2.81438082878813,FALSE,0.288538557628541
"CAN","cpi",0.1,2000,3,1999,NA,1.5,0.459674534485546,1.28515269481818,2.6718361971244,0.872413614651861,FALSE,3.90699705434646
"CAN","cpi",0.1,2001,3,2001,NA,0,2.72423215738635,2.7459021562463,2.47906219852806,2.73506715681632,FALSE,0.566492129656143
"CAN","cpi",0.1,2001,3,2001,NA,0.5,1.59591336903703,1.85135762355785,2.47906219852806,1.72363549629744,FALSE,1.65034331001019
"CAN","cpi",0.1,2001,3,2000,NA,1,3.61223548668064,3.86767974120146,2.47906219852806,3.73995761394105,FALSE,2.7736071170821
"CAN","cpi",0.1,2001,3,2000,NA,1.5,1.56667308011487,2.39932614982977,2.47906219852806,1.98299961497232,FALSE,1.00984428904444
"CAN","cpi",0.1,2002,3,2002,NA,0,2.3378238451793,2.36220417356851,2.20880570551249,2.3500140093739,FALSE,0.311087305426571
"CAN","cpi",0.1,2002,3,2002,NA,0.5,1.339193902594,1.60229514471695,2.20880570551249,1.47074452365548,FALSE,1.61090248833525
"CAN","cpi",0.1,2002,3,2001,NA,1,0.664422110031419,0.927523352154361,2.20880570551249,0.79597273109289,FALSE,3.11039536069655
"CAN","cpi",0.1,2002,3,2001,NA,1.5,0.407883245688631,1.24615497386084,2.20880570551249,0.827019109774735,FALSE,2.97749557628698
"CAN","cpi",0.1,2003,3,2003,NA,0,2.7571449470837,2.78018581925526,2.71189071546809,2.76866538316948,FALSE,0.123605831317368
"CAN","cpi",0.1,2003,3,2003,NA,0.5,4.51744762993713,4.675462729338,2.71189071546809,4.59645517963757,FALSE,4.17036379822097
"CAN","cpi",0.1,2003,3,2002,NA,1,4.22380845633979,4.45112213655507,2.71189071546809,4.33746529644743,FALSE,3.58713088215239
"CAN","cpi",0.1,2003,3,2002,NA,1.5,2.28772688620159,3.14165091935209,2.71189071546809,2.71468890277684,TRUE,0.853924033150495
"CAN","cpi",0.1,2004,3,2004,NA,0,1.75713314868919,1.779820729315,1.83151661303942,1.7684769390021,FALSE,0.137567322235638
"CAN","cpi",0.1,2004,3,2004,NA,0.5,1.45428045026515,1.67075492930205,1.83151661303942,1.5625176897836,FALSE,0.573722665119955
"CAN","cpi",0.1,2004,3,2003,NA,1,1.29329190517722,1.54179602829936,1.83151661303942,1.41754396673829,FALSE,0.892327644766722
"CAN","cpi",0.1,2004,3,2003,NA,1.5,5.09144953113191,5.56157919506617,1.83151661303942,5.32651436309904,FALSE,7.71442503747313
"CAN","cpi",0.1,2005,3,2005,NA,0,2.37019574537724,2.3937434078385,2.18071628336509,2.38196957660787,FALSE,0.444613133599359
"CAN","cpi",0.1,2005,3,2005,NA,0.5,1.46633968043479,1.6787391662197,2.18071628336509,1.57253942332725,FALSE,1.32790419055244
"CAN","cpi",0.1,2005,3,2004,NA,1,0.868075622574547,1.1183902903454,2.18071628336509,0.993232956459974,FALSE,2.6110390967035
"CAN","cpi",0.1,2005,3,2004,NA,1.5,1.79120455298605,2.32858916918436,2.18071628336509,2.05989686108521,TRUE,0.537384616198313
"CAN","cpi",0.1,2006,3,2006,NA,0,2.05378484566565,2.07966589829614,1.97519342012289,2.0667253719809,FALSE,0.200528664947751
"CAN","cpi",0.1,2006,3,2006,NA,0.5,1.83447765034642,2.04111025508864,1.97519342012289,1.93779395271753,TRUE,0.206632604742217
"CAN","cpi",0.1,2006,3,2005,NA,1,3.35870219257955,3.59582537145613,1.97519342012289,3.47726378201784,FALSE,3.31158711766918
"CAN","cpi",0.1,2006,3,2005,NA,1.5,1.1360645251335,1.63731876265827,1.97519342012289,1.38669164389589,FALSE,1.25208680966836
"CAN","cpi",0.1,2007,3,2007,NA,0,2.09515488389439,2.12099192626516,2.10062087284572,2.10807340507977,TRUE,0.0258370423707719
"CAN","cpi",0.1,2007,3,2007,NA,0.5,2.32105477368885,2.51718916474112,2.10062087284572,2.41912196921498,FALSE,0.685987504036998
"CAN","cpi",0.1,2007,3,2006,NA,1,0.367712559058753,0.63695361152486,2.10062087284572,0.502333085291807,FALSE,3.52183496651247
"CAN","cpi",0.1,2007,3,2006,NA,1.5,1.78231024561106,2.15854311675814,2.10062087284572,1.9704266811846,TRUE,0.37623287114708
"CAN","cpi",0.1,2008,3,2008,NA,0,2.9429196318947,2.96511039314135,2.31447335265955,2.95401501251803,FALSE,1.41873804843587
"CAN","cpi",0.1,2008,3,2008,NA,0.5,1.06051784851824,1.25880370223215,2.31447335265955,1.1596607753752,FALSE,2.54421841021925
"CAN","cpi",0.1,2008,3,2007,NA,1,0.220841038848501,0.509219321923845,2.31447335265955,0.365030180386173,FALSE,4.30005390693247
"CAN","cpi",0.1,2008,3,2007,NA,1.5,3.58157375445297,3.91783480711361,2.31447335265955,3.74970428078329,FALSE,3.15203972331268
"CAN","cpi",0.1,2009,3,2009,NA,0,0.25431451095489,0.300331609696466,0.284533874408197,0.277323060325678,TRUE,0.0460170987415761
"CAN","cpi",0.1,2009,3,2009,NA,0.5,-1.03052263325637,-0.823161068741525,0.284533874408197,-0.926841850998946,FALSE,2.66890588262534
"CAN","cpi",0.1,2009,3,2008,NA,1,4.23530645596774,4.54803409372122,0.284533874408197,4.39167027484448,FALSE,9.09222226344136
"CAN","cpi",0.1,2009,3,2008,NA,1.5,1.13196653849953,1.4823956749122,0.284533874408197,1.30718110670587,FALSE,2.23361283439342
"CAN","cpi",0.1,2010,3,2010,NA,0,1.72602206751543,1.77183989187683,1.75525687020327,1.74893097969613,TRUE,0.0458178243613951
"CAN","cpi",0.1,2010,3,2010,NA,0.5,1.50022139632528,1.71006974487053,1.75525687020327,1.60514557059791,FALSE,0.310264182618009
"CAN","cpi",0.1,2010,3,2009,NA,1,0.448368072277803,0.84538617054238,1.75525687020327,0.646877121410091,FALSE,2.41895298639989
"CAN","cpi",0.1,2010,3,2009,NA,1.5,-1.48958041749408,-1.09256231922951,1.75525687020327,-1.29107136836179,FALSE,6.72550518589297
"CAN","cpi",0.1,2011,3,2011,NA,0,2.81317825854092,2.85999024369665,2.85717434028225,2.83658425111878,TRUE,0.0468119851557312
"CAN","cpi",0.1,2011,3,2011,NA,0.5,2.79232006252311,2.99801749152834,2.85717434028225,2.89516877702572,TRUE,0.205697429005232
"CAN","cpi",0.1,2011,3,2010,NA,1,1.97600691969734,2.406396272091,2.85717434028225,2.19120159589417,FALSE,1.43211839281865
"CAN","cpi",0.1,2011,3,2010,NA,1.5,1.74842035054237,2.17880970293603,2.85717434028225,1.9636150267392,FALSE,1.93786632427414
"CAN","cpi",0.1,2012,3,2012,NA,0,1.43621113292587,1.48403500398343,1.50118536134935,1.46012306845465,FALSE,0.0859357763151441
"CAN","cpi",0.1,2012,3,2012,NA,0.5,1.710241830139,1.91613287763754,1.50118536134935,1.81318735388827,FALSE,0.670460978142225
"CAN","cpi",0.1,2012,3,2011,NA,1,0.855408324944932,1.27951241835287,1.50118536134935,1.0674603716489,FALSE,0.916710633400107
"CAN","cpi",0.1,2012,3,2011,NA,1.5,3.05286973764636,3.4769738310543,1.50118536134935,3.26492178435033,FALSE,3.87229159629019
"CAN","cpi",0.1,2013,3,2013,NA,0,1.01578974638267,1.06350286150031,0.931270594714462,1.03964630394149,FALSE,0.235533452158102
"CAN","cpi",0.1,2013,3,2013,NA,0.5,1.06267461883228,1.26778137567805,0.931270594714462,1.16522799725517,FALSE,0.497115699329811
"CAN","cpi",0.1,2013,3,2012,NA,1,-0.672934903864747,-0.244638994745453,0.931270594714462,-0.4587869493051,FALSE,3.04142833014133
"CAN","cpi",0.1,2013,3,2012,NA,1.5,1.65603801636149,2.08433392548079,0.931270594714462,1.87018597092114,FALSE,2.03889017944603
"CAN","cpi",0.1,2014,3,2014,NA,0,1.96563038252709,2.01320334643546,1.87639912240215,1.98941686448128,FALSE,0.245864653074903
"CAN","cpi",0.1,2014,3,2014,NA,0.5,2.18484724095237,2.38584911999775,1.87639912240215,2.28534818047506,FALSE,0.886442142490319
"CAN","cpi",0.1,2014,3,2013,NA,1,0.723728905707572,1.14424761024523,1.87639912240215,0.933988257976399,FALSE,2.04752206488638
"CAN","cpi",0.1,2014,3,2013,NA,1.5,1.53406887001798,1.95458757455564,1.87639912240215,1.74432822228681,TRUE,0.420518704537653
"CAN","cpi",0.1,2015,3,2015,NA,0,1.23791304414534,1.28544836935726,1.11090953952792,1.2616807067513,FALSE,0.329765335472862
"CAN","cpi",0.1,2015,3,2015,NA,0.5,0.149733714198006,0.286992476067138,1.11090953952792,0.218363095132572,FALSE,1.96818556955975
"CAN","cpi",0.1,2015,3,2014,NA,1,0.41796838495902,0.828591121499839,1.11090953952792,0.62327975322943,FALSE,1.03799699882544
"CAN","cpi",0.1,2015,3,2014,NA,1.5,3.34313396302112,3.75375669956194,1.11090953952792,3.54844533129153,FALSE,5.3711214554146
"CAN","cpi",0.1,2016,3,2016,NA,0,1.42103533319918,1.46702565184661,1.41168586698797,1.44403049252289,FALSE,0.0667669102279042
"CAN","cpi",0.1,2016,3,2016,NA,0.5,0.870529622450637,1.01687209923551,1.41168586698797,0.943700860843074,FALSE,1.02370640512366
"CAN","cpi",0.1,2016,3,2015,NA,1,1.46331324510143,1.85280351390365,1.41168586698797,1.65805837950254,FALSE,0.504217775721036
"CAN","cpi",0.1,2016,3,2015,NA,1.5,0.0180080704133379,0.407498339215554,1.41168586698797,0.212753204814446,FALSE,2.62101810829646
"CAN","cpi",0.1,2017,3,2017,NA,0,1.49885753570669,1.54459314544667,1.57888581671161,1.52172534057668,FALSE,0.121941545884288
"CAN","cpi",0.1,2017,3,2017,NA,0.5,2.10760242961762,2.25231259324925,1.57888581671161,2.17995751143343,FALSE,1.31963597008943
"CAN","cpi",0.1,2017,3,2016,NA,1,0.281116676434042,0.676203636338715,1.57888581671161,0.478660156386378,FALSE,2.40104736073333
"CAN","cpi",0.1,2017,3,2016,NA,1.5,0.850262311944177,1.24534927184885,1.57888581671161,1.04780579189651,FALSE,1.13627928182192
"CAN","cpi",0.1,2018,3,2018,NA,0,2.40252809909591,2.44960917766505,2.23316270166586,2.42606863838048,FALSE,0.423448628413702
"CAN","cpi",0.1,2018,3,2018,NA,0.5,2.94270138711728,3.09932109397281,2.23316270166586,3.02101124054505,FALSE,1.73337234119203
"CAN","cpi",0.1,2018,3,2017,NA,1,0.331560326164835,0.715835728512305,2.23316270166586,0.52369802733857,FALSE,3.75611312046648
"CAN","cpi",0.1,2018,3,2017,NA,1.5,2.89194414204754,3.27621954439501,2.23316270166586,3.08408184322128,FALSE,1.84823415875121
"CAN","cpi",0.1,2019,3,2019,NA,0,1.999290370887,2.04655633203672,1.91921619871868,2.02292335146186,FALSE,0.225208565968204
"CAN","cpi",0.1,2019,3,2019,NA,0.5,1.67635017179062,1.84475131606639,1.91921619871868,1.7605507439285,FALSE,0.333878661280866
"CAN","cpi",0.1,2019,3,2018,NA,1,1.77814322161854,2.16459062497516,1.91921619871868,1.97136692329685,TRUE,0.386447403356621
"CAN","cpi",0.1,2019,3,2018,NA,1.5,3.93679117749563,4.32323858085225,1.91921619871868,4.13001487917394,FALSE,4.86994735619428
"CAN","cpi",0.1,2020,3,2020,NA,0,0.738048474050477,0.758427232486293,0.71139989671781,0.748237853268385,FALSE,0.0795978191750754
"CAN","cpi",0.1,2020,3,2020,NA,0.5,1.13241685447458,1.2803448433538,0.71139989671781,1.20638084891419,FALSE,1.08352122833871
"CAN","cpi",0.1,2020,3,2019,NA,1,1.14715112923161,1.52536817953674,0.71139989671781,1.33625965438418,FALSE,1.34655312255802
"CAN","cpi",0.1,2020,3,2019,NA,1.5,2.28015966177461,2.67639244612794,0.71139989671781,2.47827605395127,FALSE,3.88236559559066
"CAN","cpi",0.1,2021,3,2021,NA,0,3.350792316308,3.37068246586634,3.31148121717802,3.36073739108717,FALSE,0.107248147624953
"CAN","cpi",0.1,2021,3,2021,NA,0.5,2.81821660350989,2.93751538213075,3.31148121717802,2.87786599282032,FALSE,0.950333967614796
"CAN","cpi",0.1,2021,3,2020,NA,1,1.71962211078612,1.89173000380935,3.31148121717802,1.80567605729774,FALSE,3.32711058939805
"CAN","cpi",0.1,2021,3,2020,NA,1.5,1.15945241007428,1.56685004857529,3.31148121717802,1.36315122932478,FALSE,4.28435579095154
"CAN","cpi",0.1,2022,3,2022,NA,0,6.57177188891985,6.59106296661481,6.50977236228281,6.58141742776733,FALSE,0.157067803555041
"CAN","cpi",0.1,2022,3,2022,NA,0.5,6.68069356913555,6.80518410639619,6.50977236228281,6.74293883776587,FALSE,0.504315441377842
"CAN","cpi",0.1,2022,3,2021,NA,1,4.73531573961695,4.91596856031447,6.50977236228281,4.82564214996571,FALSE,3.72243904729383
"CAN","cpi",0.1,2022,3,2021,NA,1.5,3.75611450850823,4.11538677779602,6.50977236228281,3.93575064315212,FALSE,5.68012912370288
"CAN","cpi",0.1,2023,3,2023,NA,0,4.00544466807885,4.02362104424408,3.78831288758619,4.01453285616146,FALSE,0.500691443926692
"CAN","cpi",0.1,2023,3,2023,NA,0.5,3.01644700246812,3.14132143231679,3.78831288758619,3.07888421739245,FALSE,1.56263321933623
"CAN","cpi",0.1,2023,3,2022,NA,1,3.75918604663337,3.95427956476077,3.78831288758619,3.85673280569707,TRUE,0.195093518127407
"CAN","cpi",0.1,2023,3,2022,NA,1.5,7.86658621308113,8.27925945584393,3.78831288758619,8.07292283446253,FALSE,9.47550285497378
"CAN","cpi",0.1,2024,3,2023,NA,1,3.97350497277598,4.17659010715408,NA,4.07504753996503,NA,NA
"CAN","cpi",0.1,2024,3,2023,NA,1.5,2.16775312036708,2.66282784602669,NA,2.41529048319689,NA,NA
"CAN","cpi",0.2,1959,3,1959,NA,0,1.20902924166841,1.29079508695745,1.19382698397654,1.24991216431293,FALSE,0.119771489518715
"CAN","cpi",0.2,1959,3,1959,NA,0.5,0.107855600669386,0.767823862511269,1.19382698397654,0.437839731590327,FALSE,1.72497606550506
"CAN","cpi",0.2,1959,3,1958,NA,1,1.03374133885819,2.48351391886073,1.19382698397654,1.75862762885946,TRUE,1.44977258000254
"CAN","cpi",0.2,1959,3,1958,NA,1.5,0.102185990164261,3.44595746411105,1.19382698397654,1.77407172713766,TRUE,3.34377147394679
"CAN","cpi",0.2,1960,3,1960,NA,0,0.987351659631494,1.05987442555805,1.34209404870695,1.02361304259477,FALSE,0.77807182379881
"CAN","cpi",0.2,1960,3,1960,NA,0.5,0.270578504043909,0.807388456319411,1.34209404870695,0.53898348018166,FALSE,1.87357393324435
"CAN","cpi",0.2,1960,3,1959,NA,1,3.24541441781699,4.66977305597185,1.34209404870695,3.95759373689442,FALSE,6.18265956092996
"CAN","cpi",0.2,1960,3,1959,NA,1.5,-2.35296958790728,0.606015957097512,1.34209404870695,-0.873476815404885,FALSE,4.79918077402839
"CAN","cpi",0.2,1961,3,1961,NA,0,0.965361775483558,1.05306518639659,1.00921348094007,1.00921348094007,TRUE,0.0877034109130284
"CAN","cpi",0.2,1961,3,1961,NA,0.5,0.742527304864144,1.275899657016,1.00921348094007,1.00921348094007,TRUE,0.533372352151855
"CAN","cpi",0.2,1961,3,1960,NA,1,-0.556320675072009,0.663861600279075,1.00921348094007,0.0537704626035329,FALSE,2.08356197700358
"CAN","cpi",0.2,1961,3,1960,NA,1.5,-2.01683163385186,0.292468035971793,1.00921348094007,-0.862181798940035,FALSE,4.10116328224435
"CAN","cpi",0.2,1962,3,1962,NA,0,1.06318777588058,1.14146027874898,1.04957947883042,1.10232402731478,FALSE,0.112293245493808
"CAN","cpi",0.2,1962,3,1962,NA,0.5,-0.207971263019577,0.207971263019577,1.04957947883042,0,FALSE,2.51996306556625
"CAN","cpi",0.2,1962,3,1961,NA,1,-0.619341783804874,0.619341783804874,1.04957947883042,0,FALSE,2.3142778051736
"CAN","cpi",0.2,1962,3,1961,NA,1.5,-1.15374665764031,1.15374665764031,1.04957947883042,0,TRUE,2.30749331528063
"CAN","cpi",0.2,1963,3,1963,NA,0,1.87586523628642,1.95396935433761,1.60677118395228,1.91491729531202,FALSE,0.75083924888653
"CAN","cpi",0.2,1963,3,1963,NA,0.5,0.628223082764006,1.045434346471,1.60677118395228,0.836828714617504,FALSE,1.8205533574102
"CAN","cpi",0.2,1963,3,1962,NA,1,2.00166992354327,3.12655988475961,1.60677118395228,2.56411490415144,FALSE,2.1121368101938
"CAN","cpi",0.2,1963,3,1962,NA,1.5,-0.821235033757629,0.821235033757629,1.60677118395228,0,FALSE,3.6063104430019
"CAN","cpi",0.2,1964,3,1964,NA,0,1.9453555503083,2.03218957861266,1.88764670034376,1.98877256446048,FALSE,0.231106153215706
"CAN","cpi",0.2,1964,3,1964,NA,0.5,1.25349030838287,1.51388981616928,1.88764670034376,1.38369006227607,FALSE,1.19479171822261
"CAN","cpi",0.2,1964,3,1963,NA,1,4.9668899017033,5.81399590524181,1.88764670034376,5.39044290347256,FALSE,8.54521400693736
"CAN","cpi",0.2,1964,3,1963,NA,1.5,-0.462873831112132,0.462873831112132,1.88764670034376,0,FALSE,4.48767983530333
"CAN","cpi",0.2,1965,3,1965,NA,0,2.30203488694226,2.38910606143771,2.29538304394236,2.34557047418999,FALSE,0.103700781995208
"CAN","cpi",0.2,1965,3,1965,NA,0.5,1.48049855537691,1.74109040375617,2.29538304394236,1.61079447956654,FALSE,1.64632344884473
"CAN","cpi",0.2,1965,3,1964,NA,1,2.0291789520938,2.82119829150314,2.29538304394236,2.42518862179847,TRUE,0.792019339409335
"CAN","cpi",0.2,1965,3,1964,NA,1.5,0.422092882611732,1.21411222202107,2.29538304394236,0.818102552316399,FALSE,3.49519639421256
"CAN","cpi",0.2,1966,3,1966,NA,0,3.77887452416968,3.86134523310449,3.72486065470629,3.82010987863709,FALSE,0.21750538259329
"CAN","cpi",0.2,1966,3,1966,NA,0.5,3.86154292718311,4.12092505072816,3.72486065470629,3.99123398895563,FALSE,0.601087804737098
"CAN","cpi",0.2,1966,3,1965,NA,1,2.81900010112012,3.59544127379695,3.72486065470629,3.20722068745854,FALSE,1.09998962495018
"CAN","cpi",0.2,1966,3,1965,NA,1.5,1.21841765998117,1.994858832658,3.72486065470629,1.60663824631958,FALSE,5.10144572779756
"CAN","cpi",0.2,1967,3,1967,NA,0,3.72716870825091,3.80820827832173,3.49360316391996,3.76768849328632,FALSE,0.664953430898195
"CAN","cpi",0.2,1967,3,1967,NA,0.5,2.25787576468526,2.55703372370995,3.49360316391996,2.4074547441976,FALSE,2.64058155954972
"CAN","cpi",0.2,1967,3,1966,NA,1,2.79918454749073,3.56288191391495,3.49360316391996,3.18103323070284,TRUE,0.763697366424217
"CAN","cpi",0.2,1967,3,1966,NA,1.5,4.26943292166037,5.03313028808459,3.49360316391996,4.65128160487248,FALSE,2.70327176077525
"CAN","cpi",0.2,1968,3,1968,NA,0,4.13123147716577,4.21452743628214,3.95128347779386,4.17287945672396,FALSE,0.53316595754616
"CAN","cpi",0.2,1968,3,1968,NA,0.5,3.96103949219617,4.18090462340087,3.95128347779386,4.07097205779852,FALSE,0.244255167210485
"CAN","cpi",0.2,1968,3,1967,NA,1,5.43942193033956,6.2510117121374,3.95128347779386,5.84521682123848,FALSE,4.5319359131621
"CAN","cpi",0.2,1968,3,1967,NA,1.5,1.84986369150334,2.66145347330118,3.95128347779386,2.25565858240226,FALSE,4.03616479302952
"CAN","cpi",0.2,1969,3,1969,NA,0,4.55259334492662,4.63781994228575,4.42679496126681,4.59520664360618,FALSE,0.399722556508638
"CAN","cpi",0.2,1969,3,1969,NA,0.5,2.85060071406432,3.08163967384997,4.42679496126681,2.96612019395715,FALSE,3.59392717832775
"CAN","cpi",0.2,1969,3,1968,NA,1,6.40717818658893,7.04257441422721,4.42679496126681,6.72487630040807,FALSE,5.58635429094357
"CAN","cpi",0.2,1969,3,1968,NA,1.5,3.99894641562627,4.63434264326454,4.42679496126681,4.31664452944541,TRUE,0.635396227638272
"CAN","cpi",0.2,1970,3,1970,NA,0,3.56689751619559,3.64833324880292,3.28128405769805,3.60761538249925,FALSE,0.795469378851186
"CAN","cpi",0.2,1970,3,1970,NA,0.5,4.22969460470025,4.49062694373359,3.28128405769805,4.36016077421692,FALSE,2.63195870653884
"CAN","cpi",0.2,1970,3,1969,NA,1,4.58793648342699,5.2394524726757,3.28128405769805,4.91369447805135,FALSE,3.91814705357108
"CAN","cpi",0.2,1970,3,1969,NA,1.5,1.75398047820694,2.40549646745565,3.28128405769805,2.07973847283129,FALSE,2.8409849648547
"CAN","cpi",0.2,1971,3,1971,NA,0,2.87476424908921,2.96269377051754,2.64123406634756,2.91872900980337,FALSE,0.671754978282447
"CAN","cpi",0.2,1971,3,1971,NA,0.5,1.20527577995834,1.56186633276781,2.64123406634756,1.38357105636307,FALSE,3.05500988675886
"CAN","cpi",0.2,1971,3,1970,NA,1,2.86709435095862,3.48663786862693,2.64123406634756,3.17686610979278,FALSE,1.18419422919596
"CAN","cpi",0.2,1971,3,1970,NA,1.5,4.3108913644286,4.93043488209691,2.64123406634756,4.62066312326275,FALSE,4.7936867628709
"CAN","cpi",0.2,1972,3,1972,NA,0,5.14394609981906,5.20026774349796,4.83230569625923,5.17210692165851,FALSE,0.835422652578475
"CAN","cpi",0.2,1972,3,1972,NA,0.5,4.57573307586817,4.94875203371076,4.83230569625923,4.76224255478946,TRUE,0.373018957842589
"CAN","cpi",0.2,1972,3,1971,NA,1,6.49925197428634,7.17801798694715,4.83230569625923,6.83863498061675,FALSE,4.84613170772858
"CAN","cpi",0.2,1972,3,1971,NA,1.5,1.61502861956023,2.29379463222105,4.83230569625923,1.95441162589064,FALSE,7.02504367275627
"CAN","cpi",0.2,1973,3,1973,NA,0,7.38356988073233,7.43758663334757,7.12388603531779,7.41057825703995,FALSE,0.703226366151583
"CAN","cpi",0.2,1973,3,1973,NA,0.5,6.05640300323476,6.4274250230394,7.12388603531779,6.24191401313708,FALSE,2.11217455050061
"CAN","cpi",0.2,1973,3,1972,NA,1,7.78979054071056,8.46202713292814,7.12388603531779,8.12590883681935,FALSE,2.3369978556995
"CAN","cpi",0.2,1973,3,1972,NA,1.5,4.61116576152396,5.31144812630049,7.12388603531779,4.96130694391223,FALSE,5.23137713731978
"CAN","cpi",0.2,1974,3,1974,NA,0,10.2672017849241,10.3167590348223,10.2717243737774,10.2919804098732,TRUE,0.0495572498982462
"CAN","cpi",0.2,1974,3,1974,NA,0.5,8.83384069135377,9.19975735351209,10.2717243737774,9.01679902243293,FALSE,3.04583421282164
"CAN","cpi",0.2,1974,3,1973,NA,1,11.2142706772942,11.801006687656,10.2717243737774,11.5076386824751,FALSE,2.94310176915371
"CAN","cpi",0.2,1974,3,1973,NA,1.5,6.67802910268565,7.39899125555232,10.2717243737774,7.03851017911898,FALSE,7.90279494842942
"CAN","cpi",0.2,1975,3,1975,NA,0,10.2890159733699,10.3443829671164,10.0232981493341,10.3166994702432,FALSE,0.719661553836034
"CAN","cpi",0.2,1975,3,1975,NA,0.5,8.68744856717169,9.0689079482634,10.0232981493341,8.87817825771755,FALSE,2.76743488376851
"CAN","cpi",0.2,1975,3,1974,NA,1,11.3706878432316,11.9562091800857,10.0232981493341,11.6634485116586,FALSE,3.95399557159777
"CAN","cpi",0.2,1975,3,1974,NA,1.5,8.69952543955318,9.48379334739913,10.0232981493341,9.09165939347615,FALSE,2.13302991268343
"CAN","cpi",0.2,1976,3,1976,NA,0,7.23175433465481,7.28647301342371,7.22784311401172,7.25911367403926,FALSE,0.0644967303766317
"CAN","cpi",0.2,1976,3,1976,NA,0.5,7.02899460321457,7.42105670216627,7.22784311401172,7.22502565269042,TRUE,0.392062098951707
"CAN","cpi",0.2,1976,3,1975,NA,1,12.2447012111964,12.7114568763603,7.22784311401172,12.4780790437784,FALSE,13.0089009081257
"CAN","cpi",0.2,1976,3,1975,NA,1.5,6.7967862826911,7.57493399406026,7.22784311401172,7.18586013837568,TRUE,0.778147711369154
"CAN","cpi",0.2,1977,3,1977,NA,0,7.56334402919242,7.61943627000154,7.58101410153764,7.59139014959698,TRUE,0.0560922408091127
"CAN","cpi",0.2,1977,3,1977,NA,0.5,7.0502393438635,7.45053378722148,7.58101410153764,7.25038656554249,FALSE,0.726495229148401
"CAN","cpi",0.2,1977,3,1976,NA,1,5.557669275125,6.30222109818382,7.58101410153764,5.92994518665441,FALSE,3.94153433144338
"CAN","cpi",0.2,1977,3,1976,NA,1.5,5.29349221132936,6.08559408794939,7.58101410153764,5.68954314963938,FALSE,4.53065191059066
"CAN","cpi",0.2,1978,3,1978,NA,0,8.65814047833752,8.71948105786372,8.50208927062595,8.68881076810062,FALSE,0.451468598805132
"CAN","cpi",0.2,1978,3,1978,NA,0.5,7.92106927824565,8.30310089705311,8.50208927062595,8.11208508764938,FALSE,0.879502552739556
"CAN","cpi",0.2,1978,3,1977,NA,1,7.94282201531168,8.75061644936318,8.50208927062595,8.34671923233743,TRUE,0.807794434051502
"CAN","cpi",0.2,1978,3,1977,NA,1.5,7.81021009923199,8.6180045332835,8.50208927062595,8.21410731625775,TRUE,0.807794434051502
"CAN","cpi",0.2,1979,3,1979,NA,0,8.53119533613065,8.59153533116756,8.65147652410481,8.56136533364911,FALSE,0.210192977380026
"CAN","cpi",0.2,1979,3,1979,NA,0.5,8.04416303903798,8.41768875467004,8.65147652410481,8.23092589685401,FALSE,0.957995139218992
"CAN","cpi",0.2,1979,3,1978,NA,1,9.27960302763191,10.0500338903547,8.65147652410481,9.66481845899329,FALSE,2.34074712154051
"CAN","cpi",0.2,1979,3,1978,NA,1.5,7.52493263234108,8.29536349506385,8.65147652410481,7.91014806370246,FALSE,1.66071343532518
"CAN","cpi",0.2,1980,3,1980,NA,0,9.49923465787172,9.57229945929822,9.5171912664748,9.53576705858497,TRUE,0.0730648014265007
"CAN","cpi",0.2,1980,3,1980,NA,0.5,8.46328847006057,8.82366075079663,9.5171912664748,8.6434746104286,FALSE,2.09419856993147
"CAN","cpi",0.2,1980,3,1979,NA,1,7.40588669582213,8.17345828698437,9.5171912664748,7.78967249140325,FALSE,4.12690403988832
"CAN","cpi",0.2,1980,3,1979,NA,1.5,7.91402993007073,8.68160152123297,9.5171912664748,8.29781572565185,FALSE,2.85654595426681
"CAN","cpi",0.2,1981,3,1981,NA,0,11.6739092376393,11.7501564095275,11.5813425032741,11.7120328235834,FALSE,0.30766400780108
"CAN","cpi",0.2,1981,3,1981,NA,0.5,12.1619584244403,12.4972786246421,11.5813425032741,12.3296185245412,FALSE,1.78686000311712
"CAN","cpi",0.2,1981,3,1980,NA,1,10.6320523287401,11.4392005394816,11.5813425032741,11.0356264341109,FALSE,1.16250312022282
"CAN","cpi",0.2,1981,3,1980,NA,1.5,8.12117448147111,8.9283226922126,11.5813425032741,8.52474858684185,FALSE,7.43969773839534
"CAN","cpi",0.2,1982,3,1982,NA,0,10.2176656195327,10.2887824432173,10.1124203763629,10.253224031375,FALSE,0.334229931609015
"CAN","cpi",0.2,1982,3,1982,NA,0.5,9.97186114996109,10.2724018632859,10.1124203763629,10.1221315066235,TRUE,0.300540713324793
"CAN","cpi",0.2,1982,3,1981,NA,1,11.2311507202043,12.0744043735576,10.1124203763629,11.652777546881,FALSE,3.64007951295672
"CAN","cpi",0.2,1982,3,1981,NA,1.5,12.7923266569447,13.6355803102979,10.1124203763629,13.2139534836213,FALSE,7.54301935480761
"CAN","cpi",0.2,1983,3,1983,NA,0,5.80987648434472,5.87737856259234,5.67091787896303,5.84362752346853,FALSE,0.414898591701841
"CAN","cpi",0.2,1983,3,1983,NA,0.5,4.56350416634324,4.84919879652748,5.67091787896303,4.70635148143536,FALSE,2.33999233627313
"CAN","cpi",0.2,1983,3,1982,NA,1,8.16079817835731,9.06794902031634,5.67091787896303,8.61437359933683,FALSE,7.13185159044472
"CAN","cpi",0.2,1983,3,1982,NA,1.5,9.38972760837586,10.2968784503349,5.67091787896303,9.84330302935538,FALSE,10.2041751654911
"CAN","cpi",0.2,1984,3,1984,NA,0,4.18370795301718,4.24260531056117,4.19799576814029,4.21315663178917,TRUE,0.0588973575439908
"CAN","cpi",0.2,1984,3,1984,NA,0.5,4.58511261837541,4.87497151067724,4.19799576814029,4.73004206452632,FALSE,1.25765101788963
"CAN","cpi",0.2,1984,3,1983,NA,1,5.81754569433499,6.79305354234739,4.19799576814029,6.30529961834119,FALSE,5.02438266349916
"CAN","cpi",0.2,1984,3,1983,NA,1.5,2.24813464879297,3.37565414756255,4.19799576814029,2.81189439817776,FALSE,3.18337355021393
"CAN","cpi",0.2,1985,3,1985,NA,0,3.87908813796973,3.93184975291312,3.86444262005169,3.90546894544143,FALSE,0.0893754097384885
"CAN","cpi",0.2,1985,3,1985,NA,0.5,3.85265178378666,4.17087819926673,3.86444262005169,4.0117649915267,TRUE,0.318226415480071
"CAN","cpi",0.2,1985,3,1984,NA,1,2.79450499406697,3.78433896718037,3.86444262005169,3.28942198062367,FALSE,1.19009310529171
"CAN","cpi",0.2,1985,3,1984,NA,1.5,4.12597950587737,5.23342789101449,3.86444262005169,4.67970369844593,FALSE,1.76129059970132
"CAN","cpi",0.2,1986,3,1986,NA,0,4.10114979564126,4.15340515326733,4.08685396749431,4.12727747445429,FALSE,0.0879949279934396
"CAN","cpi",0.2,1986,3,1986,NA,0.5,4.42919809280639,4.72108432370397,4.08685396749431,4.57514120825518,FALSE,1.14774654417778
"CAN","cpi",0.2,1986,3,1985,NA,1,3.33648617147689,4.35354884252976,4.08685396749431,3.84501750700332,TRUE,1.01706267105287
"CAN","cpi",0.2,1986,3,1985,NA,1.5,4.00195599288955,5.03052401888921,4.08685396749431,4.51624000588938,TRUE,1.02856802599966
"CAN","cpi",0.2,1987,3,1987,NA,0,4.31734140556161,4.35789143438599,4.23980729277887,4.3376164199738,FALSE,0.234385310781223
"CAN","cpi",0.2,1987,3,1987,NA,0.5,3.75461472557562,4.02506241488679,4.23980729277887,3.8898385702312,FALSE,0.807309884041375
"CAN","cpi",0.2,1987,3,1986,NA,1,4.05195125002596,5.07374747844559,4.23980729277887,4.56284936423577,TRUE,1.02179622841963
"CAN","cpi",0.2,1987,3,1986,NA,1.5,4.64324348550316,5.6662497031103,4.23980729277887,5.15474659430673,FALSE,2.03159669941787
"CAN","cpi",0.2,1988,3,1988,NA,0,3.98004453396739,4.02052145812914,3.92899537638065,4.00028299604827,FALSE,0.168099818128594
"CAN","cpi",0.2,1988,3,1988,NA,0.5,3.3956253548095,3.66800022342125,3.92899537638065,3.53181278911538,FALSE,0.924862751010259
"CAN","cpi",0.2,1988,3,1987,NA,1,3.98186283323465,4.70160288768457,3.92899537638065,4.34173286045961,FALSE,0.851908696584901
"CAN","cpi",0.2,1988,3,1987,NA,1.5,3.25024326299834,4.28200260863578,3.92899537638065,3.76612293581706,TRUE,1.03175934563743
"CAN","cpi",0.2,1989,3,1989,NA,0,4.9863889679184,5.02574728213729,4.82821664544208,5.00606812502784,FALSE,0.43478912040969
"CAN","cpi",0.2,1989,3,1989,NA,0.5,4.37836339898252,4.65206536046556,4.82821664544208,4.51521437972404,FALSE,0.714080173924331
"CAN","cpi",0.2,1989,3,1988,NA,1,4.00192599660388,4.65215196037631,4.82821664544208,4.3270389784901,FALSE,1.09038767643685
"CAN","cpi",0.2,1989,3,1988,NA,1.5,2.93478723589909,3.91919778026483,4.82821664544208,3.42699250808196,FALSE,3.25695770730887
"CAN","cpi",0.2,1990,3,1990,NA,0,4.50231834956631,4.54110612541486,4.64347549432717,4.52171223749059,FALSE,0.294711198129317
"CAN","cpi",0.2,1990,3,1990,NA,0.5,5.08723017262067,5.35947489257849,4.64347549432717,5.22335253259958,FALSE,1.38163141569157
"CAN","cpi",0.2,1990,3,1989,NA,1,5.39375098055195,6.05353549803066,4.64347549432717,5.7236432392913,FALSE,2.53547323304065
"CAN","cpi",0.2,1990,3,1989,NA,1.5,4.41481724401036,5.42600959865719,4.64347549432717,4.92041342133377,TRUE,1.01119235464684
"CAN","cpi",0.2,1991,3,1991,NA,0,5.59515475383039,5.63720858260381,5.4258100696218,5.6161816682171,FALSE,0.465415539294905
"CAN","cpi",0.2,1991,3,1991,NA,0.5,8.68119691173999,8.96690510029502,5.4258100696218,8.8240510060175,FALSE,8.42417529385051
"CAN","cpi",0.2,1991,3,1990,NA,1,3.56109230152049,4.22232196694789,5.4258100696218,3.89170713423419,FALSE,3.66994992211216
"CAN","cpi",0.2,1991,3,1990,NA,1.5,5.20388638793133,6.20535446101751,5.4258100696218,5.70462042447442,TRUE,1.00146807308618
"CAN","cpi",0.2,1992,3,1992,NA,0,1.45324256469024,1.49764678013761,1.47496888572843,1.47544467241393,TRUE,0.0444042154473672
"CAN","cpi",0.2,1992,3,1992,NA,0.5,1.08603816330365,1.63534952197272,1.47496888572843,1.36069384263819,TRUE,0.549311358669073
"CAN","cpi",0.2,1992,3,1991,NA,1,2.11156146123192,2.75845295434558,1.47496888572843,2.43500720778875,FALSE,2.23837293187237
"CAN","cpi",0.2,1992,3,1991,NA,1.5,10.7200881783994,11.6945070703493,1.47496888572843,11.2072976243743,FALSE,24.0872171236273
"CAN","cpi",0.2,1993,3,1993,NA,0,1.79223598983421,1.83768475495783,1.84351085411351,1.81496037239602,FALSE,0.0600140130128228
"CAN","cpi",0.2,1993,3,1993,NA,0.5,2.15879604805736,2.70797665369208,1.84351085411351,2.43338635087472,FALSE,1.33739359049435
"CAN","cpi",0.2,1993,3,1992,NA,1,1.44756129625038,2.07701403013684,1.84351085411351,1.76228766319361,TRUE,0.629452733886465
"CAN","cpi",0.2,1993,3,1992,NA,1.5,0.827553762629995,2.36994746456601,1.84351085411351,1.598750613598,TRUE,1.54239370193601
"CAN","cpi",0.2,1994,3,1994,NA,0,0.196937486171507,0.24335696814435,0.161630694655448,0.220147227157928,FALSE,0.134686460762991
"CAN","cpi",0.2,1994,3,1994,NA,0.5,-1.0161229147452,-0.466962137342178,0.161630694655448,-0.741542526043691,FALSE,2.12064285739709
"CAN","cpi",0.2,1994,3,1993,NA,1,1.19962884666779,1.81626378928828,0.161630694655448,1.50794631797803,FALSE,3.21163032265134
"CAN","cpi",0.2,1994,3,1993,NA,1.5,2.0481948838883,3.58775946293361,0.161630694655448,2.81797717341095,FALSE,6.25597505212743
"CAN","cpi",0.2,1995,3,1995,NA,0,2.13346284811924,2.17623087107053,2.11688403676572,2.15484685959489,FALSE,0.0842150513351057
"CAN","cpi",0.2,1995,3,1995,NA,0.5,2.64785631723774,3.16982211597742,2.11688403676572,2.90883921660758,FALSE,1.84939649991974
"CAN","cpi",0.2,1995,3,1994,NA,1,1.69075130184331,2.21271710058299,2.11688403676572,1.95173420121315,TRUE,0.521965798739684
"CAN","cpi",0.2,1995,3,1994,NA,1.5,-2.92315873986618,-1.43651038177034,2.11688403676572,-2.17983456081826,FALSE,10.370134404436
"CAN","cpi",0.2,1996,3,1996,NA,0,1.42043349648239,1.46290429101338,1.55309584667184,1.44166889374788,FALSE,0.267949683677158
"CAN","cpi",0.2,1996,3,1996,NA,0.5,1.12319692850837,1.60153841142734,1.55309584667184,1.36236766996786,TRUE,0.478341482918977
"CAN","cpi",0.2,1996,3,1995,NA,1,0.672303526691211,1.15064500961019,1.55309584667184,0.911474268150699,FALSE,1.48446857557312
"CAN","cpi",0.2,1996,3,1995,NA,1.5,3.16242394585736,4.81327143313886,1.55309584667184,3.98784768949811,FALSE,5.6741677352453
"CAN","cpi",0.2,1997,3,1997,NA,0,1.66377196699942,1.71246232390215,1.60528783555959,1.68811714545079,FALSE,0.19490068550231
"CAN","cpi",0.2,1997,3,1997,NA,0.5,1.86507829353256,2.34733905971315,1.60528783555959,2.10620867662285,FALSE,1.13173691111301
"CAN","cpi",0.2,1997,3,1996,NA,1,0.517329902969091,0.999590669149674,1.60528783555959,0.758460286059383,FALSE,1.99650368220538
"CAN","cpi",0.2,1997,3,1996,NA,1.5,0.829101403649788,2.49665565020363,1.60528783555959,1.66287852692671,TRUE,1.66755424655384
"CAN","cpi",0.2,1998,3,1998,NA,0,0.946174677136955,0.9953133690043,0.988908029337191,0.970744023070627,TRUE,0.0491386918673447
"CAN","cpi",0.2,1998,3,1998,NA,0.5,1.27474188044174,1.7671954196441,0.988908029337191,1.52096865004292,FALSE,1.20703816696373
"CAN","cpi",0.2,1998,3,1997,NA,1,0.793733820183815,1.28618735938617,0.988908029337191,1.03996058978499,TRUE,0.492453539202354
"CAN","cpi",0.2,1998,3,1997,NA,1.5,1.38498659813715,3.05620488401543,0.988908029337191,2.22059574107629,FALSE,2.66141470787818
"CAN","cpi",0.2,1999,3,1999,NA,0,1.76694735031463,1.81588194849911,1.7107350135213,1.79141464940687,FALSE,0.189465440167817
"CAN","cpi",0.2,1999,3,1999,NA,0.5,0.557526568746882,1.04357817667552,1.7107350135213,0.800552372711202,FALSE,2.15394370004308
"CAN","cpi",0.2,1999,3,1998,NA,1,0.231499620945291,0.717551228873931,1.7107350135213,0.474525424909611,FALSE,2.96901106954705
"CAN","cpi",0.2,1999,3,1998,NA,1.5,1.36187398227106,3.03365596465146,1.7107350135213,2.19776497346126,TRUE,1.6717819823804
"CAN","cpi",0.2,2000,3,2000,NA,0,2.70932138468557,2.75845582780898,2.6718361971244,2.73388860624727,FALSE,0.142847412026332
"CAN","cpi",0.2,2000,3,2000,NA,0.5,1.85916636512553,2.37135027957922,2.6718361971244,2.11525832235237,FALSE,1.26339870831664
"CAN","cpi",0.2,2000,3,1999,NA,1,2.55828887156129,3.07047278601497,2.6718361971244,2.81438082878813,TRUE,0.512183914453684
"CAN","cpi",0.2,2000,3,1999,NA,1.5,0.0402862108952595,1.70454101840846,2.6718361971244,0.872413614651861,FALSE,4.08249275430305
"CAN","cpi",0.2,2001,3,2001,NA,0,2.71322260567342,2.75691170795923,2.47906219852806,2.73506715681632,FALSE,0.629090120149203
"CAN","cpi",0.2,2001,3,2001,NA,0.5,1.46613363309454,1.98113735950033,2.47906219852806,1.72363549629744,FALSE,1.75981582397512
"CAN","cpi",0.2,2001,3,2000,NA,1,3.48245575073815,3.99745947714394,2.47906219852806,3.73995761394105,FALSE,3.02348760693102
"CAN","cpi",0.2,2001,3,2000,NA,1.5,1.14363950779199,2.82235972215266,2.47906219852806,1.98299961497232,TRUE,1.67872021436067
"CAN","cpi",0.2,2002,3,2002,NA,0,2.32543729694209,2.37459072180572,2.20880570551249,2.3500140093739,FALSE,0.340732403437634
"CAN","cpi",0.2,2002,3,2002,NA,0.5,1.2055239956591,1.73596505165185,2.20880570551249,1.47074452365548,FALSE,1.71254269064434
"CAN","cpi",0.2,2002,3,2001,NA,1,0.53075220309651,1.06119325908927,2.20880570551249,0.79597273109289,FALSE,3.3994721720508
"CAN","cpi",0.2,2002,3,2001,NA,1.5,-0.0180049142714238,1.67204313382089,2.20880570551249,0.827019109774735,FALSE,3.0319544773213
"CAN","cpi",0.2,2003,3,2003,NA,0,2.74543891630247,2.79189185003649,2.71189071546809,2.76866538316948,FALSE,0.13032343581998
"CAN","cpi",0.2,2003,3,2003,NA,0.5,4.43716726538699,4.75574309388815,2.71189071546809,4.59645517963757,FALSE,4.63176720329841
"CAN","cpi",0.2,2003,3,2002,NA,1,4.10832059990006,4.5666099929948,2.71189071546809,4.33746529644743,FALSE,3.94936410417466
"CAN","cpi",0.2,2003,3,2002,NA,1.5,1.85388649411644,3.57549131143724,2.71189071546809,2.71468890277684,TRUE,1.72160481732081
"CAN","cpi",0.2,2004,3,2004,NA,0,1.74560660945145,1.79134726855274,1.83151661303942,1.7684769390021,FALSE,0.146164020317995
"CAN","cpi",0.2,2004,3,2004,NA,0.5,1.34429950440126,1.78073587516594,1.83151661303942,1.5625176897836,FALSE,0.563388215448391
"CAN","cpi",0.2,2004,3,2003,NA,1,1.1670381378341,1.66804979564248,1.83151661303942,1.41754396673829,FALSE,0.909678701300734
"CAN","cpi",0.2,2004,3,2003,NA,1.5,4.85259779512958,5.8004309310685,1.83151661303942,5.32651436309904,FALSE,8.50053609116432
"CAN","cpi",0.2,2005,3,2005,NA,0,2.35823223724503,2.4057069159707,2.18071628336509,2.38196957660787,FALSE,0.491264563425518
"CAN","cpi",0.2,2005,3,2005,NA,0.5,1.35842905535069,1.78664979130381,2.18071628336509,1.57253942332725,FALSE,1.41338696610633
"CAN","cpi",0.2,2005,3,2004,NA,1,0.740901998932975,1.24556391398697,2.18071628336509,0.993232956459974,FALSE,2.84254283849929
"CAN","cpi",0.2,2005,3,2004,NA,1.5,1.51818360083899,2.60161012133143,2.18071628336509,2.05989686108521,TRUE,1.08342652049244
"CAN","cpi",0.2,2006,3,2006,NA,0,2.04063584694341,2.09281489701839,1.97519342012289,2.0667253719809,FALSE,0.215785117126287
"CAN","cpi",0.2,2006,3,2006,NA,0.5,1.72949691812812,2.14609098730693,1.97519342012289,1.93779395271753,TRUE,0.416594069178812
"CAN","cpi",0.2,2006,3,2005,NA,1,3.23823057109731,3.71629699293837,1.97519342012289,3.47726378201784,FALSE,3.63565929927713
"CAN","cpi",0.2,2006,3,2005,NA,1.5,0.881399793260604,1.89198349453117,1.97519342012289,1.38669164389589,FALSE,1.21860851524986
"CAN","cpi",0.2,2007,3,2007,NA,0,2.08202824480554,2.134118565354,2.10062087284572,2.10807340507977,TRUE,0.0520903205484595
"CAN","cpi",0.2,2007,3,2007,NA,0.5,2.221407711641,2.61683622678897,2.10062087284572,2.41912196921498,FALSE,0.697395612136164
"CAN","cpi",0.2,2007,3,2006,NA,1,0.230923290654675,0.773742879928938,2.10062087284572,0.502333085291807,FALSE,3.86001457156622
"CAN","cpi",0.2,2007,3,2006,NA,1.5,1.59116324658404,2.34969011578517,2.10062087284572,1.9704266811846,TRUE,0.758526869201135
"CAN","cpi",0.2,2008,3,2008,NA,0,2.93164550423676,2.97638452079929,2.31447335265955,2.95401501251803,FALSE,1.58766939550555
"CAN","cpi",0.2,2008,3,2008,NA,0.5,0.959777725063921,1.35954382568647,2.31447335265955,1.1596607753752,FALSE,2.78708991805525
"CAN","cpi",0.2,2008,3,2007,NA,1,0.0743290043567846,0.655731356415561,2.31447335265955,0.365030180386173,FALSE,4.72825734266875
"CAN","cpi",0.2,2008,3,2007,NA,1.5,3.41073463848263,4.08867392308395,2.31447335265955,3.74970428078329,FALSE,3.41859249915901
"CAN","cpi",0.2,2009,3,2009,NA,0,0.230935292914837,0.323710827736519,0.284533874408197,0.277323060325678,TRUE,0.0927755348216819
"CAN","cpi",0.2,2009,3,2009,NA,0.5,-1.13587371714682,-0.717809984851074,0.284533874408197,-0.926841850998946,FALSE,2.92392338044392
"CAN","cpi",0.2,2009,3,2008,NA,1,4.07642360958821,4.70691694010075,0.284533874408197,4.39167027484448,FALSE,10.1102176684626
"CAN","cpi",0.2,2009,3,2008,NA,1.5,0.953929256449476,1.66043295696226,0.284533874408197,1.30718110670587,FALSE,2.37999215561598
"CAN","cpi",0.2,2010,3,2010,NA,0,1.70274409182467,1.79511786756759,1.75525687020327,1.74893097969613,TRUE,0.092373775742923
"CAN","cpi",0.2,2010,3,2010,NA,0.5,1.39360688932352,1.81668425187229,1.75525687020327,1.60514557059791,TRUE,0.423077362548767
"CAN","cpi",0.2,2010,3,2009,NA,1,0.246661034263507,1.04709320855667,1.75525687020327,0.646877121410091,FALSE,2.57084132840966
"CAN","cpi",0.2,2010,3,2009,NA,1.5,-1.69128745550838,-0.89085528121521,1.75525687020327,-1.29107136836179,FALSE,7.41571255283937
"CAN","cpi",0.2,2011,3,2011,NA,0,2.7893951944675,2.88377330777006,2.85717434028225,2.83658425111878,TRUE,0.094378113302561
"CAN","cpi",0.2,2011,3,2011,NA,0.5,2.68781445103294,3.1025231030185,2.85717434028225,2.89516877702572,TRUE,0.414708651985558
"CAN","cpi",0.2,2011,3,2010,NA,1,1.75734544848561,2.62505774330274,2.85717434028225,2.19120159589417,FALSE,1.4480037872659
"CAN","cpi",0.2,2011,3,2010,NA,1.5,1.52975887933063,2.39747117414776,2.85717434028225,1.9636150267392,FALSE,2.01697021015334
"CAN","cpi",0.2,2012,3,2012,NA,0,1.41191397513996,1.50833216176935,1.50118536134935,1.46012306845465,TRUE,0.0964181866293896
"CAN","cpi",0.2,2012,3,2012,NA,0.5,1.60563784980127,2.02073685797528,1.50118536134935,1.81318735388827,FALSE,0.67623022930382
"CAN","cpi",0.2,2012,3,2011,NA,1,0.639940111115432,1.49498063218237,1.50118536134935,1.0674603716489,FALSE,0.870552343984378
"CAN","cpi",0.2,2012,3,2011,NA,1.5,2.83740152381686,3.6924420448838,1.50118536134935,3.26492178435033,FALSE,4.19558092723572
"CAN","cpi",0.2,2013,3,2013,NA,0,0.991548858708069,1.08774374917491,0.931270594714462,1.03964630394149,FALSE,0.24689055045086
"CAN","cpi",0.2,2013,3,2013,NA,0.5,0.958469101298141,1.37198689321219,0.931270594714462,1.16522799725517,FALSE,0.481514058373246
"CAN","cpi",0.2,2013,3,2012,NA,1,-0.890532790711007,-0.0270411078991935,0.931270594714462,-0.4587869493051,FALSE,3.25927093934595
"CAN","cpi",0.2,2013,3,2012,NA,1.5,1.43844012951523,2.30193181232705,0.931270594714462,1.87018597092114,FALSE,2.13141551981374
"CAN","cpi",0.2,2014,3,2014,NA,0,1.94146069937798,2.03737302958457,1.87639912240215,1.98941686448128,FALSE,0.258566272646165
"CAN","cpi",0.2,2014,3,2014,NA,0.5,2.08272722719287,2.48796913375726,1.87639912240215,2.28534818047506,FALSE,0.921062168541184
"CAN","cpi",0.2,2014,3,2013,NA,1,0.510082266693718,1.35789424925908,1.87639912240215,0.933988257976399,FALSE,2.14407416542304
"CAN","cpi",0.2,2014,3,2013,NA,1.5,1.32042223100413,2.16823421356949,1.87639912240215,1.74432822228681,TRUE,0.847811982565361
"CAN","cpi",0.2,2015,3,2015,NA,0,1.21376248352492,1.30959892997768,1.11090953952792,1.2616807067513,FALSE,0.352968806445269
"CAN","cpi",0.2,2015,3,2015,NA,0.5,0.0799987111360498,0.356727479129094,1.11090953952792,0.218363095132572,FALSE,2.1621839189901
"CAN","cpi",0.2,2015,3,2014,NA,1,0.209349442167709,1.03721006429115,1.11090953952792,0.62327975322943,FALSE,1.01210931021536
"CAN","cpi",0.2,2015,3,2014,NA,1.5,3.13451502022981,3.96237564235325,1.11090953952792,3.54844533129153,FALSE,5.88687432387817
"CAN","cpi",0.2,2016,3,2016,NA,0,1.39766972092041,1.49039126412538,1.41168586698797,1.44403049252289,TRUE,0.0927215432049726
"CAN","cpi",0.2,2016,3,2016,NA,0.5,0.796179592421826,1.09122212926432,1.41168586698797,0.943700860843074,FALSE,1.0962018811516
"CAN","cpi",0.2,2016,3,2015,NA,1,1.26543075863823,2.05068600036685,1.41168586698797,1.65805837950254,TRUE,0.785255241728623
"CAN","cpi",0.2,2016,3,2015,NA,1.5,-0.179874416049865,0.605380825678757,1.41168586698797,0.212753204814446,FALSE,2.80101784500164
"CAN","cpi",0.2,2017,3,2017,NA,0,1.47562132956709,1.56782935158628,1.57888581671161,1.52172534057668,FALSE,0.119849184832525
"CAN","cpi",0.2,2017,3,2017,NA,0.5,2.03408170448118,2.32583331838569,1.57888581671161,2.17995751143343,FALSE,1.42974133332843
"CAN","cpi",0.2,2017,3,2016,NA,1,0.0803907629585887,0.876929549814168,1.57888581671161,0.478660156386378,FALSE,2.55142945409919
"CAN","cpi",0.2,2017,3,2016,NA,1.5,0.649536398468724,1.4460751853243,1.57888581671161,1.04780579189651,FALSE,1.12856536532385
"CAN","cpi",0.2,2018,3,2018,NA,0,2.37860832076285,2.47352895599811,2.23316270166586,2.42606863838048,FALSE,0.458534682977743
"CAN","cpi",0.2,2018,3,2018,NA,0.5,2.86312995875523,3.17889252233486,2.23316270166586,3.02101124054505,FALSE,1.89068070630306
"CAN","cpi",0.2,2018,3,2017,NA,1,0.136327278784698,0.911068775892442,2.23316270166586,0.52369802733857,FALSE,4.07997631154129
"CAN","cpi",0.2,2018,3,2017,NA,1.5,2.69671109466741,3.47145259177515,2.23316270166586,3.08408184322128,FALSE,1.93361247961161
"CAN","cpi",0.2,2019,3,2019,NA,0,1.9752766620307,2.07057004089302,1.91921619871868,2.02292335146186,FALSE,0.235444537142364
"CAN","cpi",0.2,2019,3,2019,NA,0.5,1.59079312499965,1.93030836285735,1.91921619871868,1.7605507439285,TRUE,0.3395152378577
"CAN","cpi",0.2,2019,3,2018,NA,1,1.58180667822138,2.36092716837231,1.91921619871868,1.97136692329685,TRUE,0.779120490150933
"CAN","cpi",0.2,2019,3,2018,NA,1.5,3.74045463409847,4.5195751242494,1.91921619871868,4.13001487917394,FALSE,5.33221657860041
"CAN","cpi",0.2,2020,3,2020,NA,0,0.727694943517574,0.768780763019197,0.71139989671781,0.748237853268385,FALSE,0.0818234365010312
"CAN","cpi",0.2,2020,3,2020,NA,0.5,1.05726129706633,1.35550040076205,0.71139989671781,1.20638084891419,FALSE,1.16289260456702
"CAN","cpi",0.2,2020,3,2019,NA,1,0.954996058021956,1.7175232507464,0.71139989671781,1.33625965438418,FALSE,1.3715175959848
"CAN","cpi",0.2,2020,3,2019,NA,1.5,2.07885160643552,2.87770050146703,0.71139989671781,2.47827605395127,FALSE,4.21747816932578
"CAN","cpi",0.2,2021,3,2021,NA,0,3.34068702596831,3.38078775620603,3.31148121717802,3.36073739108717,FALSE,0.113115252213435
"CAN","cpi",0.2,2021,3,2021,NA,0.5,2.75760626010358,2.99812572553707,3.31148121717802,2.87786599282032,FALSE,1.02390819453588
"CAN","cpi",0.2,2021,3,2020,NA,1,1.63218183168463,1.97917028291085,3.31148121717802,1.80567605729774,FALSE,3.67776578689416
"CAN","cpi",0.2,2021,3,2020,NA,1.5,0.952471994533383,1.77383046411618,3.31148121717802,1.36315122932478,FALSE,4.66548535223741
"CAN","cpi",0.2,2022,3,2022,NA,0,6.56197096004793,6.60086389548672,6.50977236228281,6.58141742776733,FALSE,0.169389429851594
"CAN","cpi",0.2,2022,3,2022,NA,0.5,6.61744552668758,6.86843214884416,6.50977236228281,6.74293883776587,FALSE,0.520169533168505
"CAN","cpi",0.2,2022,3,2021,NA,1,4.64353416711156,5.00775013281987,6.50977236228281,4.82564214996571,FALSE,4.11927153936567
"CAN","cpi",0.2,2022,3,2021,NA,1.5,3.57358442840488,4.29791685789937,6.50977236228281,3.93575064315212,FALSE,6.2539711904531
"CAN","cpi",0.2,2023,3,2023,NA,0,3.99621006891536,4.03285564340757,3.78831288758619,4.01453285616146,FALSE,0.556388527815131
"CAN","cpi",0.2,2023,3,2023,NA,0.5,2.95300392146351,3.2047645133214,3.78831288758619,3.07888421739245,FALSE,1.71063152751987
"CAN","cpi",0.2,2023,3,2022,NA,1,3.66006780530059,4.05339780609355,3.78831288758619,3.85673280569707,TRUE,0.393330000792956
"CAN","cpi",0.2,2023,3,2022,NA,1.5,7.65692550030938,8.48892016861568,3.78831288758619,8.07292283446253,FALSE,10.5035262001143
"CAN","cpi",0.2,2024,3,2023,NA,1,3.87032655068591,4.27976852924415,NA,4.07504753996503,NA,NA
"CAN","cpi",0.2,2024,3,2023,NA,1.5,1.91622792052092,2.91435304587286,NA,2.41529048319689,NA,NA
"CAN","cpi",0.3,1959,3,1959,NA,0,1.18773254344295,1.31209178518291,1.19382698397654,1.24991216431293,TRUE,0.124359241739956
"CAN","cpi",0.3,1959,3,1959,NA,0.5,-0.0640394596842537,0.939718922864908,1.19382698397654,0.437839731590327,FALSE,1.72978141429668
"CAN","cpi",0.3,1959,3,1958,NA,1,0.656134172654349,2.86112108506457,1.19382698397654,1.75862762885946,TRUE,2.20498691241023
"CAN","cpi",0.3,1959,3,1958,NA,1.5,-0.768731344131078,4.31687479840639,1.19382698397654,1.77407172713766,TRUE,5.08560614253747
"CAN","cpi",0.3,1960,3,1960,NA,0,0.968462410031572,1.07876367515797,1.34209404870695,1.02361304259477,FALSE,0.862673760980627
"CAN","cpi",0.3,1960,3,1960,NA,0.5,0.130761206031267,0.947205754332053,1.34209404870695,0.53898348018166,FALSE,1.94469681794335
"CAN","cpi",0.3,1960,3,1959,NA,1,2.87442655638932,5.04076091739952,1.34209404870695,3.95759373689442,FALSE,6.54442724010269
"CAN","cpi",0.3,1960,3,1959,NA,1.5,-3.12366573839278,1.37671210758301,1.34209404870695,-0.873476815404885,TRUE,4.50037784597579
"CAN","cpi",0.3,1961,3,1961,NA,0,0.942518581372918,1.07590838050722,1.00921348094007,1.00921348094007,TRUE,0.133389799134306
"CAN","cpi",0.3,1961,3,1961,NA,0.5,0.603605362757068,1.41482159912308,1.00921348094007,1.00921348094007,TRUE,0.811216236366008
"CAN","cpi",0.3,1961,3,1960,NA,1,-0.874128845541525,0.981669770748591,1.00921348094007,0.0537704626035329,FALSE,1.93449493112292
"CAN","cpi",0.3,1961,3,1960,NA,1.5,-2.61831087015805,0.893947272277979,1.00921348094007,-0.862181798940035,FALSE,3.84159016718486
"CAN","cpi",0.3,1962,3,1962,NA,0,1.04280095217629,1.16184710245327,1.04957947883042,1.10232402731478,TRUE,0.119046150276982
"CAN","cpi",0.3,1962,3,1962,NA,0.5,-0.316307481215286,0.316307481215286,1.04957947883042,0,FALSE,2.72767781275951
"CAN","cpi",0.3,1962,3,1961,NA,1,-0.941968793199383,0.941968793199383,1.04957947883042,0,FALSE,2.19139668820171
"CAN","cpi",0.3,1962,3,1961,NA,1.5,-1.75475541158978,1.75475541158978,1.04957947883042,0,TRUE,3.50951082317956
"CAN","cpi",0.3,1963,3,1963,NA,0,1.85552227002193,1.9743123206021,1.60677118395228,1.91491729531202,FALSE,0.829507439350593
"CAN","cpi",0.3,1963,3,1963,NA,0.5,0.519556409680393,1.15410101955461,1.60677118395228,0.836828714617504,FALSE,1.9278879367247
"CAN","cpi",0.3,1963,3,1962,NA,1,1.70868154977688,3.419548258526,1.60677118395228,2.56411490415144,FALSE,2.00203918253367
"CAN","cpi",0.3,1963,3,1962,NA,1.5,-1.24903210781181,1.24903210781181,1.60677118395228,0,FALSE,3.52017586173926
"CAN","cpi",0.3,1964,3,1964,NA,0,1.92273879523212,2.05480633368884,1.88764670034376,1.98877256446048,FALSE,0.232330666709175
"CAN","cpi",0.3,1964,3,1964,NA,0.5,1.18566676035031,1.58171336420184,1.88764670034376,1.38369006227607,FALSE,1.2701418499713
"CAN","cpi",0.3,1964,3,1963,NA,1,4.7462530225937,6.03463278435142,1.88764670034376,5.39044290347256,FALSE,9.45582639675754
"CAN","cpi",0.3,1964,3,1963,NA,1.5,-0.703993684097434,0.703993684097434,1.88764670034376,0,FALSE,4.78985312889866
"CAN","cpi",0.3,1965,3,1965,NA,0,2.27935636486729,2.41178458351268,2.29538304394236,2.34557047418999,TRUE,0.13242821864539
"CAN","cpi",0.3,1965,3,1965,NA,0.5,1.41262491039312,1.80896404873995,2.29538304394236,1.61079447956654,FALSE,1.78610769606798
"CAN","cpi",0.3,1965,3,1964,NA,1,1.82288992272585,3.02748732087109,2.29538304394236,2.42518862179847,TRUE,1.20459739814524
"CAN","cpi",0.3,1965,3,1964,NA,1.5,0.215803853243779,1.42040125138902,2.29538304394236,0.818102552316399,FALSE,3.70454537686906
"CAN","cpi",0.3,1966,3,1966,NA,0,3.75739423745075,3.88282551982342,3.72486065470629,3.82010987863709,FALSE,0.218384375928277
"CAN","cpi",0.3,1966,3,1966,NA,0.5,3.793984366629,4.18848361128227,3.72486065470629,3.99123398895563,FALSE,0.591995564432442
"CAN","cpi",0.3,1966,3,1965,NA,1,2.61676855461234,3.79767282030473,3.72486065470629,3.20722068745854,TRUE,1.18090426569238
"CAN","cpi",0.3,1966,3,1965,NA,1.5,1.01618611347339,2.19709037916578,3.72486065470629,1.60663824631958,FALSE,5.54596219580814
"CAN","cpi",0.3,1967,3,1967,NA,0,3.70606117536822,3.82931581120442,3.49360316391996,3.76768849328632,FALSE,0.730277525688373
"CAN","cpi",0.3,1967,3,1967,NA,0.5,2.17995720648323,2.63495228191198,3.49360316391996,2.4074547441976,FALSE,2.90828330973727
"CAN","cpi",0.3,1967,3,1966,NA,1,2.60027224748552,3.76179421392015,3.49360316391996,3.18103323070284,TRUE,1.16152196643463
"CAN","cpi",0.3,1967,3,1966,NA,1.5,4.07052062165517,5.23204258808979,3.49360316391996,4.65128160487248,FALSE,2.80985755996379
"CAN","cpi",0.3,1968,3,1968,NA,0,4.10953624612608,4.23622266732184,3.95128347779386,4.17287945672396,FALSE,0.578837187859251
"CAN","cpi",0.3,1968,3,1968,NA,0.5,3.90377351111305,4.23817060448399,3.95128347779386,4.07097205779852,TRUE,0.334397093370937
"CAN","cpi",0.3,1968,3,1967,NA,1,5.22803559164626,6.4623980508307,3.95128347779386,5.84521682123848,FALSE,4.88222564161988
"CAN","cpi",0.3,1968,3,1967,NA,1.5,1.63847735281004,2.87283981199448,3.95128347779386,2.25565858240226,FALSE,4.31563007575408
"CAN","cpi",0.3,1969,3,1969,NA,0,4.5303952606492,4.66001802656316,4.42679496126681,4.59520664360618,FALSE,0.425623621292213
"CAN","cpi",0.3,1969,3,1969,NA,0.5,2.79042440221327,3.14181598570103,4.42679496126681,2.96612019395715,FALSE,4.02276008510429
"CAN","cpi",0.3,1969,3,1968,NA,1,6.24168314809491,7.20806945272123,4.42679496126681,6.72487630040807,FALSE,6.15178112413517
"CAN","cpi",0.3,1969,3,1968,NA,1.5,3.83345137713225,4.79983768175856,4.42679496126681,4.31664452944541,TRUE,0.966386304626317
"CAN","cpi",0.3,1970,3,1970,NA,0,3.54568679898259,3.66954396601592,3.28128405769805,3.60761538249925,FALSE,0.879293570703453
"CAN","cpi",0.3,1970,3,1970,NA,0.5,4.16173227566162,4.55858927277222,3.28128405769805,4.36016077421692,FALSE,2.91242333414938
"CAN","cpi",0.3,1970,3,1969,NA,1,4.41824289849502,5.40914605760767,3.28128405769805,4.91369447805135,FALSE,4.23935698996115
"CAN","cpi",0.3,1970,3,1969,NA,1.5,1.58428689327497,2.57519005238762,3.28128405769805,2.07973847283129,FALSE,3.00831460285673
"CAN","cpi",0.3,1971,3,1971,NA,0,2.85186216232733,2.98559585727942,2.64123406634756,2.91872900980337,FALSE,0.73552825489428
"CAN","cpi",0.3,1971,3,1971,NA,0.5,1.11239835214741,1.65474376057873,2.64123406634756,1.38357105636307,FALSE,3.36088913919941
"CAN","cpi",0.3,1971,3,1970,NA,1,2.70572830274278,3.64800391684277,2.64123406634756,3.17686610979278,FALSE,1.12654486094347
"CAN","cpi",0.3,1971,3,1970,NA,1.5,4.14952531621276,5.09180093031275,2.64123406634756,4.62066312326275,FALSE,5.2516791851434
"CAN","cpi",0.3,1972,3,1972,NA,0,5.12927658781498,5.21493725550204,4.83230569625923,5.17210692165851,FALSE,0.934148929274918
"CAN","cpi",0.3,1972,3,1972,NA,0.5,4.47857671248116,5.04590839709777,4.83230569625923,4.76224255478946,TRUE,0.567331684616608
"CAN","cpi",0.3,1972,3,1971,NA,1,6.32246085953379,7.3548091016997,4.83230569625923,6.83863498061675,FALSE,5.28993442295037
"CAN","cpi",0.3,1972,3,1971,NA,1.5,1.43823750480768,2.4705857469736,4.83230569625923,1.95441162589064,FALSE,7.78011952583915
"CAN","cpi",0.3,1973,3,1973,NA,0,7.36950069970082,7.45165581437908,7.12388603531779,7.41057825703995,FALSE,0.783911298629766
"CAN","cpi",0.3,1973,3,1973,NA,0.5,5.95976676150269,6.52406126477148,7.12388603531779,6.24191401313708,FALSE,2.27807956197254
"CAN","cpi",0.3,1973,3,1972,NA,1,7.61470007610447,8.63711759753422,7.12388603531779,8.12590883681935,FALSE,2.42474335224884
"CAN","cpi",0.3,1973,3,1972,NA,1.5,4.42877050660382,5.49384338122063,7.12388603531779,4.96130694391223,FALSE,5.7223376006087
"CAN","cpi",0.3,1974,3,1974,NA,0,10.2542941241247,10.3296666956217,10.2717243737774,10.2919804098732,TRUE,0.0753725714970308
"CAN","cpi",0.3,1974,3,1974,NA,0.5,8.73853418896142,9.29506385590444,10.2717243737774,9.01679902243293,FALSE,3.34698828943724
"CAN","cpi",0.3,1974,3,1973,NA,1,11.0614496588541,11.9538277060961,10.2717243737774,11.5076386824751,FALSE,3.1487360046039
"CAN","cpi",0.3,1974,3,1973,NA,1.5,6.49024759871782,7.58677275952015,10.2717243737774,7.03851017911898,FALSE,8.76781548725167
"CAN","cpi",0.3,1975,3,1975,NA,0,10.2745951090922,10.3588038313942,10.0232981493341,10.3166994702432,FALSE,0.802200035896467
"CAN","cpi",0.3,1975,3,1975,NA,0.5,8.58809381463826,9.16826270079683,10.0232981493341,8.87817825771755,FALSE,3.02312731055083
"CAN","cpi",0.3,1975,3,1974,NA,1,11.2181831981506,12.1087138251667,10.0232981493341,11.6634485116586,FALSE,4.30448790934889
"CAN","cpi",0.3,1975,3,1974,NA,1.5,8.49525534484232,9.68806344210998,10.0232981493341,9.09165939347615,FALSE,2.15062154647948
"CAN","cpi",0.3,1976,3,1976,NA,0,7.21750233022781,7.30072501785071,7.22784311401172,7.25911367403926,TRUE,0.0832226876229036
"CAN","cpi",0.3,1976,3,1976,NA,0.5,6.92687827117522,7.52317303420562,7.22784311401172,7.22502565269042,TRUE,0.596294763030407
"CAN","cpi",0.3,1976,3,1975,NA,1,12.1231302238131,12.8330278637436,7.22784311401172,12.4780790437784,FALSE,14.6964322393631
"CAN","cpi",0.3,1976,3,1975,NA,1.5,6.59411025182177,7.77761002492959,7.22784311401172,7.18586013837568,TRUE,1.18349977310782
"CAN","cpi",0.3,1977,3,1977,NA,0,7.54873426736487,7.63404603182909,7.58101410153764,7.59139014959698,TRUE,0.0853117644642172
"CAN","cpi",0.3,1977,3,1977,NA,0.5,6.94597881880702,7.55479431227796,7.58101410153764,7.25038656554249,FALSE,0.683729177070049
"CAN","cpi",0.3,1977,3,1976,NA,1,5.36374361542143,6.49614675788739,7.58101410153764,5.92994518665441,FALSE,4.23202412432383
"CAN","cpi",0.3,1977,3,1976,NA,1.5,5.08718168435367,6.29190461492509,7.58101410153764,5.68954314963938,FALSE,4.88789289232158
"CAN","cpi",0.3,1978,3,1978,NA,0,8.64216373637972,8.73545779982152,8.50208927062595,8.68881076810062,FALSE,0.493506822738296
"CAN","cpi",0.3,1978,3,1978,NA,0.5,7.82156548091359,8.40260469438517,8.50208927062595,8.11208508764938,FALSE,0.865280859873804
"CAN","cpi",0.3,1978,3,1977,NA,1,7.73242421132169,8.96101425335316,8.50208927062595,8.34671923233743,TRUE,1.22859004203146
"CAN","cpi",0.3,1978,3,1977,NA,1.5,7.59981229524201,8.82840233727348,8.50208927062595,8.21410731625775,TRUE,1.22859004203146
"CAN","cpi",0.3,1979,3,1979,NA,0,8.51547920599485,8.60725146130337,8.65147652410481,8.56136533364911,FALSE,0.218129577598352
"CAN","cpi",0.3,1979,3,1979,NA,0.5,7.94687468572684,8.51497710798117,8.65147652410481,8.23092589685401,FALSE,0.958100754036152
"CAN","cpi",0.3,1979,3,1978,NA,1,9.07893692396741,10.2506999940192,8.65147652410481,9.66481845899329,FALSE,2.39307849823062
"CAN","cpi",0.3,1979,3,1978,NA,1.5,7.32426652867658,8.49602959872834,8.65147652410481,7.91014806370246,FALSE,1.61589714255596
"CAN","cpi",0.3,1980,3,1980,NA,0,9.4802042299298,9.59132988724014,9.5171912664748,9.53576705858497,TRUE,0.111125657310339
"CAN","cpi",0.3,1980,3,1980,NA,0.5,8.36942605495894,8.91752316589826,9.5171912664748,8.6434746104286,FALSE,2.26143454115799
"CAN","cpi",0.3,1980,3,1979,NA,1,7.20596531684499,8.3733796659615,9.5171912664748,7.78967249140325,FALSE,4.43544749344021
"CAN","cpi",0.3,1980,3,1979,NA,1.5,7.71410855109359,8.8815229002101,9.5171912664748,8.29781572565185,FALSE,2.98360968130135
"CAN","cpi",0.3,1981,3,1981,NA,0,11.6540499308039,11.7700157163629,11.5813425032741,11.7120328235834,FALSE,0.323701292786883
"CAN","cpi",0.3,1981,3,1981,NA,0.5,12.0746210638669,12.5846159852154,11.5813425032741,12.3296185245412,FALSE,1.91936223732784
"CAN","cpi",0.3,1981,3,1980,NA,1,10.421822839806,11.6494300284157,11.5813425032741,11.0356264341109,TRUE,1.22760718860967
"CAN","cpi",0.3,1981,3,1980,NA,1.5,7.91094499253702,9.13855218114669,11.5813425032741,8.52474858684185,FALSE,8.20700810897382
"CAN","cpi",0.3,1982,3,1982,NA,0,10.1991425610673,10.3073055016828,10.1124203763629,10.253224031375,FALSE,0.355940611199261
"CAN","cpi",0.3,1982,3,1982,NA,0.5,9.8935824401463,10.3506805731007,10.1124203763629,10.1221315066235,TRUE,0.457098132954368
"CAN","cpi",0.3,1982,3,1981,NA,1,11.0115172226297,12.2940378711322,10.1124203763629,11.652777546881,FALSE,3.85136878069324
"CAN","cpi",0.3,1982,3,1981,NA,1.5,12.5726931593701,13.8552138078726,10.1124203763629,13.2139534836213,FALSE,8.31187145709426
"CAN","cpi",0.3,1983,3,1983,NA,0,5.79229492097986,5.8949601259572,5.67091787896303,5.84362752346853,FALSE,0.449456753596849
"CAN","cpi",0.3,1983,3,1983,NA,0.5,4.48909226119923,4.92361070167148,5.67091787896303,4.70635148143536,FALSE,2.5696818041624
"CAN","cpi",0.3,1983,3,1982,NA,1,7.92452204548205,9.3042251531916,5.67091787896303,8.61437359933683,FALSE,7.81857215490674
"CAN","cpi",0.3,1983,3,1982,NA,1.5,9.15345147550061,10.5331545832102,5.67091787896303,9.84330302935538,FALSE,11.3297990978169
"CAN","cpi",0.3,1984,3,1984,NA,0,4.16836757164575,4.2579456919326,4.19799576814029,4.21315663178917,TRUE,0.0895781202868502
"CAN","cpi",0.3,1984,3,1984,NA,0.5,4.50961609124362,4.95046803780903,4.19799576814029,4.73004206452632,FALSE,1.33119572686064
"CAN","cpi",0.3,1984,3,1983,NA,1,5.5634653239524,7.04713391272998,4.19799576814029,6.30529961834119,FALSE,5.38501017681219
"CAN","cpi",0.3,1984,3,1983,NA,1.5,1.95446138676368,3.66932740959183,4.19799576814029,2.81189439817776,FALSE,3.22534704725231
"CAN","cpi",0.3,1985,3,1985,NA,0,3.8653458695768,3.94559202130605,3.86444262005169,3.90546894544143,FALSE,0.0828268646581322
"CAN","cpi",0.3,1985,3,1985,NA,0.5,3.76976666330768,4.25376331974572,3.86444262005169,4.0117649915267,TRUE,0.483996656438036
"CAN","cpi",0.3,1985,3,1984,NA,1,2.53669324706939,4.04215071417795,3.86444262005169,3.28942198062367,TRUE,1.50545746710856
"CAN","cpi",0.3,1985,3,1984,NA,1.5,3.83753395779844,5.52187343909343,3.86444262005169,4.67970369844593,TRUE,1.684339481295
"CAN","cpi",0.3,1986,3,1986,NA,0,4.08753938681968,4.16701556208891,4.08685396749431,4.12727747445429,FALSE,0.0814345161988528
"CAN","cpi",0.3,1986,3,1986,NA,0.5,4.35317352590297,4.79710889060739,4.08685396749431,4.57514120825518,FALSE,1.20484838872916
"CAN","cpi",0.3,1986,3,1985,NA,1,3.07158244908251,4.61845256492414,4.08685396749431,3.84501750700332,TRUE,1.54687011584163
"CAN","cpi",0.3,1986,3,1985,NA,1.5,3.73405559050717,5.29842442127158,4.08685396749431,4.51624000588938,TRUE,1.5643688307644
"CAN","cpi",0.3,1987,3,1987,NA,0,4.3067797618355,4.36845307811209,4.23980729277887,4.3376164199738,FALSE,0.253023227866969
"CAN","cpi",0.3,1987,3,1987,NA,0.5,3.68417403234152,4.09550310812089,4.23980729277887,3.8898385702312,FALSE,0.823626746230745
"CAN","cpi",0.3,1987,3,1986,NA,1,3.7858146272388,5.33988410123275,4.23980729277887,4.56284936423577,TRUE,1.55406947399396
"CAN","cpi",0.3,1987,3,1986,NA,1.5,4.37679170943297,5.93270147918049,4.23980729277887,5.15474659430673,FALSE,1.94729381733067
"CAN","cpi",0.3,1988,3,1988,NA,0,3.96950193105146,4.03106406104507,3.92899537638065,4.00028299604827,FALSE,0.177295143338775
"CAN","cpi",0.3,1988,3,1988,NA,0.5,3.32468270925233,3.73894286897843,3.92899537638065,3.53181278911538,FALSE,0.957267323732468
"CAN","cpi",0.3,1988,3,1987,NA,1,3.79439963651468,4.88906608440454,3.92899537638065,4.34173286045961,TRUE,1.09466644788986
"CAN","cpi",0.3,1988,3,1987,NA,1.5,2.98151165082383,4.55073422081029,3.92899537638065,3.76612293581706,TRUE,1.56922256998645
"CAN","cpi",0.3,1989,3,1989,NA,0,4.97613771768525,5.03599853237043,4.82821664544208,5.00606812502784,FALSE,0.482492449665679
"CAN","cpi",0.3,1989,3,1989,NA,0.5,4.3070750993653,4.72335366008278,4.82821664544208,4.51521437972404,FALSE,0.715887090315473
"CAN","cpi",0.3,1989,3,1988,NA,1,3.83256841117359,4.8215095458066,4.82821664544208,4.3270389784901,FALSE,1.00810427644866
"CAN","cpi",0.3,1989,3,1988,NA,1.5,2.67838807290866,4.17559694325526,4.82821664544208,3.42699250808196,FALSE,3.36183659088037
"CAN","cpi",0.3,1990,3,1990,NA,0,4.49221570152099,4.55120877346018,4.64347549432717,4.52171223749059,FALSE,0.322612274416295
"CAN","cpi",0.3,1990,3,1990,NA,0.5,5.01632142552803,5.43038363967113,4.64347549432717,5.22335253259958,FALSE,1.47933630328842
"CAN","cpi",0.3,1990,3,1989,NA,1,5.2219037781791,6.22538270040351,4.64347549432717,5.7236432392913,FALSE,2.65613116180134
"CAN","cpi",0.3,1990,3,1989,NA,1.5,4.15144250179768,5.68938434086987,4.64347549432717,4.92041342133377,TRUE,1.5379418390722
"CAN","cpi",0.3,1991,3,1991,NA,0,5.5842014309919,5.64816190544229,5.4258100696218,5.6161816682171,FALSE,0.51650722122213
"CAN","cpi",0.3,1991,3,1991,NA,0.5,8.60678147518834,9.04132053684666,5.4258100696218,8.8240510060175,FALSE,9.52302879184845
"CAN","cpi",0.3,1991,3,1990,NA,1,3.38886869651099,4.39454557195739,5.4258100696218,3.89170713423419,FALSE,3.95214686877327
"CAN","cpi",0.3,1991,3,1990,NA,1.5,4.94304442806957,6.46619642087927,5.4258100696218,5.70462042447442,TRUE,1.52315199280969
"CAN","cpi",0.3,1992,3,1992,NA,0,1.44167706111136,1.50921228371649,1.47496888572843,1.47544467241393,TRUE,0.0675352226051325
"CAN","cpi",0.3,1992,3,1992,NA,0.5,0.942964754155406,1.77842293112097,1.47496888572843,1.36069384263819,TRUE,0.835458176965564
"CAN","cpi",0.3,1992,3,1991,NA,1,1.94307237064946,2.92694204492804,1.47496888572843,2.43500720778875,FALSE,2.32130820262436
"CAN","cpi",0.3,1992,3,1991,NA,1.5,10.4662914370622,11.9483038116865,1.47496888572843,11.2072976243743,FALSE,27.171505378435
"CAN","cpi",0.3,1993,3,1993,NA,0,1.78039842327894,1.84952232151311,1.84351085411351,1.81496037239602,TRUE,0.0691238982341709
"CAN","cpi",0.3,1993,3,1993,NA,0.5,2.01575669479033,2.85101600695911,1.84351085411351,2.43338635087472,FALSE,1.32739028553113
"CAN","cpi",0.3,1993,3,1992,NA,1,1.28361429767926,2.24096102870797,1.84351085411351,1.76228766319361,TRUE,0.957346731028708
"CAN","cpi",0.3,1993,3,1992,NA,1.5,0.425822537338309,2.77167868985769,1.84351085411351,1.598750613598,TRUE,2.34585615251938
"CAN","cpi",0.3,1994,3,1994,NA,0,0.18484708710741,0.255447367208447,0.161630694655448,0.220147227157928,FALSE,0.136932829963786
"CAN","cpi",0.3,1994,3,1994,NA,0.5,-1.15915710355921,-0.323927948528171,0.161630694655448,-0.741542526043691,FALSE,2.22253956412709
"CAN","cpi",0.3,1994,3,1993,NA,1,1.0390203647052,1.97687227125086,0.161630694655448,1.50794631797803,FALSE,3.44467953525924
"CAN","cpi",0.3,1994,3,1993,NA,1.5,1.6472005307739,3.98875381604801,0.161630694655448,2.81797717341095,FALSE,6.58603853132682
"CAN","cpi",0.3,1995,3,1995,NA,0,2.12232350656076,2.18737021262901,2.11688403676572,2.15484685959489,FALSE,0.0805880483398062
"CAN","cpi",0.3,1995,3,1995,NA,0.5,2.51190532131183,3.30577311190333,2.11688403676572,2.90883921660758,FALSE,1.92250003215183
"CAN","cpi",0.3,1995,3,1994,NA,1,1.5548003059174,2.3486680965089,2.11688403676572,1.95173420121315,TRUE,0.793867790591498
"CAN","cpi",0.3,1995,3,1994,NA,1.5,-3.31037055597128,-1.04929856566524,2.11688403676572,-2.17983456081826,FALSE,11.3073079972516
"CAN","cpi",0.3,1996,3,1996,NA,0,1.40937157091524,1.47396621658052,1.55309584667184,1.44166889374788,FALSE,0.29067930306906
"CAN","cpi",0.3,1996,3,1996,NA,0.5,0.998608303827342,1.72612703610837,1.55309584667184,1.36236766996786,TRUE,0.727518732281027
"CAN","cpi",0.3,1996,3,1995,NA,1,0.547714902010185,1.27523363429121,1.55309584667184,0.911474268150699,FALSE,1.52141076765426
"CAN","cpi",0.3,1996,3,1995,NA,1.5,2.73244489251784,5.24325048647838,1.55309584667184,3.98784768949811,FALSE,5.88037429637767
"CAN","cpi",0.3,1997,3,1997,NA,0,1.65109009679088,1.7251441941107,1.60528783555959,1.68811714545079,FALSE,0.204917700837785
"CAN","cpi",0.3,1997,3,1997,NA,0.5,1.7394688539552,2.47294849929051,1.60528783555959,2.10620867662285,FALSE,1.11685398360847
"CAN","cpi",0.3,1997,3,1996,NA,1,0.391720463391731,1.12520010872704,1.60528783555959,0.758460286059383,FALSE,2.1051588648569
"CAN","cpi",0.3,1997,3,1996,NA,1.5,0.394770914704222,2.93098613914919,1.60528783555959,1.66287852692671,TRUE,2.53621522444497
"CAN","cpi",0.3,1998,3,1998,NA,0,0.933376033789073,1.00811201235218,0.988908029337191,0.970744023070627,TRUE,0.0747359785631092
"CAN","cpi",0.3,1998,3,1998,NA,0.5,1.14647763542138,1.89545966466446,0.988908029337191,1.52096865004292,FALSE,1.19918090376933
"CAN","cpi",0.3,1998,3,1997,NA,1,0.66546957516345,1.41445160440653,0.988908029337191,1.03996058978499,TRUE,0.748982029243084
"CAN","cpi",0.3,1998,3,1997,NA,1.5,0.949701775025496,3.49148970712708,0.988908029337191,2.22059574107629,TRUE,2.54178793210159
"CAN","cpi",0.3,1999,3,1999,NA,0,1.75420186512292,1.82862743369082,1.7107350135213,1.79141464940687,FALSE,0.198616573143974
"CAN","cpi",0.3,1999,3,1999,NA,0.5,0.43092976809665,1.17017497732575,1.7107350135213,0.800552372711202,FALSE,2.28370245550208
"CAN","cpi",0.3,1999,3,1998,NA,1,0.104902820295059,0.844148029524163,1.7107350135213,0.474525424909611,FALSE,3.21520802064949
"CAN","cpi",0.3,1999,3,1998,NA,1.5,0.926442339001746,3.46908760792077,1.7107350135213,2.19776497346126,TRUE,2.54264526891903
"CAN","cpi",0.3,2000,3,2000,NA,0,2.69652384796377,2.77125336453078,2.6718361971244,2.73388860624727,FALSE,0.145265661822351
"CAN","cpi",0.3,2000,3,2000,NA,0.5,1.72576315473256,2.50475348997219,2.6718361971244,2.11525832235237,FALSE,1.25636949853166
"CAN","cpi",0.3,2000,3,1999,NA,1,2.42488566116831,3.20387599640795,2.6718361971244,2.81438082878813,TRUE,0.778990335239635
"CAN","cpi",0.3,2000,3,1999,NA,1.5,-0.393184907523243,2.13801213682697,2.6718361971244,0.872413614651861,FALSE,4.05640864520002
"CAN","cpi",0.3,2001,3,2001,NA,0,2.70184336017265,2.76829095346,2.47906219852806,2.73506715681632,FALSE,0.702965197986171
"CAN","cpi",0.3,2001,3,2001,NA,0.5,1.33199597564749,2.11527501694738,2.47906219852806,1.72363549629744,FALSE,1.82267098867326
"CAN","cpi",0.3,2001,3,2000,NA,1,3.3483180932911,4.131597134591,2.47906219852806,3.73995761394105,FALSE,3.26686731205143
"CAN","cpi",0.3,2001,3,2000,NA,1.5,0.706400735492453,3.25959849445219,2.47906219852806,1.98299961497232,TRUE,2.55319775895973
"CAN","cpi",0.3,2002,3,2002,NA,0,2.31263481624409,2.38739320250372,2.20880570551249,2.3500140093739,FALSE,0.371412988349921
"CAN","cpi",0.3,2002,3,2002,NA,0.5,1.06736553773651,1.87412350957444,2.20880570551249,1.47074452365548,FALSE,1.76299281737521
"CAN","cpi",0.3,2002,3,2001,NA,1,0.392593745173925,1.19935171701186,2.20880570551249,0.79597273109289,FALSE,3.69091222469688
"CAN","cpi",0.3,2002,3,2001,NA,1.5,-0.458194129456715,2.11223234900619,2.20880570551249,0.827019109774735,FALSE,2.84635035419519
"CAN","cpi",0.3,2003,3,2003,NA,0,2.73333980440651,2.80399096193246,2.71189071546809,2.76866538316948,FALSE,0.131934268778573
"CAN","cpi",0.3,2003,3,2003,NA,0.5,4.35419113693714,4.838719222338,2.71189071546809,4.59645517963757,FALSE,5.17681500388386
"CAN","cpi",0.3,2003,3,2002,NA,1,3.98895473423616,4.68597585865869,2.71189071546809,4.33746529644743,FALSE,4.34577546375988
"CAN","cpi",0.3,2003,3,2002,NA,1.5,1.40547801587756,4.02389978967612,2.71189071546809,2.71468890277684,TRUE,2.61842177379856
"CAN","cpi",0.3,2004,3,2004,NA,0,1.73369301631155,1.80326086169264,1.83151661303942,1.7684769390021,FALSE,0.150298563514752
"CAN","cpi",0.3,2004,3,2004,NA,0.5,1.23062546788965,1.89440991167755,1.83151661303942,1.5625176897836,TRUE,0.663784443787904
"CAN","cpi",0.3,2004,3,2003,NA,1,1.03654484878336,1.79854308469322,1.83151661303942,1.41754396673829,FALSE,0.856208316899006
"CAN","cpi",0.3,2004,3,2003,NA,1.5,4.60572556880056,6.04730315739752,1.83151661303942,5.32651436309904,FALSE,9.36788889077164
"CAN","cpi",0.3,2005,3,2005,NA,0,2.34586700207138,2.41807215114435,2.18071628336509,2.38196957660787,FALSE,0.544064345376655
"CAN","cpi",0.3,2005,3,2005,NA,0.5,1.24689485968209,1.89818398697241,2.18071628336509,1.57253942332725,FALSE,1.45852425984084
"CAN","cpi",0.3,2005,3,2004,NA,1,0.609457965390687,1.37700794752926,2.18071628336509,0.993232956459974,FALSE,3.06385951309809
"CAN","cpi",0.3,2005,3,2004,NA,1.5,1.23599477768403,2.88379894448638,2.18071628336509,2.05989686108521,TRUE,1.64780416680234
"CAN","cpi",0.3,2006,3,2006,NA,0,2.02704531315501,2.10640543080679,1.97519342012289,2.0667253719809,FALSE,0.227508383457845
"CAN","cpi",0.3,2006,3,2006,NA,0.5,1.62099099927589,2.25459690615916,1.97519342012289,1.93779395271753,TRUE,0.633605906883264
"CAN","cpi",0.3,2006,3,2005,NA,1,3.11371358871081,3.84081397532488,1.97519342012289,3.47726378201784,FALSE,3.98001515400814
"CAN","cpi",0.3,2006,3,2005,NA,1.5,0.618183580654419,2.15519970713735,1.97519342012289,1.38669164389589,TRUE,1.53701612648293
"CAN","cpi",0.3,2007,3,2007,NA,0,2.0684608214729,2.14768598868664,2.10062087284572,2.10807340507977,TRUE,0.0792251672137469
"CAN","cpi",0.3,2007,3,2007,NA,0.5,2.11841456423235,2.71982937419762,2.10062087284572,2.41912196921498,FALSE,0.65225392821278
"CAN","cpi",0.3,2007,3,2006,NA,1,0.0895407250764051,0.915125445507208,2.10062087284572,0.502333085291807,FALSE,4.21271451282656
"CAN","cpi",0.3,2007,3,2006,NA,1.5,1.39359765214576,2.54725571022345,2.10062087284572,1.9704266811846,TRUE,1.15365805807768
"CAN","cpi",0.3,2008,3,2008,NA,0,2.91999279849798,2.98803722653807,2.31447335265955,2.95401501251803,FALSE,1.79809998757846
"CAN","cpi",0.3,2008,3,2008,NA,0.5,0.855654811937661,1.46366673881273,2.31447335265955,1.1596607753752,FALSE,3.03888796643742
"CAN","cpi",0.3,2008,3,2007,NA,1,-0.0771028116489907,0.807163172421337,2.31447335265955,0.365030180386173,FALSE,5.19086649903666
"CAN","cpi",0.3,2008,3,2007,NA,1.5,3.23415885297831,4.26524970858826,2.31447335265955,3.74970428078329,FALSE,3.65876371366355
"CAN","cpi",0.3,2009,3,2009,NA,0,0.206771015510032,0.347875105141323,0.284533874408197,0.277323060325678,TRUE,0.141104089631292
"CAN","cpi",0.3,2009,3,2009,NA,0.5,-1.24476242384627,-0.608921278151626,0.284533874408197,-0.926841850998946,FALSE,3.18857015300842
"CAN","cpi",0.3,2009,3,2008,NA,1,3.91220557765051,4.87113497203846,0.284533874408197,4.39167027484448,FALSE,11.323705689366
"CAN","cpi",0.3,2009,3,2008,NA,1.5,0.769913594998152,1.84444861841358,0.284533874408197,1.30718110670587,FALSE,2.46133422510102
"CAN","cpi",0.3,2010,3,2010,NA,0,1.67868445642325,1.81917750296901,1.75525687020327,1.74893097969613,TRUE,0.140493046545759
"CAN","cpi",0.3,2010,3,2010,NA,0.5,1.28341233456325,1.92687880663256,1.75525687020327,1.60514557059791,TRUE,0.643466472069316
"CAN","cpi",0.3,2010,3,2009,NA,1,0.0381808014033348,1.25557344141685,1.75525687020327,0.646877121410091,FALSE,2.6450595794033
"CAN","cpi",0.3,2010,3,2009,NA,1.5,-1.89976768836855,-0.682375048355038,1.75525687020327,-1.29107136836179,FALSE,8.18205526446583
"CAN","cpi",0.3,2011,3,2011,NA,0,2.76481351013479,2.90835499210278,2.85717434028225,2.83658425111878,TRUE,0.143541481967986
"CAN","cpi",0.3,2011,3,2011,NA,0.5,2.5797996071626,3.21053794688885,2.85717434028225,2.89516877702572,TRUE,0.630738339726248
"CAN","cpi",0.3,2011,3,2010,NA,1,1.53134146327742,2.85106172851092,2.85717434028225,2.19120159589417,FALSE,1.33718487029443
"CAN","cpi",0.3,2011,3,2010,NA,1.5,1.30375489412245,2.62347515935595,2.85717434028225,1.9636150267392,FALSE,1.98743221073721
"CAN","cpi",0.3,2012,3,2012,NA,0,1.38680093415282,1.53344520275649,1.50118536134935,1.46012306845465,TRUE,0.146644268603672
"CAN","cpi",0.3,2012,3,2012,NA,0.5,1.49752133391963,2.12885337385692,1.50118536134935,1.81318735388827,TRUE,0.631332039937282
"CAN","cpi",0.3,2012,3,2011,NA,1,0.417236610854049,1.71768413244375,1.50118536134935,1.0674603716489,TRUE,1.3004475215897
"CAN","cpi",0.3,2012,3,2011,NA,1.5,2.61469802355547,3.91514554514518,1.50118536134935,3.26492178435033,FALSE,4.48191227075007
"CAN","cpi",0.3,2013,3,2013,NA,0,0.966493977347014,1.11279863053597,0.931270594714462,1.03964630394149,FALSE,0.246942889281958
"CAN","cpi",0.3,2013,3,2013,NA,0.5,0.850764428349188,1.47969156616114,0.931270594714462,1.16522799725517,TRUE,0.628927137811955
"CAN","cpi",0.3,2013,3,2012,NA,1,-1.11543747706297,0.197863578452775,0.931270594714462,-0.4587869493051,FALSE,3.40874967340628
"CAN","cpi",0.3,2013,3,2012,NA,1.5,1.21353544316326,2.52683649867901,0.931270594714462,1.87018597092114,FALSE,2.11977205108376
"CAN","cpi",0.3,2014,3,2014,NA,0,1.91647941354537,2.06235431541718,1.87639912240215,1.98941686448128,FALSE,0.26039001942387
"CAN","cpi",0.3,2014,3,2014,NA,0.5,1.97717808791714,2.59351827303299,1.87639912240215,2.28534818047506,FALSE,0.904280086587244
"CAN","cpi",0.3,2014,3,2013,NA,1,0.289261508578949,1.57871500737385,1.87639912240215,0.933988257976399,FALSE,2.1399795417329
"CAN","cpi",0.3,2014,3,2013,NA,1.5,1.09960147288936,2.38905497168426,1.87639912240215,1.74432822228681,TRUE,1.2894534987949
"CAN","cpi",0.3,2015,3,2015,NA,0,1.18880096234343,1.33456045115917,1.11090953952792,1.2616807067513,FALSE,0.36830641114578
"CAN","cpi",0.3,2015,3,2015,NA,0.5,0.00792205074787328,0.42880413951727,1.11090953952792,0.218363095132572,FALSE,2.36975466022839
"CAN","cpi",0.3,2015,3,2014,NA,1,-0.00627479286316324,1.25283429932202,1.11090953952792,0.62327975322943,TRUE,1.25910909218519
"CAN","cpi",0.3,2015,3,2014,NA,1.5,2.91889078519894,4.17799987738412,1.11090953952792,3.54844533129153,FALSE,6.42476979410238
"CAN","cpi",0.3,2016,3,2016,NA,0,1.37351950614975,1.51454147889604,1.41168586698797,1.44403049252289,TRUE,0.141021972746294
"CAN","cpi",0.3,2016,3,2016,NA,0.5,0.719332935378214,1.16806878630793,1.41168586698797,0.943700860843074,FALSE,1.14478465287267
"CAN","cpi",0.3,2016,3,2015,NA,1,1.0609035033529,2.25521325565219,1.41168586698797,1.65805837950254,TRUE,1.19430975229929
"CAN","cpi",0.3,2016,3,2015,NA,1.5,-0.3844016713352,0.809908080964092,1.41168586698797,0.212753204814446,FALSE,2.91367485522465
"CAN","cpi",0.3,2017,3,2017,NA,0,1.45160486631196,1.59184581484141,1.57888581671161,1.52172534057668,TRUE,0.140240948529445
"CAN","cpi",0.3,2017,3,2017,NA,0.5,1.95809219986406,2.40182282300281,1.57888581671161,2.17995751143343,FALSE,1.52717743214574
"CAN","cpi",0.3,2017,3,2016,NA,1,-0.127075399820855,1.08439571259361,1.57888581671161,0.478660156386378,FALSE,2.62429998132304
"CAN","cpi",0.3,2017,3,2016,NA,1.5,0.44207023568928,1.65354134810375,1.57888581671161,1.04780579189651,TRUE,1.21147111241447
"CAN","cpi",0.3,2018,3,2018,NA,0,2.35388533139207,2.49825194536889,2.23316270166586,2.42606863838048,FALSE,0.48928841319457
"CAN","cpi",0.3,2018,3,2018,NA,0.5,2.78088657212259,3.26113590896751,2.23316270166586,3.02101124054505,FALSE,2.045174681007
"CAN","cpi",0.3,2018,3,2017,NA,1,-0.0654615709277612,1.1128576256049,2.23316270166586,0.52369802733857,FALSE,4.37919084242111
"CAN","cpi",0.3,2018,3,2017,NA,1.5,2.49492224495495,3.67324144148761,2.23316270166586,3.08408184322128,FALSE,1.92620360593006
"CAN","cpi",0.3,2019,3,2019,NA,0,1.95045658800907,2.09539011491465,1.91921619871868,2.02292335146186,FALSE,0.234191782020975
"CAN","cpi",0.3,2019,3,2019,NA,0.5,1.5023631266545,2.0187383612025,1.91921619871868,1.7605507439285,TRUE,0.516375234548001
"CAN","cpi",0.3,2019,3,2018,NA,1,1.37887727779312,2.56385656880057,1.91921619871868,1.97136692329685,TRUE,1.18497929100745
"CAN","cpi",0.3,2019,3,2018,NA,1.5,3.53752523367021,4.72250452467766,1.91921619871868,4.13001487917394,FALSE,5.80871939086897
"CAN","cpi",0.3,2020,3,2020,NA,0,0.716993747973413,0.779481958563358,0.71139989671781,0.748237853268385,FALSE,0.0784706427488085
"CAN","cpi",0.3,2020,3,2020,NA,0.5,0.97958206354302,1.43317963428536,0.71139989671781,1.20638084891419,FALSE,1.21983233310008
"CAN","cpi",0.3,2020,3,2019,NA,1,0.756388540974322,1.91613076779403,0.71139989671781,1.33625965438418,FALSE,1.28828121040974
"CAN","cpi",0.3,2020,3,2019,NA,1.5,1.8707837538366,3.08576835406595,0.71139989671781,2.47827605395127,FALSE,4.52750990628303
"CAN","cpi",0.3,2021,3,2021,NA,0,3.33024240636615,3.39123237580819,3.31148121717802,3.36073739108717,FALSE,0.114593367122398
"CAN","cpi",0.3,2021,3,2021,NA,0.5,2.69496065967496,3.06077132596568,3.31148121717802,2.87786599282032,FALSE,1.08212464118312
"CAN","cpi",0.3,2021,3,2020,NA,1,1.54180536327828,2.0695467513172,3.31148121717802,1.80567605729774,FALSE,4.07612557621271
"CAN","cpi",0.3,2021,3,2020,NA,1.5,0.738541307462353,1.98776115118721,3.31148121717802,1.36315122932478,FALSE,5.03127717512718
"CAN","cpi",0.3,2022,3,2022,NA,0,6.55184092217926,6.6109939333554,6.50977236228281,6.58141742776733,FALSE,0.179348896594559
"CAN","cpi",0.3,2022,3,2022,NA,0.5,6.55207365495066,6.93380402058108,6.50977236228281,6.74293883776587,FALSE,0.502591201824282
"CAN","cpi",0.3,2022,3,2021,NA,1,4.54867062741275,5.10261367251867,6.50977236228281,4.82564214996571,FALSE,4.57439644443203
"CAN","cpi",0.3,2022,3,2021,NA,1.5,3.38492510358135,4.4865761827229,6.50977236228281,3.93575064315212,FALSE,6.88221159216987
"CAN","cpi",0.3,2023,3,2023,NA,0,3.98666537774877,4.04240033457416,3.78831288758619,4.01453285616146,FALSE,0.6224563572899
"CAN","cpi",0.3,2023,3,2023,NA,0.5,2.88743046189849,3.27033797288641,3.78831288758619,3.07888421739245,FALSE,1.86283583870157
"CAN","cpi",0.3,2023,3,2022,NA,1,3.55762123607239,4.15584437532175,3.78831288758619,3.85673280569707,TRUE,0.598223139249365
"CAN","cpi",0.3,2023,3,2022,NA,1.5,7.44022451332058,8.70562115560448,3.78831288758619,8.07292283446253,FALSE,11.6994298586679
"CAN","cpi",0.3,2024,3,2023,NA,1,3.76368346239685,4.38641161753321,NA,4.07504753996503,NA,NA
"CAN","cpi",0.3,2024,3,2023,NA,1.5,1.65625666344255,3.17432430295122,NA,2.41529048319689,NA,NA
"CAN","cpi",0.4,1959,3,1959,NA,0,1.16528903134465,1.33453529728121,1.19382698397654,1.24991216431293,TRUE,0.169246265936563
"CAN","cpi",0.4,1959,3,1959,NA,0.5,-0.245190961473108,1.12087042465376,1.19382698397654,0.437839731590327,FALSE,1.6092499172028
"CAN","cpi",0.4,1959,3,1958,NA,1,0.258193096841398,3.25906216087753,1.19382698397654,1.75862762885946,TRUE,3.00086906403613
"CAN","cpi",0.4,1959,3,1958,NA,1.5,-1.68654703189413,5.23469048616944,1.19382698397654,1.77407172713766,TRUE,6.92123751806356
"CAN","cpi",0.4,1960,3,1960,NA,0,0.948555986160806,1.09867009902874,1.34209404870695,1.02361304259477,FALSE,0.961527278461977
"CAN","cpi",0.4,1960,3,1960,NA,0.5,-0.0165851659874656,1.09455212635079,1.34209404870695,0.53898348018166,FALSE,1.93627703352547
"CAN","cpi",0.4,1960,3,1959,NA,1,2.48346123077265,5.4317262430162,1.34209404870695,3.95759373689442,FALSE,6.75282228579587
"CAN","cpi",0.4,1960,3,1959,NA,1.5,-3.93586339431211,2.18890976350234,1.34209404870695,-0.873476815404885,TRUE,6.12477315781445
"CAN","cpi",0.4,1961,3,1961,NA,0,0.918445295553749,1.09998166632639,1.00921348094007,1.00921348094007,TRUE,0.181536370772645
"CAN","cpi",0.4,1961,3,1961,NA,0.5,0.457202560999139,1.561224400881,1.00921348094007,1.00921348094007,TRUE,1.10402183988187
"CAN","cpi",0.4,1961,3,1960,NA,1,-1.2090507871196,1.31659171232667,1.00921348094007,0.0537704626035329,TRUE,2.52564249944626
"CAN","cpi",0.4,1961,3,1960,NA,1.5,-3.25217938695846,1.52781578907839,1.00921348094007,-0.862181798940035,TRUE,4.77999517603685
"CAN","cpi",0.4,1962,3,1962,NA,0,1.02131631077276,1.1833317438568,1.04957947883042,1.10232402731478,TRUE,0.162015433084044
